/* XPM */
static char *out[] = {
/* columns rows colors chars-per-pixel */
"256 256 256 2 ",
"   c #040301",
".  c #090603",
"X  c #060905",
"o  c #0C0A05",
"O  c #0C0D0A",
"+  c #130C05",
"@  c #1A0D05",
"#  c #130E09",
"$  c #190D08",
"%  c #091208",
"&  c #0C140B",
"*  c #0E190D",
"=  c #1C1106",
"-  c #14120C",
";  c #1C130C",
":  c #13180B",
">  c #1D190D",
",  c #0B0F11",
"<  c #0D1314",
"1  c #0E1915",
"2  c #141512",
"3  c #1A1611",
"4  c #141B12",
"5  c #1C1A14",
"6  c #111619",
"7  c #141B1C",
"8  c #1D1D1A",
"9  c #210E07",
"0  c #241306",
"q  c #2C1906",
"w  c #23150B",
"e  c #2A1608",
"r  c #23190E",
"t  c #2C1B0C",
"y  c #321E0B",
"u  c #351C08",
"i  c #231612",
"p  c #241C13",
"a  c #2A1E14",
"s  c #241D19",
"d  c #291D19",
"f  c #321E12",
"g  c #14210E",
"h  c #1A2417",
"j  c #34220D",
"k  c #3A240D",
"l  c #3B280C",
"z  c #2B2116",
"x  c #292914",
"c  c #272618",
"v  c #24221C",
"b  c #2C241A",
"n  c #342313",
"m  c #3A2513",
"M  c #3C2A14",
"N  c #32261B",
"B  c #34291D",
"V  c #382818",
"C  c #3B2C1C",
"Z  c #3B311E",
"A  c #171F21",
"S  c #1B2323",
"D  c #1C2627",
"F  c #282823",
"G  c #2C2A24",
"H  c #232C2C",
"J  c #352B22",
"K  c #3A2E23",
"L  c #322E29",
"P  c #293527",
"I  c #3D3124",
"U  c #34322C",
"Y  c #3D332A",
"T  c #393528",
"R  c #262F30",
"E  c #2B3534",
"W  c #383935",
"Q  c #462815",
"!  c #432C15",
"~  c #482C12",
"^  c #432D1A",
"/  c #4A2D1B",
"(  c #4A3316",
")  c #45321B",
"_  c #49351A",
"`  c #4B341C",
"'  c #52351C",
"]  c #533A1D",
"[  c #583B1C",
"{  c #613A1C",
"}  c #432E21",
"|  c #542E20",
" . c #423425",
".. c #4B3522",
"X. c #453926",
"o. c #4C3A24",
"O. c #43362A",
"+. c #49372A",
"@. c #45392C",
"#. c #4B3B2D",
"$. c #523524",
"%. c #533C23",
"&. c #5A3B26",
"*. c #523D2B",
"=. c #453B32",
"-. c #4C3E32",
";. c #423E3A",
":. c #513E31",
">. c #5C3E31",
",. c #623E2B",
"<. c #623F30",
"1. c #374434",
"2. c #5A401E",
"3. c #4D422D",
"4. c #5C4224",
"5. c #54422C",
"6. c #594628",
"7. c #5B442B",
"8. c #4E4134",
"9. c #474439",
"0. c #4D433A",
"q. c #534334",
"w. c #5A4634",
"e. c #554934",
"r. c #5C4B34",
"t. c #544639",
"y. c #594739",
"u. c #56493B",
"i. c #5C4B3C",
"p. c #4B5535",
"a. c #5D5239",
"s. c #624525",
"d. c #624821",
"f. c #654729",
"g. c #644B2C",
"h. c #6B4D2C",
"j. c #724D2D",
"k. c #6B522D",
"l. c #74542D",
"z. c #634C33",
"x. c #694A33",
"c. c #614E3D",
"v. c #645235",
"b. c #6C5334",
"n. c #64523B",
"m. c #6B543B",
"M. c #6B5A3B",
"N. c #735533",
"B. c #785A35",
"V. c #72563A",
"C. c #745B3C",
"Z. c #7B5D3B",
"A. c #6B613B",
"S. c #7B623C",
"D. c #3A4544",
"F. c #554C42",
"G. c #5D4E41",
"H. c #49524E",
"J. c #5E5143",
"K. c #5C5449",
"L. c #614F41",
"P. c #645344",
"I. c #695645",
"U. c #6C5A44",
"Y. c #655649",
"T. c #695749",
"R. c #65594A",
"E. c #6C5B4B",
"W. c #735C44",
"Q. c #795D43",
"!. c #725E4C",
"~. c #6C5D51",
"^. c #715F50",
"/. c #576357",
"(. c #7C6344",
"). c #786647",
"_. c #74614D",
"`. c #7B644C",
"'. c #6D6154",
"]. c #746353",
"[. c #7A6653",
"{. c #726A50",
"}. c #7D6955",
"|. c #776758",
" X c #7C6B5A",
".X c #5B6763",
"XX c #71736A",
"oX c #835C3A",
"OX c #84653C",
"+X c #91663F",
"@X c #895F45",
"#X c #836543",
"$X c #886A47",
"%X c #836B4C",
"&X c #936C49",
"*X c #8A7249",
"=X c #8C734C",
"-X c #95754B",
";X c #826C54",
":X c #896E52",
">X c #826E5B",
",X c #986D52",
"<X c #8C7254",
"1X c #887457",
"2X c #85715D",
"3X c #8A745D",
"4X c #937553",
"5X c #947A54",
"6X c #9C7C54",
"7X c #977B5A",
"8X c #A3764F",
"9X c #A57B57",
"0X c #857362",
"qX c #857264",
"wX c #8A7662",
"eX c #8C7964",
"rX c #887868",
"tX c #8D7B6A",
"yX c #927D67",
"uX c #74837C",
"iX c #9F804E",
"pX c #9B825A",
"aX c #A6855A",
"sX c #B08A59",
"dX c #9B8567",
"fX c #95826C",
"gX c #92846E",
"hX c #998773",
"jX c #A58965",
"kX c #AB8B64",
"lX c #B68C66",
"zX c #AB936A",
"xX c #B7956A",
"cX c #A28D76",
"vX c #A99576",
"bX c #B79B75",
"nX c #BCA06F",
"mX c #BBA379",
"MX c #C7966B",
"NX c #C69C74",
"BX c #C7A57A",
"VX c #D2A87C",
"CX c #AC9983",
"ZX c #BBA785",
"AX c #C8AA83",
"SX c #D4AB83",
"DX c #CAB489",
"FX c #D6B589",
"GX c #C8B796",
"HX c #D4BC94",
"JX c #E0BA91",
"KX c #DBC18C",
"LX c #D9C499",
"PX c #E6C799",
"IX c #D9CAA8",
"UX c #E9D3A9",
/* pixels */
";X_.`.!.T.c.:.C L._.^.^.^.T.G.G.~.^.[.rX>X!.i.r.`.eX;X_.}.{.U._.wXt.K F.G.y.L.i.c.L.!.P.T.I. XrXc.w.[.1X>X;X[.>X`.!.W._.U.W.I.I.n.I.U._._.U.[._.J.Y J b T O.+.y.P.P.i.I._. X!.P.P.L.i.i.u.i.Y.T.P.Y.L.T.!.E.}.0X[.[.E.E.>X0XwXyXeXR.c . o v T R.rXCXZXrX[.P.w.c.c.*.#.O.t K u.i.q.0.:.-.O.=.u.L.E.P.G.:.#.T.!.T.P.T.I.:.u.P.} i O.-.-.-.-.-.8.i.#.X.8._.|.y.} T.!.P.I.P._.G.y.i.L.c.>.G.F.y.y.y.y.i.L.L.y.-.d $ > i d J Y @.O.#.q.G.P.i.u.8.-.-.-.=.:.-.:.-.y.t.y.y.i.E.E.L.P.L.*.L.E.^.>X]. .-     - J Y.qXCXhX'.G.q.+.@.#.I J ",
"_.W.}.[.U.i.P.L.E.E.~.Y.L.+.=.-.y.y.G.}.}.E.r.!.3X X`._. X}._.[.qXE.O.-.O.*.i.P.T.E.^.E.T.I.}.qXL.I.[.;X`.U.!.`.C.I.U.2X}.E.U.I.U.U.U.E.!._.{.E.u.=.z J 8.J.i.c.i.I.E._.[.U.P.i.i.i.Y.T.q.t.u.Y.Y.P.P.I.]. X0X}._.[.E.E.I.I.}.eX3XR.p   o h U R. XhXhX|.T.c.y.c.L.#.O.-.=.t.t.q.q.@.J F G Y O.-.L.P.y. .y.E.L.L.P.T.T.i.L.~.t.a J K O.#.-.y.t.i.q.y.0.P.P.y.*.P.I.L.i.i.i.i.i.i.E.T.>.t.y.y.y.y.i.L.P.P.t.#.K 3 p K -.-.O.I #.i.P.L.t.-.-.#.-.t.t.O.-.O.-.q.-.*.:.L.E.E.Y.L.L.i.y.q.q.P.>X|.-.;     & b G. XtXrXT.t.+.+.q.u.I b ",
"}.;X>X`.U.i.Y.E.P.Y.Y.L.t.} O.=.O.@.-.L.!.E.r.2XfX_.I.[. X1X2X X].E.K -.-.>.:.i.^.I.!.T.!.I.!.^.^.^.^.!.U.W.W.!._._.`.0X2X_._.U.E.U.!._.!. X2XP.G.O.b 0.R. X}.P.5.E.`.|.>XU.i.i.y.c.~.E.-.-.t.>.T.L.P.P.}.tXeX X[.].E.P.P.n.!.wXwXR.z . X 8 J R.>XhXyX>XI.y.I.U.P.y.O.-.0.0.-.-.0.Y d s d a N } q.:.:.#.^.[.i.n.!.!.E.E.L.T.t.a N J Y K #.y.y.u.i.u.q.i.i.i.i.c.P.u.i.w.i.L.c.L.~.T.y.y.y.y.w.y.L.L.T.T.:.-.K p O.G.~.~.u.K q.i.Y.T.y.-.@.@.-.F.G.K O. .#.t.:.#.y.P.^.E.L.T.L.w.i.y.*.c.].~.-.;     O b ;.|.hXqXR.y.#.y.u.t.@.B ",
"}.2X3X}.!.L.:.t.q.:.G.Y.G.F.F.t.t.L.!.}.3X3X[.E.E.a._.}. X3X3X}.!.P.q.q.-.y.i.I.T.T.T.!.T.L.E.^.wXrXW.W.!._.W.`.}.}.[.`. X2X[.E._._.[.[._.eXeXR.G.O.G E.fX}.}.[.[.2X[. X>X].P.i.:.y.P.F.@.O.F.G.T.P.i.I.E.U. XwX X}.E.U.I.E.U.eXwXJ.z . . 8 L F.>XcXyXL.:.c.I.!.I.y.J K Y Y O.-.-.=.Y Y O.O.-.y.T.I.T.I.P.L.#.i.E.E.]. XT.c.-.K K K O.=.-.t.y.w.w.-.5.i.P.^.!.i.i.n.i.y.i.T.E.P.L.L.~.T.y.y.w.G.L.L.].^.y.@.N i t.|.Y.J.Y.J.E.J.P.E.G.-.O. .-.8.:.K K -.-.>.:.:.y.y.y.T.~.P.P.G.i.t.o.i.^.E.O.-     O v F.'.CX Xt. .o.u.i.t.-.J ",
";X}.1X;X!.T.t.@.+.:.y.P.F.L.Y.0.*.E.>X0XyXyX3XL.c.P.|.2X}.wX>X>X}.!.n.i.F.P.T.T.T.E.T.T.I.L.T.!.yXyXU.c.!.[.!.I.}.eX[._.2XhXeX{.^.!. X}.[.yXrXG.F.J K  XhX}.`.rXyXwX[.^.}.^.T.i. .w.E.G.-.@.K.P.P.L.Y.E.E.i. XeXrX X].P.T.U.U.yXfXR.b . O 5 U u.>XcXqXw.w.L.!.P.G.w.O.K b N K O.O.O.-.q.O.K L.T.!.;X[.^.>.#.*.i.P.P.].].E.i.q.-.I O.@.-.q.q.t.u.w.q.y.w.G.qXwXy.y.i.c.y.q.E.^.L.i.E.>XE.y.>.G.E.L.E.>X^.-.O.p a R.0XT.P.~. X|.L.L.T.i.t.+.J =.q.-.J J u.G.:.t.y.i.i.-.L.^.^.E.L.i.q.*.c.[.|.8.;     o p q.|.hX|.#. .3.i.q.q.u.K ",
"}.`.;X>X!.i.u.-.G.^.^.E.L.T.~.L.I.qXwX3XyXwX3X;X[.P._.].n.!._.>XrX XP.E.T.!.T.T.T.T.T.T.T.!.L.i.rXtX X`.[.;X!.I.}.fX}.[.2X2X3X0X>X>XwX2X>XtX^.y.#.Y w.0XfXeX0X{.^.!.^.!.^.^.U.L.i.u.~.G.#.8.R.E.!.]. X X}.[.2XtX3X2X X_.!.[.;X>X2XE.b X X 8 K F.tXhX;Xy.y.y.L.w.L.y.#.O.K -.q.q.-.-.u.u.:.>.!.^.U.[.Q.E.n.i.q.y.i.y.i.c.^.].P.G.t.q.q.-.0.q.w.w.t.t.y.-.#.].[.P.c.L.L.c.5.P.].E.P.Y.~.E.E.Y.T.~.L.T.>XL.} K a K ].0X].!.P.L.G.G.i.c.i.t.-.O.-.u.:.K } y.G.G.P.T.E.L.T.E.^.[.^.T.i.i.Y.P.].].8.-     O s K. XhX].#.X.3.q.#.:.=.J ",
"}.}.[._.I.i.u.:.^.qX^.P.L.E.T.L.!.qXwX>X:X>X3XwX0X].E.i.u.P.c.0XCXfX!.`.}.[.U.I.T.!.E.P.T.E.+.q.}.}.tX0X>X X!.n.`.3X2X3X1X}. XeXyXhXtX>X}. XE.+.V y.P.0XgXeXtX[.^.!.E.I.T.^.E.T.E.n.R.i.#.8.P.E.qX2XwXfXtXgXhXyXtXrX3X X XyX>X2XwXi.r     3 T ].cXyXE.x.y.y.c.c.P.*.#.X.K q.~.Y.:.-.G.y.t.c.^.^.I.E.I.W.E.!.y.q.O.X.+.#. XtX XT.G.J.P.q.-.y.q.w.q.y.t.C  .U.I.].U.P.E.L.+.L.E.^.E.T.L.~.~.|. X[.T.E.^.L.V a +.q.^. X].].L.L.i.y.y.i.u.i.y.y.:.:.t.K } y.y.E.].qX>X^.>XqX[.^.[.^.P.E. XP.E.E.@.-     O G '.qXrXP.#.+.#.8.q.-.K J ",
"`._.`.}.}.[.P.i.T.].^.^.^.^.^.^.^.!.!.;X^.;XwX>X X}.].I.a.P.i.!.yXeX0X>X}.^.>X[.c.L.!.^.P.y.G.E.[. X2X>X_.[.U.U.!.`._.!._.2X X!.^.>XqXrX>X X|.L.+.Y.].[.]._.|.[.!.T.E.T.!.^.!.!.E.E.Y.P.a.i.i.P.[.[.[.}.].}.>XE. X2X>X X0XfXyX3XwXY.p . X 8 U rXCXwXm.c.i.y.w.y.i.y.i.y. .y.T.G.i.y.L.L.G.L.P.L.y.L.I.!.U.!.P.i.:.+.#.:.~.0X].E.E.E.J.^.G.y.-.i.t.#.O.+.t.E.I.I.I.P.I.c.y.P.P.L.L.L.E.T.y.Y.T.!.^.^.E.T.>.K y.Y.E.P.L.L.P.L.i.L.c.i.i.i.t.w.y.-.-.+.@.#.*.T.E.L.T.L.L.P.G.Y.|.^.E.^.0X X|.E.@.-     X b |.tX Xq.+.#.@.#.y.G.#.-.",
"!.[.>X3XfXyXI.*.>.T.^.>X^.;X^.^.~.T.I.W.^.>X3X3X0X>X[.P.i.#...c.[.2XfX2X[.>XcXhXU.I. XwXc.*.[.}.[.}.}.}.{.E._.].U.U.P.m.[.yX0XU.I.I._.yX0X X].^.E._._._._._.!.!.!.E.E.!.!.^.E.!.E.E.E.I.P.L.q.i.2XeX_.I.T.U.P.I._.]. X].2XhXhXyXtXE.z . X 3 U rXcX>XW.!.E.y.y.I.!.].!.q.^ +.:.i.L.c.L.P.L.L.w.i.L.c.I.!.^.[.T.P.-.} } } -.L.T.[.^.!.P.tX0Xq.w.L.L.:.} L.T.P.c.T.I.P.c.i.c.c.w.>.q.G.|.^.q.q.q.i. X].P.P.P.i.G.P.P.P.n.i.P.L.i.i.i.i.i.i.w.>.t.q.q.-.#. . .E.].i.w.t.t.y.8.i.U.E.P.~.tXrX].|.t.;     O b  XtX!.:.w.u.#.8.q.i.u.Y.",
"`.`.;X;X}.`.i.P.T.~.>X;X;X^.^.^.L.w.L.E.^.;X^.;X[.;X`.I.!.E.!.].}.0XfX3X X1XhX3X`.[.|.}.z.I.}.>X>X}.|.`.}.U._._.U._.W._.[.3X>X!.I.P.!.hXtXqX>X]._._.!.U._.E._._.!.E.E.!.!.!.E.T.I.E.L.L.a.i.w.i.E.].E.P.P.P.i.P.P.R.].'.0XhXyXwX2Xi.p X X 8 T rXhX:X!.I.I.i.i.T.!.Y.P.#.q.y.q.P.P.P.P.P.Y.i.-.:.z.L.I.E.!.U.P.I.q.:.I.L.L.L.!.}.T.!.!.qX|.i.i.P.L.:.:.L.E.T.I.T.T.c.w.c.c.i.i.G.L.L.E.L.w.t.:.i. X XE.E.P.P.P.i.i.L.i.c.L.G.c.G.L.c.i.i.y.F.t.q.-.-.-. .#.i.R.i.>.0.:.#.w.i.G.Y.L.!.0X X'.J.U -     o G  XrX^.u.q.-.#.8.i.u.u.t.",
"[.;X;XU.!.n.I.[.^.!.@X^.^.;X^.>XI.c.U.!.;X;X^.;X[.;X;X[.3XfXhXdX>X;XyX3X3XeXyX3X2X;XU.W.!.^.;X^.).`._.E._._.[._.U.W._.;X[.[._.U.I.c.^.gXhXfXyX[.!.U._._._.E.E.!.E.!.E.E.!.^.^.E.T.T...+.i.q.P.P.P.P.E.E.P.T.c.L.P.R.E.].2XtXfX2Xi.B ; . . s T  XhXeX>XU.i.i.y.i.w.q.:.q.P.c.y.I.P.P.P.I.L.w.} w.G.L.I.L.c.L.P.E.P.!.wXyX3XI.I.}.[.!.|.}.^.E.E.i.L.L.c.I.c.L.I.y.c.L.L.L.c.y.c.L.I.Y.L.G.q.q.>.Y.tX0X X XI.c.L.L.i.P.i.c.c.L.i.i.i.i.L.c.t.t.u.N B =.O.O.:.q.-.q.u.q.q.q.q.i.i.P.Y.]. X X|.-.; +     O b |.rX XL.q.#.@.+.>.#.#.+.",
"[.U.!.P.U.U.!.;X;X^.^.>X;X^.;X^.c.!.[.`.^.;X%X^.[.>X[.3XeX2X2XhXyX2X>X>XwX}.[.[.2X1X>XwXyX3X;X;X X`.`.E._._._.[.!.M.[.>X`._._._.^.E.!.wXeX2X0X[._._._.U.!.E.]._.!.!.[.^.^.^.^.^.T.P.:.t.+.I P.T._.I.P.I.P.G.t.:.i.E.E._. XyX2X_.o.r ; . X s Y  XhX3X[.n.P.w.y.i.q.q.q.i.P.L.c.L.I.Y.I.P.c.:.c.I.L.I.P.L.L.I.P.P.E.!.;XwX3X^.[.!.T.!.T.L.w.P.E.T.^.!.E.T.c.I.U.c.c.L.i.T.P.y.y.L.I.I.L.L.c.u.t.L.|.~.E.E.T.P.L.i.n.i.P.G.L.i.L.P.L.L.L.G.i.>.q.J K K N :.u.G.t.q.t.t.8.@.+.-.u.G.P.E.].].a.J @ o     # G ^.XX^.F.q.8.@.X.=. . .O.",
"!.x.P.I.^.;X;X!.^.!.;X^.;X|.|.L.U.fXyX[.[.[.;X!.!.`.`.3XyXW.c.>XfXfX].P.].u.8.c.}.yXhXvXvXcX3X;X>X}.}.`.U.U.}. X!.U.}.0X2X>X3XwX0XrX X[.]._._.`._._._.U.U.].].!.I.!.wXtXtXrXtX|.E.T.w.@.C O.P.~.rX0XE.R.P.w.8.O.>.T.T.E. XwX2XE.} i -   O s W  XyX>X!.c.L.y.:.q.#.i.P.P.P.n.n.L.P.P.L.I.w.i.^.^.P.L.L.L.P.P.i.c.^.}.c.w.^.>X^.c.>.F.#. .:.P.^.>XwXyX3XQ.U.E.T.P.L.i.w.L.Y.y.w.L.^.T.E.E.[.E.P.E.i.P.P.L.T.T.L.c.c.i.i.L.P.t.Y.[.[.^.!.[.P.-.q.K B r N -.J.].'.y.8.-. .@.J -.u.u.J.P.~.R.-.b + O     O b ~.qXT.G.:.-.@.O.} O.+.q.",
"U.I.U.!.;X;X[.[.%X!.;X;X^.@X!.W.[.3X0X!.!.!.!.!.!.;X>X}.>XU.P.`.0X Xa.i.i.y.w.E.3XfXjXvXvXcX;X!.[.>X[.`._._.}.].E.U.`.1X>X2X2X[.].[.].!.]._.E. X}._.U.U.].E.P.t.-.P.Y.~. X X|.E.E.E.c.-.=.t.u.u.|.|.P.E.c.-.@.K q.i.i.Y.E.0X].#.r ; +   O v T qXtX^.n.c.E.G.+.y.L.c.P.P.P.P.L.P.P.I.I.I.>.c.!.^.L.c.L.c.c.P.U.!.!.!.n.y.E.[.I.*.+.#. .} >.E.;X,XyXwX;XI.L.P.T.I.c.c.c.L.c.y.c.T.^.^.T.Y.E.P.P.F.u.P.L.i.E.E.L.L.i.L.u.y.-.@.t.i.G.G.G.L.t.u.q.O.K J O.=.@.K.~.F.t.-.Y I J 8.8.q.i.P._.J.B > + #     - F ~. XL.:.q.q. .} @.+.-.:.",
"W.I.!.;X;X[.;X!.^.%X%X^.;X^.%X^.}.}._.!.U.w.:.[.>XeXdX3X;X[.].!._.U.q.8.#.t.P.!.eXcXjXcXcXyXm.E.!.>X>X;X X{.E.a._.3X3X1X3X>XtX}.I.P.E._.E._.E.fXhX_.U._.^.:.} O.8.8.N :.].F.+.y.P.~.P.G.P.G.I B t.~.'.P.t.} K O.q.u.G.L.L.|.P.p @ > -   & v Y  XwXm.w.T.[.w.:.c.P.P.P.P.P.P.L.L.L.L.P.I.L.L.L.I.G.q.+.} P.^.[.}.[.I.P.P.c.c.y. . .K O.:.G.^.>X3X3X3X>X>.>.y.U.T.I.L.c.w.:.P.].|.^.^.!.^.P.u.G.t.i.L.L.i. XrXP.i.n.G.O.d K O.O.a O.y.:.K :.t.u.+.@.=.=.d z @.0.G.F.Y B b B 8.#.q.w.w.G.8.; @ - + . X 4 J  X Xt.o.u.G. . .+.-.q.q.",
"W.%X!.;X;X!.;X;X^.;X;X^.;X^.%X;X}.}.].W.P.P.P.[.;X3XeX3X>X>X>X`._.].E.P.q.u.T.E. XeXyXyXyXyXE.^.;X[.>X}.2X}._.P._.2X>X}.3X0X2XE.i.L.a.E.E.E.U.}.fXi.i.'.~.q.:.G.t.O.K G.^.y.*.w.E.].E.T.'.P.8.-.8.F.P.G.#.K :.@.q.G.E.E.T.].R.z > i ; o 5 G Y tX0XL.z.^.[.L.i.c.P.L.P.I.P.P.P.P.I.T.L.P.Y.I.I.L.w.q.>.>.P.!.!.!.!.!._.!.P.G.w.i.w.O.-.w.L.T.^.^.;X;X~.:.i.L.I.U.L.E.L.c.w.L.^.^.!.^.E.Y.-.-.-.-.u.L.i.i.~. Xi.-.i.i.} K #.-.J N -.F.+.#.+.t.L.-.8.u.q.K B Y 8.0.0.K b J B @.-.u.i.u.P.8.w + - o X O 3 U  X|.y.#.G.y.+.+.#.-.q.q.",
"2XyX;X;X^.;X;X`.`.[.}.}.[.}.;X}.;X}.[.!.!.[.;X X;X^.;X3X3XyX0X[.[.;X}.T.i.i.E.E.I.E.wXwXE.L.!.^.}.:X;X!.>X3X XE.T.!.!.`.[.[.P.#.#.+.:.E.^.E.I.E.E.>.t.P.P.G.t.E.Y.u.-.w.G.i.i.L.^.].E.!. X|.|.G.-.I O.#.O.-.t.O.u.i.^.|.|.>X'.b p c 5 # 8 U 9.tXwX!.I.L.c.I.|.L.L.L.L.I.I.I.I.I.I.U.P.P.P.I.E.T.G.i.L.P.I.P.I.I.!.W._.!.U.P.i.E.P.O.O.u.y.y.y.U.!.:.#.y.L.I.E.P.c.^.E.P.i.q.L.L.L.T.L.-.O.B b N u.L.G.y.y.y.#.+.:.G.=.O.=.F.#.K -.-.#.:.:.t.L.t.P.T.P.u.8.O.K B T L L K N @.-.i.P.i.'.i.r - - o   2 8 T XXqXP.y.q.+.w.Y.#.q.q.3.",
"yX3X!.Q.!.:X[.`.`.`.`.}.`.}.[.[.}.[.!.!.!.[.[.].!.;X;X|.qX2X>X>X[.!.].P.>.c.T.E.E.^.>X^.I.P.^.E.!.!.^.[.}. X}.[.I.U.E.].!.L.t.+.O.O.L.^.^.T.T.T.L.z.:.y.L.L.G.L.^.G.y.t.y.G.w.P.L.E.].].>X^.^.Y.q.#.-.-.-.O.8.-.q.Y.|.qX|. X'.b i p 5 - v G W tXhX3X!.m.i.[.^.c.L.L.I.P.I.L.I.I.I.P.I.I.P.P.P.P.i.L.P.L.L.c.U.!.!.I.U.E.E.I.i.P.i. .-.y.y.:.i.I.L.*.*.i.c.P.P.L.c.T.E.I.c.y.i.G.G.u.q.O.I K N @.u.J.i.y.y.q.O.O.#.:.-.-.#.:.@.O.-.-.:.#.:.Y.L.i.L.P.Y.t.8.O.Y J K K N K Y =.q.G.E.P.R.u.r + $ o . 2 F O. X X].T.y.o.i.J.#.q.y.y.",
"3X;X^.%X;X3X[.`.!.`.;X}.;X;X[.`.;XcXyX[.!.^.E.I.I.!.E.T.!.;XqX>XU.E. X_.E.R.Y.T.T.T.!.T.!.I.!.^.].`.[.>X`.}.}.[.T.!.I.I.i.q.:.t.Y.y.L.~.!.!.E.E.I.i.y.i.L.L.c.c.y.u.L.t.} @.P.E.L.T.0X].T.T.~.E.G.i.P.F.u.O.F.G.u.E.].0X|.Y.t.b ; 5 5 # h U 9.rXyXeXwXeX[.E.T.c.P.I.^.T.L.I.I.I.I.L.P.I.T.^.0X XT.P.L.c.y.y.L.L.y.L.P.E.E.P.y.n.P.c.i.t.t.w.t.y.y.c.i.i.i.P.P.T.T.L.T.T.L.i.u.t.u.q.O.O.q.0.Y 0.F.G.L.w.q.q.-.-.-.=.-.-.O.} K =.=.J J y.t.y.y.^.Y.y.>.G.i.-.=.=.O.J b =.8.@.t.L.E.L.8.I i + + o . 2 8 Y '. X X].E.L.L.i.#.#.w.P.",
"3X;X!.;X1X3X;X}.`.[.}.;X[.[.;X[.;XhXeX}.[.^.T.T.T.E.E.I.T.^.^.[.E.!.].!.|.^.i.i.T.I.T.E.^.!.^.^.`.[.;X3X;X2X}.;X_.I.n.T.i.>.i.P.Y.Y.L.Y.L.^.!.T.I.P.P.P.L.P.L.^.L.E.T.#. .Y.^.T.E.T.>X[.E.].qX>XT.G.Y.u.8.@.u.G.u.E.].rX X~.0.b ; > 5 O S U 9. X^.:XyXyX3XI.P.c.P.!.@XI.I.I.I.I.I.I.P.P.P.].0X XE.I.L.i.i.L.G.i.w.L.P.P.P.i.i.P.E.Y.i.-.-.y.y.q.w.i.c.y.c.L.P.T.^.T.P.I.E.c.t.>.y.:.#.-.Y.G.=.t.u.y.y.t.q.q.t.-.#.-.-.t.G.#.t.:.} G :.L.y.:.i.^.E.G.K.L.P.u.8.8.=.K J O.-.@.:.G.^.E.u.Y r + + o . 2 S Y J.E.|. X>XY.w.t.3.+.t.G.",
"_.W.`.}.2X3X}.).`.`.;X}.;XyXyXyXyX3X^.^.`.!.!.E.E.E.E.T.~.^.T.^.].T.w.W.].E.#.y.E.T.I.!.>X^.^.^.[.>XfXcX3X>X[.fX[.w.T.}.>X X^.E.G.-.y.w.L.T.P.T.P.I.T.T.P.G.L.qXqX^.^.T.E.^.P.P.!.].>XrX>X;X[.^.~.T.E.P.G.-. .O.i.R.].gXrX'.8.p ; 3 5 # s U ;.K.c.>XyX,X>Xn.i.L.T.^.;XI.L.I.I.E.I.!.;X^.0X>XE.P.P.P.a.G.G.i.i.L.i.G.G.y.w.i.y.#.Y.G.u.N O.t.y.>.i.L.L.i.c.P.P. X2X!.T.P.[.G.O.Y.E.~.L.L.t.-.K O.-.:.F.t.u.w.t.q.-.-.+.:.T.^.L.G.-.:.i.L.w.i.i.E.[.^.^.Y.L.t.t.F.q.0.Y J J @.t.L.^.~.:.Y ; o + O X 5 v Y t.8.].wX>XE.q.#.w.w.i.P.",
"W.`.;X3XeX3X}.}.`.`.}.}.>XcXCXcXyXQ.!.^.!.[.^.^.T.E.!.!.E.E.E.E.!.I.U.E.!.T.+.q.!.E.T.[.qX^.^.^.[.[.yXhXeX;X[.0Xn.i.}.>XyXfXqXE.u.:.G.w.L.P.P.E.T.!.^.L.L.T.E.>XqX^.T.T.I.T.L.!.>X2X>XwXwX|.^.!.].E.I.Y.~.y.O.+.i.R.].wX XR.N r ; p 5 & F U 9.0.L.2XyXyX2Xi.c.T.^.;X^.I.U.U.U.W.I.E.>XyXtX|.P.E.U.P.I.P.L.y.G.L.L.L.L.w.t.G.i.i.E.G.F.V O.y.G.i.P.I.T.P.P.I.T.].>X^.P.P.T.:.+.L.~.|.^.E.G.-.Y O.#.-.:.:.u.y.i.G.:.+.:.L.~.^.P.:.t.w.y.t.i.G.E.^.^.T.E.E.P.G.u.t.t.t.O.N J =.t.G.E.^.-.a @ o $ O O 7 F K O.:.E.].].^.q.8.t.u.P.Y.",
"3X}.}.eX3X;X}.).;X[.>XwXwXyXyX!.E.!.;X>X[.[.}.^.I.^.^.[.^.E.!.!.E._.[.E.[.T.+.:.].}.[.[.>X>X^.>XU.!.eXyXyX XE.i.I.].>XeXhXcX XE.P.E.T.y.i.i.E.0X0XhXhX|.}.>XqXyXtX>X!.!.L.U._.!.}.2XyX3X;X;X;X[.[.E.c.E.E.w.q.G._.|.2XtX X8.r r ; s 8 O v U ;.u.P.;X3XyXyXE.P.I.^.!.E.I.E.U.T.^.}. X>X[.L.i.G.E.E.P.P.P.Y.w.L.L.L.L.i.i.y.i.L.P.L.E.G.b O.L.I.c.P.I.P.E.T.L.P.!. X|.T.L.-.y.L.T.|.qX>X XG.-.t.G.-.F.-.G.~.^. XqXG.G.~.!.^. XT.>.i.:.u.P.L.L.^.}.^.!.U.I.P.P.F.:.8.q.O.O.-.F.Y.E.~.T.K @ + + 3 # . 2 F L  .q.I.]. X Xi.w.y.u.J.P.",
"eX;X}.2X|.`.}.}.[.^.>X3XyX3X!.I.I.!.;X;X^.[.;X;XE.^.^.E.L.T.T.E.E.].E.].].i. .y._.[.;X`.!.>X>X^.L.P.^.>XwX|.i.+.J.].>XeXhXfXqX].E.T.~.T.I.i.~.tXtXhXhXqX!.!.qXeXeX[.}.!.c.U.eX;X!.>XhXcX3X^.[.^.E.U.P.P.P.i.t.U. XtXfXhX}.z r z s z 3 o 8 U ;.R._.;XeXhXhX!.L.P.^.E.L.m.T.P.I.|.>X>X[.i.w.L.L.T.P.P.P.E.L.:.G.L.w.:.y.G.i.L.G.i.F.Y.-.f O.G.T.I.U.I.T.E.P.i.w.Y.~.~.~.:.J -.G.E.E.>X}.E.G.-.t.G.>.F.:.G.|. X X^.L.i.L.~.^.!.P.T.c.#.>.T.E.L.!.rXwX^.T.P.T.G.y.:.q.-.K =.>.Y.^. X XG.w $ ; > 5 - X 2 v J 0.i.n.E.0X XP.q.#.y.G.y.",
"[.].E.I.~.|.^.E.G.i.].0X>X!.Q.T.!.!.E.!.^.>XyX|.^.^.^.!.I.T.T.^.].E.i.i.i.c.:.i.^.;X3X>X>X2X^.~.T.~.E.T.>.-.N O.8.q.^.rXyXyXtX^.y.u.P.^.!.^.}.0X X[.Y.:.L.^.yXyX;X!.^.!.z.c.^.[.!.;XcXcXyXyXyXqXI.L.L.L.L.q.q.P.[.rXfXhX~.n B b z s - o 3 L W R.].[.3X2X2XP.u.-.:.L.G.F.:.+.:.G.^.E.T.I.c.G.G.y.i.P.P.].L.i.F.-.O.+.y.y.L.~.Y.-.@.-.-.C O.L.T.^.!.[._.P.i.i.u.u.>.=.K f O.0.O.t.E.[.>X^.w. .+.q.F.w.G.T. XP.P.-. ...P.].^.^.T.T.L.:.-.i.L.y.I.qXqX^.>X>X^.G.-.-.0.-. .#.-.T.>X X|.q.i d i ; ; O . - v U u.i.P.E.^.~.y.-.#.} -.-.",
"[.P.-.-.~.~.Y.-.:.G.E.}.>X3X;X^.W.I.E.Q.Q.>XyX;X^.^.E.L.L.E.^.^.^.P.:.y.i.P.i.i.;X>XyX3XyXwXE.^.^.~.Y.y.O.K K =. .=.G.|.tXyX|.G.y.i.P.[.].>X X|.|.T.O.>.T.tXyX;X[.;X;X[.T.c.W.[.!.;XdXhXcXhXcXyX!.L.P.I.i.+.y.n. XfXfXhXL.O.-.J p p 2 o 8 U W ~.~.[.2X[._.Y.q.J K F.L.-.K +.-.-.L.L.!.T.G.>.:.>.c.P.E.!.L.G.w.>.:.:.F.y.L.~.G.} =.#.-.+.#.P.E.[.!. X^.i.L.P.L.-.@.J d N =.J N +.T.!.[.~.O.+.+.y.Y.Y.~.^.E.E.t.B K q.J.E.E.P.E.E.L.>.:.L.y.t.P.>X2X>X;X>X>Xy.-.-.-.O.K @.-.T.>X X|.>.b J p - - O X 2 h K F.i.P.T.P.L.-.O.N J -.:.",
"[.i.#.#.-.t.t.t.G.E.!.wXhXyXwX[.!.!.Q.E.!.;X>X[.T.P.L.I.!.[.^.E.^.Y.L.L.L.~.L.I.>XwXyXyXyXtXwX>X^.P.L.t.t.=.=.-.J J -.E.^.^.G.w.G.P.[.2X XqX].^.L.t.L.^.[.tXwX>X;X^.;X^.!.L.[.^.z.y.`.3XqX;XwXyXP.i.i.q.q.X.Y. XrXtXtX].X.#.-.J p p 3 O h U 9.'.tXyXeX;X[.P.@.I J K O.O.=.-.:.G.E.>XwX^.L.L.w.i.i.P.P.E.T.y.-.+.:.i.P.G.G.P.t.=.-.t.y.q.i.!.}.qX;XqX XE.E.t.:.O.=.O.L O.N i d K y.c.P.t.+.*.t.L.T.~.^.Y.t.u. .I G.Y.T.E.^.T.E.T.L.w.w.c.w.+.-.Y.^.^.L.^.|.:. .O.O.O.C t.Y.qXqX|.G.N J K c ; - o X 2 v U J.E. X].P.G.:.K f N d J ",
"U.y.i.t.-.-.#.:.P.!.].2XdXhXeX[.!.^.^.^.!.!.}.E.L.L.i.T.^.^.E.c.I.L.L.L.L.^.^.}.yXyXjXcXCXtXtX^.>.L.F.:.t.=.K s N -.-.F.G.L.G.:.G.E. X}.}.[.T.L.>.w.E.^.rXtXeX>X[.>X;X^.[.T.;XP.+.5.c.U.!.!.eXeXc.i.y.*.u.w.E.gXhXfX Xy.#.-.O.b r 5 - O F U W |.0XtXfX>X_.u.Y @.@.J J K K :.w.L.^.;X;X|.T.c.G.G.i.I.P.Y.E.:.#.+.F.T.E.G.:.t.-.-.q.i.L.P.c._.>X>X3XwX[.!.E.+.O.K O.O.J d $ i L -.-.y.y.#.O.y.L.^.^.E.L.i.q.8.-.t.R.E.].|.^.E.I.P.Y.G.w.E.i.K } :.>.>.<.^.^.+. .O.C -.#.G.|.tXtX^.+.K K T 3 + + . X 3 v U u.E. X^.L.L.+.J J d f d ",
"E.n.i.t.u.Y.^.^.}.>X3X3XwXcXyX[.!.!.E.I.!.>X>XE.i.>.-.:.>.Y.|.].}.T.u.t.i.~.^.[.3XwXcXcX0X!.E.G.-.-.-.-.=.=.Y Y Y Y Y -.-.:.y.E.^.^. X X[.!.Y.L.F.G.w.G.T.E.U._.}. X[.[.[.[.[.E.P.E._.}.3X3XfXeXU.P.i.w.]. X XfXtX XE.J.q.Y N p + - & # F U W K.].wXyX;X].i.8.=.O.O.-.t.G.!.[.^.;X;X3X>XU.L.L.i.i.P.P.P.L.-.O.O.+.#.P.R.G.L.t.#.-.-.i.G.L.E.^.wXwX^.z.>.+.} O.J K L d J s i d G K K C O.i.P.P.T.E.T.L.w.-.-.O.#.@.q.L.i.P.E.E.P.P.P.L.T.L.:.F.>.P.^.E.^.^.>.O.O.K G.T.~.qX^.^.L.-.K K d # + + X X 8 s L =.u.^.^.L.G.O.O.L J J @.",
" Xn.t.>.t.E.}.;X3XhXvXcXyXcXyX`.!.!.U.I.^.!.E.G.@.Y } #.-.R.qXqXrX^.y.>.i.^.^.^.^.;XyXwXU.L.:.+.-.:.;.O.K K K -.O.z L K d B O.~.E.U. XwX!.E.L.y.-.:.:.:.y.:.*.I.}. X_.[.[.}.i.I.{.`.[.>XfX3X>X;XU.I.c.c.qXhXhXwXE.G.Y.0.O.N d p + ; - 2 F W T 0.Y.wX>X[.0X!.y.8.O.-.F.L.T.[.0X>X3XyXwX;XT.E.P.i.i.T.I.J.-.K e N ) #.i.].^.].P.#.#.-.:.y.L.I.Q.[.;Xi.-.+.J +.K K b a p b G N i d b i p K E.P.L.I.^.T.t.y.+.O.#.K  .@.+.#.P.E.E.L.P.P.L.O.:.L.>.G.P.^.E.T.Y.t.+.-.O.Y.tXtX^.G.>.F.@.K a > = + O   # 8 F G =.@.P.|.L.T.-.O.J N K -.",
"[.U.P.L.i.w.!.eX3XyXcXyX7XeX;X!.!.E.I.T.W.L.L.-.K K :.Y.E.[.].[. X^.T.I.i.G.:.i.^.3X3X>XI.c.L.G.+.} O.J G K Y T J J J z I O.y.].E.I.!.`.T.!.i.w.>.i.c.>X X}.}.0X[.`.U._._.!.i.!.}.}.}.;XdXeX;X[.n.y.q.i. XtX].J.G.J.F.O.J i p p > ; O 5 G U W 0.J.eX2X!._.E.P.u.:.-.+.i.^.!.;X;X3X^.!.!.L.L.y.y.y.c.i.:.O.a N K t.P.i.E.[.].I.i.>.q.#.O.>.T.^.E.T.>.:.t.#.B N a i r s d b d i a ; p J q.~.y.q.i.P.L.i.:.-.+.q.:.Y.].E.E.^.|.L.c.L.L.>...i.L.P.Y.P.^.^.^.G.+.U O.-.~.|.L.y.-.=.-.K z r ; 5 + o o - s v F W +.~.qXT.L.-.=.} K J J ",
"0X0X}.[.i...[.dXyXvX,X>X3X0X>XT.c.y.c.w.w.w.:.} K } L.}.0X0X[.[.[.|.^.L.L.w.K i.>XeX;X>X!.^.|.L.f J K d J Y Y J K Y Y J O.:.[.0XU.*.y.!.].!.I.y.~.E.^.yXCXcXcXdX XU.I.E.I.P.I.]. X}.).U.fXfXrX0X:.n i.P.0X Xi.0.=.=.K p 3 a b b 5 O - 5 G U U 8.Y. X_.r.E. X X'.Y.-.n I.3XqXwX;X!.!.^.^.L.*.#.>.o.+.q.#.N N J -.E.E.E.E.Y.E.!.P.t.w.+.V :.].[.P.!.Y.L.L.#.a i a i p b J d d J N i G -.|.].t.@.@.L.L.L.w.:.t.G.y. XhXtX0X>XqXi.i.L.L.c.i.P.P.T.>.>. X^.^.Y.O.i =.G.~.Y.-.O.Y K G r ; > v c - . X 2 v G G ;.>.~.^.>.:.L.Y.-.-.K e ",
" X XP.i.8.+.>XyXdXhX2X X{.E.P.y.-.y.q.#.i.L.F.#.-.y.E.|. XqX>X XrX>X~.P.u.t.O.P. X0X[._.E.|._.q.I 8.J c K K L Y =.=.O.Y F.E.wXrX].w.P.[.}. X!.P.].!.}.yXfX1XeXfXrX}.E._._.E.'.|. X_.E.{.3XwX>XE.K K R.|. XJ.-.;.T b i p b z N G 5 o 4 v J W W =.J.E.a.u.].rX|.i.-.O. .|.0XeXtXE.E.E.P.P.+.} #.O.K #.i.#.K @.t.K.~.E.].R.P.~.P.u.t.t.+.J u.~.T.G.P.L.E.G.O.a J i - d b z p G J z s J K. X].u.O.w.u.G.Y.G.q.-.i.P.[.0X>X X X[.E.L.c.L.L.F.P.P.i.#.G.].'.P.u.b b 0.G.Y.-.U b c i ; i s s s s 2 o o 4 s G L W 8.E.E.t.u.~.J.T Y b w ",
"0.@.B n K q.]. X}.}.|._.i.u.i.u.i.G.u.t.J.Y.P.u.Y.^.~.^.^. X^.[.^.y.-.q.q.@.O.~.{.P.3.@.P.{.y.T Y @.5 5 F G L K Y =.J J Y G.].!.P.a.E.E.T.Y.c.c.P.}.2X}._._. X2X X|.|.0X0X~.0.K.J.3.8.R.R.K.u. .J T G.u.J p v z > - > p p r v c - O 5 v L 1.W Y 0.'.R.i.u.F.I z F N :. X X[.].E.!.w.t.F.0.q.-.-.-.u.q.-.-.t.Y.Y.T.E.~.Y.K.Y.-.=.O.Y B J K.R.q.O. .u.G.@.N J J @ + 5 s s z d r 3 z Y '.|.J.t.t.i.u.u.t.-. .#.P.].E.E.P.T.E.E.Y.Y.!.|.E.=.=.-.O.O.u.G.u.-.b F K @.O.G z i p > > - 3 s 3 5 3 2 o o 5 F F F J -.E.G.t.@.O.G > i p J ",
"J c p b L 0.G.u.i.F.u.=.Y 8.9.0.0.0.0.0.t.t.t.0.F.F.t.G.Y.F.F.-.=.N J J J b T 0.=.K N B 8.#.B B K J ; 5 s F F G F s s F d -.:.=.@.@.#.@. .K N K @.-.0.#.Y @.@.8.8.@.8.t.0.T p c v z b b z p p - ; 5 v > 3 $ + o . + $ - - - 5 - : O v G U W W 1.1.8.t.3.J B c p J Y F.F.K.F.t.u.=.J -.=.Y =.Y O.@.=.Y =.=.=.9.-.=.8.0.9.T T Y J b b d O.0.T p z K =.Y B p z p O ; s s 5 5 v p v G @.K.G.=.0.0.#.O.L z c c K =.=.I J Y =.-.F.-.-.t.t.K b a p p v b z z > 5 5 > - 3 # # O o o O + 2 3 $ 2 # O o 2 8 v G G U T 0.t.K p i > $ 5 G =.",
"v 3 : 5 - p p i 5 5 ; - O - $ 3 ; ; ; 5 3 - $ 3 ; ; $ 3 3 3 2 $ # + o # # & 5 5 > ; : 5 5 c 5 > 5 5 2 3 5 3 s h 8 i v 8 s G F p p p 5 5 > ; > > r : ; - + # - : + : - + + % - - 3 2 : 2 : & - # # & - - 2 - # - # - 4 3 3 2 5 4 3 4 v P U W W U L b b b v v 5 2 s G F F p 5 3 - - + - $ $ - # # - - + - # # # - - - - - + & - + O # # 3 ; + o O # - $ O + o o . O O # - - 2 3 8 v v v 5 > i : # # + o o O O # O . . o o # O + O O # + + + o + + o O o . . X . X . . . o . . O & $ , , i , 2 5 s s v F G U U U L b s 5 > - p v v ",
"L L F F F L F b v 5 ; 5 3 3 2 3 3 2 4 3 2 3 3 3 - - 3 8 8 # 3 2 2 O 2 # 2 8 8 8 8 8 v F G F F G F G G F L H L U L L U U G U U L G L F v v b b G J 8 h v v F v F h v v 5 5 v v F v v v h s 8 h 8 8 5 8 v h h s 8 8 v v 8 v 5 h v F G P W 1.W W U U U G F v F P F F F F F 2 - - O O o - : - - - O % + O o o X O % O o X O o o X X o o O o . o o X o O . X o o o X X o - 4 - 4 5 h 8 2 : & - o O O o o X X   . o . . X X X   . . o o . O . o o X o o O o & X O O O O & # & - 2 2 2 6 6 s 6 s F A d h F F F L R F G L F F s h v v v ",
"W W W W W W ;.W W W W U W W L H U U U U L L G F F v F U U H F s F F F H F L P G U P W U W =.W T =.W 1.T W W T W ;.;.;.1.U J T W 9.W T Y U U T 9.;.J T W U U U W T U U P L T U U L U U L G G L G F G G F G b F F F F G v v h v L G U W T W W T ;.W P W Y U G U G L L U G G F F v v ; v v s v v 5 h v p 5 : + - 5 5 5 : 5 h 5 : 5 3 5 s 4 2 3 5 3 h 5 5 5 5 : 5 3 5 h v v F G v b F F v v v 8 v h 8 3 3 2 2 2 3 8 3 2 2 2 2 7 8 3 5 5 2 6 4 2 3 7 2 - 4 3 8 4 3 8 8 3 8 8 3 h F s s d F F F F F S 8 8 F F L F F G F v v v F F v F ",
"F.W =.=.;.=.F.F.F.9.9.9.;.U U U W W W W W W W U U W W W W U L L W U E U P U W 8.3.e.e.3.5.y.e.8.q.t.e.8.5.8.8.e.t.e.3.3.3.3.y.y.3.e.e.3.3.e.t.u.u.e.u.a.t.t.i.e.8.q.8.8.8.e.0.#.3.8.8.8.=.=.=.T @.X.@.O.Y Y I I I I T C Z T T X.T 3.-.8.@.Y T 3.@.T #.@.#.Y @.O.O.=.=.@.Y Y Y I K B K K K B B B B B B N N c N N N N z B J B B B J G J B B B G J J B J J G B J b b K B T Y Y Y U Y U I U K G K L L P G G F 8 G G F v v F F L F F F F F v P v v F h s v F G G F F v v F F s F F F L F L L L F L F s F G J G b G b F s F F F L F b ",
"9.F.K.|.XXXX|.'.Y.F.H.F.0.W Y 0.Y.F.-.=.=.W W W W U W W W U L G U L L L b c ~.hXfXgXgXgXdXdXhXjXdXdXdXhXdXdXdXgXdXfXfXpXfXfX7XdXfXpXfXfXeX7X7X3X3X3X3X3X3XeX3X2X>X>X1X1X X}.}.}.;X{.[.[.[.[.`.)._._._.W.U.U.U.U.U.U.E.U.U.U.U.U.U.U.R.U.R.I.M.U.U.P.M.P.M.n.i.n.G.P.i.i.i.i.a.i.r.i.i.r.a.i.e.r.e.y.e.e.y.e.q.e.e.e.e.e.w.i.u.y.q.w.q.q.q.8.8.5.q.8.5.q.8.e.3.8.3.8.3.8.8.e.3.8.5.q.q.3.8.8.0.e.q.8.b G F L G G G v G F L U L U G G J G G G J L L U W 0.F.9.K O.0.F.F.F.F.F.-.-.;.-.;.;.;.;.0.;.=.;.=.;.W =.0.W O.U U Y =.F.K.K.",
"u.G. XgXhXCXhXXX~.F.>.0.;.-.t.G.~. X~.F.q.-.G G L F L L L L F J ;.G.F.0.9.8.|.dX1X%X1X*X%X%X<X%X%X%X;X<X1X7X<X<X:X1X<X<X<X4X<X<X5X1X<X<X1X<X<X<X3X:X:X;X<X<X1X1X*X%X;X*X:X%X%X`.%X}.%X`.%X%X%X`.}.%X}.).Q.W.(._.).W.).).M.W.W.W.U.).U.U.(._.M.W.W.M.I.V.m.m.M.U.M.m.U.U.n.n.M.n.n.z.v.z.v.z.v.z.z.z.r.r.r.r.r.v.z.a.z.r.r.r.r.w.7.q.q.5.5.y.6.5.5.5.3.5.5.5.5.5.*.#.o.3.5.5.3.*.*.*.*.:.*.*.#.:. .z > b F G G L W Y Y W -.F.;.=.;.0.0.0.=.9.F.K.K.F.G.~.~.K.-.F.Y. X X X X~.Y.Y.0.} Y O.;.t.G.G.F.Y.K.G.G.K.K.t.Y J K Y F.~.|. X",
"|.rXtXhXCXhXhXrXyX>X X~.F.t.G.~. XtX^.>.-.-.G 3 D L L H L L ;.Y. XXX^.K.Y.K.2XdX5Xk.b.).m.z.m.W.(.(.C.C.C.(.(.C.C.b.b.W.(.(.S.(.Z.V.V.V.b.b.v.b.C.N.N.N.b.k.k.b.b.h.x.b.x.x.x.h.h.x.h.k.x.b.x.k.b.k.x.b.b.h.k.b.b.g.f.g.6.7.6.g.6.7.g.g.7.7.z.6.6.6.6.6.6.4.6.6.7.6.7.6.4.6.5.6.%.5.5.6.%.5.5.%.5.o.4.%.] %.$.%.%.] 5.5.5.4.%.%._ ) o._ X.o.o.o._ o.] 5._ o.o.6.o.` ) o...X.q.5...+.:.*. .+.C f z = i G d b O.F.Y.Y.~.~.~.~.~.~.'.'.~.Y.P.J.R.R.R.~.T.~.Y.F.G.G.G.~. XqXtX>XE.~.~.G.F.0.K >.~.~.~.~.^.^.~.~.~.Y. .b -.P.~.'.~.^.",
"|.tX2X2XeXwXqXwXqX!. XrXqXT.~.|. X>XE.c.P.G.G + 8 L L F W F.~.^.|.|. X|.{._.3XdXzX(.<X>XW.>.Q.!.yX`.g.C.dXzXjXyX<X(.x.g.g.Q.%X%X<X7X3X#X:X:X4.] #X4X4X:X&X%X%X#X$X#X$X$X$X$X$X#X$X$X#X#X#XOXS.#X#XOXOX#X#X(.).(.).(.).S.S.S.C.C.S.C.).C.C.C.S.S.C.A.N.b.V.B.M.b.b.b.b.b.b.b.b.b.b.b.b.v.b.v.b.v.v.k.v.g.r.g.g.g.g.g.x.g.g.g.g.6.6.5.2X_.w.! 6.q.7.5.7.V.w.6.n.U.r.) ....^ n i.+. .#.:.o.c.wXK @ @ w i K K =.u.|.0X|. X X XE.~.^.^.|.^.|.].~.^.Y.L.~.E.i.G.q.F.T.|. X^.^.|.^.L.G.y.G.T.F.J +.t.Y.E.G.L.T.Y.w.t.G. .n u.E.L.Y.Y.Y.",
"E.E.U.E.!.!.I.I.I.L.E.CXCXcXyXCXrX!.I.!.[.Y.J O 8 L F G K.|.>X^.I.|.cXCXhXeXpXpXzX7XjX` ! >.I.w.*.k 6.CXcX`.C.m.M.M.W.z.$.!.%Xg.(.%X).<X%X`.M.` yXzXzXzXzXzXzXaXjXpXjXjXjXkXkXjX9X7XjXjXjXpXpXiXpXpX6X7X7XpX7XpXpX7X5X5X4X=X<X=X=X<X%X;X:X;X%X%X*X*X%X).(.%X).S.C.C.C.C.).C.B.A.).C.C.B.C.C.C.V.V.V.M.V.b.b.b.b.b.x.x.g.g.f.g.6.6.m.dXn.Z M _ ` o.o.` o.}.fXI.n.) C V f C C f e f V C *.>X^.} 9 9 0 a y.t.q.-.i.Y.E.i.i.G.F.E.[.E.P.c.>XwX X~.>.:.y.y.#.>.-.L.^. X^.t.:.>.#.-.+.K +.^.L.J O.=.} } O.K O.K } G.T.#. .-.t.-.:.:.:.",
"].!.E.}.}.^.!.T.T.E.>XcXcXeX>XtXtX^.T.>X].u.b O 3 F s O.~.>X3X>X!.qXCXcXwXeXdXpXvX#X7.u *.E.n.w...n I.wX..j M } ^ ....5.*.z.z.n.b.m.x.b.7.m.) m x.b.v.v.b.b.v.g.6.g.g.g.g.h.s.s.4.6.g.4.4.g.6.4.s.2.s.g.f.g.4.4.6.4.6.4.2.2.[ 4.4.[ &.%.] ] ] ] [ %.] ] ] ] _ _ _ ( ( ! ( ( ( ( ( ( ( ( ( ( _ ( ( ! _ ( ~ ! ! Q ! ~ ! ~ Q Q ~ ! l M o.M n ) ) ) _ o...*.fXU. .C V a ; w f } y 9 a C #.c.U.w.y.f 9 w a O.L N B O.8.8.#.#.q.y.i.I.n.u.J.].|.].P.y.u.y.q.y.y.-.:.L.Y.:.-.-.:.+.+.-.} +.L.:.-.O.O.K J K J K K K G.G.-.:.-.:.-.F.L.:.",
"[.>XrXrX X^.^.T.^.qXtXyX>XP.P.T.T.L.qXyX Xq.p . , v F F.~.E.;X^.>XcXCXyX[.[.dXpXzXC.W.7.z.P.i.o.V n +.K f a w 0 w a t y n m ! o.w.c.r.U.n. .w j ^ ! ! ! ! ! ! ! M ( ! ` ( ( ! ! ! ~ ! ( ! ( ( ( ( ( ( ( ` _ ( _ ( ` _ _ M ! ! ) ! ( ( ! ( ! ( ! ! ^ ( ! ( ( ( ( ( ( ! ! ! M ( M ! ! M M ! ! ) M ! ) M ! ! l ! ! ! k k k M l l l j j t n t V  .@.X.Z .. .i.Z n r ; @ a f n f 0 @ y X.*.y.n.P.c.y 9 0 0 a p i p z N K I @.3.q.q.q.8.8.w.P.u.i.y.t.L.:.y.q.t.:.} -.@.@.+.-.-.-.t.F.-.-.-.:.K.0.N K G J J K L K K J K @.-.G.Y.Y.G.:.",
"E.|.qXwXE.G.E.Y.^.wXwXeX>XT.y.:.L.!.0XeX Xw.b o , v L 0.L.T.!.Q.;XyXcXqX!.c.7X5XjXb.m.z.z.r.#. .t 9 e a N f a r a w 9 9 0 e d a f K N V t 9 0 e a y y a j n n j j j l l n M M M ! ! ! ! ! ! ! M ! M ) ! ! ) ! ! ^ ! ! ) _ ) ) _ _ ) / ) ) ^ ) ) ` ) ) ` _ ) _ ` ...._ _ _ ( ) ( _ ) _ ) M M M M M m m k j j j n j j j j j f j t t t t a t t a a w a J e r w > = @ @ $ w p w + + a  .5.w.n.%.y.n $ w = ; = ; 5 > a B T Y -.8.#.0.#.8.q.w.u.w.i.P.u.+.t.t.y.:.} -.-.=.-.-.@.-.:.:.-.+.} -.t.F.N d K L K Y Y K Y @.K  .-.y.P.T.>.Y ",
"L.L.[.>XL.:.-.O.L.0XyXeX>X^.T.L.T.^.].>X Xi.G o , s L >.T.T.!.;XwXwX;XL.y.*.3X4XdX%X<Xm.z.*.M z ; + e ; = @ w ; w $ + + @ = w 9 = = w w w w w w t e t q t t y q y a q a y j j j y j y u j q j u y y q j q j q q q q q t y y q j q q q t q q q e q y t y q q q j y y q q q q q y q q q q q q q q e 0 0 0 0 0 0 0 9 9 9 @ 9 @ w 0 0 = = = 9 @ @ @ + w = + = ; @ @ $ ; @ @ + @ + w f C o.*.w.o.:.e @ w ; @ : - : ; 5 b N K  .@.@.-.-.-.-.q.q.i.J.E.Y.:.w.t.t.O.J t.:.>.t.t.i.>.t.G.:.+.-.-.y.T.G.:.=.0.Y.G.#.=.:.F.-.-.@.=.:.F.-.J ",
"L.P.]. Xi.I I I P.gXyXqX;X!.^.E.P. X>X>XwXY.J O O 8 L J.^.^.@X%XeX[.I.I.i.i.3X7XjX(.#Xx.7.) e t a w Y a ; ; p r @ + = ; r r w w 9 w a d N V f N K B C C C ^ C C C C C C I )  .) _  .o. .) X.X._ ) )  . .) )  . .^ C ! C ^ ^ C M M V V V B V V M V M V V V V n V V m n n n n n n V V n V V n n n n V n z j z y n a f a f a a p a a a p r p p i r r ; > ; w r @ r > r p w i  .N -.} } *.z...w.L.N @ i $ O + + + + > v b J  .@.@.@.#.+.=.#.>.t.G.P.P.t.t.8.-.O.O.t.-.u.q.w.u.w.y.y.q.q.:.-.F.>.F.:.+.:.Y.~.:.;.>.;.>.G.;.| 0.G.;.i ",
"].P.!.E.q.O.@.Y Y.hX0XU.I.T.I.L.P.{.>X3X0XE.T + - v Y E.qXyX2X!.`.I.i.i. .o.1X5XzX$X4XQ.4.k 0 w n J a @ = @ @ + @ o # ; ; ; = = + + + + + @ @ + @ @ 9 @ @ @ = 9 0 = 0 0 0 0 0 0 e 0 q q q q q q q r q r r q 0 0 0 e 0 r r 0 0 q 0 0 0 q 0 0 0 e e 0 e q q q q 0 e 0 q r e 0 0 0 0 0 q 0 0 q 0 q 0 0 0 0 0 0 0 @ 0 @ 9 = = = @ @ @ @ @ @ @ + + + + i ; ; $ @ ; ; @ @ ; @ t N f } *.*.Q.;X*.6.:.w @ $ i + o o . + - > b B K O.@.O.+.+.@.-.t.t.q.t.t.q.8.-.q.O.O.-.8.q.q.q.q.q.t.t.:.#.+.+.O.O.+.-.t.:.0.t.;.>.K.t.F.G.:.O.>.F.} J ",
"U.E.P.P.i.0.@.L F.rX>XP.I.U.L.c.I.E.{.wX0XP.J - 5 F W !.yXyXwXQ.!.z.*.Z C *.:X5XjX#X#X#XV.` n 0 w a e w = @ @ + + o + + @ @ + # + + + + $ J i + @ + + + + @ @ = = = = = 0 0 0 0 0 q q q q q q q q q q q q u q r q q q q q q q q q q q r q q q q q q q q j q q q q q q q q q q q 0 q q q q q r r 0 q 0 0 0 r 0 0 w 0 = 9 0 = = = = ; = = + + ; ; a p ; ; @ @ = = ; = = t V ) ^ M $.g.:XzXb.y t = $ $ ; + + . . # + ; p z J O.Y O.O.O.O.-.q.q.-.-.8.#.#.-.#.O.#.q.q.q.q.q.y.q.t.q.t.-.O.#.#.O.K -.0.-.-.t.>.;.0.>.>.G.:.+.+.O.Y L ",
"E.E.t.#.#.I b z F.tX].P.E.P.n.E.E.!._.3XtXI.B # - b W ].tX;XQ.L.m.y. ...q.y.3X5XjX#XkXbXm.o.+.e r r t t e 0 @ + + + @ + + + + @ + @ 3 p d d $ @ w w a i @ r w e 0 0 q r r q y y j j l n M M V l M m l l M M l M m m M M M M ! M M m l l l l l M l m l M M M M M l m l M M m m l l V k k l l k j j j j z y t r t t w t i ; r r r ; > ; > i s z d p + + = + + - = ; 0 n Z o.w.7.m.Q.I.jXvXm.q.n ; + i i . . . . . % # ; p b I I I O.O. .+.=.@.+.-.@.@.8.O.J @.8.-.q.#.q.#.q.-.q.8.q.-.-.:.G.F.#.O.=.=.-.=.;.O.O.;.;.-.;.+.L K d i ",
"E.E.@.B T T B z G.gX_.P.E.U.E.U._._._.2X0XI.J + & v T |.wXE.m.I.L.+.o.w.u.r.7X5XaXN.AXzX! K C + 0 r = 0 r r ; = + $ $ + # @ + + + + + ; ; w w e f C N n a f  .X.n w e t q a j j j j j l j l k V l l l k l k l l l l V l m k k j j l l l l k l j l n l k k M M k V k l l k l M l l l j l l j k j j n j n y r q 0 V #.a V r t t = ; @ $ > r i + . . + @ + + ; - a - n  .5.7.z.%.5.&.z.I.z.) n.Z = + $ $ # . . . + % + # ; p b K N K K K K } O.=.-.-.-.Y r p q.t.q.q.8.q.#.8.q.8.t.t.t.t.-.F.G.+.O.O.+.+.Y Y O.Y O.O.O.-.t.N i d d ",
"'.~.C N I N z @.u.E.J.R.E.E.E.I.E.E.~. X XI.L # O F =. X2X`.;XW.c.:.c.L.u.w.7X4X7XOXFX5Xm e @ @ r w = = r r p r ; > i d ; b p + ; i w = e a a f K V f V n ^ o.5.n V I t a n j j j n j j j n j k n j j j j j j j j j j j j y j j j j j j j j x y j j j a j j j j j y y y j a j j y y j y j y j u j j t j 0 a q.X.B K e a r t z a p i p K b > + ; > r r p $ ; r r n X.6.g.z.6.) 7.1X`.&.&.W.7.) = + i i # o . O o O + # ; > a b r N K K O.Y O.O.=.=.I b r L G.G.:.q.q.y.-.8.q.q.q.q.q.t.#.-.@.Y Y O.O.Y K +.;.O.} O.=.-.:.d i i d ",
"E.P.B J O.B O.u.i.q.P.E.E.E.P.E.U.U.I.[. XR.J O O 8 W  XwX1X;X!.I.L.T.c.w.a.7X5XaX#XbX(.M e @ = B t @ + @ = z z p b J b d =.a i N N B J N a N K ..O.C f ! ..*.o.M o. .t n  .) C Z ) _ Z ) ) ) ^ ) M M m Z m M n M V V n V j j j j j j l k j j j j a j j j j n n j j a j a n j j j j y j y y a j q j a q e t  .f f -.f C n N z z q.Y b p r r p a a s z a i a p K V @.r.6.` M 5.7.1X3X:XvXyXC.o.t + 3 i # O . o o o + + : ; i r ; d K } O.K O.Y +.O.N J p N t.F.-.8.q.-.-.0.-.q.-.-.:.q.-.@.@.O.O.O.O.O.O.0.0.O.N L O.-.=.d i i d ",
"].E.X.N O.t.i.P.]. XE.a.I.I.E._.E.`.{.2X Xa.B # # F Y |.>X;X[.W.m.U.U.L.].U.7X6XjXS.pXb.o.n 0 r B ; + @ = = r z K C  .N t.N w  .O.O.O.+.-.O. .^ *.w.n y C ^ o.%.m m n  .5.q.5.6.5.5.6.6.7.7.6.6.6.5.6.5.5.] 5.] ] 3.o.X._ X.) _ _ _ _ _ ) ( _ ) ) ) _ ) Z _ _ ) _ Z ) ) ( ) ) Z Z ) M ! Z M ) Z ^ Z ^ V n n t n o.K t a w = e N -.i > i a N z b b N N t N d w } q.o. . .) o.r.w.m.#X:XvXvX<X*.C $ $ i # + o O o o o + ; > p a z N N J O.K O.+.-.-.O.K z N #.#.-.-.8.8.q.q.8.-.q.8.-.q.:.-.=.-.-.L Y Y O.=.+.Y Y O.-.0.t.d $ i K ",
"|.E.#.a :.E.L.E.].rX XL.P.I.E.E.^.1XqXwX>XP.J o O s =.^.E.;X;X%XI.[.!.n.c.W.dX6XkX#X4Xg...V r w ; @ + + @ i p a #.X.i.*.n V +.y.y.i.w.t.y.c.y.w.w...Q *.c.z.z.6.%.r.z.n.c.z.z.c.z.z.n.b.b.z.x.z.v.g.g.b.v.x.g.6.6.r.7.7.7.6.g.r.6.g.7.g.7.6.6.7.w.7.7.7.7.6.6.6.5.5.5.2.o.] o.o._ _ _ o.` ` ` _ _ _ ) C C ^ C ) V z j n n  .O.K a i N N B J N V C C J a a N B O.t.C r V @.#.7.5.v.(.=X7X<X%X7.n @ ; i - + o + O o + @ + > r z B G w f } O.-.+.:.-.-.O.J N O.O.+.-.8.8.8.-.#.=.-.#.-.q.q.0.-.-.-.Y O.O.=.O.Y O.O.O.;.-.0.J $ J O.",
"a.w.#.K G.L.T.L.R.E.].].'.E._.[.[.;X1X3X}.F.z . O s U E.^.Q.I.I.!.;X!.U.z.m.dX6XzXB.#Xb.$.n = > i + $ $ ; > a z #.!.;Xz.^ %.z.z.z.b.z.z.z.b.b.b.b.g.z.m.m.N.m.b.b.m.m.V.V.x.b.V.V.V.V.m.m.b.m.N.b.V.V.m.V.b.b.b.v.k.b.v.b.v.v.k.v.g.g.6.6.f.7.g.g.g.g.7.6.&.%.&.4.4.o.2.4.%.2.%.%.] %.o.o.` $.] o.` ` ` ) ) ) _ ) ) ^ C C ..o. .C C C V C N V C K  .^ V C !.T. .B N O.C  .o. .o._.C.g.z.Q.;X7.t 9 i p @ + + o o o o % + > r p b d d J @.+.#.O.-.-.Y Y J b O.O.@.#.-.#.-.-.-.-.q.-.#.#.-.t.-.3.X.+.0.+.+.O.O.Y O.O.} J O.d i } ;.",
" .#.q.+.F.L.i.i.T.E.].rX|._.[.[.^.:X3X;X[.-.p . O 8 L ~.Q.L.x.n.:X;X!.m.5.z.dX6XjXx.Z.Q.5.j @ p Y + @ $ - i a a #.P.W.>.I.`.;X1X1X:X:X;X;X;X%X%XQ.W.Q.(.Q.Q.Q.Q.W.Q.`.%X!.#X!.#X`.Q.#X!.Q.Q.Q.Q.(.(.Q.(.).(.C.W.V.V.C.C.M.V.V.V.m.V.m.b.x.z.x.x.z.z.g.g.7.7.f.w.7.w.7.7.7.7.7.6.7.7.6.6.7.6.5.%.*.7.6.6.7.6.*.6.6.#.) ^ ^ K  .) ^ C }  .} C V } } ..X.C n w.c.t a B B I y.n.) o.Q.W.V.dXxX;X^ q @ w p @ # O o o o o + > > r z z J O.=.-.=.O.O.@.Y J J K K O.O.O.O.O.@.#.-.-.-.q.q.#.X.#.i.8.X.@.:.0.0.:.O.O.0.-.=.K J J N i L =.",
"w.t.y.+.w.L.c.L.P.Y.!. X|.E.}.}.;XwX>X^.^.-.d . O 3 J T.Q.W.W.[.wX>X^.I.U.b.dX6XjXQ.#X#Xg.m e p J @ + + + > d N #.n b.$.f Q f f f f f f f u f u y f n f y y f u y k k f Q m f m u m k k k m M M M M m k k j n n n m M n m l n m k m m V j m n n f j f m f m f f m m n n n y n n y j y j y j u j y y j j j k y j y j q e q e e e e e 0 e e e 0 e e e e t 0 *.y.@ z N V  .q.y.e.7.V.b.:XZXcXw.u e 9 i p + # - o # o o + = > r v B K =.} } =.O.K O.Y K J K K =.-.-.#.-.-.-.t.y.y.y.y.#.@.8.P.u. .+.>.t.-.0.O.O.-.=.Y K Y J K i N O.",
"T.P.i...w.T.~.T.E.P.R.E.P.E. X3X:X>X;X;X|.:.d .   3 L E.qX3X:X:XwX:XU.qXtX_.pX6XjXZ.7X7Xz.m t 9 ; @ + + $ 3 p O.} t >X>.f :...+.+.@.-.-.+.*.:.*.:.*.>.:.>.:.>.w.:.:.*.o.$.o.o.w.%.5.o.*. .6._ 5.$.*.o.o.o.3...o.5.X.5.) *.5.) C M ) ..o.} X...} ..#.+.o.) X.+.V ^ C ..V ) n ^ M  .M )  .C ^ m X.C M n ) ) ) ) ! ^ C C C ^ C } C C C } J ^ C n C n C n n n }.I.w i N C q.I.n.c.$.w.x.x.jX`.$.m t 9 ; i $ ; - # # + o + ; w i b J O.O.J J K K K Y K N J K N +.-.-.-.-.-.-.q.Y.|.~.T.i.-.i.Y.t.@.-.G.y.-.t.+.=.-.-.=.O.=.O.O.i K -.",
"Y.P.i.u.T.!.~.^.^.|.^.E.].|.0X0X>X;X^.!.E.-.F . X 6 L ^.wXQ.x.E.eX!.b.U.W.(.dX6XjX#XjXyX7.! e 9 @ 0 @ + $ i K @.f *.wXw.} E.:.w.:.>.>.G.c.c.y.c.c.7.z.i.m.c.c.z.7.z.7.$.w.5.6.w.w.c.w.w.%.r.5.w.%.n.w.7.6.w.r.6.r.o.w.` z.5.o.%.o.o.o.r.o.o.o.r.z.n.%.*.o.o._ ) ..^ o._ o.^ 5.` `  .3.5.) o.X.y._ w.o.5. .o.3._ .._ ) C ..C #.}  .C :.C } C V  .V #...i.^ 2X!.t a N C E.`.2Xw.C 7.` x.bX:Xm f i 9 i i $ + - - # + o O ; 3 i p N J J J J K K K K K K K } K =.:.-.#.-.-.-.-.t.G.i.u.t.#.q.-.#.-.:.F.t.-.0.=.=.=.=.-.=.=.O.K J O.-.",
"E.E.].].^.E.~.[.].0X0X]. XfX0X XqX`.z.c.:.-.K O O 8 L ^.>XI.x.%XyXQ.n.c.I.`.7X6XaXQ.7X#Xx.7.C 9 w 9 @ @ i p d i #.c.wX>.+._.} f f f f J n V C V n V V ^ ^ ^ ! Q m m Q ^ Q C V V m V C ^ M C M ^ ! ^ M ! ^ ) ^ ! M M  .) ^ M ) ! ^ ) C ^ ! ! ^ %.#...M ^ ! ! m M ^ ! _ ) ) ) ) ! ) ! ! M m M ! M m M M m l ) M M M M j j f n f y j t a e t 0 w a e t q.U.n 2X_.e a C C o.n.W.c.) *.w.;XvX%Xe t e 9 i i @ o + o + o o o + + = p B J f N K N K } O.O.O.O.=.-.-.-.-.-.#.-.-.-.O.V y.R.G.+.X.O.:.+.-.t.:.=.+.=.O.=.=.-.=.-.-.O.-.-.-.",
"].}.>X[.^.!.T.E.^.>X XP.P.~.!.}.>X[.E.L.i.:.J O X s Y |.>X>.I.>X;XT.z.z.W.`.7X6XjXZ.9X4Xx...} i f @ 0 @ + i f O.i.c.7Xw.C [.} 9 d i d d N f f N N V f N N f N C C C C B n V C C K C C C ^ K ^ C C Z C C Z C C Z C Z C C ) Z Z I ^  .C } K } K } ^ } ) C  .) Z ) C C C ) C ) C C C Z C M C C C M V V C C C ^ C M C M B M m V n V n n z j z a a p i ^ W.W.a 2X`.q f O.y.W._.m.5.m z.W.(.7Xm.e t a $ ; a + + o + O o o o o o # > a d N N J f K K J K O.O.@.-.-.@.+.:.-.:.-.#.} N =.Y.t.O.I  .-.+.:.-.-.+.+.} O.+.-.:.-.-.-.-.:.-.-.",
"hXfXwX;X^.^.^.^.E.^.c.+.w.#.P.>X}.>X[.c.P.t.K % O v Y  XrX`.>X!.x.L.z.>.7.z.4X7XkXoXaX:XV.| f 9 J + $ $ 9 d O.-.c.z.yXc.} Q.^ e p . + + @ @ @ @ @ @ @ @ @ @ = @ @ @ + @ @ @ @ @ @ @ @ = @ @ = @ = @ = = = = = = = = = @ = = = = = = @ @ ; @ @ @ = = = = = = = = = = = = = = = = = = = ; = = = @ @ ; = = = = = 0 0 = = = 0 @ @ ; w = = = @ @ @ + @ c.;XW.q 0X`.e t  .w.!.eX`.w.! W.W.V.:X;Xe a w $ 9 i $ + - # O o o O o + + + > a J C z z B K  .K K } =.=.O. .O.-.#.-.+.#.+.O.O.K C t.@.K @.u.u.8.-.#.-. .O.q.G.P.P.P.P.G.y.-.-.",
"tXhXyX>X>X;X;X^.^.;XI.L.L.} q.].`.;X!.U.].P.T - & v 1. XwX;X;XV.<.m.I.z.c.f.4X9XkXZ.9X#XB.f.9 9 N + + 9 ; i K -.G.z.yXx.^ !.) a i . . + + @ + @ = # # @ # + # = = $ ; @ ; = ; @ = = ; ; ; = = ; - = = ; ; ; > = : ; w > ; > ; ; ; > > i > w > > > r w > r r r r w > r r > > > > > r > > > r > r r > r i p r r r i p p a p a p t a a p r a i p r t I.%XV.y >X`.e p  .w.W.%Xb.$.l W.C.g.dXyXt y t @ 9 s $ $ - + O O + # o + - ; > a J I z z N J I O.K O.O.O.}  .+.+.+.+.+.:.F.t.-.K @.-.#.+.O.i.u.#.#.-.-.O.#.q.y.i.P.P.E.G.t.#.q.",
">XrXwXwXyXyX2X^.!.[.[.[.P.} q.].^.}.;X>X2XY.J - # F ;. X>Xm.z.z.x.!.E.I.n.V.7X6XlXB.7X&X7X!.9 = L + $ i w r K *.i.x.yXc...`.^ n i . + $ ; r = i p r > r r r > r > r > r > > r w p i r r r > r p a a r a p z a a p z p z a a z z a z z z z z a a z z z z a z z z z z z x z n c j z z z n b N B n N n b n V N B N B N B n n N n B N B C B B B B N V `.3XW.a >X%X9 i  .y.W.`.(.&.` V.C.x.jX;Xy t r $ ; i # o + o o O O + # + - ; r a K  .N n B C #.#.O.} O.O.O.#.-.-.-.+.-.:.G.L.u.t.t.O.O.@.@.u.i.-.@.#.@.O.#.q.w.y.q.i.E.G.T.E.I.",
"wXrXwXhXyXwX^.;X;X[.}.|.E.O.#.J.!.[.;X}.'.e.B - O F @. X;XP.x.I.I.I.W.Q.I.V.7X9XkXB.5X4XzXm.e r K $ + 9 ; p C -.I.V.jXx.^ ;X%.f d . @ ; i p p a z p a a x p r z z p z p a z z c a a z c z z x z x N x x N N x N z n N N N V N N N n B M n B n V C B V V B V B Z B B B M B C C C C C B C C C C Z B C C C C C C Z C ^ ^ C I ^ C C Z ^ C  . .} Z Z ) :X7X%Xf >X;Xe r ^ z.W.%X<XW.4.b.(.b.%X/ m V w $ $ i # + # o o o + & + # $ > p N K K N N N V O.-.@.K O.O.-.-.+.#.:.:.:.w.Y.^.t.t.t. .I #.q.t.t.-.@.#. .O.-.#.-.w.w.J.E.y.P.E.T.",
">X2XqX^.^.I.!.;X[.[.wXtX X#.@.#.:.L.E.@.C  .J # O F W  X[.I.m.W.I.I.@XW.I.x.6X6XaXoXbX:XC.Q e r O.@ @ b p z n o.W.W.jXc.%.<X' V a o ; > i p z z b N N z z z z z n a z n z z z b x N N x z N N N N V N N B B K C B C C C C B B C C V B B Z C C C Z Z Z Z Z C C C Z C Z Z Z Z I X.I I Z  . .I X.T I Z I ) Z I )  .I  . . . . . .)  .} I  . .X. .X.o.4X7X;Xf 3X;X9 w } *.!.`.7X:X%.b.C.b.%Xm.o.:.N $ 9 i # # # o o o O + % + ; > b N N N V C N C I O.-.q.-.-.=.O.} O.#.8.y.L.~.E.:. .O. .@.0.y.y.t.-.#.q.q.8.-.-.-.-.q.i.E.y.:.#.+.",
">X^.>XQ.I.!.;X^.;X>X3XyX].I  .@.+.T.-.n  .8.T O O F =.|.wX[.I.W.Q.Q.E.!.I.m.7X-XjXN.=Xs.Q y t r K + w  .r a n X.W.V.zXb...;Xo.n a . $ r p a b N N z a z t a z z n z z x z z z B z N B B B B V V B V B Z C C Z V B C B V B C B C Z Z C C I Z I I I  .Z Z Z I Z Z ) I X.I Z I Z Z Z Z Z X.I I ) X. . .Y X. . . .T  .X.I )  .o.X. .X..... . .o.@.o.$.5X7XZ.y >X;X9 w J c.W.Q.jXdX' z.V.C.7Xm.` ^ a @ i i # . # o o o o + + - # p K B N N J J N N C K O.-.O.O.O.O.O.+.#.3.r.T.^.u.#. .#.#.#.w.y.q.t.q.8.i.u.8.q.:.8.t.w.u.i.y.+.O...",
"L.c.!.T.^.yXyXyXfXfXtX}.E. .@.t.-. .z  .i.u.W O O F Y |.3XwX3XeXyX^.!.!.@XI.7X6XaXh.h.&.! ) j t K $ a B w z Z o.z.W.zXm...`...n a o = > a b z z b b n z z p j N z n N N n N N z z B N B B B Z B V Z Z B B V C Z C C B C C C B C B Z C Z I Z Z Z I Z Z Z Z  .X. .I I I Z Z Z Z Z X.Z  .X. .X.X.X. . .X. . .@.@.X.X.X.X.X.X. ... . .X. .X.X.o.o.X.%.dX7XC.y >X;X0 w n o.I.%X`.hXw.g.V.C.SX#Xj q 0 $ $ i $ # # o o o o O # ; # c Y Y I Y I K O.#.-.#.O.O.} O.@.O.Y  .I Y @.P.P.i.L.q.#.#.#.i.i.#.+.q.u.i.u.w.q.-.-.O.C  . .#.q.i.P.",
"Q.E.^.;XwXyXyXCXhXhXyX!.i.+.-.#.O.N @.8.u.3.b o < L O.E.^.>XwXyXyXQ.Q.^.Q.W.4X6XkXl.jX7Xh.] j t J $ = w r n  .5.7.W.xXb...<X6.M a + - i z p a b z z z z z z z N N B x N B N c z z B N Z x N V B V V N V N C B Z Z C Z Z Z C Z Z C Z C  .Z Z Z Z Z X. .Z  . .Y X.X.) X. .I ) I X. .I  .X. . .X.X.X.X.X.X.o.o.@.o.#.@.3.o.o.o. . ...@.o.o.X.o.+.o.5.jX9XC.m >X;Xe N y.q.Q.Q.z.%.! x.V.B.HXpX( j r $ i i ; # # o O + % + - - = p L Y -.O. . .#.#.#.-.@.O.O.O.} O.Y T K I O.u.i.q.P.i.q.#.-.a.i.q.:.u.w.i.w.8.t.-.-.I @.@...i.t.Y. X",
";X>X>X>X}.[.[.>XrXhX2Xi.8.X.@.I z z O.q.t.K p X 5 L ;.Y.L.I.L.!.yX;X^.[.^.V.6X6XaXB.bXzXk.2.j t } $ @ @ z n o.M.n.m.bXb.4.`.6.M f + $ i p z z a a z z z z z z z z n j c x N B B B B N V x V V B Z C B B C Z C B C C C  .Z X.I I I I Z X.I Z Z Z X.X.Z I Z X.Z ) Z  . .) I I X.X.X.X.X.X.X.@.X.X.X.X.X.3.@.@.3.o.#.5.#.3.#.o.o.@.o.+.X.o.+.+.X.X.4.kXjX#XC 3X3Xe a +.5.m.#XW.M Q v.N.V.HXpX( m 0 = > i ; + - - + + O O + - ; p c N Y K B I  .C  .@.8.q.t.q.#.O.O.O.J N B K O.O.-.i.i.y.q.F.y.t.i.i.q.w.t.q.q.q.t.#.w.i.i.E.i.P.P.",
"^.>X3XwX3X}.>X2X>X>XE.i.w.#.@.z = p #.i.O.z : X A W ;.Y.L.y.I.3XyX>X:X;XL.x.4X-XkXB.ZXxXg.] j t O.$ @ 9 n X.3.n j x.bXm.$.:X7.^ f o $ r r c z c p z z z x N z N n c c x z N B N B z N x B B V B Z B Z Z C Z I Z Z I Z I I I Z I Z  .X.Z X.Z Z X.Z I Z X. . . . . .X.X. .Z  .X.X.+.X.@.X.O.o.X.X.o.X.o.@.5.o.#.3.3.o.o.5.3.o.o.o.o.o.....X.o.X.o.*.jXkX:XQ wX,Xy 9 K q.7.3X<X6.4.k.V.N.HXaX( l q w i i ; + - O O + O + - ; ; - $ c Y J b N N B O.3.#.0.i.i.@.T -.0.O.N Y O.O.O.:.L.i.w.:.:.q.i.L.q.q.i.t.q.-.y.L.q.w.i.P.P.P.R.G.",
"1X>X:X>X}.[. X_.U.I.U.i.8.0.C p z I u.u.O.p - - G U =.T.L.c.!.wXwX^.}.W.>.z.<X6XaXB.mXxXk.] j q  .w 9 t  . .w.^ ..C.bXb.` (.7.! a + + > r r p z z z z b z z x N c z z N N x B x z N N V B x B B V V Z B C C C I  .C K Z Z Z Z Z Z Z Z I I Z Z X.I Z Z X.X. . .X. . . .Z I )  . . . . .X.X.@.X.o.@.o.@.o.@.o.o.3.#.5.#.5.#.o.o.#.@...X.X. .@.o.X.7.zXjX$XM wX4Xy f #...C.dX<XC.4.g.N.N.HXjX] M r = i p ; o o o + % O - 5 p p > $ p Y B p p z z T O.I I 8.u.u.q.O.O.-.-.t.-.=.J O.q.w.-.-.-.G.Y.:.X.O.+.+.#.L.T.P.u.i.y.i.P.u.y.u.",
"3X3X;X!.W.P.5.#.a.J.i.w.#.I a a T 8.t.-.I a ; 8 G F ;.Y.L.c.I.^.;X|.}.I...f.7X6XaXB.NXbXk._ j t  .0 0 f #.n q.^ x.Q.bXN.' Q.7.M a o $ r p p c z z z N z z z z B z z z N z N V n n B N B Z V B B B B C B B Z Z C Z Z Z Z Z Z Z Z Z  .Z X.X.X.X.X.X.I X.Z I I X. .X.X. .Z Z Z  .Z X. .X.@.@.o.@.@.X.@.3.#.3.#.*.3.3.*.5.#.6.#.o.+.o.X...X.o.o.X.o.*.zXkX(.m 3X<Xu f } z.eX*X%XB.2.g.b.B.JXjX_ M t 9 i p = o . . o o + = p s b p i p T J p i p b K O.B B Y 8.G.u.J K -.0.t.-.} J -.8.:.#.-.>.G.G.-.C  .} #.L.!.I.u.y.t.y.P.i.w.5.@.",
"w.w.T.|.E.c.:.:.u.-.q.8.@.B i T #.:. .} K a $ v U L ;.G.y.>.F.I.!.>X>XI.^ z.pX6XkXB.NXNXk.] k q C 0 w t n V o.M m.#XbXm.$.C.] C f + $ > i p z p z c z z z z c N N n z B x B B N N V B B B B B Z Z C I C K Z Z Z I  . .Z X.X.I Z X.X.X.X.X.X.X.X.X.X.X.I X. .X.X.X.X. . .I  . .X.@.X.X.3.#.X.X.X.o.#.3.o.*.5.5.o.5.3.5.5.6.*.+.o.o.o.o.+.o.@.o.o.&.zXjXC.u wX3Xu V ..!.7XW.g.V.[ s.V.B.LXaX] ! t ; i a $ + o . . . o o o # 5 r r p z c r p p a b B J B B J N z N U d r p J K O.-.F.w.+. .>.F.-.O.K O.#.y.~.E.+... .X.X. .X.u.-.K ",
"C +.L.^.c.+.:.:.w.t.t.t.Y = s -.-.K  .#.Y a 3 L E F Y -.w.L.T.E.^.].[.P.>.I.6X6XkXB.AXAXB._ k r C 9 e e V X.q.^ m.$XxXN.o.#X7.! a o + r > z p z z a z z z z N N N x B b V B x B V B B B Z B Z B B B Z Z ) Z I  .I  .X. .Z I X.X.X.I I  .X.I T X.X.X. .X.X.X.X.@.X. .X.X. . . .X.@.#.X.X.3.#.3.o.3.3.3.#.o.#.o.3.8.5.#.*.#.@.o.o.@.o.@.o.+.o.@.o.*.kXsX#Xm wX,Xy V } b.eX<Xb.Z.2.g.b.N.LXzX[ ) t w i d $ + O o o . o o . o ; > r i > ; r z b b b B J J B J a p L =.a - z K O.=.:.t.-.K +.L.G.} } J O.>.i.~.P. .B I O.z z O.-.K N ",
"} -.-.-.#.-.-.:.u.G.0.t.I p Y 0.@.#.t.0.L 3 s U L F L =.-.t.G.Y.E.E.E.n.c.I.7X6XkXB.AXAXB.] m e ^ 0 e t N ..*.^ b.$XzXx.! b.%.C f + + > r p z z z b z z z z N N c N z B B B V B B V B C B Z B T Z C Z Z I C T Z I Z  .I Z I X.X.X.T X.X.I I X.X.X.@.X.X. .X.X.o.@.X.X.X.@.X.X.X.X.#.#.#.#.X.#.5.3.3.8.3.X.K J I K B C I @.5.#.*.o.+.o.#.o.5.#.o.7.zXkX(.Q 3X4Xy f +.W.jXjX4X5Xs.b.V.C.LXxX2.) a i i d # # # # . o o . . o ; 3 p 5 r > p z b b N G J J b z d b d s i p p J =.-.-.-.-.=.=.-.F.@.J J O.F.F.L.q.Y B C B r b K J p p ",
"J O.O.Y N N J K O.O.O.Y K T 0.-.O.=.-.J i O 5 G L s U ;.F.-.-.t.t.G.i.q.i.w.:X6XkXZ.DXSXB.4.M t } 9 e t V y.L.7.b.$XzXb.` ;Xf.C z + @ r r c a b z z a z z b B N b N n b B B x B B B C Z B B Z B C Z C B I B B Z Z Z  .I ) I X.T X.X.X.X.3.X.X.X.X.X.X.X.@.X.@.#.@.X.o.@.@.X.o.@.#.#.3.#.3.3.#.3.3.#.X.@.B p c 5 5 h p z K #.o.#.5.#.#.o.#.o.#.5.7.zXlX#Xf 3X3Xf f o.;XvXvXC.iXf.b.B.Z.PXzX2._ t w i i + # - - + + o . . . . o o $ 5 c v b b d J J J b z b b G > 3 v v z Y U ;.=.O.O.=.-.=.-.=.N b J =.=.T I N v b p i b b p - ; ",
"5 b b b s p F d s p d s d J G b F J d # . o s L G F L ;.U =.U Y K F d b B z W.4XkXZ.FXDXB.4.! j } 9 e t J y.+.f V.$XxXh.$.%X6.Z z + - r p z z z z z z b N N B x B B B B Z Z B B Z B Z B B B Z Z Z B Z B Z Z Z Z B Z X.I X.I X.X.I X.X.X.X.X.X.O.X.X.X.@.X.@.X.+.#.#.3.o.X.@.3.@.3.3.3.#.#.3.#.3.I J b z v 5 3 3 3 3 5 p s N N K @.5.5.5.3.3.5.o.6.xXxX&Xm 3X<Xu n o.$.m.&.=X6Xd.l.B.B.JXkX[ _ t 9 i i O .   . .                 . O O # # # - - - # - # 2 # # O # 2 2 3 3 3 p p 3 s s s s s 5 5 - - i 5 s 5 3 3 ; - 3 3 5 3 - - ",
". X . . o . . . o . . . . . O O . . o o O 3 F F L L ;.W L 3 O # # O + + - > I.-XkXZ.FXDXC.%.! j  .0 u t 9 f V ! %X#XzXv.` %Xg.! z o = r z z b z N n b b c b B B B B Z X._ 1.T Z Z Z Z B Z K J Z Z Z I B T Z T Z Z T X.I  .Y X.X.X.X.@.@.o.@.+.o.@.@.X.+.+.#.3.3.#.@.#.3.3.o.o.X.o.5.*.#.3.5.3.I d p 5 5 3 2 2 3 3 2 2 3 3 5 i z C @.5.5.5.5.5.3.6.xXxX%X! 3X<Xq n $._ 3Xb.AX8Xd.B.Z.Z.HXkX] ` t 9 i i #                         X   X X   X o     X . X . .   X . X .     X X                     .             X o X           ",
"< - , - O O O 2 2 - , # O o , 2 3 2 3 , 8 F F L U W U L F 3 s L L s s F G G P.-XkXB.SXDXB.2.M j +.e q q y ^ M 7.=X#XxXx.` Z.%.M z + # r z z z N z B N N B b B I e.U. X1X1X{.{.{.I.e.X.B Z B Z B B T B Z Z Z K B Z Z Z X. .X.@.@.@.I I I @.@.#.#.#.#.@.o.+.3.3.X.@.X.3.3.X.@.o.@.X.3.3.5.3.#.I z p s 3 2 5 5 s 3 8 3 3 5 3 2 3 5 p K 3.5.5.5.e.6.6.xXxX$X/ 3X4Xy V %.f.4.m.JX6Xd.j.Z.Z.LXxX[ _ t e i i #                       X . X X . O O O # O # O # , # , 2 7 3 2 2 # O O O O O O X X X . X X X o X X X X X . X X .   . X . ",
"h v F v h 8 8 s 5 s F F s s s s 8 v s s H L L U U ;.U L L U W ;.W W Y L W I W.6XaXB.SXDXk.2.( j *.e q u n m k x.5X&XzXx.` (.4.M a + ; p p z b b b B B N n I a.}.gXgXhXhXdXgX{.1X0X{.R.#.B V P Z Z Z Z Z Z Z T Z T I T X.X. .I K N N p i z I +. .+.Z I X.X.@.o.3.3.5.3.@.3.X.3.o.3.3.3.#.#.I b 5 8 8 3 3 5 s 3 2 2 s s 5 3 2 5 2 5 c I +.6.e.5.e.r.bXxXOX! 3X7Xu V 7.B.5XDXPX9Xs.N.V.oXPXzX4...t w i i +                     . . o o X O - - - 2 2 - - - 3 3 3 8 s 8 s 8 2 2 2 2 - - - , # 2 , O O O < # O O O 2 < # O , , 2 , < ",
"Y Y U L L L L L U Y W O.U U Y U L Y U W L L U U U W L ;.;.;.;.0.F.K.G.K.F.y.;X6XaXB.AXDXl.2.( j +.e q u k M ] N.aX-XxXx.( `.s.) a + = r p b b n B B B B 3.{.fXhXhXcXvXvXvXCXhXgX2X!.P.q.I B B Z Z I I I  .Z T Z Z  .X.I J z w B @.T c ; - r N O.B i p c B I @.@.X.3.3.@.3.o.3.@.#.5.3.3.@.b > 4 2 3 s 8 5 i 2 3 2 5 s 2 2 3 3 2 3 5 a B q.w.e.6.g.bXxX5X~ 3X6Xu M f.S.bXUXPXiXd.N.Z.oXLXzX[ o.t 9 i s #     . o . o + $ - - ; 3 3 3 3 s s s v b s d d G G z v b F J G G s v v 5 5 8 5 3 2 3 2 2 2 2 2 2 2 2 2 3 5 s s F p s 8 p ",
"K.F.0.F.;.Y ;.=.0.K.~.'./.~.T.F.F.9.0.;.Y W Y L F L ;.;.W ;.F.^.tXyXhXhXhXdXzX-XaXB.SXDXk.2.! j *.t q u k ! %.C.jX=XzXx.` Q.7.) f + ; p z z z N N n B +.{.cXhXgXcXcXhXvXCXvXvXdX Xn.X. .Z Z B Z Z ) Z X.X.T ) I  . .I B B = b F.9.I s - # i 0.K.K ; ; - p z B #.3.3.3.o.X.3.#.3.q.q.3.#.K 5 5 5 3 8 5 s 5 2 s s ; 2 5 3 5 8 2 3 3 2 3 p #.w.e.6.6.bXxX#X/ 3X7XQ M d.OXnXUXPXiXj.j.Z.OXKXlX[ _ t 9 i a $ # # - 3 : > v b G J J L K L Y =.0.F.F.F.G.F.t.K.G.F.0.Y O.-.F.t.=.=.O.K J J K G 3 - X O 2 5 8 3 8 p s v F L Y O.O.Y z d ",
" X].].].Y.G.~.|.|.^.rXgXhXtXrX0X~.E.G.G.G.0.G G A L ;.W W F.tXCXyXcXCXCXyX:XkX-XaXl.AXDXl.] ( j o.q q u m ! ] Z.aX&XlXg.] ;X%.^ z + ; r z z b N N B I _.gXdXcXgXcXcXcXvXhXcXvXgX{.5.Z I B N B T Z T I Z I I X.X.@.T N J b 5 J J p d G K J =.T J J N B B B p p I @.5.@.3.@.o.@.3.8.3.#.#.G 8 5 3 3 3 3 i s s s i i 8 5 3 s 3 6 2 2 2 2 > I e.e.5.6.bXxX-X` 3X7XQ M g.+XnXUXUXiXj.B.B.oXPXlX] _ y w i a $ - - - - - = i N N J K T K J K O.-.q.F.L.G.G.y.G.G.L.u.w.:.G.Y.L.G.y.u.q.-.@.=.K - ; 3 v 5 c F J F F K -.#.t.F.y.u.u. . .",
"tX>X}. X|. X XtXtXXXtXCXhXCXhXyXtXgX X~.~.0.> 5 i F L E O.|.CXyXyXyXcXwXz.N.7X&XiXl.BXVXk.2.! j ..q u ~ _ ` [ Z.kX*XxXx.[ (.` ) n + ; r z z b b N B a.2XgXgXcXcXvXmXmXvXvXvXvXgXW.6.o.X.Z V B I X.T X.T I X.T X.@.N > r ; ; ; : Y 0.L b b p > i b b p J @.J r z @.5.5.X.3.3.3.5.8.5.5. .c 3 8 3 5 s p K a O.:.J s b s 5 8 3 3 2 2 2 2 > B e.r.6.6.bXxX4X/ ,X7Xk ( d.+XVXUXUXiXd.B.oXoXPXxX] _ t 0 i a > > ; $ + o o ; b J K Y Y L J F N Y :.i.I.P.y.G.y.G.L.P.P.P.T.T.T.L.L.P.P.G.G.G.=.- 4 F v 5 z L 8.Y @.:.y.L.Y.P.i.i.i.P.G.",
";X2X3X3X>XwXtXtX2XtXhXfX3XtXyX>X>XyX}.U._.#.i F F R L W ;.|.hXtXyX_.m.c.W.Q.pX6XaXl.AXBXk.] ( j ..e k ! _ _ 2.C.kX*XxXb.' %Xg.) z + ; p z z b N N Z {.eXgXhXvXvXlXZXAXZXAXZXZX9X=X$X:XV.*.C N J T X.X.X.X.X.X.3.Y p p b O.J v G K.b > ; > c z B @.K b i s z p i T 3.X.3.#.3.3.8.3.5.q.X.c 5 4 i a C } T...Q.qX$.d d G d 3 3 5 - 2 2 2 > B e.r.7.g.bXnX*X~ <X7X~ Q 4.OXbXUXUXiXl.B.B.OXLXjX2._ q w i d i ; # o o + + = b b p d a a a a b J +.:.T.P.L.P.Y.G.w.i.L.Y.L.E.E.T.T.!.T.I.P.q.-.- - 8 v G @.@.-.-.q.:.#.:.i.L.i.y.c.I.E.",
";X3X3X>XeXhXcXhX_._.2XhX2X[.!.r.w.I.T.>X0X3.p G F L U Y >.qXyX>X;Xz.n.I._.Q.6X8XaXB.AXBXk.2.( j ..e j ! ] _ ] B.aX$XbXh.[ %X7._ n + ; r c z b n B 6.;X3XfXcXvXbXAXAXSXSXSXSXAXAXbXkX9X&Xx.`  .C X.X.T I T @.@.@.I Y Y t.0.L T b p 3 b b T 0.i.K.K.F.L c 3 5 > > T 3.3.X.3.3.3.3.3.3.3.X.p 3 ; N *.I.jXcXx.7XlX@X$.f ^ V n a 5 5 2 2 - ; B e.w.r.g.mXxX-X! <X,Xm ! 4.OXxXUXUXiXoXOXS.OXPXkX2._ t w i v i # o o % o o > b z p p ; ; p a a a N  .^.E.Y.Y.G.u.@. .#.*.:.:.c.[.[.[.}.!.P.#.K + ; p K 8.t.u.L.L.t.#.O.+.w.L.G.c.y.c.~.",
"}.;X X}.0XyXyXtX XeX>XhX;X`.E.q.i.E.E.tXrX3.> b L W W 0.T.tXyX@X[.I.I.[.`.M.7X-XpXB.DXVXl.[ ( y $.e k ! 3._ ] N.aX$XbXx.` #X7._ n + ; i z z b B 3.{.2X3X1XjXvXxXZXNXSXHXSXSXNXNXNXlXsX8XN.` *.#.Z T X.T X.@.3.X.0.N b L - > v ; - b 0.0.K.R.K.u.F.=.K v ; 5 - : b  .3.3.5.3.3.3.3.3.5.@.z - 5 z.,XbXSX7X:XNXAXZXyX$XW.z...J p 3 2 2 2 - x e.r.r.g.bXbX$XQ <X7X! M 6.S.xXUXUXiXl.OXOXOXPXzX2._ t r i p > @ % O o o . 5 z z b z p d z b p N I >.^.Y.G.G.F.u.#.@.+.+.-.#.i.].[.^. XE.u.t.Y r b J #.P.P.G.L.y.F.K N :.P.P.y.t.y.L.E.",
"U.U.!.[.}.c.i.E.[.tX XE.U.E.I.q.P.i.n.tXeX@.> b L W ;.^.>X>XqX^.!.I.[.!.W.C.yX-XpXB.DXAXk.2._ j ..u j M _ _ ] k.aX$XxXb.&.%X7.) n + > a c N B V e. XgX1X1XcXjXaXMXNXSXJXSXSXVXVXNXMXsX,XB.[  .8.Z I X.I X.X.T I 0.p d p 3 J K p B =.Y.F.3.U B N b B G c - 3 3 ; ; p @.3.e.3.3.8.3.q.q.@.z : p (.lXZXJXFXSXFXFXSXAXxX4XW.7. .N 5 2 2 2 > B r.v.r.7.mXNX6X~ 3X7XQ ! 2.S.xXUXUX8XoXOXB.S.KXaX2._ x r p d # o o o O X . - i d s z K Y Y N p b Y -.L.-.O.=.+.O.J.P.8.-.#.:.i.L.i.i.L.w.#.N K K t.i.L.]. X[.^.c.L.K a F.G.>.-.:.t.q.>.",
"c.i.U.|.>X XU.I.>XtX[.!.E.U.c.5.P.P.P.0X>X+.p s L =.;.|.^.;X^.x.r.U.}.!.W.W.dX,X6XB.AXAXk.4._ j ] q k M _ _ _ k.9X$XzXf.` C.6.) n + ; z N N Z 3.a.).{.).}.cXjX9XMXMXSXSXAXNXNXNXBXMXlX9XoX&.V } T Z X.@.X.X.X.@.t.b > p c 0.=.B =.9.Y J v 5 p c p b b v - 3 3 ; ; > K q.3.3.3.3.3.3.5.3.K > n `.dXzXZXAXJXSXAXdXE.w.o.)  .o. .b 5 3 2 > X.r.v.r.g.mXbX$X' 4X7Xm ! 6.S.nXUXUX8Xl.OXOXOXKXjX2.Z t w i s O . O O . . . = > z z b J Y O.J J K O.-.+.-.O.J f K -.u.8.:.#.y.t.y.y.y.-.O.B C +.#.i.L.L.T.!.[.T.i.y.K a Y t.-.#.q.u.L.i.",
"i.U.{. XhXcX}.I.].0X].U.!.U.U.I.U.q.i.>X>XO.i 5 L W ;.qXtX^.I.T.P.!.[.T._.V.7X-XaXB.AXAXl.4._ k o.q j ! 2._ _ b.6X$XzXf.` ).4.) n + > z N N 3.gXcX X).}.3XdX<XjXMXZXAXSXSXAXNXNXNXMXxX9X@X,.^ N B B X.X. .@.Y J T U v z Y K.=.J T J p > > > ; > 5 p b p i v 3 2 : - B #.e.3.e.3.3.5.5.3.=.b z o._ C ^ Q.NXAX,X! e a O.-.) M X.N > 2 4 p 8.r.r.r.g.bXxX-X! <X7XM M 6.OXxXUXPX-Xl.oXB.S.PXaX] 2.> w i s # . 3 - . . + # > z p p d N T K O.O. .O.-.-.#.=.-.+.K n K -.i.~.G.#.:.-.O.O.} -.-.t.+.#. .#.y.c.L.y.y.X.J F p O.q.y.G.P.T.",
"].>X}.}.tXhX0X[.qX0X!.!.n.M.I.I.c.P.E. X^.+.; 3 D L F.tXyX^.W.^.].U._.!._.b.<X=X9XB.SXAXl.4.( j o.q u ! %._ ] k.6X$XxXf.( b.] _ n @ > z c N q. XfXcXcXrX}.).,XlXlXlXyXlXDXFXVXVXBXVXNXkX#X>.K a b U #.X.@.@.Y p > v b I 0.Y b b b c > : 3 - - > ; > i c L K i 3 - - p Y e.e.3.3.e.3.e.3.8.I c +.i.X.N &.9XZX#X` } +.O.#.y.$.o.K i : ; N i.n.v.r.g.xXlX$XQ :X7Xm l d.OXnXUXPX-Xl.B.OXOXKXjX_ _ a w i s # o 3 $ . o + @ > p s z b N J K B K O.O.O.O.-.-.t.-.J C I X.y.~.u.-.-.#.O.J K #.:.t.} }  .8.>.:.y.y.w.-.@.f i q.P.L.P.T.^.",
" X3X1X>XeXhXrXwXgX>X>X`.P.E.U.I.!.U.I.I.i.J $ i H L K.yXcX^.Q.!._.[. X XU.m.4X&XjXB.AXAXl.4.` k o.y j ( ` _ ] k.4X$XzXg._ #X6.) n @ ; z B B X.q.e.{.gX}.a.(.7XlX:XV.>.+.r.<XlXNXNXlX4Xz.! y a p K K I X.o.T a > i b K 0.t.c > p p 8 v v p z B I B z t p z J F 3 - - ; z 0.6.e.e.3.e.3.e.3.X.V i.7.+.C m.9XNXZ.&.^.T.f ! ~ x.7. .r > r Y n.a.r.r.g.bXkX$X~ :X4XQ l d.OXMXUXPX-Xl.OXS.OXKXaX] ] j e p d $ + $ - O o o + r z b z z b N N  .}  .#.O.O.+.-.-.-.#.:.Y N K #.O.O.K N b V J J K } O.-.q.q.t.*.-.q.-.-.O.K K G.E.T.P.Y.E.",
"[.2X;X[.}.tXfXfXrX X}._._.W.!.!.!.U.P.i.#.B ; 3 G U t.rXwXQ.U.U.W.!.>X>XT.z.4X&XpXN.BXAXj.4.` k ..q u Q $.( ] b.5X$XlXf.` V.` _ n + ; z N B ) I.a.5.5.3.M.).aX9X,XQ.>.K f u | 9XlXm.f w f } J i d z C #.3.Z p v p T Y T Y p ; p B @.=. .#.m.:X,X:XQ.V.&.Q a J s 3 - - a -.w.5.e.e.5.3.3.e.3.o.W.x.I.V.,XlXNXQ.Q.yX,XL.<.V.&XV.^ e f O.#.r.7.r.6.k.zXzX5X! :X6XQ M 7.S.xXUXPX8Xl.oXB.OXKXaX] o.t w a d $ + + # # + o @ r p z a a d J K >.t.-.:.-.O.:.-.#.-.-.-.K d I =. .-.J a d N d f K +.>.y.L.G.:.:.-.-.-.:.-.@.@.F.T.L.L.T.E.",
"E.[._._._.[.!.!.].[._._._.!.!.!.!.U.m.c.i.O.i 2 F U F.0XwX;XQ.!.I.!.^.^.w.b.jX&X6Xb.ZXAXh.4.` k ..u u ~ ] ` ] b.6X#XkXg.' W.[ ) N + ; r z Z {.hXgXgXU.y.{.W.aXlX,X<.| f >.<.oXMX9X^ e i J f N w i K I #.8.B B N c @.Y b 5 3 4 b O.q.@.f.=XlXlXMXlXlX9X,XN.| t J s - > p #.w.e.e.6.p.3.e.5.3.g.jX9XjXlX9XNXMXoX@XkXxXjX9XkX,Xx.^ f C } o.a.r.r.r.g.bXzXOXQ :X7X^ ^ 7.OXxXUXPX+Xl.oXB.B.FXiX( ` t w i d # O + O - o . o # > i i p a b K -.y.#.O.O.} J J O.-.#.#.N a K K K O.U O.J J N =.-.t.t.-.+.@.-.:.-.#.#.-.-.#.-.w.i.y.i.G.I.",
"E.T.!.[.`.{.!.E._._.[.!.!.!.!.`.!.`.}.I.y.+.p - h U u.rXyX^.!.Q.W.!.!.I.:.`.vX$X6Xk.AXBXh.4._ u } q u Q _ ( 4.N.9X$XkXg.' (.` ) n + ; c z q.wXeXgXhX{.n.!.V.kXxX9X9XqX@X$X7XxXSXkX/ $.>.>.Q } w z T C X.q.N b J B @.T p 3 - v Y #.+.x.&XlXVXVXMXMXMXMX8X@X<.f d 8 2 3 a 5.a.e.e.e.e.3.3.3.3.A.xXVXNXNXlXVXlXoXoXlXNXNXMXlX6Xx.^ y } ..5.r.6.r.6.r.xXxX$X~ =X6X^ ^ 6.OXkXPXPXiXl.B.oXoXFXiX( o.y w i d # o o o # + o o @ > 3 5 p d N K O.} K K O.G i G #.-.-.=.N p J N J O.Y d f N Y +.O.-.O.} O.O.-.-.-.O.@.:.t.#.#.#.q.y.t.i.P.",
"i.>.P.`.[.[._.[._.U.!.!.Q.W.!.Q.!.}.2Xr.:.+.p 2 F U 0.0XyX!.Q.%XQ.;X>X0X3XyXbX&X6Xx.BXBXh.4.( j ..u k ~ ] ` [ k.-XOXzXf.%.(.%._ n + ; t b @.{.I.M.n.M.R.*.z.kXMXSXSXZXMXxXNXNXNXlX,.!.,X$XQ.*.w i z n @.3.z v K 0.T J - - ; L =.J +.#XlXVXFXFXSXMXMXMX9X8XB.| 9 - 3 i J e.e.e.5.3.e.e.5.5.3.B.xXVXSXNXlXVXlXoXj.lXSXAXMXsX,Xf.^ q V #.w.r.r.r.r.g.xXsXS.( :X7XQ ! 7.OXaXPXPX+Xd.B.B.oXHXpX] _ a 9 i d # o + + 3 # + ; + ; i p z N d J O.K N a N d f +.O.O.O.K N b K J a b i ; a N } @.+.} K =.=.+.O.O.O.K #.u.G.8. . .K -.q.w.y.",
"*.#.L.!.!._.!.!.W.I.!.!.E.U.W.W._.>X}.w.q.8.b - F L K.tXtX!.!.;X;XeXfXyX;X7XbX&X6Xk.BXBXh.[ ( u } u f / [ ` [ h.5X$XzXf.&.%X4._ z + ; z z C q.3.C V C C n 7.9XbXSXSXSXSXSXSXMXMXMXj.oX9X9X8X<.e > p B 8.3.c r K F.J c 5 i b Y L f n.9XMXSXJXJXSXVXMXMXsX8X+X,.f - ; > T a.r.e.6.e.e.6.6.e.5.v.lXNXSXMXMXJXlX@XoX9XSXSXNX9X@X&.f f C *.n.a.a.r.a.k.zXzX$X( =X7XQ _ d.OXsXPXPXiXd.B.oXoXJXpX] ..j 9 i d $ . . + i r > > + ; ; r z N N N N K f J J J O.=.K O.N a d p b b p i > w i i J O.J d K -.-.+.O.O.O.K #.t.G.#.} C N @.8.q.q.",
"y.y.E.L.P.P.U.E.E.!.!.I.E.W.U.!.`.>X}.z.n.J.B - F L F.tXyX;XQ.;X;X;XQ.I.m.;XzX&X5Xh.xXbXf.d.] u ^ u k ( ] ( %.b.6XOXzXg.` b.` _ n + ; z N B Z B n n C m m $.4XlXMXSXSXSXSXSXNXSXSX,X<.9X9X,X$.f z K #.e.e.z ; B T a > 5 b J T z $.,XlXNXSXJXJXJXVXVXMXMXMX8XV.} ; - > @.a.a.a.a.r.e.e.p.e.e.z.aXNXVXlX8XbX,Xj.<.@XSXNXxX9Xj./ u V ` z.n.v.g.r.z.k.xXsX$X' =X7X/ Z d.OXsXUXPX+Xl.B.Z.B.FXaX] _ t i i d + . o = i r 5 r # + = r z N N N J d J K K  .@.=.O.J J F a i a z > p N Y K J O.O.J J J O.Y K Y K K :.F.>.L.G.y. .N q.-.-.*.",
"q.#.L.P.I.I.!.!.E.E.T.!.W.I.W.W.W.;X;XE.i.t.b 2 F U 0.0X0X`.;X;X!.Q.!.W.m.`.jX$X-Xh.bXbXf.4.' u } u k ( %.' %.k.-X$XlXf.%.%Xf.` n @ w z N B Z V B B +.x.x.&.oXjXAXSXSXSXSXMX9X9XbX@X,.@X9X@X| ^ 5.q.y.e.e.I ; c J 5 5 p b v p j I.9XMXlXxXAXAXSXVXVXVXVXMX8X<./ ; - r 3.v.a.v.a.a.a.r.e.e.5.r.$XlXNXMX8X@X| | | &XMXMXkX+X,.! n Z r.n.v.a.r.r.r.k.zXzXS.' <X7X^ M d.OXsXPXKXiXd.B.oXoXHX6X` ` j i i s $ . o 5 p r r i + + ; i z d J J N J J Y O.}  .K d > b J p i p i i i J K K =.+.Y J J J J N d d N L t.t.:.L.Y.P. .N @.#.#.#.",
"w.X.:.I.P.!.`.!.;X!.Q.;XW.^.;X;X}.2XeXU.*.8.z - 8 L ;.'.[.I.I.W.W.^.!.!.!.W.,X#X4Xh.BXBXj.4.' j / u u ( [ ` [ N.-X#XzXs./ C.%.` n + > a N B B B B B } E.yXV.Z.,X9XMXMXSXSXAX@X@XV.Q Q oX,X<.Q ..y.5.r.r.e. .p 5 b - ; c G b i ^ 9XlX,XoXW.x.x.oX9XMXMXMX+X{ Q f r - c 3.a.a.M.n.n.g.p.a.e.r.r.S.9XlXxXAXlX9X7X,X9XlXsX&Xh.%.C n i.M.m.v.z.v.r.v.v.xXsX%X( %X4XM V 2.OXMXUXKX+Xl.B.oXB.FX6X] o.j 9 i s O o + ; i > r > + + ; 3 p N b N J K J U K d d i i a J N a ; z J z i K Y Y Y K N J b N d p b K O.O.O.=.=.-.u.G.B a B @.#.q.",
"#.X.y.y.c.]. X;X>X;X;XwX;X!.;XwXeX3X:Xc.c.:.z 2 A F H.~.R.o.*.>X>XE.;X^.W.W.&X&X6Xh.mXBXl.s.` j ..q u ( ' ' [ k.=XOXjXs.! C.g._ n @ > z N B C Z Z I  .) %.%.C.&XaXxXNXVXSXSXNXlX@X&.$.j.V.&.M 5.y.6.r.a.u.I z : v 3 - p F d a V.lXlX9XMX9X@X&.,.oXlXMX,X&.m } +.b ; n u.a.a.R.a.J.a.a.r.6.a.r.b.,XlX8X,X,X,XoX@XZ.@X,XoX[ $.M V M.M.n.n.v.n.z.v.v.xXkX#XM %X<Xm n 4.B.aXPXKX+Xl.oXl.oXVX6X] o.n i i s # . # $ ; ; i r @ - r p b a p b K J J K p $ > p J J J b p r Y =.b p T O.J p p p p 3 i = d Y O.O.O.J d f J =.q.N N } O. .y.",
"w.P.P.i.^.}.>X>X3X:X2X%X^.Q.^.3XeX3X;XE.[.q.p & 8 L ;.~.].[.[.P.c.I.[.!.[.W.=X$X6Xj.nXBXh.s.( j / q k ( [ ' ] k.=XOXjXf.' (.` ` n @ > z z B C Z Z  .X.Y z C m.&X&X9XMXxX9X9X9XMX7X#X&.$.&.^ C q.3.6.e.r.r.#.B = ; 3 - 5 s p a @XlXMX9X@XL.<.| | oXMXxXx.t d f d a w  .n.M.M.A.M.M.a.r.a.r.a.a.v.@X9X+XoX@X@XoX,.,.oX#Xf.[ ..n M U.M.M.v.v.v.a.v.k.xXkXC.k %X,Xm n 6.l.aXPXKX-Xl.oXoXOXVXiX( ` j e i s # . # $ ; r p p ; ; r p z p a J z i J b # > b J b F b i ; p B b z b N J d z d J z J U J O.=.O.=.@.K O.#.:.t.-.O.-.:.N  .i.",
"P.E.E.P.!.[.>X>X>X>X3XW.L.I.Q.3X3X1X;XU.L.Y ; - v L F.~.].wX2Xr...c.!.Q.!.Q.&X$X6Xj.bXNXh.s.' j / u u ! 5._ ] k.=XOXkXg.' S.%._ z + > z N B C I I X.X.I c N 7.Q.&X$XlX-XoX&X,X,X@Xj.$./ ..m X.e.5.e.e.w.r.r.@.p ; 3 3 ; s 5 w #XMXMX8X{ | Q <.x.9XVXSX<.e a Y i a b q.M.A.U.R.A.M.a.r.r.a.r.r.r.oX,X8X,X,X8X@Xj.oX&XV.' ` C n Z r.A.b.n.n.v.v.v.k.zXaX#XM `.<Xf j 5.l.aXKXKXOXl.B.B.B.VXpX] ] j i i d # . + $ ; p a p > ; p z z d N b ; i K b > i J J p a d p p b b B b J B J B a J Y K O.+.O.O.K Y +.-.-.t.P.Y.F.t.:.:.y. .*.L.",
"I.I.]._.I.!._.[.;X2X3X^.!.>.L.yX;X;X;X].].u.; - F E K.'.u. XwXU.z.I.U.W.!.W.$X$X4Xk.bXNXh.s.( k ~ u k ( ] _ ( k.$XOXzXx._ C.4.o.n + = z B B Z Z X.@.I c s z *.z.#X$X9X9X9X9X9X,X@Xj.&.7...n 8.e.3.e.e.r.a.n.a.@.p 2 - s d w y $XMXVXMX9X@XL.Q.,XSXSXSX$X/ *.| Q m Z a.U.U.I.A.U.M.M.a.r.v.r.a.a.>.Q.,X+XoXj.j.Z.oXoXf.$.^ n  .o.Z n.M.M.n.b.v.M.b.kXlXC.u `.<Xm n 6.l.iXKXKX+Xk.B.B.B.FXiX] 3.j e d d 2 o + ; r p p p > = > c z b b N N J G N 3 i Y =.K Y K b a p b @.Y K J J J B B T 8.-.:.-.Y O.-.-.-.:.w.P.u.:.:.-.#.i.i.:.w.",
"q.c.2X0XU.n.E._.`.>X1X3X!.! y.yX2X;X3XeX X0.> - v L F.F.-.E.0X[.E.L.x.c.!.V.#X$X-Xh.nXBXh.{ ] j / q k ( 2._ ( k.$X#XzXg.` V.5._ z + ; a c B Z I X.T z F 8 b _.5.x.$X-XaXxXlX,Xj.,.| &.>.M I e.6.6.e.r.r.a.v.r.B s i $ N K n m &XMXMXJXJXMXMXMXSXJXSXSXMX{ oX@XoX] %.n.W.!.U.U.).U.M.M.a.a.a.v.a.w.b.$XkXlXxXlX9X&XB.6.! M #.r.@.j 5.W.M.M.M.v.b.k.zXaXC.k `.4Xm V 2.k.aXKXFX+Xl.S.B.B.FXiX2._ x w p s # o + > r r i p i # = i z d z K -. .N N i b q.F.-.#.K b > ; B t.9.J K Y I J O.i.P.P.i.t.:.:.t.t.w.y.u.L.y.K C K +.Y.T.i.:.",
"q.r.E.}.2X{._.]._.[.2X X[.w.c.}.[._.yX[.I.@.- O 8 F H.K.u.P.I.[.;XI.W.I.W.W.:XOX-Xl.bXxXh.d.] u ! u Q ! 6.] _ g.(.Z.jXf.~ v.&._ n + ; a N B Z Z @.I z v > #.CX}.%.b.(.6XlXlX9X:XZ.j.<.} M 5.6.e.e.r.a.r.a.n.e.n z G - N m.<.| oXMXVXVXJXJXJXSXJXSXVXSXSXoX+X9X8X4.r.M.M.).A.U.A.M.U.n.a.n.v.a.a.z._.:X,XkXkX7X4XC.z._ ) n._.v.o.n ) A.M.M.v.v.a.k.zXaX(.) `.<XM M _ k.iXKXVX+Xd.B.B.B.DXiX2.2.x r i s # o @ ; > > r i ; # ; > p b J Y #.O.J I N N #.-.-.q.+.-.c > J J I Y J J O.O.#.t.:.c.y.w.t.G.F.0.>.i.i.y.t.:.X.V  .q.c.I.L.",
"c.q.I.[.3XeXR.`.}.}.}.[.U.n.U.!.U.}.wXP.I.@.- O 8 L ;.t.i.i.5.W.3X!.U.W.`.W.,XOX-Xh.xXxXh.4._ j ) q j ( 5.( ] g.Q.C.yXs.Q b.%.o.n + r z x B Z B Y B i v > K.LXGXeXo.&.C.&XxXbX9X%X#X<.! 3.6.p.6.6.r.p.g.a.v.q.z p L i a %X:X@Xj.8XMXVXJXJXJXJXSXVXMXMXNXoXoX8X+X,.m.).A.).U.A.U.M.M.a.n.n.n.v.n.v.;XZX(.V.v.x.7.] ) ) M.).}.M._ m M v.M.v.v.v.v.g.kXaX$XM #X4Xm V ] k.6XFXVXOXk.l.A.B.VX*X2.Z q w i v $ % + # @ + ; : + # - ; c J O.O.I K  .O.K N K -.q.t.i.u.B p p r @.F.@.J L I  . .y.E.^.[.T.y.y.@.O.w.u.y.q.:.O.C a ..y.c.I.",
"i.q._.3X3XwX}._.}.}._.U.I.!.!.!.}.}.I.I.].@.- # h L W G. X].I.;XyX;XW.U.`.W.<XOX&Xh.xXxXh.s._ u ! q k ) 2._ ( f.(.C.aXs.! z.4.o.n @ > z N Z B Z B c 5 v z .XIXUXIXvX7.! $.W.`.x.*.$.M C e.r.g.a.r.r.r.a.a.n.r.B > v s w >.jX9XoX+XMXVXSXJXJXJXVXMX,X@XV.~ ,.&XoX4.).).).).U.).A.R.M.R.v.v.n.n.n.M.n.vXZXU.] ) ) M ..r.). X1Xv. .M n 5.A.M.M.M.v.g.kXkXV._ ;X4XV M o.k.-XVXVXOXd.l.l.l.VXiXM 3.q w p z # + + o + ; > > @ @ > ; p B O.O.}  .K K K K  .-.*.#.#.@.x p 5 z #.@.B z b O. .+.T.|.].Y.P.t.y.:.-.t.i.w.q.:.-.O.n y.U.P.E.",
"P.7.!.3XyXhXhXrX X2Xy.5.P._.}.0X0X_.I.]. X0.+ & 8 L H.K.F.].rXfXyXW.m.!.Q.m.$X#X-Xh.zXxXd.d.2.q Z q k ~ 2._ _ g.`.S.jX7.Q W.g.o.V @ > z N V B Z P P g x A.*XGXIXUXUXIXuXE x x x a q n #.r.r.r.6.r.a.r.a.r.v.a.3.z > h r t %XzX#X&X8XMXMXVXVXVXJXSXSXlXj.| | oX,.g.).).S.!.).!.A.A.U.M.a.n.n.v.v.).] ).IXIXCXXX{.{.{.{.eXgX{.g.Z M V ) 5.M.M.v.v.g.kXkX=X_ %X4XQ j 2.d.*XKXnXOXl.l.B.A.VX-X_ 3.t w i b 2 # # + + $ 3 p 5 = - = z N O.@.O.+. .=.#.O.K } -.-.K B c b z J K K N b O.F.>.I.^.~.E.y.y.i.i.w.t.i.i.y.#.#.8.O.C i.U.P.!.",
"U.!.;X;XfXhXrX}.>X!.c.I._.}.{.0X].n.n.T.i.J + - 8 L F.R.u.i.].}.}.m.!.`.[.V.:XOX-Xk.xXlXk.s._ j ( q k ! %._ ( f.#XS.jX4.M x.4.%.V @ > r c V Z Z P g x p.A.A.gXLXUXIXIXIXCX/.Z j n V 3.r.r.r.r.r.a.r.a.v.a.v.A.a.X.c > ; = K W.&.&X9XMXMXMXVXVXVXJXSXlX,X,.,.,.,.M.*X{.).).).).).U.U.M.n.M.M.v.).b._ M.GXIXIXIXGXZXmXZXZXpXp.Z M m I n a #.c.n.v.g.jXaX*X) #X<XC j 2.l.-XVXMXOXd.A.l.B.VX-X( ] y w i s $ # # # + O + 5 i ; # > p d O.+.+.-.+.+.-.-.K K O.@.J B B G B Y Y O.J b =.F.G.P.P.^.E.q.t.u.y.q.w.y.y.y.+.+.#.#.*.i.c.U.}.",
"^.[.}.>XyXcXqX!._.U.!.].].I.{.`.E.[.].n.O.B - - h L H.~.R.q.B q.>X[.`.`.;X[.4XOX*Xl.xXxXd.2._ q C q k ( 2.( ( g.#XS.jXs.! W.7.o.n + > z x Z Z 1.p.p.A.A.A.A.A.nXIXUXIXIXIXZXpXa.e.5.e.3.r.e.r.r.r.a.a.v.v.a.a.R.a.3.Y G p ;  .n oXsXMXMXMXVXVXsX8X@Xj.,.| | ,.| M.}.{.{.).).{.A.A.U.M.R.M.a.M.}.k._ r.ZXIXIXIXIXIXIXZXcX{.2.M M C C > 0 o.5.5.v.k.kXpXS.] `.,Xm x ( l.iXVXnXOXd.k.l.B.BX=X_ o.a i s s , # 2 + . o + ; > ; : p z J K O.+.:.:.G.:.#.N N } J z N N B 0.y.q.8.J a @.:.G.i.c.E.T.t.q.#.#.q.i.y.i.y.q.#.w.w.t.y.y.U.}.",
"!._.!.;X0X0X[.P.I. X}.>XE.!.U.I.].P.P.#.-.@.5 - 8 G 0.K.=.Y @.i.0X X`.;X;X#X7XoX+Xk.zXxXh.d.( y ! q u ~ 2.( ( f.Q.Q.aX6.( x.' ` N + = z B M _ Z p.uX{.p.A.{.A.A.CXIXUXUXIXIXmX XM.r.3.x M e.a.r.6.a.k.p.a.a.a.M.n.P.a.K d r K.o.j.9XMXMXVXMXMX8X9X8X,X@X| | ,.| ).).).).).U.U.).W.A.M.A.U.U.n.*XM.2.k.vXIXIXUXIXIXGXvXvXpX2.M Z _ n - r n._.6.5.6.aXpX%X^ `.3Xm j _ d.+XKXnXOXd.l.A.l.BX*X_ ] a w i d # # $ . . + # - r > @ p N J O.O.=.-.#.:.O.K J L K J J J K T q.i.y.i. .V -.:.y.i.c.L.G.y.>.#.q.i.i.y.i.c.i.q.q.u.q.y.>.c.E.",
"I.!.[.2X[.5.o.@.q.!.!.[.^.|.c.#.:.y.i.:.-.-.s - v L F.F.U 3.u.t.Y.|._.(.Q.Q.4X#X-Xh.xXxXf.2.( y Q q u ( 3.( ~ 4.#XZ.pX7.! C.b...n + > t N Z Z a.{./.p.1.p.A.A.p.A.pXGXUXIXIXCXCX X).a.r g Z e.a.a.r.v.a.a.a.a.v.v.a.e.x z c XXr.j.,X8XMXMXMXMXMXMX9XoX,.,.>.' 6.}.*X).{.).U.).U.U.A.U.A.U.M.M.*Xb.k.ZXZXLXIXIXIXIXGXvXDX=X_ ( _ ) r Z c A.dX).e.4.dX6Xf.M `.<XQ j _ f.*XBXBXB.d.k.B.l.mX=X_ ` j w i s # . . O # O + # ; ; = r b J +.-.>.@.J } J K Y Y K N J K -.y.y.i.y.:.-.q.i.>.u.i.i.y.i.T.c.:.y.^.^.y.:.P.T.w.-.q.q.i.L.y.+.",
"I.I.!. X XP.q.*.P.^.E.].>X}.P.>.i.c.P.y.-.Y 3 & 8 L 9.0.@.0.t.K.J.R.E.!.!.Q.=XOX*Xh.xXxXf.2.) y ! q k ~ ] ( ~ 6.(.Z.6X4.! C.7.] n + > x x Z p.{.p.p.p.p.P p.A.A.p.A.{.vXZXGXCXgXgXvXgXM.a.B I r.r.r.r.a.a.r.a.a.a.n.3.r z r B z j.8X+X8XMXlXMXMXNXNXMX9X&Xs.] ).}.).).).).).U.A.).U.U.U.M.A.{.A.A.dXIXIXIXUXIXIXIXIXvX<Xr.! Z 2.Z M a.B ).bXdX1XA.aX6X(.! (.<Xm n _ g.OXBXBXOXd.k.B.B.BX4X_ _ a w i d O . O + ; # + $ ; ; = p p N =.-.-.-.} O.K Y O.O.K N J =.:.y.G.G.:.:.y.w.t.t.y.L.L.y.i.I.y.y.c.L.T.:.#.P.P.q.5.q.#.w.G.y.-.",
"J.E.].[.2X XU.P.L.T.P.E.}.>X!.c.i.I.I.O.J K ; 2 h L 9.K.R.Y.i.E.R.u.J.E.`.W.,XZ.*Xk.lXxXs.2._ q ^ e j ! [ ` ( 4.(.C.7X4.M m.6.` m = g x 1./.{.p.p.P p.P P P p.A.k.p.A.A.).pXhXvXLXGXZXvXvX}.Z e.r.a.r.a.a.a.r.v.n.M.y.z z r z 0 ,.lX+Xj.+X8XlXMXSXJXSXxX,X&.M.*X}.).}.).A.).).U.U.W.A.M.A.gX).2.(.vXIXZXZXIXIXZXIXLX).] 5.m V v.v.I U.) ).mXvXjX-XjX6Xm.m (.<X^ j _ d.OXBXMXoXf.h.N.B.BX=X` o.t i i d $ O . + + $ 5 5 i ; > z N N =.=.-.-.@.-.=.O.O.O.J N O.-.w.L.P.P.L.i.w.y.y.y.>.i.L.i.w.>.t.i.i.L.y.+. .i.i.q.-.w.q.y.i.i.i.",
"a.a.].]. X X XP.L.T.c.c.E.^.T.i.U.].T.C N G p 5 8 P F. X].J.P.P.~.P.P.I.U.I.%XoX+Xh.kXzX4.2._ y ^ e u ( $.( ( 4.(.V.5X&.! m.5.o.n @ P p.p.p.p.p.p.1.P p.P P g 1.A.A.S.A.d.A.{.mXDXDXDXGXvXpX) Z p.r.r.r.e.a.M.v.n.M.a.C K K b w { lXlX+X{ { j.8XlXxX9X&Xf.g.).}.}.).*X).{.).).U.).M.M.M.pXdX3.6.*XpXIXvXCXZXGXGXLXZXk.5.o.w j *Xg.Z R. .`.ZXmXmXjXkXaX(.M (.4X! j _ d.OXMXxXoXf.b.N.l.BX*X] ] t 9 d d , . O . + # s p p ; > z J N K O.O.+.@.=.-.O.O.=.O.O.-.:.y.L.L.L.c.P.i.y.y.y.i.c.i.y.y.-.:.y.w.G.y.o.-.-.:.:.#.#.*.y.i.w.y.",
"u.T.^.E.^.0XrX^.Y.P.T.E.~.+.>.i.[.}.^.K J T p 3 F G =.'.0X].E.]. XrXrXp.Z z.;XZ.$Xf.lXlXs.] ( q ^ e u ~ ] ( ( 4.(.V.5X2.! m.5._ z > 1.p.p.1.1.1.P 1.1.1.P P P P x Z A.A.6.A.S.A.aXnXmXDXZXdXZ > Z r.r.a.v.a.n.M.M.M.a.I B b i o.@X9XSXlX+X{ ~ ~ { ,.{ [ M.).*X).).*X).).{.A.).A.A.A.S.pXvX).Z M.).{.IXGXZXIXIXLXGXCXr.o.Z o 5.aXg.x U.) ).ZXDXDXnXlX6XS.M Q.:XQ j _ f.OXBXxXoXd.k.l.l.bX*X] X.y i i d O . o o + . O - p p - i c b N K -.F.:.-.@.#.;.-.#.-.y.y.:.w.G.L.L.+.#.L.T.i.G.L.L.y.>.*.:.q.:.y.u.i.u. . .@.O.K +.y.y.y.P.",
"P.P.T.L.~.qX X|.!.E.E.].T...:.y.U.[.>.V K J 3 3 F F L R.E.!.|. XeX X Xt.Y q.}.Z.$Xh.zXkXs.[ _ q ^ e u Q o.` / 4.W.V.5X4.! z.] _ n : x P 1.P x x P P 1.P p.g P g g x g x d.B.A.l.2.).vXmXDXvXa.x r x 3.a.a.a.n.n.a.J.T z z i r  XbXMXSXSXMX&Xj.{ | ~ Q [ }.*X}.*X).).{.*XA.).).A.A.).pXbXzX3.6.S.S.rXZXZXGXIXZXvX Xu.6.] j > OXaXk.B R.Z U.mXZXDXAXkXpX).Q Q.=XM n ) s.OXbXxXoXd.h.l.l.NX&X( ] t i d s # . . o O . . $ c c + - ; > p J t.t.=.O. .-.-.>.#.-.y.t.:.y.L.L.:.} i.E.^.T.t.:.y.:.+.O.+.+.q.t.u.J.i. .I K  .O.t.:.+.y.!.",
"E.E.I.i.E.qXL.+.:.L.P.E.E.P.L.~.E.w.N K K B 5 3 F F Y O.O.P. X}. XR.B b O.C n.Z.$Xs.sXkXs.[ ( j ! e u Q ` ` ! 4.C.V.4X6.! 7.` o.V o % g P P P h g P P P 1.P 1.g x p._ Z A.p.k.A.( d.OXnXmXcX1X3.> = x 3.a.n.M.w.@.+.B p z p i.vXbXAXNXSXBXlX&XB.,./ Q &.*X1X*X}.}.).).).).W.M.).).pXzXmXU.3.M.k.S.zXZXZXGXGXgXA.3.5.( k.l x *XiXA.M M.Z U.ZXGXmXDXkXaX*X! Q.:Xm j _ s.OXnXsXl.d.d.l.l.nX=X( ] t e d s $ o O O o . o + + - - ; ; 3 z b a N =.:.J K y.u.#.-.:.q.-.:.-.} K -.#.f N N } G.y.K +.E.^.E.E.E.E.E.R.P.Y.q.O.t.t.+.+.y.^.",
"P.c.L.i.E. Xu.J -.y.u.L.P.I.T.^.L.t.O.J K L 3 s G L 9.;.T F.'.]. XG.c b K a c.Z.$Xs.jXsXs.4.` q ^ u u ~ o.( ( 4.N.N.5X6.! b.6._ z o & * g h h h g g P g P P h g x p.A.A.S.A.l p.d.l.S.pXmXzX).{.x : : h 3.P.a.Z Z B c i r @.dXbXZXAXZXMXNXMX8XoXf.[ ' %.{.*X}.}.*X).).).).A.A.*XpXpXvXdXX.5.S.g.jXZXIXIXGXCXpX{.6.! k.B._ 6.+XxXS.M !.Z A.mXKXZXBXzXaXC.M (.&Xm n _ s.#XBXsXl.{ d.l.l.NX=X] o.t e i s - + + + + O . o # - - 4 ; 5 v z ; G :.F.Y O.F.t.=.@.-.-.@.O.N d O.;.i $ a d -.F.q.K -.^.^. X].E.].E.E.~.E.q.#.t.>.#.+.-.T.",
"G.u.F.t.u.F.0.b J -.-.:.-.-.-.t.-.O.O.L b z 8 F G U ;.9.Y L @.0.t.Y z G b a c.Q.$Xf.jXkX,.[ _ q C e u / %._ ! 2.V.V.<X2.M z.5.` n . : 4 h h P g g g g g P P h P g Z A.A.l.2.l 2.k.h.OXOXnXxXA.n.X.x : : c 3.e.z N B a r q }.mXbXMXCXNXZXxXxXaX&Xl.s.%.%.(.;X}.*X*X{.).).).C.<X5XpXzXvXv.3.A.{.pXmXZXIXIXZXgXgXA.( d.*XB.g.M *XnXOXX.{.3.M.ZXHXHXnXkXpX*X) Q.&XM j _ k.OXnXMXOXd.h.l.l.NX-X` o.t i i d i - - $ O o o # 2 - - 3 5 5 - 3 3 p d F p d J b b z d s i i w F 3 $ + s N N Y Y K Y Y @.0.u.t.@.8.O. .@.=.I Y #.O.O.O.Y @.",
"O.Y Y O.O.J b i d =.+.U J G N G d J U b > ; h G L W 9.U v p > G J b a v v z L.Q.&Xh.jXkXh.[ ( q Q e u / o.( ( 5.V.V.<X%.m z.o._ z . & 4 g h h h g g g g g g g P g g Z A.k.p.d.p.N.l.oXOXiXnX).n.Z x - : : c 3.z b N a n m.zXBXBXAXNXbXZXNXbXjXjX,X$X(.z.).:X*X*X*X}.).).M.).5X5XzXvXgXZ 6.A.3.vXmXGXIXIXmXdXpX2.( -XiXOX2.x iXsXOXZ {.3.a.ZXDXLXmXkXiXN.! S.%Xm j _ d.OXnXsXoXd.h.l.l.MX4X( o.t e i s $ # 2 O o o o O O # - 2 3 2 . O - 2 5 5 2 2 # # 3 2 - 3 3 # d G 3 o 3 G F B L J U J J T J J b b b p c d z z J J b b N G z ",
"# # # # # # # . # 3 2 $ # $ 2 $ 3 3 # # O 4 v G U W W F 3 8 3 5 5 - - O 2 # w.Q.#Xh.kXaXs.[ ( y ^ e u ~ %._ ! 4.V.m.=X] M n.%.o.n . & 4 h h h P P g g g g g g P g g g p.v.v.k.6.k.d.S.OXS.mX{.A. .c 5 o & - J x p a ! %XbXBXDXBXZXAXNXNXbXvX9X,X4X%X(.z.M.}.*X}.}.{.).).A.*XpX5XzXbXn.Z k.).Z zXZXGXIXGXmXvXiX~ k.nXiX*X2.x +XxX*XM  X3.a.DXGXLXmXaX=X).! W.%XM k _ d.OXnXsXl.d.h.l.l.NX=X( o.y i i s # X X             X . . O X         . X X   X . . . . . O O O # o X O $ # - - 2 # # 2 , # # O - # O O O o O - # O # # # + ",
"O X O o O O O O O O O O O O , # 2 3 3 8 v G G G R U U G G F F 8 4 - # O # o >.Q.#Xf.kXjX{ 4.` q ^ e u Q o.( ! 4.x.x.%X$.m r.$.` B o : 4 g h g h P g g P g g g P x g g g g _ A.2.3.d.B.OXB.aX).A.M.N x : & + x U C 8.dXbXBXVXFXFXNXSXSXAXZXlXyX=X%XQ.Q.w.o.U.;X}.*X).).W.A.}.*X5XnXdXX.5.1X6.3.pXvXmXGXLXZXvXg.2.zXKXiX*XM l *XsX*X3. Xa.a.ZXKXIXDXaX-XC.^ C.(.m j ) d.OXsXiXl.{ d.h.l.xX$X( ..f e i s O                                                                 X                                           X     .     ",
"8 4 8 8 8 8 h 4 i F s A S F F F F s h G U U L W U U U W W W U L R L G F G b >.Z.#Xf.jXaX2.6._ t Q q j ! 5.( M ] z.g.%X] m M.%...z o & 1 * g h h h h g h h * * P h g g * * p.S.p.M 6.d.d.l.B.A.}.W.x V ; & : U '.|.tXGXDXBXFXFXFXVXAXBXSXSXBXjX&X@XC.z.) _ 5.7._.}.{.).a.V.).(.pXmXR.Z A.7XM A.*X$XbXZXLXKXpX2.A.mXKXsXiX_ x *XsXS.6.{.a.p.ZXLXLXDXaX=Xg.Q W.(.m m ) 4.S.aXaXl.2.f.h.k.xX+X( 2.> > r p O                           X       X     . . . O X O O O & O & & 2 # - - 2 - O O & - 2 X O O O O O . O O O O , 2 # # # & ",
"L L L L L L U L L W W U L U L U U W W U W W W 9.9.W W W =.T W 0.0.=.T U W L >.V.#Xs.9X6X2.2._ q C q j ~ 5._ l ] b.z.%Xo.! 7./ o.N o o < * * g h h h g P h * * P h g g * : x k.3.l 2.2.S.S.d.M.1XM.r x x - : W T P T P.hXZXFXFXFXFXVXBXBXBXVXBXkXB.f.z.` %.i.M V 3.a.R.a.M.S.M.pXjXX.2.1XM._ -XOXOXnXZXGXmXA.2.sXKXKXsXiXp._ *XsXiXv.).J.X.vXLXLXZXjX5X).! V.(.m y _ 4.C.aXiXl.2.d.h.h.sXOX( 3.q 0 > p o                       X o   X X O O O O O , # , - - 2 - 3 3 5 5 5 5 p 8 s s s v v F v 8 3 2 2 2 3 2 3 8 5 s s 8 5 8 5 8 ",
"K.F.F.F.G.F.0.F.F.Y.K./.K.0.;.=.9.0.9.0.0.0.0.F.F.F.K.K.F.u.F.J.J.G.0.0.q.G.^.Z.Q.s.6X6X2.2._ t C q k ! o.( l 5.n.x.%X] ! y.` o.N o % * 1 g * * P h g P h * * h h g * g Z p.2.2.3.d.2.k.h.h.b.pXa.> c N 5 h D h A S h W 2XZXBXSXFXFXBXBXBXNXVXxX&XB.#Xg.m._.*.z x > c 3.a.).b.dX}.B 6.5X) b.6Xl.5XmXLXLXzXd.iXKXDXKXiXiXA.l A.iXsXA.J.A.Z gXLXLXAXjX-XN.! W.(.Q y _ 4.B.iX6Xl.2.f.h.j.kXS.( 3.j 9 i s #   X         X o o O X O O - - - 3 3 ; 8 5 p p s s v s 3 v b K J U Y =.=.;.O.O.Y U F s h h 3 8 v 5 3 b U Y Y W Y L W =.Y ",
" X0XrXhXgXrX|.|.rXtXtXCX XF.K.Y.R.Y.R. X0X XqXgXCXhXhXhXgXfXgXhXhXCXCXhXhXcXjXV.Z.s.pX5X2.4._ q ^ q q ! 3.! l ] m.x.%X[ ! n.o._ j X & * 1 g h * g P g P h * * P h g g x A.k.6.6.p.d.2.d.{ d.6.pXa.> a L G H H D S S S h 9.0XAXbXVXFXSXBXBXbXzXxXaX&X4X$X7Xg.W.o.z 5 4 5 J M.S.kXM.) v.).k (.-XS.zXbXGXLXiXOXnXnXnXKXsXiXk.x k.iXxXA.e.R.M gXZXLXAXsX5X).^ W.#XQ n ! %.N.6XiXl.2.f.f.l.jXS.2.3.j w i s O X X . X X o & - - - 5 p v b b b F J Y O.Y T Y Y O.0.8.O.#.0.9.u.Y.K.R.'.~.G.;.F.=.J 5 3 8 8 F 5 3 J =.G.|.~.~.~.~.'.'.Y.",
"0X0XqX]. X XE.J.|. X|.|.Y.~.~.|. X>X0X3XwXyXyXrXrXrX X XtXtXfXtXtXgXwX XhXeX3XV.C.s.6X5X[ 4._ t V e u Q %.) l $.n.x.;X%.k &..._ z . % : g * g h h h g P h * * h P g * g p.l.A.2.d.2.6.6.l.d.f.=X5.t h F R R H R S S S 7 D 9.gXmXmXFXFXSXBXbXxXlX6X&X=X4XC.[ Q.!.n T v - 4 I ).dX3.3.S.6.M =X*XpXmXnXKXZX*XiXsXnXBXKXsXsXA.Z d.nXxXk.3.{.Z {.ZXLXAXjX-XV.M V.Q.f j M 6.N.5X-Xl.2.f.b.l.aXA.( 6.j w i s #   . . . X o O $ i i z b z B J L K K @.=.O.O.=.#.=.F.t.-.#.q.8.q.i.q.i.P.[.Y.t.t.-.U d # - h F s J -.G.|.qX^.E.~.Y.G.K.G.",
"yXtX].I.!.'.u.0.~.XX[.~.|.CXCXtXhXhXhXeXdXcXyXrX|.|.E.{.[. X X].E.P.P.K.T.c.`.B.Z.s.6X,X] 4._ q C e u ! %.) l $.x.z.$X' k c.%...z o & - * * * g P g g 1.g * * h g * * * g 3.3.3.3.2.p.2.d.h.s.M.3.r h D H R E D.R S D D S R 9.gXmXnXVXFXVXxXxXlXkX9X,XoXj.x.C.3X..Z 0.c 4 5 q.{._ 2.*Xn ) 4XB.mXVXiXzXzX*XzXDXDXKXPXnXiXOXx p.sXsXS._ {.Z K.vXKXDXaX-X`.! m.#Xf j M 2.k.6X-Xk.2.g.h.l.jXZ.( 3.a 9 3 s O .     .   o # - z J Y =.L s J -.0.O.-.0.=.=.-.u.G.Y.Y.F.#.8.@.#.-.y.i.P.E.^.|.Y.t.-.J o # h F b =.-.~.tXqX XY.T.u.=.F.t.",
"E.].i.P.Y.E.-.-.Y.~.^.~.^.qX^.L.^.|.;X[.I.[.[.^.|. XE.'.^.i.y.L.E.i.i.u.:.#.W.C.Q.s.7X7X[ 4.` q M 0 u M $.( M _ z.z.%X' j 6._ ` n o o % * g * * g * g P g * * h g * * * * g : : x _ 2.2.2.s.f.]  .v h H R E .XD.D.R S H D D E 9.gXxXbXVXSXBXxXlXkXkXaX8X+XB.V.dXz./ i.q.v 3 v 3._ r.).t v.=XA.DXKXiX-XiXiXmXKXKXKXUXnXiX*Xx l iXsXS.M {.3.3.cXBXDXaX5X#X) v.Q.m n Z 2.k.-X-Xk.[ f.b.N.aXZ.( 5.y w i s O . . o . o o o $ i a z J b z N T K L I O.Y N J I =.-.q.-.@.#.#.q.w.q.:.:.w.~. XL.i.-.F O X 7 s b F.-.|.qX~.L.t.G.:.=.-.:.",
"w.P.R._.P.8.=.-.F.|.qXrX^.F.0.t.u.L.L.i.y.T.L.E.|.|. X|.P.L.-.L.E.q.B @.t.q.V.C.(.f.5X4X[ 4._ q C e u ! o.Q M / g.g.%X$.Q I.%.] n o & & * g h * * * g P g * g h * * * 1 * * : : p.3.2.2.k.k.d.] K s S H E .X.X.XH.E E D E S D R K.hXxXNXVXVXNXzXlXkXaX8XoXN.4X7XV.s.f.U.t.h 4 5 Z A.a.M $X#X*XLXDXzX+X+XpXnXnXKXUXUXDXiXiXl x *XiX=X_ n.3.V fXbXBXjX*Xb.! b.#Xm j ( 2.l.*X*Xl.[ s.x.N.aXZ.( 5.z ; i i # . # $ - O o o + ; ; > p a d b J N J K @.Y i a z N O.-.-.O.@.-.u.T.t.y.*.:.L.^.E.G.-.K #   2 8 G 0.q. X XL.y.:.#.F.G.F.=.",
"q.w.P.E.-.K 8.0.t.~.rX~.0.O.Y ;.-.t.>.G.T.E.T.E.I.T.}.].T.c. .G.K.+.C -.+.:.I.C.(.s.5X=X&.4.` q C e u ! ..! l ( w.g.`.' ! n.` o.n . O & * % h F g & 1 P % * h 1 * * * * % * * g p.g.2._ _ k.k.3.c S D E .XXXXXuX/.H E D H A A D 1.R.dXxXbXBXBXMXlXjX6X6X4X9XjXf.%XQ.b.V.M.T 3 3 B M.) 6.*Xb.dXPXVXiX*X*XiXpXmXIXUXUXDXiXiX_ x A.iXiX2.3.p.j {.jXzXaX-X(.k m.Q.m j ! ] b.=X=Xk.[ s.x.N.9XC.` 5.n i i d - + = = ; + . o - w ; r i p z b G B J Y 8.T p z N N K =.+.@.#.@.t.P.y.u.q.-.y.i.y.:.=.L #   O 3 v =.>.>X}.Y.>.+.O.0.F.Y d ",
"u.i.i.L.y.q.-.T 0.G.G.0.J i i d a d N G.^.E.G.G.c.L.L.^.E.X.m i.R.w.#.V V } z.V.Q.f.4X$X[ [ _ q Q e u ! o.! k ` f.g.Q.&.k 7.4.o.z   o & 1 * * g c * g P * * 1 1 * * 1 * * * * h 3.Z ( 2.l ( k.e.v D H D..XuXuXXXD.E D E E H D D H U XXmXNXNXBXBXxXsX9X&X$X$XN.@X9X,XoXB.)._.T - v n.n 7.OXf.mXLXBXOXOXS.A.zXUXUXUXLXKXiXpXp.x A.iX-X2.j a.q e.pX6XpX=Xx.u b.#Xm j M 2.k.&X*Xh.[ 4.k.N.pXB.` #.j ; i i - : ; + - o . + > p p r p p z b J J J Y =.I p i b J O.Y K #.0.-.q.w.y.y.>.q.q.:.y.Y.:.d O   X & v =.t.|.E.-.O.K @.+.@.N N ",
"i.L.T.L.:.-. .O.F.>.t.>.d i N O.@.-.y.G.~.P.:.>.c.L.w.^.>X*.#.T. Xw.I a C } 7.C.C.s.,X%X[ %._ t V e u m %.! l ` g.7.Q.%.k z.%.` n X . & * 4 g * * % g h * % * * * * * * * * B a.3.l M 3.( 6.6.K S D E H..XuXuX.XD.D.D D E D.A R E R F.hXAXxXMXNXMXlXaX8X-X&X-X9XlX9X-X&XZ.%Xt.L h Y a 6.S.6.ZXLXKXsXS.iX*XnXLXLXLXLXLXzXiXk.Z k.+XiXr.q a.n Z ;X$X5X*XS./ V.#Xm j M 2.v.*XOXh.] 7.f.h.9XC.! #.z 9 i p > # ; - - o o + - 5 p p p z z b b B a J O.T p s b J @.K Y -.-.-.8.t.y.>.-.-.q.#.w.~.F.p o     & p Y G.^.i.O.+.+.-.@.-.O.f ",
"w.c.L.i.q.O.N N O.} =.F.-.0.L.Y.F.Y.E.E.T.G.L.^.E.L.L.>XtX[.>XqX0Xw.I X.i.i.b.C.C.f.<X$X[ 4.( q C e u m ` ! l / 7.g.Q.%.u o.` ` N X o % * 1 g 1 % % h P g % % % * * * % % % Z A.d.Z Z 2.l _ _ G F H W .XuXuXuX.XD.D.E 1 D D.D E D.E W 9.cXAXxXMXMXxXaX9X6X8X9XjXbX6XaXaX$XC.[.'.b ; p v.M.v.mXDXKXnXsXnXnXKXKXZXzXmXDXzXiXS._ x +XiXA.0 T Z r A.$X5X*X6.Q V.Q.n j Z ] k.*X+Xf.] 4.f.h.7XB.( o.n 9 i p > # + + + + ; $ $ ; i r p v z b s c > w Y Y z b Y O.O.Y Y =.K N -.-.:.:.t.q.>.#.y.^.u.a O     o 2 z =.~.y.+.#.#.+.@.-.Y J ",
"y.P.L.L.F.@.K } +.+.F.>.=.y.~.^.~.T.T.L.L.L.^.^.L.c.T.[.qX[.^.>X X>.c.I.T.L.!.B.Z.s.4X:X] [ / q V 0 u M ` ! l _ g.g.W.] j 5.4.o.z . O % & * 1 & % % h P 1 % % & * * * & % % x a.2.Z x Z n ( Z v R E D..XuXuXuX.XD.E D.A 7 H.R E E R D.E K.ZXZXbXBXNXlXaX8X-X9XzXlX=XNXxX9XOXN.[.J.p B M.6.v.zXmXmXZXmXnXzXzXiXpX*XpXpXiXiXiXx > N.-XS.t c 0.= 5.(.4X*Xb.Q b.Z.k j ! ] r.*X*Xh.] 4.g.b.6XB.^ o.f 9 i i ; = - : ; ; - - + ; > r p a z z z F b b K Y z s T O.O.O.-.=.O.O.:.>.F.w.i.y.y.u.L.^.u.s +     o 5 Y F.~.L.:.@.O.O.-.-.O.d ",
"i.L.i.y.t. .@.:.:.t.:.N +.G.~.^.^.T.T.y.L.^.^.T.c.T.I.c.>.w.x.;XeXE.^.|.!.z.Q.W.W.f.7X;X] &.( e V 0 u M ` ( m _ w.7.W.$.j 5.4.` N . % 2 * & 1 & % , 7 h * % % % * 4 * * % * > 1.3.3.j V M v.X.h R E D..XuXuX.X.XD.E D.D 6 D.D.E R E E E L |.ZXZXAXSXbXlX8X+X&X&X$XlXSXNXlX6XC.`.}.9.) B.2.g.*X=X*XiXpXA.S.S.S.S.S.S.).iX*XiXM = 2.-XOX_ ; e.> Z `.4XS.b.M x.C.m j ! ] g.$XOXh.] 4.h.x.9XB.( *.n ; i i $ # ; @ : 3 ; = = ; ; p p d b b J J J J Y Y a p b J =.F.Y.Y.Y.T.~.~.T.T.E.].^.E.E.^.G.a .     . v K.~.~.L.+.} O.+.+.-.O.d ",
"i.i.:.+. .O.t.Y.G.F.+.+.L.~.^.|.~.T.T.L.P.^.P.c.L.L.L.c.y.L.P.|.0X}.E.U.L.E.;XQ.Z.4.<X$X] [ ( q V 9 y M ` ( k ) 7.z.W.o.y 6.5.` N . o : 4 * * < % % * h * % % % g g * % % * % : > _ _ Z ! v.T R D E H.uXuXuXXX.XD.E R R 6 E H.H.E H E E R ;. XZXZXDXBXBXlX8X+XOXkXFXSXBXMXbXpX#XfXU.X.M._ ).dXpXpXiX*X*XS.S.*X*XpX*X).OXS.iX3.> M OXOX4.; X.B r m.*XS.4.~ b.Q.m y ! o.k.OXOXk.] 4.z.h.9XN.( *.n ; d i 3 # = - - > 3 ; ; > i p a b b G J G K J J b i p z K O.-.P.y.L.P.P.~.T.T.T.].|.].^.^.L.b o     o c Y.Y.Y.>.+.:.+.O.O.K J d ",
"i.w.:.#.-.t.y.L.G.>.F.L.F.L.T.~.|.qX>X!.T.T.P.T.I.P.I.L.i.I.c.i.P.P.c.I.!.U.%XZ.C.s.<X$X] &./ e C e q k _ M k ( 7.g.C.' j q.]  .N . & % * * 1 % % & * 7 & % % * D g * % % % % % h e.3.2.! o.U R D D.D.uX.X.X.XH.D.E S S 6 D H..XD.R H R E E W CXZXvXAXBXVXxXaX=XkXNXDXBXBXBXbXyX3X{.X.v.) M.pXpXnXDXzX*XA.zXDXKXZXmXmXnX+XOXd.> x S.OXM.y T 3.= o.%X(.g.! x.Q.m y M ] k.*X$Xk.] 4.g.j.6XV.( %.n 9 i i # O # + $ $ > - ; i d a p d f N d J J N p p b N B Y +.@.#.O.-.:.:.-.-.y.i.L.~. X[.E.F.d #   X o b Y.L.-.:.:.:.O.} } } K } ",
"i.8.@.#.y.>.F.Y.L.t.G.G.G.T.~.T.].0X|.T.E.!.E.E.E.E.E.P.y.w.G.c.U.^.[.^.[.[.%XC.C.s.,X#X` 4.) q C 9 u l ` ! l ) 6.4.A.$.j %.o._ x o o % % 1 * % % * & 4 % % % g P g * % % % * * : x _ 6.M 3.U R R E H.uXuX.X.XD.D.E D A 1 6 E D.E E D.E E E R D.uXCXCXCXAXmXkX5X7XzXbXmXmXdXdX3X XY.B 5.x U.vXKXLXKXGXmXmXLXUXLXLXLXDXmXpX*XA.x Z v.OXOX! a 0.> M %XQ.7.j z.Z.f y M ] g.+X$Xh.( %.f.k.6Xk.( 5.n ; i d # . O . $ O # ; - p z z p b b b N J J b i p b J N K O.O.O.-.#.#.#.#.#.8.w.i.P.E.[.E.t.z +     o b Y.L.-.>.>.F.+.} N } O.O.",
"I.q.q.i.G.t.Y.Y.Y.:.Y.Y.Y.T.|. X].P.P.[.tX XE.[.].].!.^.^.[.>XG.c.[.[.!.!.U.W.V.Q.s.4X#X' [ _ q C e q u _ M l ) 5.4.C.] M z.o.) x o o & * * g % % , & 1 & % % D P * % * % * x 3.x = M 3.j Z P D R E D..XuXuXH.D.E E D A 1 < < D .XH.D.D R E R E E K.wXhXdX3X3X2X}.yXeXeXfX{.~.u.K.T z Z V A.pXmXDXmXKXUXLXKXKXKXDXmXpX*XA.A.A.p.n ! *XOX_ = T x q ).(.m.e z.W.y y ! ] h.$XOXf.( [ f.h.pXN.( ] n 9 a i O . # O O + - > > r p d N b b b b b J J p a b b N K K O.-.-.+.+.8.-.-.8.8.y.i.I.].^.q.z o     o v Y.Y.-.y.G.G.=.} } O.K O.",
"u.-.u.y.Y.Y.L.L.G.t.Y.~.^.~.^. X[.J.G.!.[.E.].E.T.^. X^.^.>X^.>.>.!.[.G.z.U.`.V.Z.g.=XZ.] %.` e C e q n _ M l M 7.6.).o.m r.o.) z . o & % * 1 % < O O & % % % P h * % % % * p.3.V x x _ j Z b D R E D..XuX.XH.D.E R D 1 , , 7 D.H..XH.R D.E E E R U F.~.F.Y ;.W 9.u.K.R.@.T L v P T v N M a.A.S.pXmXmXDXmXmXKXKXDXDXDXZXnXiXOXk.r x k.B.6.r x K w W.Q.v.m z.Z.f t ! %.k.OXOXf.( [ g.k.5XN._ o.n 9 d i O O # # # - ; > p b p z b N b J J N J J a d b b G J K -.-.#.#.O.q.8.-.8.3.w.i.i.T.E.q.c O     X b E.Y.i.i.>.-.O.O.=.K O.=.",
"y.q.Y O.G.Y.Y.L.G.Y.~.E.Y.T.~.Y.E.0X X X^.E.].u.#.!. XE.I.E.L.>XyX|.T.i.c.n.`.N.V.g.=X#X] 4...q ) q q k ..m j ) 7.6.C.o.j n.6.) z . o & % * 1 % & & % & % % g P * * * * * * X.3.Z V l Z q 3.J D R E E .XuX.XH.D.E E A 1 , , D 7 A D.D.E E D.R R R D R W XX9.h H R S F.XX5 4 8 S L T x V _ ).dXzXpXzXnXiXiXzXnXDXKXmXnXzXnXiXOXA.V = _ k.k.l r I a W.#Xz.f z.V.f y M [ k.$XOXf.( [ 6.g.iXB.( ] j ; i d $ O # # # # : > p B J L K Y O.=.=.Y Y K J b i p O.-.F.Y.-.-.-.@.O.B @.8.8.q.i.P.].T.@.p -     X v Y.L.L.L.-.=.J } N d +.:.",
"-.@.Y K -.T.y.-.G.Y.G.P.T.L.L.L.T.wX X].^. X|.t.y.T.T.L.P.c.c.^.rX[.i.L.>.:.m.b.V.f.<X$X] 4._ q } e e m _ l l _ 6.r.C.o.n o._ ) n . o & * * % % % , % % % % h P * % * * % * x 6.3.M _ Z j g.1.F R R E .X.X.X.XE R D 7 , , , 1 S A D E D.E R A R H A S D D.'.F 7 h 6 F E 6 7 7 8 U U v V _ *XvXLXLXKXnX*X*XnXDXKXUXIXIXIXKXDXiXA.3.@ t 6.d._ > Z M (.(.7.j z.V.f q ! ` k.*XOXs.( ] 6.h.-XN.( 2.a 9 d i + . # o o + + > v G K T J Y -.0.0.=.=.Y N b ; p O.=.G.R.q.#.=.O.Y z I @.#.0.i.E.E.L.K > O       b ~.R.Y.i.+.J K J N d K -.",
"-.B O.=.-.y.G.G.E.P.J.R.Y.L.P.T.P.P.].tX[.E.t.L.!.!.^.[.;XE.!.^.T.w.:.t.L.}.3Xg.b.f.4X:X[ ] ( w C 0 e k _ l j Z 6.6.m...M r.%...n . & * 1 * & & < X X % & * 1.h * * % % % * * > x M Z _ j 6.3.R R E D.uX.XD..XD.H A 1 , , , 1 7 7 A E D.E D D D D 6 7 D E H.H.7 8 A 7 F F 6 2 3 9.L p B 6.).pXzXDXLXLXmXDXLXUXUXUXLXKXmXzXpXA.A.a.t = 3.k.6.q t C W.Q.r.y w.V.f t M _ h.OXOXs.( ] 6.g.4Xk.( 3.x ; i i O # O o o o + + > i d a r b U K b b L J d b i p z J =.F.0.-.O.O.K z T Y X.@.8.R.E.@.p ; #       F Y.L.>.i.-.} J d N J L O.",
"I J -.-.>.G.G.Y.E.P.P.P.G.w.y.u.L.G.T.qX~. .f L.T.^.>X}.~.^.^.E.T.i.f +.E.tX3Xx.b.6.<X=X] ] ! r C w q V Z M l l *.5.m.` m 5.] ` n X % % & * * & % X X % * g 1.* * * * % * * * g 6.Z _ M l 6.1.P R R D..XuXD.D..XE 7 , , , X , 1 6 7 D R D.E R R D S 7 A H H.W F.s 7 8 U G 4 2 v F.c > n 3.).pXpXpXmXLXLXKXDXmXmXnXzXpX*X*X*XA.B.k.Z x _ k.l.M r B M.#XW.n w.V.f q M ] g.$XS.2.( ] g.g.4Xb._ o.c 9 s s o # 3 # o o o + - > > ; ; z b a i i N b J J a b p s J O.-.@.9.0.J z I #.@.#.8.P.u.B r 5 #       z K.G.t.L.-.O.N d J G J +.",
"N J -.K.~.K.G.T.P.Y.P.P.t.i.i.P.L.t.L.T.L.T.Y.Y.L.I.T.c.>.i.c.y.L.L.Y.T.>.i.`.b.N.4.*X(.] 2.) q C 0 q l _ M l Z 5.6.m.) m w.%.o.b o - h h 4 & % % , % % % h x * * % % * * % * x p._ 3.j ~ d.3.h R R R D.uXH.R D.D.A , , , , , 1 A A D D R E D.E E R 6 1 A U U L W F c /.U 2 8 ;.T - : z 5.A.}.pXpXpXmXzXpX*X*X*X*X*X*XiXpXpXsXiXk.6.N t d.l.2.= z !.Q.%.e g.V.y q M _ k.$XOXd.( ] 4.g.-Xk.( o.j i i i + o O . o O + + ; ; ; i r > i s a p J Y Y K T O.G p a N G N I U b W =.=.=.-.8.J.-.r @ - O     X F Y.Y.L.Y.-.O.G f J K O.+.",
"N @.0.q.G.P.P.L.J.G.L.G.G.G.L.P.i.L.i.>.F. XqXR.L.y.i.i.w.q.q.y.P.!.|.E.:.w.E.b.m.4.%X#X' %.) q ^ 9 e m ^ m l M *.6.m...M q.%...z X & & * * % & % X % X & P g * * % % % g Z P x x V X.j l ( T R D R E D.XX.XE H 1.D , % , X , , 6 6 A A D A A A H R 7 < < 8 H.3 F W F.XXK.P W W J - - z 5.).).*XpXiX*X*X*X{.*X*X*X*XiX*X*X*X*X*XB.d.j = _ k.s.r t U.Q.b.m z.V.u q M 2.d.OXOXs._ ] 4.g.=Xk.( ] j 9 i s # o o o o # - - > > i r @ ; > > ; d Y =.J J =.-.b i d i d c c N J 9.Y #.8.F.F.F.O.$ $ ; O     # G K.Y.Y.L.} J b f N K @.-.",
"P.K.#.i.i.~.P.i.G.i.L.G.L.G.u.t.L.^.E.>.L.~.t.>.y.y.c.P.c.i.I.P.T.L.L.:.} *.m.b.V.6.:X%X' [ ( r V e e m ) k j M %.6.z._ M o.( ..z   % * h h 4 & % , X X h D * * % % * * 3.p.2.Z x Z ) q k _ Y H R R D..XXX.XD.H A A , , , X , , < 6 7 7 A 7 7 A A A 6 6 6 < Y L 2 3 5 F L F 3 J v O - z 5.S.*XpXzXnXiXA.*XzXmXDXKXDXmXzXmXmXDXzXS.s.] > q 2.6.n = P.V.7.f z.V.f q m _ g.).OXd.( ` 4.g.=Xk.` 3.z 9 i s # . . o # # + ; - > p ; + i z a p d L O.Y K =.-.L L O.Y J b b c p b Y Y 8.>.G.L.-.$ O # .   X # G F.u.L.G.i.:.=.t.O.@.#.i.",
" X|.G.u.]. XP.G.P.L.Y.G.G.u.t.:.^.qXT.L.L.>.:.>.w.y.y.i.w.w.U.P.c.w.:.C f O.z.b.C.s.=X%X] [ ! r B 9 e j ! l j M 5.*.z.) ) n.o.) z o g h h * % 1 X ,   % h g * % % % * * Z 6.6.3._ _ M y _ M.3.D R D D.uXXXH.D.R 1 < , , X , , , < 6 6 6 7 7 7 6 A 7 A 6 < 6 S H.8 O , , O X 2 W 2 & - B 5.M.*XdXzXDXDXiXnXLXLXLXLXLXLXIXGXnX*XA.l.s.2.a : l 4._ e I.W.z.t w.V.y a m _ g.OX+Xd.( ' 4.f.<Xh.! o.j 9 d d # o # . O + o o + ; p r + b Y K J d N O.O.O.=.-.=.O.;.=.U Y J b b c K @.8.G.L.L.=.$ . #     X # G =.+.E.].^.Y.F.G.X.Y q.P.",
"i.u.R.P. X|.P.G.P.F.q.=.-.q.-.L.wX>XP.P.L.i.:.G.y.y.i.t.w.c.P.w.L.w.:.-.+.#.w.b.C.&.%X$X] _ ( 0 V 9 0 j ) k j l %.6.z.` n ) _ ..z : h c h g % & X , X % 7 g * * % * * * Z v.6.6.l 3.j j ~ 2.Z D D R D..XuX.XD.R 1 1 , , , , , 1 7 7 7 A A 7 6 < A A A 6 < 6 6 ;.W , < < O O L J & 2 > B 5.b.A.*XpXmXDXKXLXKXKXKXGXDXDXmXpX*XA.A.M.k.4.T + x 2.] m n.Q.W.f f.V.f y l ( f.OXOXh._ [ 7.k.<Xk.! 5.j i i i # o o O # O o + r p p p a G J Y q.=.Y =.;.O.@.;.Y L O.O.O.T @.J b b =.t.G.T.L.+.d # # .     o O s =.=.E.].^.i.:.:.u.q.w.i.",
"R.u.].rXE.y.q.u.F.:.-.=.O.O.i.hXyX^.~.E.L.:.:.t.:.y.y.y.w.P.i.y.L.i.y.y.i. .*.b.N.7.%X:X] ] ! 0 C 9 9 u _ l l M %.6.r.^ j 5.%.) a o % g h P g & X , , & * g * & * * * * g Z 3.M Z 3.j l 2.2.x P D E .X.X.XH.1.E 7 , , O , , , 6 7 A A A 6 6 6 6 D A 6 6 A 6 6 7 ;.F O O O 2 W 5 2 , 3 B p.k.A.A.A.iXiX*XiXpXzXzXzXpXpX*X*XzXpX1X5XS.6._ w a o.[ ~ b.V.6.u z.m.f a n ` f.S.OXf.' $.4.h.$Xh.! 5.n 9 i i # o o . . . o > z z b J J b a @.G.:.Y Y -.=.=.O.=.O.O.U O.Y K d a b t.P.E.|.L.K a @ o o     o & v 9.0.Y.^.n.+.O.Y q.P.8.+.",
"J.q.~.].P.u.u.u.t.:.-.-.@.-.L.^.P.L.I.~.T.i.i.y.i.P.L.i.q.q.3.w.y.:.y.T.~.i.c.x.b.&.@X%X' _ ! e B 9 e u Z l j ! o.%.r.^ k o._ ) a o % * * g h 2 X X X & * * % % * * * * g g 2.2.6._ j l 2.3.P D D D.H..XXXD.E E D < , , X , , < 6 A 7 6 6 , , 6 7 D A A A 6 6 , S H.U 8 G H.F 2 2 2 2 p _ A.OXA.A.A.*XA.A.A.A.*X{.iX1X1X*X*X*X*XaXpXg._ n > n ] ] C.Q.m.y z.V.n q k ( s.A.OXs.( ' 4.h.$Xh.( 5.n i i d $ . # o o . o + > p N N J J J K O.} J O.-.:.O.=.=.=.O.O.O.=.Y b J K J.~.E.[.L.f i ; - &     O 2 v U -.~.E.i.y.-.@.8.P.y.+.",
"G.P.Y.P.P.G.K.G.-.-.=.-.F.T.R.t.G.~.^.E.E.L.G.y.G.G.u.t.8.i.q.q.q.y.P.].}.!.W.x.m.&.%X#X( ' ( 0 V 9 0 j Z l j ! o.%.g.^ m 3.o.) z o : h h g & % X X X & 1 * % * * * g x > 3.a.2.6.l j ~ ~ ( P D H E R .X.X1.D.E H 1 , O X , , , 6 A A 6 6 6 6 , 6 H 6 6 6 , 6 6 O 8 W F.W F - 2 O , : : x p.A.A.*X*X*XA.A.pXpXzXnXmXzXpXpXzXmXDXmX*Xf.] ) = 0 _ 2.(.V.w.k z.C.V a l ( 4.B.OXs.( ' 4.z.=Xh.` 7.n 9 i d $ . o O # O o + = > N T Y K K K K Y Y #.:.:.-.O.=.-.} U O.Y Y b J O.T.|.!.^.G.a r ; : -     O 2 s s B R.[.E.L.@.-.u.J.0.3.",
"u.J.G.P.L.u.F.-.=.O.=.>.T.~.Y.:.i.Y.Y.E.^.T.i.:.-.#.8.O.C  .8.-.#.G.L.T.].E.m.z.h.&.#XQ.] ] ! 0 V = 0 j ( l j ! o.%.z.) M w.4._ z . % : h h P h , X X % * & % % * g g T X.6.5.M o.q ~ d.B.a.1.D R D 1..XD.D.D E E 1 < , O , X , < 6 6 6 6 6 6 , , 6 6 6 6 6 < 6 , O 4 3 2 - < 2 & - & : x d.p.A.*XzXsX*XpXKXLXLXDXnXnXmXDXGXmX*XA.k.v.7.] n @ n %.C.`.C.f g.C.V t l ( &.B.OXs.' %.4.f.$Xh.( 5.n 9 d d 9 $ # o o o + + ; c b J K O.Y O.O.O.} -.L.G.+.} -.F.-.O.L Y Y b K O.L.!.!.[.i.w r ; ; - .   o 2 v b L G.E.c.i.O.@.#.8.q.O.",
"y.q.F.t.-.:.-.J K =.:.~.~.T.T.t.y.:.y.T.T.].E.:.Y O.@.K J Y u.t.i.T.E.E.E.P.m.x.x.&.#X%X] ' ! 0 B 9 e u Q M k ! o.%.z.) j _ $._ a . % * h x h P h % X % % % % * * * * B 6.2.3.M M q k d.d.k.T h D E .XH.D.1.E D.D 1 , < O O , , , 1 A 7 7 1 < < , < A 6 6 6 , , 7 7 8 2 O , 2 O , , , # a 5.v.v.A.pXBXmXZXmXmXzXzXnXzXzX5XB.v.S.iXjXpX).2._ Z ] ~ M.V.7.j 7.V.n t n ( 4.Z.OXf.( ' 4.g.#Xs.( 6.j 9 i d $ + + o o o o O > d d N J J N K O.=.+.-.~.T.-.-.:.Y.-.Y Y Y J b O.q.L.!.[.[.t.i r = - - .   o - v J J F.i.c.G.O.O.J Y -.O.",
"t.-.-.=.0.G.-.J =.-.Y.qX|.^.T.G.y.Y.L.Y.E.~.E.u.@.=. .T K -.i.i.P.L.E.T.I.I.I.g.z.[ #X#X] ] ! q ^ 9 e k ) l k ! ] $.z.) j 5.5.) a o % g g h x 1.1.g X % % % , * * % g 3.A.3.2.3.x q l ! ~ M G D E H..X/.D.D.D.7 1 , O h : O O , < 6 A A A 7 6 < , , D A 6 6 , 7 6 7 A < O , 2 O O , , 2 ; I r.g.k.S.iXiXiXpX-X*X*XOXS.A.g.Q r.zXmXZXzXmX*XS.*X+XOXS.S.n.n r.m.f t n ) %.V.Z.s.( ` %.s.Z.6.~ 3.j w i d # o + + . o o ; i d f K K N V J O.Y O.#.>.F.:.>.>.Y.#.O.K K G N O.i.P.!.[.P.N i a ; + +   X o 4 v G L Y.P.I.P.:.K N N L Y ",
"F.-.Y d Y -.O.O.0.+.~.tXtXqX|.L.G.G.L.L.a.P.P.0.0.=.=.T @.P.E.P.P.E.E.P.c.z.m.z.x.&.#XQ.' [ ! e n 9 e f ) M u ! ] $.z.) m ..) _ a . % % % * * g x Z : % , , % & * * x a.r.2.2.o.q y M 2.( _ G H 1.D.D.D.D.R 1 * < , O c z o , , , 6 S D D A 7 6 < , 7 A 6 6 6 7 6 S S 2 , , 2 O # , 2 2 : z 3.a.g.N.B.S.A.OXS.A.A.S.B.k.3X$.^ :XbXnXmXDXAXDXnXiX6X&XS.z.u 7.b.f e n ` _ h.B.s.~ ` $.f.Q.g.~ 6.n e i d $ + + o o ; v v z z N J K J f f K Y d d V } L.L.T.~.-.O.K K O.@.:.E.^.].Y.N @ r r = + & X   O 5 v G K P.Y.c.I.-.Y J i d J ",
"u.-.O.J #.Y.F.t.F.Y.~.rXtXqX^.T.L.G.G.G.P.P.u.t.=.O.T N 0.G.u.P.L.E.Y.i.P.U.W.g.x.' Q.Q.' [ _ e J 9 e f ! l j l o.$.7._ j o.$._ a X o % : g x 3.3._ Z : X % % % % % > Z 3._ _ M j j l ( _ Z P H A 7 E D.D.D R D 2 2 O G b # X O , 6 A A A 6 6 6 , , A D 6 A A , 1 < 6 , , 2 , O , , , , < 4 B Z 3.S.B.h.A.*XiXpXzXmXnXA.` y Q $XaX$X$XpXZXmXZXaXOXOXB.r.f *.n.f 0 n ! ] z.C.4.( ..o.f.#Xg.~ 5.j 9 f a + + O + o > p s p d b J J K K J K d f O.#.>.I.!.L.L.:.K I @.-.q.t.^.!.-.a + > z p > + +   X O - v J Y G.Y.P.Y.:.O.N i N =.",
"K.t.-.:.~.tXhXrXrXtXrXqXrX XrXwXL.y.y.u.T.I.i.u.Y B B Y #.I i.a.t.P.P.i.L.I.I.g.f.&.V.Z.[ [ ( e V 0 0 n Z l k M ` %.r.) n n.` ) z   % * g X.p.Z 5.6.Z x % o o % % * x Z 2.M _ x j k k l ( Z P g D E H.H.H A 6 < H H 2 Y T i O , , < A D A A 6 6 < < 7 D 1 S 7 < < , < < O 2 < , , < O , < 2 3 3 r M.*XOXpXzXnXmXnXnXzX*X! ! &XNXlX&XoXoX5XpXZXAX5X(.V.M.f *.v.f w n ) o.g.N.4._ ` %.&.(.g.( 5.j 9 i d $ o o o o . + + o r d N Y O.} U N d +.-.w.G.~.!.c.L.t.#.y.t.w.i.P.T.+.p ; r b b p > - O     o 2 b K T J.P.E.T.t.O.U G -.K.",
"G.-.=.q.G.R.XXrX X[.~.qXrX0X0X Xy.t.t.o.i.T.J.u.K c Y #.8.t.y.-.q.L.E.L.c.I.W.g.g.[ V.C.] ' ! 0 C 0 0 j ! M l M o.%.7.! q ) ! ) t X o x 6.A.g.j 6.6.l Z r o % % % > e.6.6.3.V q j j ~ ( ( _ v D R R E D.D 1 O H F 7 - G I v O O , < A A D D A A 7 < 1 A 7 A 1 < < , 2 6 , 2 , O O O 2 2 2 2 8 4 : e.).=X*X*XiXiX*XiXiX-XZ.9XMXsXsXMX,XoX#X#XbXDXbX%Xb.7.t *.n.f 0 n ) 4.g.g.&.( ` $.7.(.6.~ 5.n e d s $ o . o o o @ @ ; a d J } O.Y } J Y +.:.G.L.^.L.c.y.u.-.i.c.P.P.R.t.N p i > z c ; ; + .     o 5 G J =.E.P.y.y.t.;.O.O.-.=.",
"F.=.0.F.q.@.y.Y.L.w.L.E.!.E.E.U.G.u.:. .#.i.w.@.c T t.u.R.P.i.u.P.P.T.Y.I.I.I.g.g.[ m.b.' ] ! e J 9 0 j M j j l ) o.6.) j o.$.) z . > a.p.d.6.q X.r._ Z B : % : : > 3._ Z ) r q q l ] k.k.5.G D E E D H D 6 h E < < 7 s K J & O , , A D D R D D 7 1 < < A 7 1 , < 6 7 6 2 2 , , O , 2 6 2 7 8 7 4 z 6.A.A.S.A.B.A.A.OX-XlXNXsX,XNXVX,Xj.N.Z.jXAXjX%XV.w.f *.z.a w n ) 5.g.g.4.( _ ` 4.Z.4.l 2.j e i i $ o + + + > > > c J Y J K } } O.O.=.N K +.+.:.:.L.R.q.a u.Y.E._.a.n ; > r a r ; : + & X     X 4 G J 8.~.P.K d O.K =.Y =.K ",
"K.G.G.q.-.:.w.-.i.t.y.t.y.y.i.i.y.O. . .+.#.q.@.N X.u.P.i.i.G.T.P.G.P.E.I.y.r.g.x.[ V.b.( ] _ e C 9 = q r 0 q l ) _ %.) q Z ^ ` a ; B 2.6.k.6.3.6.3.x 3.B x % * x V x l 2.x 0 0 q u l ) ) B h D W E H S R H H D 6 A S 8 G L 2 O , , A R E E E D D 1 1 1 H D 7 < < 6 7 2 2 6 2 O O < O 2 3 3 3 2 - : z p.g.k.k.A.l.B.OXiXxX8XoXlXNX9XoXB.f.x.C.7XpX%XV.*.m 7.z.y e q M o.f.g.4.( _ o.4.C.2.! 3.j 9 i d # o % + % > z c z J Y N N L ;.-.L O.K O.J d J =.G.~.b a t.t.u.8.N ; = > p r ; # + + O       X 4 b J =.F.-.9 i K Y U Y J K ",
"=.K f O.@.w.q.t.w.+.+.#.@.o.#. .C  . .C @...+. .X.@.q.q.#.:.u.:.B *.i.F.y.} 5.g.g.4.b.b.( ] _ 0 B $ @ @ w N e j ) _ 6.Z e o.5.` V a n M 4.4.5.6._ X.> : g x g * r Z 5.o.) q y q t a N N > F S 1 D.D.1 6 D H 6 7 8 S H h 8 8 O , , , 6 R D.D.D.D.E D 7 < D A 1 1 < 6 6 , < < O O O , , - z b b 5 : - - w 4.<XpXpXpXkX$X-X&Xj.6XbX9X&XkX,X,.&.7.<XdX*Xb.z.m 7.b.f w a k 7.V.%.2.l ` o.4.C.f.! o.n i i d # . . o # ; > i a z B J N } =.J i i p z J N c c c z ; b J z b a r 5 ; > p > : + o o .     X % 5 v J Y Y N i d L b p N K O.",
"L J a Y i.Y.K.F.-.J K @.@.O.@.Y @.#.+.@.q.:.5.q.q.3.3.#.-.-.O.d d O.#.O.O.} 5.g.g.4.b.g.( 2.Z q V 9 @ @ > B z a M _ 5.M n *.` ` n 0 t ^ 6.o.) 6._ p.> * g g Z g > x Z o.j y j l Z N h D 1 1 S < 8 H D H D S H S A H H D 7 2 O % , , A E D.D.D.D.E R 7 1 7 D S 1 < 7 7 O , < O O , < 2 p @.I B B c 5 : - e.dXnXmXDXbXs.s.h.9XzX&XB.lX9XV.h.7.$.:XbX#X(.!.Q 7.I.f e f ! m.7.] 5.! _ ` 5.S.6.l o.j 9 i i O   . . 2 - # - > p b N G L L s 3 3 3 3 3 5 p > ; : 5 v b 8 v s p s p 5 5 ; - o   X     o X 2 5 v F J J s ; i b d p b =.0.",
"s b F O.0.0.-.Y J F J J G J J G Y T J =.Y Y =.@.N N N b L J b K =.J F b J b +.6.g.[ M.h.( 2.) 0 f ; @ $ d ; w V Z _ ` ! f ) ~ _ n r t M 3.3.Z Z r : * * * g P x g q M M t M 3.v.M h S S 1 , < , A H D H D D H.W F H E R 4 O O , , , A D.D..XH./.D.H A 1 1 H 7 1 2 7 5 , , 2 O , 3 2 i B e.] 5.X.Y T b > Z *XpXiXnXjXk.4.N.6XC.6.@X4XoX&X@X%.` g.1X(.C.b.Q <.V.f e n o.z.5.7.( M ) o.6.).4.~ 5.n $ i s O     . o . . o O - 2 2 $ $ , # # O X o o O O O O o X - O o O o o X . X .   X     X X X o O - 2 - O - 3 $ . # i p p v J J ",
"# - - 3 5 3 # O O # # O o . X o O o o O + + # . . o X X . . . O O . o . o . I g.g.[ b.k._ 2.! 0 J = @ = N a K  .M  .o.) y 6.*./ j = N j _ x g : : * * % % % g P x q Z a j l _ 3.c R D S , < S D D 7 A E R E 1.1.=.T T W G p - O , , , 7 D.D./..XD.E D 7 1 R 7 < 6 < 7 , , 2 O , 2 p b 0.r.a.{.r.3.X.3.Z M S.zXzXiX*X*X#X<Xj.6.pXb.h.5X&X[ ! ! ` g.).C.b.m ,.V.f e V _.z.;XU.n ) ) _ 2.S.d.~ o.n 9 i i O                           X .                         X       X             X X % X o O O & 2 - # # # o O O O . O O # O ",
"4 8 F S 5 2 & - - & & O o O O o o X o o o o X X X     X . . . X   X X X . o J g.r.] v.k.( ] ! 0 d 9 @ + 9 a } n n ) o.C y ..) _ n = t l 3.g % * * * * % 1 % % g 1.M x q k l ) c D D 7 8 A 1 6 S 7 A E E H 1.1.XXI.3X{.{.U.a.p.h , , 6 A 7 S E D.D.D.H 7 7 D D 7 6 < 6 6 O 6 O , - h J e.q.n.M.n.3._ 3.e.2.A.zXnXzXaXS.A.iX1Xk.A.' oX:X,.( ( ( ` x.(.x.o.y >.m.y e n *.%.` C ) Z ) _ ] C.d.k ` n 9 d d .                                   X o X X X   . . o . . X . X . X X X X o & O - - 2 - 4 3 2 2 3 4 8 5 - 2 3 3 - - - # # ",
"F F G G G G F v s v v h 8 p p h 5 8 8 3 8 3 2 & O O # & # 2 - - & - - 2 - : I 6.6.[ k.x.' _ M 0 d = + @ a e K a C ^ ..C e ...._ n ; z V 3.> * * * * & & 1 * * * g P g q M o.3.J E S 6 1 S 6 1 H H H W R D T {.vXdXhXCXvXcX{.'.K.A 6 A F D S < S H R D A 7 A D H 6 < 8 7 < < , O O : x Y Z 5.v.i.5.X.3.u.3.p.*XaXmXmXsXA.a.pXA.2.m.W.&.V.).6._ 5.n.C.m.z.f 7.c.e ; t  .5.r.o.%._ _ o.5.C.d.k _ n w i d O                           X o o o o o O O O O % , < , , O - O - & - # & 2 : - 3 5 5 5 3 3 4 7 3 8 3 8 2 8 5 2 2 ; 4 3 2 ",
"s G L U Y W T J v b L L F G U L J G v F G F v 5 8 3 3 8 8 5 3 3 5 5 5 v G p I 6.6.] g.6.~ ] l @ N $ @ @ a a B t V  ...V a X.^ / n ; r # : * * * * % % * * * & * g h Z q y M 5.I E E H 7 6 7 < D A E E D G e.cXGXmXcXvXpX}.A.a.1.5 7 A S R F 2 R D D D D 7 7 D D < < 6 6 < < , , < O - N C e.r.r.r.5.) 5.6.6.A.A.*XzXnXzXA.d.d.k.%.f Q 5XpXk._ 5.7.C.m.&.f *.z.e 0 n  .z.7.o.%.X._ ` 2.V.2.k ) n 9 a s O                           X O o O & & - - - - - 3 3 i $ 2 2 2 2 3 3 3 3 3 5 5 3 h 5 3 5 p 5 5 5 s 5 3 3 5 # - - 3 3 8 8 ",
"-.=.-.-.u.0.-.=.-.0.u.F.t.t.0.Y =.0.0.T T Y G v S v 3 v 5 5 F J B L K T Y I q.7.7...g.f.( ` M 9 f ; @ i K 0 n #.n ^ o.C q ^ ) ^ f . + & % * * * * * * & % & & 1 g g x x j j M Y P S D D R 8 S S 8 R E P p.hXZXAXmX1Xb.e.).gXpXR.Y F 7 S R S h E D D 1 7 A 7 7 D 6 < 6 7 , < , , < < - > T n.).).!.W.e.3.e.3.2.A.S.S.iXzXzXS.S.aXz.e q `.pXS._ ! ^ v.m.z.m 7.z.i w C 5.i.%.%.5. ._ ` 6.Z.4.l ..z ; i s O         .   . O O . # # # - - 3 3 3 p s p s v b b F F F b b v b L J b F J G G G b J L N L Y L J L b J L J J G U J J G b ",
"~.T.Y.|. X0XqX>X>X0XwXtXtXwX|.P.E.0XtXK.q.0.J s v < 2 p - T Y.'.^.^.~.~.L.L.P.$.7.] z.b.( ) m @ f @ @ a i i K f n } o.C e *...^ a . X & & & : * % 1 * % % % * : : g l U.5.M M b F 1 S E D 7 E E E P P t.gXZXzXzXdX5X).v.!.cXvX{.K.F.v H D.7 H H D S S D A A 7 S S 6 6 S 6 < & 2 2 < , - b u.).M.r.w.a.5.X.X.o.).*X*X*XiXpXiXzXnX<X_ f W.zX&X] M ) z.n.v.a r.n.f e n o.*.7.W.c.) ) _ f.Q.4.k ..n ; d s O     . o # $ > p d b v i s L B b B b J J Y =.=.=.0.-.0.F.F.G.0.0.Y.0.O.-.0.0.t.t.t.:.G.F.G.Y.Y.G.G.G.u.F.u.0.-.-.-.=.-.0.",
" X>X}.>X X[.>X>X0X>X0X3XwX0X2X>X[.rX X-.-.I s v 3 o 4 5 K t.~.qX X[. X|.Y.I.m.%.&.` z.b.Q Q j 0 d @ @ ; 9 f t f C ^ ..m t C ! ! t   % % * * : * % * * % % * * : x a. XzX:X3.Z h 7 D E D 6 H W R E P K.2XZXbXbXxXzXdX<XA.b.gXhXU.u.u.F E E A F 6 R H 8 E S 7 A 7 D A < 7 < 1 , , 6 6 < , > Y w.X.) o.5.i.q.3.) v.).=XpXzXnXnXBXmXzX7.m *.yX$X2.Z _ z.x.5.j 6.z.a 0 V  .o.w..._ ! ! ( 7.Z.4.u ..n 9 i s #     . + $ 3 p b K K J z N O.O.N N J L K Y O.=.-.t.;.>.Y.T.T.T.T.Y.:.-.-.-.0.L.L.Y.G.G.L.Y.E.E.P.T.Y.q.:.P.Y.Y.y.>.F.G.G.",
" X|.[.!.^._.!.[.E.t.8.@.J. X0X X^.^.G.-.-.N + > & O 2 p 8.L.].>X!.L.^.^.[.|.!.*.&.( &.g.! M f 9 d @ @ @ 0 i e n C ^ ..C t #.` m i . % & % & * * * * * * * * > B 1XcXvXpX7X{.T 6 D E S 1 h E 1.E x a.gXvXAXzXzXmXAXzX7X%X}.cXE.8.a.U 8 G D D A 7 E H A E H 6 S 7 A A 6 6 1 < , 6 6 6 < 2 & 5 ) ) ) M  .) X.X. .) A.*XiXaXzXmXmXmXxXM.^ V ).V.] M _ z.m.M.n 7.i.a w f C *.7.z.$._ ^ ) 4.C.,.k ( n $ i s o     . + $ 5 p p N J K K O.=.0.-.-.-.q.-.:.-.+.:.0.>.:.Y.^.L.G.:.t.y.>.F.+.:.L.+.O.O.K -.R.~.P.L.E.P.L.L.G.L.L.i.:.>.y.G.",
"I.I.I.P.P.I.T.~.q.a N L t. X X].~.L.:.:.q.C p o X - 3 J Y.E.>X!.#.L.[.[. X^.L.&.4.( Q.<X( u j @ i @ = ; = 0 K #.M C ..C q M ! M a o % & % * & * * * g * : : P 1XZXnXzXpX`.J.s 6 2 1 < 6 R D.W E P XX1XvXhXdXcXzXAXBXvXdXdX{.B T 9.h 2 R R R 1 7 H H h H W 6 6 7 7 7 6 1 6 < , 7 7 7 6 < - - z ) ` ` M t j X.Z V _ A.).*X).*XOXOX(.g.m e v.M._ Z ^ z.b.*.y 5.r.t $ a q.*.7.x.yXr.^ ) %.b.k.h.[ f $ i s O     . . $ ; i z b L Y O.-.-.u.P.G.u.q.:.:.:.-.-.+.+.-.L.~.y.:.:.>.:.:.-.} -.G.@.d d J -.Y.Y.L.G.P.Y.P.i.w.t.#.+.-.:.-.:.",
"L.E.E.L.Y.Y.G.F.-.=.=.Y 0.G.F.:.t.-.t.Y.L.:.K o o 8 v @.|. X>X XE.|.qX X-.B ..%.5.[ #X`.g.m y = i @ 9 $ @ r C J } C _ m t o...V r o - : : * % * * * * * * x M.vXmXvXvXdXa.P S R , , 2 7 E E L 0.K.hX XzXyXzXjXbXAXZX7Xz...z z J U 2 S R E H.D S H H W R 1.S 1 < 6 S 7 6 8 6 < 6 7 6 7 , 2 - > V &.&.` n n B B V j 2.A.S.S.A.l.B.B.z.C e 3.v.o.( ) z.z.*.f 5.c.e w B +.y.z.7.n.M M ) %.C.cX%X>.f $ i s O . . . + + + @ r p d N J J K O.o.:.:.#.:.-.:.:.O.+.O.-.>.>.=.+.+.t.-.:.-.t.y.F.+.b J J @.=.=.=.O.t.P.q.#.:.:.+.-.:.-.-.-.",
"^.^.'.E.~.~.F.+.u.Y.F.=.O.Y L Y O.-.G.E.^.T.I + - F F 0. X XwX>X[.tXtXT.a B *.5.4.` &.Q / ^ q 9 i @ + + + i N a a M ` C e ^ ^ n r o - h : : : * % * % : x a.3XmXzXnXzX XP g W D 1 , < 7 H h 9.u. XcXA.}.jXcXvXZXbXvXOXx.` e F L 3 1 F H D.H.E D E S D.E D.D 1 6 1 7 8 7 6 6 O < 6 < 8 2 7 2 - a %.x.s.! j z z N x M 6.).*XOXS.S.S.V.^ e C v.o.) _ z.r.6.t *.z.t w n N o.5.6.u j m C $.V.x.m ! w $ i d , . # o . o o + ; r r z b d N J  .#.#.#.y.>.-.+.} } O.=.O.O.O.:.>.G.:.:.:.y.t.0.O.J J z s d d z Y u.u.O.} +.+.t.G.Y.G.>.-.",
"~.E.G.F.:.-.O.J +.-.-.-.Y Y Y K J } -.G.G.y.N o 4 F J K.|.T. X^.E.E.^.N N O.w.7.&.~ ' $.k Q t 9 i @ @ . + @ $ w V M ` C e O.^ n r . . h h 4 : & * * : g 3.wXdXzXzXpX{.T 4 E H.8 S 6 7 7 5 1.'.3.}. Xw.;XvXZXZXZXbXjX,X<Xg.z i - O 6 R S D.H.D.R H h E E H.R 7 1 6 < A 7 1 6 O , A 6 6 8 1 2 - > ) z.h.%.n 0 c n V Z M A.pXpXiXA.A.B._ a t r.5.` ` 7.7.o.y 5.m.a e f n } %.>...C M ) *.b.Q >.V @ $ i d $ . o . . o o - > p d z b N J N K O.K K #. .+.O.J N K J O.O.-.0.:.:.-.-.-.+.O.=.O.J p F b J Y Y @.-.-.O.} #.-.>.:.-.q.=.L ",
"#.} } t.=.d J N J G O.K.O.K J J G K O.-.q.#.B + # h J R.E.y.c.G.Y.L.y.J O.-.y.&.5.( ] ( k f e @ w @ + @ + + = a C V ..m e } C t r . + : 5 x 4 : : : > r !.dXjXzXpX{.9.g H H.D.H D 7 7 3 P K.a.a.}._.m.;XbXZXAXbXlX6XlXaXS.) - & < D W 7 D.H.D.E D 4 R W H.E 7 < 7 2 A 8 2 < < , S A < D 6 1 6 - a %.b.g.M q a n B _ x l v.pXS.l.k.b.$.a t a.r.) j *.w.w.f w.c.a w n } o.o.*.} ! M ) &.z.&.m e @ $ i s , . . , O o + $ 3 p b d b N J N N J n N } K J K K K J N } K =.:.-.=.-.:.=.} K O.K a b O.O.=.-.8.@.@.@.O.O.#.#.O.K O.-.N i ",
"#.O.q.R.K i K N f J :.K.K G Y O.@.I @.R.E.i.K o o 5 G R.|.E.I.J.Y.L.-.K -.L.z.&.%.( 4.` u V f @ w @ + + + @ = r n M ) V e C M a w . $ - 5 h c h g 5 : x ;XpXpXpX;X8.h 7 R E E R H 6 h G i.K.M.E.[.).).}.vXzX4X=X-XsXNXsX&X5.> - A E E D H.D.H.H.E 1 D D.H.E S < 7 8 6 8 2 , 6 , A H O 8 S 2 6 2 ; ! z.x.` j t z V M B Z ( 6.S.S.l.S.v.n w +.) q q 5.6.X.a *.z.e w n } >.$.%.w.) M _ o.$...y a r ; i s # o O # O + - - ; i c z z N J N B J N K O.O.K K O.O.K } } } O.t.+.-.-.-.+.O.K O.Y J G T Y =.Y O.O.O.} Y O.=.O.} L +.0.d i ",
"-.G.Y.E.Y p N d J J O.t.-.-.t.u.0.8.q.P.|.|.O.. o 4 b '.0X X|._.^.t.i C F.L.c.&.%.` %.] Q m f 9 ; + + $ o @ = ; a n ) n e X.Z t w o - + > v c z c * - 3.fX;X).e.3.p 7 S D A 6 1 h S h K.{.'.a.3.).{.!.}.3X).N.oXaXBXBXxXaXC.N - S H.E E /.D.D.H.E 2 7 E H.D.D 1 6 A < 6 7 , 6 2 A E 6 < D 2 < 6 - a $.V.7.m t z n l x _ 3.Z 3.A.).%Xr.n w @ a z n 5.w.o.e *.7.0 ; f C o.z.7.`.$.! ) 5.` _ q t p w s s # + O # + O - : ; i i p b N N b N B K O.J J Y K O.O.O.;.0.0.t.y.0.0.-.0.O.K O.Y O.O.O.K Y U O.O.O.J Y O.} J f +.t.-.=.J i ",
"y.u.-.#.J p d J J K @.F.L.t.q.t.0.5.q.i.'.8.z . X 2 b '.0X[.}._.T.i.O.-.L.^.I.$.%.` %.) ! M a @ 9 @ $ # + > > = r j ) n 0 } B w ; + @ - > N ; > ; + a U.).v.3.Z : : 4 h D h h 4 7 h T {.{.U.a.6.{.1X).).5.' g.-XxXVXVXBXxX7X*.w F H.F 1.H.1.E D.R - - R H.E h 5 - v 2 O - & - 2 7 L 4 O 5 8 $ 2 : 0 _ x.h.^ q e q j Z 3.] _ _ _ k._ j q e w V V m 7.7.o.e #.w.0 ; n ^ ` *.%.<Xn.M ) 6.%.o.j y a w i v # O O - O % : + ; p a b b b d N N K O.Y K K } K K K K +.t.>.-.-.-.-.-.+.O.Y Y O.=.+.;.Y K K Y O.O.O.O.K K J K -.=.J J N $ ",
"q.O.i a p r b K -.F.u.y.G.-.t.u.i.8.q.U.E.n #     - v P. X XE.u.O.O.:.E.^.>XQ.*.%.` ] ` !  .t @ i $ i + : > > 0 t n  .N e O.n e V K X.*.6.v.r.r.r.a.M.3X1X).C.v.a.a.J.K.Y.R.R.P.J.P.}.dXdX<X:X{.7X4X>X`.b.b.#XjXxXxXxXxXlXjX`.5.t.R.e.J.R.u.i.K.e.T I 9.F.t.@.@.T  .I K I I K I I @.K B C I B J K C %.x.b.5.) C Z Z _ 2.5.5.5.%.` _ o.) M n  ._ o.U.m.>.w +.5.w w n  ...%.7.W.(.( ` r.v.%.j t r w i z + o o + + + + - ; p p a z b f d N B J J K L Y O.J d Y =.-.-.O.O.O.-.+.O.;.+.=.-.0.t.-.K J K Y } K J J N N } =.=.N ; i $ $ ",
":.=.N b N b J O.8.F.u.q.e.u.i.i.i.q.i.|.E.B i o X 2 s Y.0X[.E.J.-.t.E.^.!.>X!.%.] o.`.6.` X.0 ; r a = + @ r x r q V X.M e O.z ) n.W.`.<X7XpXdXpXdXjXdXdXdXdXdXdXdXdXdXdXjXjXcXkXjXjXkXkXzXjXdXpXdXpXaXpX7XyX7XjXaXaX7XaXpX7XpX7X7X<X<X<X1X*X}.;X;X`.`.`.`.`.Q.W.W.W.W.W.W.m.m.m.n.n.m.m.n.z.b.z.n.m.b.b.z.z.r.7.6.r.7.6.7.7.g.7.g.7.7.>.7.*.5.%.7.`.`.*.0 #.5.w @ f y.!.*.&.` v.%.) %.g.6.l B n ; i s # . . o o % o + ; i r i p a a d J N J J J J } J d d O.+.+.+.O.O.;.;.O.=.O.O.;.:.-.-.I K J K O.} Y K O.J K O.@.K K i ; i i ",
"P.u.I b N J Y @.8.3.-.t.q.y.i.i.y.e.i.].I.I c . O 4 b Y.|.|. XI.q.G.^.|.E.[.P.o.$._ (.}.7.n e ; p a + o + + t a a N o.n a o.5.E.`.).%X%X}.%X;X<X<X7X4X4X7X$X$X4X<X%X(.5X5X=X6X<X7X7X7X:X5XpX4X7X$XpX<X%X7X4X&X=X7X7X#X<X$X=X%X7X<X$X=X$X*X#X(.<X(.%X).#X`.#X(.C.C.W.(.V.V.Q.Q.C.m.V.W.I.m.Q.b.W.m.m.M.v.m.c.m.r.n.v.z.z.z.z.I.z.v.n.b.g.z.z.v.v.7.z.M.w.a o.3.= = t.^.+...*.` r.w._ C.C.4.4.5.a = i s o   . o o . . o + - r ; r a d d K N J J K J d d d i ;.:.=.Y } O.O.+.=.=.+.+.#.-.+.K C K C J O.#.-.-.#.K K +.@.=.@.d p s a ",
"u.-.K b L K O.O.w.@.q.q.q.e.u.G.y.e.i.I.i.O.b o O 5 b F.E.]. XR.-.u.E.I.c.P.n.%.$.` 6.;X..N -.i b w + @ + = r z V f  .n 0 C } ..*.) %.o.$.' %.7.*.&.%.&.&.%.f.*.%.%.%.6.$.&.&.%.w.$.&.' 4.4.%.%.$.%.%.4.&.] 7.$.4.7.&.7.` ' %.&.7.&.7.] 5.` 6.5.%.*.*.4...7./ ..$.o...$./ *.$.%.` o.*...o.o.*...) ) ^ ) ) C C o.) ) C )  .^ V ) ) ^ M m ` o.^ _ ! ) ) n w o.5.; d y.f n %.5.( 5.r.%.V.=X] M. .e $ i s .   . . . . o o - ; 5 r > d d d N N J N N J d d d d O.=.Y O.O.O.Y =.O.O.O.@.=.-.@.I K K  . .#.q.-.:.O.K O.=.-.O.T p p z b ",
"Y O.B J C #.-.#.u.P.J.w.q.t.u.a.r.y.i.J.t.O.a o O s F t.i.E.].Y.u.i.y.y.y.w.c.%.o.$.m.g.Q >.n e a @ + @ + = p r K n ..n n C C M ^ ^ ! ^ ) .._ ) ` / ` ' / ( ` ` ` _ ! ( ^ / ~ / / ( _ _ ` ( _ ` ` ( ` ] ' ` ] ` ] _ $.' $.` ' ~ ( ( ( ( ( ( ( ! ( ) _ ^ _ ! _ ) ! ! ~ _ _ / Q ! M M M M ! V ! V m M n M M M m n n n n j j n j m V M m V m ! M ! ! M ! M $.m.e.e i B B >.*.5.M M 5.7.b.C.s.4.M q ; i s o . o o . O + + ; > i a d d f d N N J K } N i i s i J Y } O.=.O.O.O.O.+.=.+.#.-.#.#.#.q.y.u.w.y.-.#.C K O.O.Y K J r i d N ",
"O. .N N O.-.q.#.i.I.a.G.i.i.i.i.i.L.I.T.L.+.z o O v U -.q.~.^.Y.q.q.L.T.y.y.c.*.o.$.z.%.7.+.f 9 9 $ + + @ = r a C f O.C G.E.].!.!.`.`.[.;X;X>X:X;X;X:X1X3X:X;X:X3X;X;X<X3X3X:X<X:X<X<X3X:X<X:X<X<X<X<X:X*X:X:X1X<X*X<X:X;X%X`.(.#X`.%X`.#X`.(.).S.).S.).S.).S.C.V.C.C.C.V.V.V.V.m.m.n.v.n.z.z.v.z.z.z.r.w.7.w.5.*.*.6.>.6.&.*.*.*.+.o.*.5.5.6.5.7.6.5.w.v.m.y.a a C ..U.W.n._ M o.%.g.S.S.] ! t ; i s o . . O . O $ $ 3 w i i p N N N J f J K } K d d i d O.K K O.O.O.=.;.=.:.+.O.+.#.+.+.-.y.i.i.u.-.+.-.O.} +.#.O.K N a d N T ",
" .B O.#.t.t.y.y.i.P.n.i.i.i.L.n.L. X|.^.L.-.b o O v T t.E.~.|.G.~.^.^.T.w.y.c.%.%.$.z.7.%.} w 9 ; @ @ @ r i a a } #.a w i a a p i a a f f f f m f Q Q f m f Q C C ! m C ! m Q Q ^ ! ) ^ ! ^ ` ` ....) ) ) _ ) ) ) ) _ _ ~ ^ ! ^ ^ ) / ^ ) ) ^ ! ! ! ! ! ! ! M M M ! ! Q ^ ^ ^ ^ ! C m M m m C M m V n n V n n n n f f f f f y f y f t e e t t t f a f f n n t 9 J N #.w.6.7.o.) I.6.h.V.6.2.l q 9 i s o . . + + $ + 3 a i r > r a d N K K J J K O.L J K L O.} Y O.K O.O.O.+.+.:.+.+.#.:.y.y.y.y.i.w.#.5.t.:.J B O.} N p N K Y K ",
"K C 8.3.t.y.y.y.i.P.I.i.y.i.P.P.L.^.^.^.E.-.d + O 8 b ~. XY.E.P.|.qX^.i.y.L.i.%.%...z.x...n f @ 9 + $ 9 $ w V C n :.d w p = + @ $ 9 9 @ $ = 9 9 0 e e e e e e t e e q q q e e e q q 0 q e e e q e e e q q q q q q q q q q q e 0 e e r t e q r q e 0 0 0 r 0 0 0 e w 0 r 0 0 w 0 0 0 0 0 w 0 0 0 9 0 = 0 @ 0 9 = ; 9 9 9 9 9 9 @ @ $ @ @ @ @ @ @ + @ $ @ = w a K  . .5._ 7.n.b.5.*.%.A.<X4.( l r $ i i # . + , $ # + ; i > r i a d N J Y J J J K K } J K K O.K K K O.O.O.O.=.-.-.#.+.+.#.q.y.y.t.q.o.+.w.:.-.V B O.Y N d K Y O.O.",
"q.q.q.:.i.U.i.q.w.i.R.E.^.[.>X>X;X!.!.[.Y.-.b . O 2 b Y.qXR.q.i.~. X~.].>XT.r.*.o._ 6.z.! #.i @ i . + @ w C o.M ..K L.-.O.C a a N n B m f e N  .*.V / } ..Q m ^ ^ V ^ ) ) ^ ) ! ! ! l ~ ! ! ^ M ! ^ ! M M Z M l m M M M M m M m n l l l l n l j n m n n n j n n j n n j j j j j j t y a j n j a f t n z t e t a n n n n n n n t } } t a t w w r e r a N O.f V N ..*.m.V.C.V.).`.$.6.4.C.k.l m w $ 3 i $ , $ # $ + O $ a p r p p N O.K J K J N J J N J J L O.O.O.K K O.O.O.t.L.:. .K } }  .o.#.*.#. .@.-.#.O.K O.O.O.K K Y K O.-.",
"w.q.w.q.i.R.i.y.>.c.I.>X>X;X|.;X[.[.;X^.P.-.p . O 5 G Y.0XT.q.i.P.~.E.]. XT.y.%.$.` 5.&.| f 9 ; i . + @ a +.q.q.#.M n f f C ^ ^ #.*.w.*. .! !.[.*.! x.W.W.x.V.W.!.` o._ ] ' %.[ 2.[ ( [ [ [ [ [ ] ] ] 2.] _ ] ( ( _ ( ] _ ( ] _ ( ( ( _ ( ) ) ~ ( _ ! ~ ( ! ! ( ! M M ! ! l ! M m l l m l l m l m j j j j j V C y.*.` o.%.7.o.V +.*.V n n n n n n C  .+.X. .#... .V.dXpX*XS.V.g.! 5.$.4.z.! M 0 $ i d 2 $ $ # $ + + ; p z p r p b K Y J K J J d N N J J J +.=.K L O.O.O.+.G.Y.+.C C J  .#.:.w.+. .#.i.u.@.O.=.@.O.K O.Y K K O.+.",
"u.i.y.q.y.i.a.i.Y.I.E.^.!.}.^.T.!.^.^.[.P.#.r . # 5 d G.|.P.L.i.T.P.L.E.P.T.P.6.*.) ` ` ! e 9 ; $ @ + 9 } :.o. .} V } >.w.>.z. .w.W.!.W.x.U.#Xw.z.g.#XW.;XQ.!.x.x.c.z._ 7.B.B.B.OXB.l.l.l.l.l.l.l.l.B.l.l.k.l.k.k.k.k.k.k.k.k.l.f.g.6.4.4.4.4.d.s.6.4.s.4.4.[ &.4.2.[ [ [ %.4.[ ] _ _ _ ( ( ( ( ( ` ( ! ^ o.z.7...$.%.$.r.7.Q ..*.+.o.C }  .K C  . . .} P.w.c.*.%.=XnXVXzX6X#X6.` %.6.] *.! n 0 # i d $ $ , $ . O o + r z c z B J N N J J G N N N L N K K O.=.O.+.O.K O.+.+.+.+.i.y.#.:.#.y.#.C  .#.i.t.I O.+.#.O.Y +.-.O.O.O.O.",
"i.I.i.P.P.i.I.P.^.^.~.I.L.T.I.I.^.!.}.^.i.#.a O & 5 G F.^.T.T.|. XP.L.P.u.E.!.6.6.` ` ` m t w 9 $ $ @ i  .#.} } ^ q.c.W.3X!.`.%.>.W.;X#X(.;XW.Q.Q.:X%X@X@XQ.!.:Xm.z.4.] *XxXxXlXxXsXsXsXsXxXxXsXsXsXsXiXaXiXsXiXiXaXiXaXiXiXiXiX-X-X$X$X$X&X#X$X$X$XOXOXOXS.oX#XOXZ.S.B.C.B.Z.Z.N.k.N.k.k.k.k.k.h.h.g.g.f.W.V.*.m.z.z.*.&.>.7.z.w.%.*.*._ *.5.o.o.r.w.M z.*.z.n.6.(.mXPXPXjX(.m.w.%.7.7._ ^ f w # i s # $ 6 # . o o + : > p z b J b N J J d d K J K N K } =.O.+.=.O.O.O.+.+.:.>.P.i.w.#.#.q. .O.:.q.w.8.X.O. .O.-.+.=.-.+.=.+.} ",
"E.E.!.|._.R.i.P.E.T.T.T.L.-...L.!.^.^.T.i.@.z o # 8 J E. X]. X Xy.G.i.y.c.!.I.*.&...` ' m C V $ $ @ @ f ^ C ^ ^ ) U.W.V.3XW.Q.w.P.z.V.Q.;X<X,X3XV.Q.I.$.$.m $.V.$.$.4.$XxXVXVXVXVXVXVXVXVXVXVXVXVXBXBXnXnXxXnXxXxXnXnXMXxXxXxXxXxXsXaXaXaXaX6X6X6X6X6X6X-X=X=X-X-X=X-X-X=X=X=X-X$X$X&X$X$X&X$X$X$X$X#XQ.#Xx.Q ..| z./ f ..W.w.7.%...*.%.q.7.*.%.5.W.`.r.c.%.r.m.m.S.4XBXHXmXjXz.z.%.V.!.` o.y r $ i i , , i # . o o % + ; p z b N J N d G f K d N J K K K } O.O.O.} O.O.+.:.-.:.q.y.u.:.} +. .8.:.+.#.@. .J  .#.:.:.-.>.>.L.:.O.",
" X[.|. X~.I.L.P.~.E.~.P.:.N J L.].^.I.P.E.-.z O O 8 G ~.0X].0X].i.G.w.t.P.T.i.*.5.` ] _ / ^  .$ @ + a C t n n M o.n.6.m.M.7.z.7.z.w.m.b.V.`.W.Q.z.7.7.%.7.$.%.%.7.x.C.$X-X6X-X-X-X8X-X+X-X8X6X-XiX+X+X&X+X+X+X&X-X-X-X+X-X+X+X-X+X&XOX+X&XOXoX#XOXOXOXOXOXZ.Z.Z.Z.oXOXZ.Z.B.B.B.B.l.B.l.l.B.l.l.N.B.B.Z.B.x.&.' _ ^ / ..$.7._ *.z.w.$.` 5.7.x.r.`.C.(.v.r.%.v.m.v.W.V.N.%XZXdXm.z.6.m.b.m.%.q e $ ; 3 O - 5 + o o o o + ; r z b J K J d f J J J L } L } O.K K K O.O.O.O.@.#.5.#.*.q.n.8.f  .-.w. .X.@. .I  .#.q.F.G.G.i.L.L.i.:.",
"L.i.c.P.G.i.P.[.;XE.P.~.G.} ;.-.L.].!.!.!.-.r o , s J ~.qX^.P.G.i.i.:.y.E.I.w.%.o.] W.*.t f 9 9 t e e V n n C o.o.o.) 7.*.*.$.` _ $.$.7.&.&.` z.` $.4.7.z.g.7.7.7.&.s.f.h.j.j.j.l.j.l.l.l.j.j.l.l.l.l.h.l.h.h.h.h.h.h.f.d.d.d.d.s.s.s.f.d.s.s.4.,.,.s.[ 2.{ d.2.2.4.[ [ { 2.2.2.2.2.[ 2.2.2.[ 2.{ [ [ [ &.[ [ %.$.` _ ( ' $.` ( C.m.M o.5.4.(.1X(.C.z.7.&.` ` o.6.z.z.z.z.[._.W.`.c.^ *.$.m M a $ ; i + # ; . o O . o - - = z b J K K J d d d J K L } K Y } Y } } Y +.@.q.q.q.q.y.i.I.q.C X.q.q. . .#.#.I  .q.#.#.-.-.#.:.#.*.-.",
"q.u.i.i.i.L.].0X^.I.!.qX'.-.-.-.u.E._.}.].#.p o $ 8 J R.].T.:.>.i.y.q.L.I.E.c.#._ ] ;XW.m w 9 t C ^ M m ) o.*.%._ _ 6.7.%._ ) ` o.` $.%.7.&.4.7...$.$.%.$.` $.$.$.' $.[ &.4.4.4.s.s.d.s.f.s.f.f.d.d.s.s.d.d.s.&.{ 2.4.2.[ [ 2.[ [ [ [ [ [ [ [ ' ' ( ' ' [ [ ] ] [ [ ( [ ' ( [ ' ' ( ' ` ] ] ( ] ' ' ( ( ( ( / / ( ! ! ! ! ^ ^ ( .._ ^ _ ` ' ] 4.b.x.g.7.] _ o.*.%.r.z.n.n.7.g.yXvXn.%.&.w.z.:.n $ i r $ - - + O O . O - + + ; B J K L N N d a Y } } O.O.O.K K O.O.+.O.-.q.y.i.a.i.i.a.i. .q.P.u.#.#.8.@.C I q.3.+.} } +.+.+.O.+.",
"P.Y.i.i.i.P.E.].I.L.!. XF.d d Y u.Y.].].P.O.c o O s G G.P.i.y.t.i.y.y.i.y.c.i.%...! >...n q f M ^ ^ o.$.b.g.m.W.5.4.w.z.7.r.W.U.z.7.r.z.x.V.V.V.C.b.m.V.V.m.m.C.C.C.W.C.Z.C.C.S.C.Z.C.Z.Z.Q.Z.Q.C.B.B.C.Z.A.Z.C.B.B.C.V.V.V.N.k.m.N.V.b.x.b.b.z.g.h.z.z.g.g.v.g.g.z.f.g.f.f.4.4.6.g.4.s.4.s.s.4.6.s.s.7.s.4.4.5.%.o.%.o.o.o.$.5.&.%.$.` ( ' %.( %.V.#Xm.%.) _ ..*.`.`.z.7.%.z.3X`.] !.`.z.*...w $ ; p + O # o o + o O + + @ ; v J O.K N J V N } L O.} O.O.O.O.O.O.-.-.:.y.i.P.r.+.#.#.#.q.i.i.5.-.3.3.+.@.#.#.+.+.#.#.>. . .*.y.",
"G.G.q.#.i.Y.T.P.E.E.|.~.-.d N O.-.G.~.Y.w.Y z o O s J K.w.#.:.>.:.t.q.i.i.i.q.o._ ) w.^ t f C $.%.] 7.x.m.b.b.g.] &.4.7.` g.W.z.` 7.g.f.g.V.N.V.V.b.k.x.k.h.h.k.b.h.k.k.k.h.k.k.h.h.k.k.k.k.h.h.h.h.f.h.h.h.s.f.f.g.f.f.f.g.4.s.s.g.6.s.g.6.4.4.s.4.2.4.2.2.4.d.4.2.2.[ [ 2.4.[ 4.[ 4.%.%.[ 2.[ ] ] [ [ $.[ [ &.[ ` ] ] ` ] ' %.%.$.$.] %.%.&.4.$.&.s.] %.6.%.5.%.z.z.' 7.z.7.z.w.7.3XW._ ^ n w $ ; i $ o o + + + O O # # > w r N =.+.K K L K L } O.O.O.O.@.-.-.=.-.-.:.L.P.n.q.+.+. .-.y.y.q.#.3.3.@.@.X.3.#.#.o.#.t.*.C K #.y.",
"w.u.w.i.i.-.i.P.].0XrX XG.L =.F.-.#.O.t.8.I v o O 8 L G.T.L.L.c.P.E.y.i.P.c.i.%...` c.n t m *.(.m.b.%X<X#XV.g.b.`.%Xg.:Xz.W.g.f.x.V.$X:X<X#Xb.#X6X6X6X6XpXiX6X6X9X6XpXpXaXaXaXpXaXaXpXpXaXpXpXpXiX6X6X6X6X6X6X-X-X-X4X=X=X=X*X=X=X=X=X=X=X*X*X$X$X$X$X#XOXS.).OXS.#X#XOXS.(.S.(.S.S.Z.OXS.S.S.S.Z.Z.Z.S.C.C.Z.S.S.C.C.C.C.C.N.b.k.g.7.g.z.f.m.z.b.g.z.b.z.7Xb.#Xg.7.7.C.%Xb.z.7.#X;X3Xg.o...V z $ i p # o o o o o o O # > b b J L K } J K } K } } -.-.:.+.-.:.-.O.O.O.-.y.i.q.@.#.@.O.o.5.q.#.@.#.8.#.X.X.@.-.8.-.y.:. .C .. . .",
"u.y.u.u.q.#.i.i.].rXtX XY.=.-.F.@.I K u.J.O.p X . 8 U t.Y.E.E.T.].E.y.y.c.y.y.*._ ! q.V f Q c.Q.x.C.jX(.&.7.W.jXkXeX;XyXyXdXV.3XyX;X3XjXjX!.(.C.=XnXFXFXVXFXDXSXDXVXSXVXAXAXBXBXBXBXmXBXmXBXmXmXmXnXmXnXnXbXbXbXbXbXxXzXzXkXkXzXzXkXkXkXjXjXpXjXpXpXpX=X-XpX5X5X5X5X5X5X4X-X4X=X&X*X%X$X$X%X#X(.(.(.S.(.S.Z.Z.#X#X#X#XZ.#X(.V.k.v.S.m.z.z.&.r.7.z.z.z.b.g.:Xf.Z.$.s.V.`.(.Z.W.$.`.W.6._ ! ^ n a $ ; i $ + O o O O O & + p L O.O.O.O.O.K } } O.K O.F.:.-.+.#.-.I N J J -.-.t.q.q.y.3. .+.q.#.o.#.3.5.3.@. . .o.@.-.:.#.O. .K I Z ",
"a.u.y.w.w.w.E._.[. X].u.=.=.Y ;.T J K F.K.=.3   O 8 L K :.L.T.^.P.i.P.L.P.L.q.%.o.Z ) V C } *.7.7.7.(.U.b.`.<XkXyXQ.:X3X[.*.>.z.$.$.| *./ / Q.z.( 2.B.S.B.B.S.B.Z.S.S.S.B.B.N.l.k.k.k.k.k.k.k.h.h.k.g.g.f.f.f.s.s.s.4.4.4.4.[ [ [ 2.2.2.2.[ 2.2.3.2.2.2._ 2.] ] ] ] ] ] ] ] ] ] ] ] ' ] ' ] ( ( ( ` ( ` ` ' ] &.4.[ ] ] ] ] ( ( A.cXn.o.K C m n m C ..7.7.$.%.%.' ~ [ 4.x.C.` m o.o.! M M j V z + - ; $ + + o o o o + # 3 z b b J O.O.K K =.O.O.} >.0.O. . .O.O.K K J J Y Y I @.q.3.X.#.:.q.#.#.:.q.*.@.@.#.+.+.@.X.X.#. . .X.+.",
"i.i.i.P.I.I.!.}._._.i.B T K T Y K b K 0.F.Y - . . 2 s N O.w.I.L.#.E. XR.c.c.y.*.o._ ` C ..w.z.5.7.*.( $.z.!.$XW.g.b.z.*...^ } f C m f f y m ..! u q k ~ ~ ~ ~ ~ ~ ~ ~ ~ l ~ Q ! ! l ~ ! ! ~ ! Q ! ! Q ! ! ! ~ Q Q ! ! ! l l m l M ! ! ! ~ ~ l l ! l l l k k k j k l l j k k k k k k Q k k l k k k k k k l k k k k l k l k l l l o.r...w 9 f t e e e >.^.#.^ Q ^ ! ! ! ( ` ! j o.#...M n y C #.N + $ ; # + o . O o o # - ; ; ; = a K O.O.Y -.@.O.I #.q.O. .O.O.@.O.T L z J J b K +.:.3.+.#.q.q.w.q.q.5.q.#.8.#.+.X.Z I +.X.#.-.#.",
"P.P.P.P.n.P.P.I.I.].J.i.9.J T T Y -.t.=.=.d + . X 2 s =.t.G.P.P.^. X|.P.#.P.I.7.5._ M ..c.:.*...M n y y m ^ ^ ! o.o.m e w t f t e f n f t a t 9 9 a j k m ^ M ! M ! ! ^ ! ! M C M M l ! ! ) ! ^ ) ! ) ) ! ! ! ! ^ / ( ) ) ^ ^ ) M ( ) ^ M M ! ! C ^ ^ C M M ) M M M ! M ^ ! M ^ ! ~ ^ ^ ! ! ^ C C ^ ^ C ^ ^ ^ ^ ! M M ! ^ ^ ! C j t w 9 i e e a t i O.f 9 e t u j j k j j j q V n N B B N X.N + + 3 3 $ # # O + o o & + ; r i p d J J N N @.I T @.q.q.@.O.O.#.@.O.K I J b T J K #.#.#.q.q.q.q.i.*.O.+.+...#.8.#.#.+.3.#.o.:.q.:.",
"i.i.P.i.a.i.w.8.5.P.K.'.u.T U K 9.F.F.t.@.b - . O 3 b =.q.L.L.T.|. X_.P.5.L.n.5.5.M q e y e 9 w r 0 ; = 9 9 e i e w e w w w e 9 9 0 w = 9 @ @ @ @ 9 0 r 0 w w w w t w t 0 e e e w t w t t t w t t e q t t t w e t w i e e w e e t t t t q r w w e w w w r w e w w e r r w w w 0 e e 0 0 0 0 0 0 w w ; w w 0 w 0 r 0 r 0 0 0 9 ; w 9 w 9 ; 9 ; $ 0 = @ @ $ 9 ; 0 0 w w 0 0 0 ; = w = = = w + + + + ; = $ # # + o o O ; - ; w p a b a ; ; w J K O. .#.8.@.O.O.O.@.#.T L B c B B  .#.#.#.-.-.q.q.:. .K  .+.*.q.#.w.8.@.#.+.+.#.:.-.",
"#.q.u.q.q.8.#.C Y 8.+.0.J c K Y Y Y -.=.Y B p . X 5 G 0.Y.E.L.P.!.]. XE.#.u.i.*.) 0 0 0 @ = @ + + + + @ @ @ $ $ $ # $ $ $ $ ; = $ ; w w ; = w = 9 ; = 0 9 w w ; ; w w w ; w 9 i w ; w w ; w w i r r i w i w r r w w i w r r i i p r r w w w w r w w 0 ; w ; ; w ; ; 0 = = 9 ; w w ; 9 ; w ; ; ; ; 9 ; ; ; ; ; = 0 ; = = ; 9 ; i = ; $ = 9 ; 9 ; ; = $ + @ + + @ @ + @ @ = = @ + + + + + + + . + @ ; ; ; # # # o o o # : > ; s i p p i i p J Y K B K I K K Y #.:.-.O.=.K K K K O.#.#.*.#.#.q.q.O.B N N I q.q.#.#. . .O.Y O.O.K O.",
"B K =.O.Y b N b B J b b a p d G J K O.O.B J i o o 4 s =.F.E.!.!.T.^.^.L.X.:.y.*.C n t r r $ + # + + $ # + + + # $ $ # # $ # $ $ $ # $ - $ - ; - ; $ $ $ - ; = = ; = ; ; ; = = $ ; = w = = ; i i $ ; i ; ; i 9 i w w w r > w ; ; ; i w ; > w 3 w ; ; ; i ; ; ; ; ; ; i $ $ = $ = ; ; $ = $ $ $ - $ - ; $ $ # $ $ = $ ; $ ; ; $ $ $ # $ $ # $ $ $ $ + ; + # $ # $ + $ # # $ # + # o + O o o + . + + - p - 3 2 # . o o o + - p s > p p p > w i p r r ; ; p N O.-.8.-.K K O.-.t.#. .@.o.w.-.0.q.:.@.z e p z O.#.:. .j x N z J T z r ",
"d J K K J z z b N J B b b i a b J K K I K L 5 O - - p I :.P.!.!.T.!.!.q.C #.#.) 5.o. .} K i $ $ $ # $ $ $ # $ , O $ # O # # # 2 # # - # - # $ $ $ # # # # $ # # ; # - @ $ = ; ; ; ; w - ; $ $ $ $ 3 $ $ ; $ 3 $ ; ; $ ; ; > ; ; ; ; - $ $ - 3 $ 3 $ ; $ $ 3 $ # $ $ $ $ $ $ $ $ $ # $ + # # # # # # # # # # # # $ # # # $ $ 2 # $ O # # $ O # # # # # - # # # # # + # # # # # O o o O . . . o + + $ $ # # - # . . O o O - > 5 p p i ; ; ; @ = = r ; = z b J Y @.@.K N K +.y.:.X.X.q.y.:.>.:.-.-.z i s s } K N a z r a z K J z ; ",
"J K T Y @.Y K K K K T K b a N J b N b b J N ; O - 2 d =.y.c.n.L.I.E.E.*.O.w.i.P.i.w.t.w.} $ . . . . . . o . . . .                         .             .   . . .   . . . . + + + + + + + o + . . . . . . . . . o + o + + + + o . o . o . . . . . . . . . + # + # o o . o . o + . .     . X . o                     . . X . .         .     . o O . .     . .     .   . .               .         . . . O # o . . X o o . o . . O ; ; : ; ; > p p p p z b N J N J B N I +.t.#.+.=.-.:.q.:.-.=.K i p b b N b a p c z z b G J J z ",
"=.T T Y I T =.=.=.O.L b s b J J d J J J b 5 + O 2 8 G T -.q.:.t.L.F.u.-.O.-.q.J.u.G.K.-.d + + o . o . . . . . X .                                       . . .           . . O + O # o o # # + . o o .   . . . . . o O # O + O + # # + + o O . . O o o # , $ - - # # + + # # # # O o o .   o X . X                     . O . O X               X O o . .           .     X                               . . .   . X O o . o o   . : - 3 : > 5 z p v v J b b z d i ; i b G J J J K K O.;.U J d d p s s b b J J J Y Y J G B b J b ",
"G s F F s s G J F s 3 ; 5 s 5 3 5 3 3 2 $ o X O 3 v F v 5 ; > i i i p 3 # + - p i F p 3 # o                                                                                   X X   . O . O X         . . o X X   X O % O O O O o o o o o . o o X X . o . o X o o O o O O O O O o o X X   X X                                                                                                                       X X   X     X . % O O o O # - O 3 5 3 - 2 3 - O # 3 3 3 $ 3 s s s v 3 - # # 3 # 2 3 3 p p s b z i 5 5 5 p 5 ",
".   . . .   .   .   .   .             . X X o - 8 8 F L F 8 - 2 3 2 # o - 7 8 s 2 O O . . .   .                                                                                                   .                                                                   X   .   X                                                                                                                                               X X X X o X   o o o o O o . . . . o   X                                                     X X   ",
"X . . . o o o   o .   . X X o o O O O 2 2 2 7 3 8 F F P U F F U U J G F L W Y L L F s p 3 2 # . .                                                                                                                                                                         X                                                                                                                                                   X X & O - & - 4 2 - - : 5 3 $ 3 3 v - X O O X . . X X     .                     X   X   X X   .   ",
"3 7 5 3 2 5 2 3 2 2 3 2 2 4 3 5 8 8 8 8 v s h 3 3 F G G L J P T =.;.9.0.9.-.;.;.-.;.=.=.K b p 3 - # O o . X . .   X   X X                                     .                                                             X                                               X                                                                                                                               X     X   X . O O O - - 5 p p p v v v v b G J F d d b 5 3 8 5 3 3 2 - 2 - O # O . X X . X . . . O X O O o O O O - % ",
"F F F F s b F F v v v v v v F G G F G L U G 8 5 h F G J L Y @.0.K.P.|.XX'.-.K -.G.Y.K.R.G.q.=.O.K J d s p p s p s p p 3 - $ # - - + # - - - - - # - - - 3 ; 3 - 3 - 3 > # - + - - - $ o . . . .                                                                                 X                                           . - # 2 - 2 2 - # # # # - - - 2 ; - - # # # - # # - # # o o . . . o o # - 3 3 - - - - 3 5 > ; p b G b J K T T @.-.-.@.J T =.9.T Y G d d s v b F b s v v > 5 5 3 - # O # O # - - - 2 5 5 - 3 > 5 5 5 ",
"O.T O.F.=.;.-.Y =.O.=.0.=.O.=.0.t.q.F.R.K.F.L 3 8 F F J @.0.8.I.2X}.wX}.y.#.I O.q.t.P.].R.F.:.u.-.-.K J L N b b B J b a b d 5 ; p i 5 > 5 p v 5 5 i p s b b b b a p z z p - - p d d p i 3 + . + . . . o . . o . .   . . . X   o .           o   o . . . . . X . . X X . X X . o o .     . X o . . . X                     + 5 v p p p i p z p 5 ; 5 r c p z b p p 3 p s i 3 > i i 5 + + $ + # $ - 3 5 5 8 p > > 5 s v z b N K Y Y =.@.O.-.-.t.u.t.Y O.8.-.Y K L N J T T Y Y Y T U K J G G v v 8 5 5 5 v s s v b J L b b b G b v ",
"F.:.G.G.G.i.y.u.J.G.E.0X XR._.|. X X X X|.K.v 3 v F b L F.'.2X3X X}. X_.c.#.K X. .^ i.P.L.Y.y.y.t.w.=.K J B p p J T T Y T J b a b d p p b v p p ; ; i z N J J B b N U z ; + z c d J J J d d d d i > p a v z p s c s p s p i ; - O # O # O # # O & - ; 5 ; - - - - : - + # # - > v : - ; > 5 i > 3 3 #           . O O # : p z c r c v p p p p ; > z c b N B B z a p p i ; p z b N b r ; > ; ; ; r 5 > > 3 ; # # ; v b J L O.K O.Y B I #.y.t.i.i.i.u.u.t.-.=.-.-.u.G.Y.G.Y.P.Y.Y.u.t.t.@.K z p v v b J K G B Y T Y =.T J @.Y Y I ",
"G.i.G.L.L.L.T.^.].i.E.>X!.P.].[. X XP.E.].0.> O 7 s G -. XrXfXhX2X3X2X[.[.P.#.+.+.#.c.:.t.y.-.-.y.F.-.Y J K z p J O.@.#.I J K J z a L B z c p p 5 > > b Y Y Y K J J K z = > z = i } } O.V K K d a t d J K K C N N C C N z p > # + o o + # > - + # ; i z z r > i > ; ; > ; > ; ; p r ; > a b z z v p $ .       X + ; c z G b z z z b N z b r w ; p G B B N I J z N a r r ; p N B L B p r p r ; r i i = ; ; @ = # > z J J K =.@.O.C a K q.G.y.:.y.G.P.G.u.-.#.-.-.F.Y.L.L.L.P.P.G.q.-.0.J v - 3 3 z T U J a K @.8.8.8. . .@.+.8.8.",
"L.L.I.].[. XwX0X XE._.].E.].!.Y._.I.P.E.E.@.; o 4 v U F.wX}.yXfX!.I.E.[.wXE.P.q.w.u.i.#.X.@.B n 8.u.8.#.Y T J N B K K K B B J B d J Y N b J G a i a z L Y O.;.Y Y L N p > ; a K f | =.} | +.| } f ..$.>.y.>.c.c.>.i.>.:.>.-.+.+.O.O.K } O.=.O.K K } O.O.O.O.} } O.} } } } } N J J f J J } } } f N i # .       . p z z Y I z b B U I B c b p r r p b N b z B Y B N b a w r r p p z z p s z i a b ; ; p r i p ; = ; d Y L Y -.Y V f d J -.-.C N -.i.E.G.w.-.#. .u.E.t.#.i.P.E.E.P.t.-.K b p O # s L O.=.0.=.=.O.q.G.t.O...P.P.G.E.",
"y.L.|. XqXtX0X}.[.]. X[._. X^.T.J.P.P.P.T.O.5 X 4 v v a.eX2X3X XP.I.P.].|.a.a.i.P.P.i.w.#.+.@. .q.P.0.8.3.Y Y T B I  .J K K T Y J Y L J N J T J z L Y Y =.;.-.O.Y K p p i ; } } f f | Q Q Q Q Q Q | $.&.<.&.&.>.>.>.>.>.| $.$.:.+.+.| } | } | } O.+.| | } | } | | } } } } Q Q Q Q Q Q Q m m } d d i O   X   X o b B J @.T z J J K K B b z z p z N b z z z K @.J B N a p p z d a r p z z b p J L r r b z p b i i a d J O.=.-.K i a d K =.T N C q.i.L.q.8.-.O. .y.P.-.X.P.E.].|.E.F.-.J B ; - 5 J -.-.q.G.Y.0.J  .t.y.#.*.P.E.E._.",
"L.L.P.E.E.P.c.*.n.qX[.P.w.#.i.I.I.E.].U.P.q.c o 2 v B R.|._._.U.R.q.U.0X].L.y.G.E.E.q.w.5.3.w.w.a.~.a.0.@.J U I Z K  .C K J J O.T O.Y =.O.J Y Y Y Y =.=.O.=.Y J J G d b N } +.u | | Q Q Q Q | | | ' | &.| | | | >.$.$.$.$.| | } | } | } } Q } Q } Q Q } } / Q } Q Q Q Q Q m Q f Q f m u Q f Q } e p w .     X + K Y J B b p c z J b N N b b N b b B b z b Y #.@.K N z z z p a a z p r p b J =.Y i p r p p p d J G K b b J J N N J J K K J N B w.u.+.n V B B X.q.8.I O.t.u.i.u.t.-.=.K L J L @.0.Y.Y.F.y.-.Y a a #.t.y.#.:.L.i.i.",
"].T.c.c.i.i.-. .P.wX XP.q.B +.i.P.].E.E.].J.c o - v U K.P.J.P.i.X.#.].|.E.E.i.I.E.I.i.:.+.y.i.P.E._.K.u.3.Z I @.I  . .O.O.I T O.=.-.=.=.=.O.Y =.0.=.=.=.J J J K J J J J J } } u | <.Q Q | | | | ,.,.&.,.,.| | $.$.| $.$.$.+.+.| } | Q } Q } Q Q } Q Q Q } Q Q / ^ Q ^ Q Q Q Q Q m Q k m y.} f | i d d .     o : T =.T b r r r v b b b Y Y J B B J J b N T T 8.T Y B z b J z z a b z r i b B W I p p p p p b J U d J N N f d N O.O.O.K N N a B q.8.n B C B O.8.@.B C N Y O.=.8.@.} J U O.=.9.K.E.^.E.Y.G.K J p a O.q.G.y.:.5.:.#.",
"].|.].E.P.i.i.w.E.].P.i.w.>.F.G.P.I.a.E.{.i.b o - 8 J Y.E.E.R.i.P.}._.`. X].w.P.E.E.a.X.5.i.P.].E.R.J.a.0.8.8.3.O. .+.i.q.@.Y O.8.u.9.=.0.t.O.W T Y J b b J J Y K L N J J } :./ Q f u | ,.,.<.,.x.x.<.,.<.$.$.&.$.$.*.$.:.$.$.$.| } | } } | Q Q Q Q Q C Q / ^ ^ / Q Q Q Q Q } Q Q Q f f f e y ^ w K N +     O - T #.I N b b z b d d N Y Y T Y N b J J @.=.#.8.#.#.O.B I J B z b Y J z z b G =.Y a p z b d J f b a d N f N G f d J K J J N J #.u.q.I  .X.I 3. .T K N a J K I O.@.=.Y J O.O.=.:.:.-.-.t.-.Y d Y K J K u.i.i.i.#.+.",
"Y. X|.>X[.P.i.n.P.J.P.a.G.L.L.L.P.i.E. X XJ.v . & 3 b K.~.E.P.I.gX2X!.tX XI.i.J.E.I.q.w.U.E.].].U.R.K.e.e.3.i.q.3.O.:.P.w.8.8.=.Y 0.F.0.F.9.@.Y =.O.K J K K L Y J N d L Y } L.<.| | | <.<.j.<.j.j.<.<.,.,.>.&.| >.$.:.$.$.$.$.| | } } Q Q } C } Q } Q } ^ ^ / / / / / Q Q Q Q Q Q Q Q Q Q u Q ^ i K a +     X ; =.#.U N b B b c N J K Y Y K K a a J Y 8.t.@.O.O.@.X.Y Y I T C K #.Y J I N B -.@.B b z b J U K b a d f G f N d a K O.} J C 8.i.L.u.@.O. .@.q.#.@.@.a p K #.Y J O.=.=.Y Y =.-.O.K V K O.#.K V O.Y a a u.R.I.E.i.5.",
"P.R.P.|. X].I.P.P.T.P.G.y.G.L.P.Y.L.P.]. XY.b   o - b K.R.i.i.I.{.}.0XfX].P.I.!.[.n.5.W.wX}.U.E.P.i.u.8.8.e.a.8.t.y.t.i.t.t.t.T K Y 0.O.-.;.Y Y Y K K K O.O.O.Y J O.Y Y O.} Q.<.<.<.<.j.j.j.,.<.<.j.<.<.,.| >.$.$.$.$.$.$...| } | } | } } Q } Q C Q } Q / / / / / / Q / Q Q | Q Q / Q / / / / } f Y d o     % : T =.I b B U K K K U K K K K J K O.8.t.t.8.I  .I K Y @.O.O. . .@.-.8.0.-.B N J J J N N b K K f d d J J J a a N K Y O.K } 8.@.@.+.@.@.O.X. . .O.Y a p K =.q.T J J N N J O.+.=.-.-.#.-.-.O.} +.=.@.N K -.t.w.I.R.i.",
"8.t.J.P. XqXY.i.I.I.G.i.w.L.L.L.P.P.P.E.E.e.N X O - v G.w.8.w.i.I.3X3X>XI.t.i.!.i.z.[.tXfX0X].P.w.8.8.X.0.J.F.u.w.y.q.o.q.i.-.I I T K L =.O.O.Y J J =.=.=.O.O.Y O.-.0.Y } +.@Xj.j.j.x.j.<.<.,.oX<.<.,.,.>.&.$.>.$.$.$.$.$.....$.$.| } Q Q Q Q } Q Q } | ../ ` | / | } | | Q | Q / Q Q Q / / | } f J G +     o > O.=.I T U K U K J O.K N J N J :.J.Y.i.t.#.O.O. .Z @.#.@.@.=.#. .#.8.w.q.K B N J K Y Y J f J J G N K K O.N n B J K Y Y >.q. . . . .O.} K C C I N ; b K =.=.J b r N d N K Y O.=.t.>.-.-.@.:.F.-.-.K B K O.-.u.E.].",
"Y 8.u.c.T.].P.i.L.L.L.c.G.i.G.L.T.E.!.E.E.u.b o O - b F.:.#.q.i.R. X{.'.i.q.y.I.U.`.1X X[.^.L.y.i.u.y.t.i.i.i.i.i.J.-. .y.Y.t.-.@.K U I 9.8.=.O.Y O.-.O.N T @. .=.-.t.-.} $.I.<.<.j.<.<.<.j.<.<.<.<.<.&.| | >.| $.$.$.$.$.+.$.*.$.} / Q } / Q } / ^ } } | | | ` | | ( | | ~ | | ~ ~ / / / | | Q i J T 3     . 3 =.Y L Y K K Y K K Y K K K :.y.L.i.i.w.#.O.@. .@. .@.-.#.@.#.q.@.K -.t.q.-.O.K O.Y O.=.K K L K L f d K O.K J O.O.K K K O.O.O.@.-.+.K N C K  .K i ; J K Y J N a d J N N J J V } t.y.:.:.-.O.#.=.-.O.K I +.w.w.w.P.",
"K C y.u.L.i.c.P.G.c.L.c.L.i.i.L.E.].E.E.^.u.z . o 2 G u.5.8.8.i.P.E.I.P.i.:.y.`.hXfXM.a.L.L.c.y.P.i.i.Y.P.L.P.L.Y. Xt.t  .G.q.8.3.K I T Y =.=.Y O.=.-.K K K #.=.=.O.Y +.O.+.x.<.<.<.,.,.<.<.<.<.<.<.<.| >.| | $.$.+.$...$.$.$.$...| ../ / ^ ^ | / ..| $.....$.' ' $.' ' | ~ ~ ~ / / | ~ / / Q Q f K T i .   O 5 O.O.+.Y O.O.O.-.:.O.K K O.E.T.y.i.q.@.@.+.#.I 8.8.#.#.@.#.=.Y.q.e } u.:.-.-.O.I K O.O.Y K } =.-.J a K O.+. .O.} O.K C C I  .O.@. .a r J K J d $ # d N N d w ; d J N N a a J -.-.:.=.-.-.K O.:.:.@.O.K K 8.q.q.q.",
"@.+.i.n.P.L.u.L.i.y.i.L.L.G.i.y.G.L.i.L.P.3.>   o 2 b u.#.@.#.i.P.u.i.i.#.:.}.fXhX_.c.n.y.:.L.Y.y.i.L.P.P.F.L.G.i.E.i.N K t.8.t.t.Y @.I K =.@.T O.;.=.Y K J O.O.O.O.O.O.O.} | | j.<.,.,.<.<.<.<.<.<.<.&.| $.:.| $.$.$.$.$.$...$.$.| } ../ / } | | ..| +.$...$.| | | $.' | ' | ~ ~ ~ ~ | / Q Q Q i O.T 3 .   o s =.;.O.O.+.:.:.F.:.K K -.L.T.q.y.q.@.+.#.8.@.@.y.G.t.#.-.q.-.-.O.V B -.@.t.q.O.+.J K } K O.K } K K N B O.-.O.J K O.K  .Y  .O. .K J K N K O.J 3 # 3 s d K J a a J K J K J J K K K K K K O.-.-.:.t.-.@.@.-.*.q.q.q.",
"w.u.i.w.y.i.L.c.y.t.w.y.i.w.w.y.y.#.:.i.c.@.;   o 4 b @.B C  .t.q.u.i.#.} E.hXtX`.I.P.u.F.>.i.G.i.P.!.}.!.L.c.i.w.u.y.w.:.t.q.P.K.e.#.Y K 9.=.@.K =.I K I O.@.#.=.Y Y O.O.O.Q | ,.,.,.,.,.,.<.<.j.<.<.,.>.>.$.$.| +.$.$...$...$.$.+...| } } / ....$...| ..| $.$.&.' ' | [ | ~ ' ~ ~ | / } | Q Q i K K -       s Y K J O.0.F.t.t.+.f  .~.^.:.O.i.3.o.8. .@.3.P.E.~.L.8.:.>.-.O.O.O.Y O.:.G.F.q.t.O.Y O.Y K O.O.K n B K  .O. .} O. .K O.} Y O.J a J J N J J i + $ d J d J G b z a d N J O.O.K a b i d N Y +.O.=.-.@. .K +.@.q.u.8.",
"w.i.i.y.y.P.i.i.y.y.:.#.:.i.i.t.-.+.:.c.P.O.> . X 4 b C V I @.8.8.8.t.8.q.E.~.y.q.y.L.L.G.L.+.>.I.E.!.[.!.T.P.G.y.:.:.#.*.y.y.P.i.#.#.-.F.-.-.O.O.=.O.-.#.O.I @.-.O.+.=.O.O.<.,.,.{ ,.,.,.,.,.<.<.<.,.>.>.>.$.$.$.$.$.&.$.*.$.+.$.$...../ } | ....$.$.+.$.' $.' $.' | | ' | | ~ Q Q ~ Q Q Q m m i K U 3     O s L O.=.0.0.-.=.:.#.O.t.G.w.X.} y.w.y.i.@.X.3.i.i.c.i.q.#.-.-.@.O.O.O.-.F.L.L.w.:.O.J J K O.+.-.} I I N N K O.O.} O.O.} } K } K J K b d J p - i d J G p J p d i a J O.=.+.O.J d d i N J K K } +.O.O.I K O.@.q.q.-.",
"y.G.y.c.!.].P.i.c.i.:.} ..y.i.:.o.o.q.y.u.I ;   o 2 v #.R.E.u.u.=.#.t.u.E.~.y.:.q.*.w.i.:.L.>.:.i.I.T.E.^.[.^.L.y.+.o.+.:.u.i.q.q.8.8.a.F.-.;.K -.u.0.-.@.I z I -.@.-.-.O.} L.<.| ,.| ,.| ,.,.,.<.<.&.>.$.$.:.$.$.*.*.$.*.$.$.$.+.$.| / | $.| ..$.$.$.$.$.' | ' ' | ~ | | ' | | | Q Q u Q Q f Q f K J $ .   . 5 -.G.G.t.:.=.+.-.-.F.i. .O. . .-.t.O.q.X.Y 8.q.q.t.i.y.y.y.#.} J O.+.-.-.:.+.:.L.t. .J O.;.0.:.t.t. .n r N O.K O.O.O.O.O.K J J K J J J p $ b N N N i a B s i p Y =.-.:.+.O.J O.K f J K K J O.O.O.K C I #.#.O.:.G.",
"y.y.y.i.P.U.I.i.i.P.y.#.O.+.-.q.#.:.q.y.i.K ;   X : c y.E.R.#.#.X.q.t.t.G.G.y.y.t.i.L.i.i.T.i.T.I.L.T.^.].^.E.G.i.q.w.#.#.w.i.P.T.G.t.F.R.=.=.-.8.8.y.t. .B n #.-.+.-.-.=.} x.| <.@X| | ,.,.,.,.<.,.>.| >.$.| >.$.$.$.$.$.$.*.$.$.$.| ..$.| $.$.$.$.$.$.$.$.| / ' | ' | | | { | | ~ Q Q V.,.m } p J b O     O s F.K.L.:.-.0.-.O.@.q.q.O.+.O.q.u.t.t.P.t.X.e.q.q.i.a.i.i.y.O.O.@.-.+.-.t.t.L.L.L.u.@.K Y =.:.t.t.-.O.n z +.-.O.O.#.#.-.O.J J N J K b a w b N J p i i z b i r J K } O.O.@.#.} K K N d N J F K =.O.J  .O.O.O.#.:.t.",
"} V i.R.P.J.I.I.L.i.t.y.-.C @.q.-.>.y.i.i.I ;     - v 0.J.e.z I J.K.@.@.u.y.:.:.y.G.i.L.L.T.P.~.!.T.I.I.P.i.G.L.P.i.#.O.O.y.y.].].T.L.y.T.O.O.q.t.8.#.@.Y C C -.y.t.-.-.+.} <.| | | u | ,.,.,.,.<.<.&.>.&.>.>.$.*.$.o.$.$.$.$.$.$.$.....| $...$.$...| $.&.| | | ~ | { | ~ | ~ ~ ~ Q u u Q Q u } a K b - . . O d F.L.-.J +.:.O.N K #.#.#.#.:.w.t.-.y.u.u.i.q.q.q.q.q.i.u.w.@.-.-.O.#.-.t.T.^.T.G.+.8.K J O.-.-.O.@. .C C q.t.@.} K J f J f J G K J $ ; J =.K N i a a a $ ; K -.-.O.} J } #.=.K J J K N O.+.O.N w J -.N a O.-.q.#.",
" ...t.L.P.P.P.P.E.R.i.8.q. .#.#. .q.y.i.i.K -     O b 0.u. .C i.K.q.O.8.t.y.>.G.y.t.i.y.>.w.y.L.T.T.I.i.y.a.P.a.G.q.I C X.#.*.T.L.y.5.+.8. .O.t.u.#.@. . .C V O.G.G.t.+.#.+.+.| | f | <.<.<.<.<.<.<.<.>.<.<.>.>.$.$.| +.>.| +.>.$.$.$.$.$.$.| +.| | | >.&.,.| / Q | | | | | Q Q Q Q Q f f u f } p L b #   X O c u.F.O.:.i.u.O.B O.8.8.#.3.8.q.w.0.q.#.8.u.t.y.w.q.q.u.y.w.#.O.K K O.O.-.P.T.y.#. .X.Z K #.0.8.@.X.I C C  .-.#.O.K B N N d J K K p = J O.8.O.J r p b C i b O.-.:.+.+.Y O.@.O.N N N J d K O.J i d O.O.N d +.#.#.q.",
"t.P.i.y.R.|.E.].I.P.w.q.8.#.-.b n +.q.c.q.B #   o - b 0.8.y.P.Y.a.y.i.i.y.i.F.L. .C i.i.-.V K C :.G.L.L.i.P.J.q.q.C V C q.P.Y.E.i.q.q.q.G.w.q.q.+.i.n.i.y.O.C ..y.t.>.:.:.} f ^ | >.>.<.x.x.x.c.<.>.>.>.y.>.>.-.>.t.:.>.+.>.:.>.>.*.:.$.+.>.>.:.:.:.+.+.} } | ^ Q | m f Q } Q Q Q Q u f f f V d 3 K p o X   o c q.w.#.P.I.i. .I @.-.8.q.q.N I i.u.K N K C -.t.t.t.w.t.8.-.-.B N O.-.G.E.E.c.q.q.@.q.8.@. . .i.i.q.8.O. .@.K O.t.#.K n ; ; b b i $ J O.=.u. .a r a Y u.O.K V N K K K J O.Y J $ $ ; i f J a i f -.=.J K -.-.K #.I.",
"w.i.i.y.E._.E.|.'.i.w.8.8.u.-.K @.-.w.i.q.B &   X - b e.E.].T.^.E.i.T.Y.L.G.G.t.f :.P.P.-.O.+.:.w.i.y.c.P.I.u.u.0. .q.e.i.E.E.i.i.P.P.i.u.i.8.#.+.q.L.P.w.O.C X.O.i.L.t.#.K N V d f d f i f a f d d s i i d d a i i d d i d i i a i i i i i i i $ i i i $ 9 = = 9 i 9 9 9 9 i 9 9 9 9 $ $ $ = $ i U 3 +     o c 8.P.E.P.c.3. .#.8.-.#.:.X.n #.i.y.+.O. .=.-.q.t.t.8.q.-.-.-.=.O.+.:.L.Y.L.y.i.u.q.q.q.@. .@.q.t.8.#.O.J O.@.@.w.-.} V r i J N w d =.O.@.q.Y N b i =.u.K N C J K B } O.K Y a r d N J K G a f J J J V O.:.8. .i.E.",
"u.c.E.E.E.i.i.Y.P.P.i.J.G.u.=.-.+.#.y.c.u.Y -   X - F K. X~.y.i.@.0.u.u.y.t.q.+.q.G.y.i.-.O.#.t.u.i.t.w.u.y.#.0.i.J.E.~.P.Y.c.i.P.!.T.y.#.#.+.#.3.+.@.+.X.I }  .+.y.i.y.#.+.@.0.+.} K K K =.=.@.O.N i $ b d i p d J K d d d i i 3 i s p i i i s s i 2 $ 3 p s J L L L L L L O.Y K K J F d i i J @.=.z + X   - c J.].U.I.i.Z I #.#.#.@.X...t.i.i.u.#.O.@.-.0.q.-.-.8.8.-.-.t.J.q.G.G.y.q.i.L.i.q.3.@.@. . .@.@.#.@.K K C O.O.O.@.@.@.O.z B O.O.J Y -.-.-.q.#.@.B p O.-.B C -.#.O. .-.-.Y K J K K Y O.J f J J V J O.@.@.:.8.q.#.w.",
"y.#.L.T.I.i.P.a.P.E.J.J.u.O.Y I @.#.i.i.0.b -   X 2 J K.|.E.i.i.3.8.@.8.u.q.@.:.Y.L.t.y.X.O.y.q.q.t.q.3.q.3.@.e.J.I.P.J.P.G.-.y.i.L.y.+.#.#.-.o.+. . .X.X.I ) I X.+.y.q.#.#.8.a.K.F.:.>.i.a.J.P.G.F.Y a 0.u.-.-.t.t.0.+.0.F.;.O.K Y K Y =.=.T Y Y U L K L Y L -.t.F.F.0.0.t.t.t.t.F.L F J N J -.-.=.p + X o : b '.}.n.I.n.#.C I @.#.#. .8.i.w.e.y. .O.-.8.q.u.q.#.@.@.O.0.i.u.q.G.i.:.:.y.w.8.8.I X.@.X.@.X. .X.}  .} B N C #.q.O.+.K N K @.O.K K -.@.#.8.u.u.I p =.8.C  .8.#.#.@.#.-.@.K J J d L O.Y K J J K #.@.O.K @.y.a.y.i.",
"-.*.i.G.P.P.P.i.a.J.P.Y.-.> p K 0.w.y.t.0.b ;   . 2 J K.].i.w.i.].u.I @.:.@.O.O.G.G.i.q.#.8.#. .-.w.u.8.@.B @.J.J.y.u.i.w.q.*.:.#.#.#.+.*.#.#.+.#.o.@.#.X.C B Z  .X.8.q.3.3.8.a.t.y.-.t.q.q.w.y.L.^.@.z t.R.P.G.G.t.O.} >.G.Y.>.#.I b 8.F.J.t.0.=.=.=.=.#.+.X.3.y.L.L.L.G.G.K.F.L.0.$ $ d O.-.t.-.O.> + X o 4 B '.[.r.P.P.i. .V  .+.@. .+.i.n.q.y.:.q.O.I -.q.-.#.X.M @.q.q.q.8.u.t.q.#.*.8.+.#.I  . .X.@. .Z I O.O.K N N N O.-.O.O. .O.O.+.O.J K J K I B e.R.B w @.i.#.-.-. .I +.@.-.-.O.O.a b Y O.O.=.O.} } -.@. .I  .u.u.e.P.",
"-.y.L.P.^.E.P.Y.E.E.E.P.#.r J =.0.t.t.u.8.c -   X 2 G K.E.q.3.i.E.0.I @.O.-.-.+.L.F.w.q.u.w.X.I +.3.u.t. .Z u.0.8.8.i.i.q.#.-.-.5.+.+.#.q.-.#.q.-.O. . .@. . . .o.@.q.q.e.u.y.u.q.t.u.F.q.u.y.:.T.|.-.J 0.Y.P.G.y.+.O.+.>.Y.Y.G.8.B  .8.J.J.0.8.O.+.t.q.#.@.3.y.L.T.^.Y.P.Y.T.Y.Y.0.$ d U O.t.F.-.O.3 - X & 5 L ~.U.i.r.a.P.X.B O.I X.@.q.E.P.q.i.q.-.O.O.-.-.q.8.O.I q.8.3.8.q.y.q.o.#.#.#.#.@.I X. .X.X. .I I  .O.K B K C  .#.O. .O.#.+.O.O.}  .K K n B e.J.I z #.t.8.q.@.Y  .@.-.y.8.8.O.b Y K O.+.O.O.K  .-.@.O.B  .@.q.y.u.",
" .y.I.E.E.E.P.U.R.E.u.0.#.B 0.t.#.#.=.N r p 3   o 3 J J.E.J.P.E._.u. . .I >.t.G.E.q.q.q.q.@.8.t.8.e.P.R.R.'.'.8.8.e.u.w.:.}  .+.+.+.#.#.q.q.#.-.-.X. .o.q.t.t.#.3.0.3.y.J.u.q.3.+.#.i.P.q.t.t.u.~.T.t.:.q.K :.G.L.y.F.:.0.Y.F.F.q.+.X.@.u.J.8.=.=.@.=.O.I Z 8.P.T.T.T.T.^.~.G.t.t.+.i L Y Y -.O.b ; ; > o - 5 b P.{.I.a.U.].i.I K  .#.8.i.P.q.q.c.w.-.+.-.o.-.i.P.R.E.a.@.X.X.e.u.q.I K X. . .I X.8.@. . . .Z C @.q.+.O.+. .O. .O.}  .@. .C N @.+.I K C X.q.0.3.#.#.B @.u.-.8.q.8.q.G.8.t.O.K O.K O.-.+.K J K K J V K 3.w.e.y.u.",
"#.t.i.E.P.i.c.P.P.P.u.e.#.N Y e.e.8.#.B p K v X O 5 F J.].E.].]. XR.3.I @.w.u.u.:.+.q.y.u.q.-.q.u.'.|.|.'.R.u.@.8.8.>.0.+.} +.-.+. .+.O.*.q.#.q.5.@.X.5.q.8.8.#. .3.0.u.a.i.u.q.#.-.J.K.w.q.q.w.P.P.G.P.t.K -.w.G.y.t.y.Y.Y.>.F.q.8.#.8.y.i.8.@.O. .I  .X.X.:.y.T.E.^. X~.Y.G.F.0.O.a K =.-.0.O.c p b 5 X - h B J.E.!.U._.}.J.@. .@.q.t.q.#.+.q.u.w.q.q.q.8.t.E._.P.i.@. .I  .#.@.I B K  . . . .I @.X.@.X. . .I @.8.-.@.O.O.} K  . . .+.K K  .=.O.I Z T #.X.e.t.0.I N #.t.-.-.0.q.i.a.0.0.3.@.I K #.#.O.K Y B N N B K -.w.y.u.i.",
"i.w.w.E.E.P.P.i.q.0.0.t.9.I 8.0.0.8.8.Y =.F.b   O 3 b J.].P.#.E.|.J.8.X.#.8.:.O.X.+.q.u.i.P.J.a.R.|.|.R.i.-.-.#.#.O.K O.N K #.+. .O.#.-.:.q.q.8.8.3.0.@.#.-.@.3.3.@.X.e.e.8.e.t.t.q.#.@.8.i.i.u.E.E.P.P.i.w.q.#.-.} +.t.G.>.>.-.w.w.q.X. .8.#.u.G.-.X.q.i.y.q.y.E.>X XY.t.-.-.t.t.-.K O.Y O.-.=.L 8.=.p . O 5 b R.].i.@.I.'.8.X.X.X.-.#.@.+.+.y.i.i.i.i.w.i.i.E.].i.X. . .Z C B V B Z X. . .O. .O.#.#.#.#.#.@. .O.O. .I  .C N } O.}  .+.#.#.@.K  . .I 8.t.t.t.q.e.t.u.X.#.O.n o.q.q.#.@.@.@.O.T N J K  .q.u. .K O.#.-.8.q.i.a.i.",
"c.P.P.T.~.I.i.q.q.u.e.a.9.@.t.0.q.t.-.O.0.9.p X & 2 c u.|.I.#.P.].P.u.y.8.-.#.@.O. .i.i.y.P.P.n.U.{.E._.u.#.O.O.@.O.N N J O.@.K } =.#.-.q.q.:.q.q.0.@.I Y 8.3.e.q.@.3.y.u.t.t.u.u.-. .@.e.G.Y.R.P.P.c.i.i.u.-.-.y.:.:.L.i.u.u.F.i.q.q.Z X.q.#.P.G.q.y.P.y.y.L.T.^.~.L.+.O.K J -.F.0.=.=.=.Y =.Y T 0.T 5 X 2 F G '.|.a.@.J.P.i.y.8.q.#.@.@.+.#.u.i.i.G.i.q.u.P.P.'.y. .Z C I C N N B  . .N } O.O.#.#.-.@.O.O. .K K  . .O. .J V  .O.K +.#.-.+.#.} @.@.8.i.a.u.q.3.t.e.J.0.#. .K X.#.#.#.@.#.@.O.K z  .O.O.t.u.O.O.+.:.t.i.q.P.i.8.",
"i.P.E.T.i.q.-.I y.E.i.K.t.0.0.a.J.Y I O.@.c - o - 5 G J.|.P.+.u.R.i.i.i.u.-.O.-.O.8.P.a.P.I.q.@.q.q.q.i.8.#.#.=.@.Y f b B K  .O.-.K  .q.t.q.#.5.X.@.B z B 8.y.y.#.0.i.u.u.e.u.t.q.-.O.+.8.q.n.P.L.c.y.u.P.U.].~.L.G.L.y.L.P.i.L.i.i.n.y.i.3.+.q.u.q.y.r.y.i.T.T.T.>.=.Y J O.F.G.t.-.-.@.G.t.T J T T b :   2 v G '.}.t.I t.G.J.a.t.i.q.#.3.#.5.i.i.P.i.3.#.#.#.+.w.0.Z  .I Z B p z B B L -.O.a N -.-.#.O. .I N n B O.#.#.+.} :.q.#.C +.y.y.t.-.J  .@.#.t.u.t.3.@.8.t.J.t.i.i.i.y.q.P.E.u.8.@.#.@.K O.O.@.-.#.O.#.:.-.q.i.a.w.#.O.",
"P.P.I.P.-.-.K B u.R.-.-.Y @.@.R.R.=.@.=.@.J ; o & 8 K t.E.J.C q.R.n.R.P.i.8.0.-.O.w.P.E._.I.5.+.3.#.q.#.#.O.#.-.O.N a d a K #.t.#.a K q.t.*.5.#.+.K a B  .8.t.q.#.q.w.8.3.u.a.u.u.#.K K q.u.G.P.i.i.i.y.i.E.P.].E.Y.E.!.!.E.I.E.E.E.c.c.u.y.y.-.y.t.y.G.G.y.i.G.>.+.O.K d -.~.K.=.B @.0.K.t.J T Y T G + X 2 s J R.^.y.^ t.P.i.P.u.L.w.w.3...@.P.P.R.i.+.#.O.X.+.+. .K  .X.J t a b z C #.u.Y w b =.@.@. .K K N B C I  .#.+.I #.q.#.V #.E.P.P.q.n n O.-.i.q.X.X. .3.u.t.a.L.u.P.P.P.P.E.i.t.q.y.-.@.@.-.O.O.@.@.#.-.q.q.u.t.O. .C ",
" .I @.t.u.=.O.J.K.F.=.N B Y Y T =.F.=.N J p - o - 8 U t.P.P.P.I.~.P.0.8.Y I i.u.w.P.R.E.n.q.@.#.5.#.#.#. .O.=.K i i i a N -.F.t.O.N N O.-.-.#.#.+.C C @.8.w.i.0.X.X.@.#.J.P.~.E.i.y.O.C @.t.q.:.q.i.t.w.i.i.a.~.P.P.^.|.].]._._.].n.w.i.T.E.i.G.G.u.-.@. . .} O.-.=.=.=.G.K.Y.F.B c W @.K Y Y @.p z > O X 8 F G J.J.a.P.P.i.y.O. .} I t.i.q.q.P.E.q.@.o... .+.+.+. .+.O.C w i a b C O.t.t.I r a O.#.O.K I  . . .I O.@.3.@.) O.#.#.i.P.E.u.-.#.O. .K @.8.#.#.8.#.q.i.8.i.i.w.w.i.P.c.i.w.L.P.u.:.-.:.#.O.+.-.-.O. .K C K K Y I N ",
"J b T -.-.O.K.|.K.0.-.G K O.T b K t.t.b c p ; o & p T K.P.P.E._._.Y.I J L =.~.'.'.E.E.T.u.*.+.+.+.*.#.O.#.O.N t a i i L -.F.t.-.-.N J @.q.-.#.#.#.@.+.@.q.i.i.8.#.@.X.q.P.E.].].L.L.q.-.O.O.#.-.t.q.q.-.-.+.J.J.u.P.~.E.E.!.E.Y.P.i.i.i.G.:. .=.-.q.0.-.Y N N O.0.=.O.t.~.F.F.F.b J Y J c B =.=.c r > o O 8 F T K.i.c.!.I.r.#.V N C @.G.i.i.i.P.P.y.X.X. .+.+.+.o.#. .N a a a i B @.@.-.-.K a d @.+. .O.@.#.#.3.#. .X.q.@. ... .+.P.E.I.i.:.q.t.@.K C C  .+.#.q.q.i.q.q.t.5.5.w.c.c.i.q.y.L.w.-.#.O.+.O.+.+.#.#.Y J z p B Y K J ",
"J K K J J G O.=.Y @.O.d G b p N t.G.t.p @ ; ; o 2 h U J.i.P.P.R.].J.K N p J t.u.t.*.y.G.i.q.O.>.+.-.-.#.+.N B -.O.i d =.F.=.#.F.u.N C #.t.w.#.#.+.8.q.+.i.P.P.i.3.#. .@.u.i.~.E.y.u.t.-.B C q.y.t.w.w.#.#.3.P.E.E.E.T.E.~.t.-.t.y.y.q.#.N K J =.-.0.@.J d d d d J G G J Y Y =.O.b b b p J 0.0.=.a : ; + X s F L G.c.c.W.P.P.:.C z r N -.-.w.u.w.y.y. .X.y.-.@.#.-. .N B #.Y p z T Y Y @.t.Y p a @.O.O.+.O.I O.+.8.q.y.I.q.+.+. .#.u.L.L.y.u.u.#.C B z C +.q.*.3.y.i.5.q.@.X.-.i.L.y.+. .:.t. .} K C #.:. .I #.I N p p v z d c z "
};
