/* XPM */
static char *out[] = {
/* columns rows colors chars-per-pixel */
"256 256 256 2 ",
"   c #070707",
".  c #0C0B0B",
"X  c #130D0B",
"o  c #1A0D08",
"O  c #15110D",
"+  c #1C130D",
"@  c #0B0C15",
"#  c #120E13",
"$  c #1D1512",
"%  c #191615",
"&  c #260E09",
"*  c #271406",
"=  c #23150C",
"-  c #2A160A",
";  c #25190E",
":  c #2C1A0C",
">  c #371C09",
",  c #331C0C",
"<  c #221612",
"1  c #241A13",
"2  c #2C1C13",
"3  c #241D1A",
"4  c #2A1C18",
"5  c #321E13",
"6  c #361D15",
"7  c #35210D",
"8  c #3C220D",
"9  c #2E2115",
"0  c #26211C",
"q  c #2C221B",
"w  c #342214",
"e  c #3B2415",
"r  c #3C2916",
"t  c #34241A",
"y  c #3B261A",
"u  c #36281B",
"i  c #3C2A1B",
"p  c #3E301F",
"a  c #12142B",
"s  c #231D29",
"d  c #1E213A",
"f  c #292428",
"g  c #3C2B23",
"h  c #372A28",
"j  c #3D3229",
"k  c #292835",
"l  c #362C33",
"z  c #28313D",
"x  c #3B3439",
"c  c #441E11",
"v  c #43250C",
"b  c #4A290D",
"n  c #532D0D",
"m  c #59320E",
"M  c #422613",
"N  c #442A14",
"B  c #4B2C14",
"V  c #432619",
"C  c #432C1B",
"Z  c #4A2E1B",
"A  c #522E14",
"S  c #4D3217",
"D  c #45311D",
"F  c #4C331D",
"G  c #543215",
"H  c #5B3414",
"J  c #53341C",
"K  c #5A361B",
"L  c #57391B",
"P  c #5C3A1D",
"I  c #643A15",
"U  c #6C3A11",
"Y  c #693B17",
"T  c #633C1B",
"R  c #432D22",
"E  c #472D25",
"W  c #4A2E2B",
"Q  c #453223",
"!  c #4B3422",
"~  c #4D3924",
"^  c #44332B",
"/  c #4B352B",
"(  c #453829",
")  c #4D3A2C",
"_  c #523522",
"`  c #553627",
"'  c #533B24",
"]  c #5B3C24",
"[  c #543C2A",
"{  c #5A3E2A",
"}  c #4C3B34",
"|  c #463938",
" . c #533D33",
".. c #543D37",
"X. c #623E23",
"o. c #663B27",
"O. c #6E3C2A",
"+. c #69411A",
"@. c #6C421C",
"#. c #7A4511",
"$. c #73441C",
"%. c #794719",
"&. c #5C4126",
"*. c #56412A",
"=. c #5C432B",
"-. c #4E423A",
";. c #544234",
":. c #5C4433",
">. c #5D4935",
",. c #54433B",
"<. c #5A453B",
"1. c #5C4A3C",
"2. c #644225",
"3. c #6B4423",
"4. c #63442B",
"5. c #68472B",
"6. c #6B4A2D",
"7. c #744A24",
"8. c #764927",
"9. c #7B4C23",
"0. c #734C2B",
"q. c #6D512F",
"w. c #77512B",
"e. c #7C522C",
"r. c #644A33",
"t. c #654936",
"y. c #6C4D33",
"u. c #634C3C",
"i. c #744C33",
"p. c #6A5138",
"a. c #6C523C",
"s. c #735234",
"d. c #7B5433",
"f. c #73553B",
"g. c #7B593A",
"h. c #182C5A",
"j. c #292D4C",
"k. c #3B3943",
"l. c #433C43",
"z. c #483D45",
"x. c #503B4B",
"c. c #413C66",
"v. c #3D485A",
"b. c #31486B",
"n. c #4A434A",
"m. c #564747",
"M. c #5D4B42",
"N. c #5E514A",
"B. c #4B4956",
"V. c #554B54",
"C. c #5B5259",
"Z. c #624E41",
"A. c #664D46",
"S. c #645243",
"D. c #6B5443",
"F. c #6B574A",
"G. c #745A45",
"H. c #775A44",
"J. c #735C4B",
"K. c #685957",
"L. c #745C54",
"P. c #78614B",
"I. c #7C624C",
"U. c #6D615E",
"Y. c #7A6556",
"T. c #444D62",
"R. c #4A5367",
"E. c #585768",
"W. c #565A71",
"Q. c #645B67",
"!. c #6D596D",
"~. c #5C6276",
"^. c #786967",
"/. c #696676",
"(. c #746C74",
"). c #766D7A",
"_. c #864A10",
"`. c #844C19",
"'. c #8B521C",
"]. c #96571B",
"[. c #AB661D",
"{. c #834E23",
"}. c #885628",
"|. c #955B26",
" X c #845A34",
".X c #865B37",
"XX c #915835",
"oX c #A25E22",
"OX c #9A632B",
"+X c #8A623B",
"@X c #976637",
"#X c #966B36",
"$X c #A76728",
"%X c #B36D2A",
"&X c #B9742B",
"*X c #A56B35",
"=X c #A9743A",
"-X c #B77837",
";X c #C47A2A",
":X c #C47C34",
">X c #885C44",
",X c #876648",
"<X c #976B46",
"1X c #997349",
"2X c #856B53",
"3X c #886C54",
"4X c #936D52",
"5X c #8D7156",
"6X c #987754",
"7X c #A77747",
"8X c #AA744F",
"9X c #B67A46",
"0X c #8D6E6B",
"qX c #887578",
"wX c #957575",
"eX c #A87066",
"rX c #C57B4D",
"tX c #BB823A",
"yX c #C98438",
"uX c #D48A39",
"iX c #D79039",
"pX c #E2973C",
"aX c #B18652",
"sX c #B78755",
"dX c #B4926A",
"fX c #A08975",
"gX c #C68846",
"hX c #D99646",
"jX c #CF9053",
"kX c #E49B46",
"lX c #E29759",
"zX c #DBA554",
"xX c #E8A44B",
"cX c #E8AA54",
"vX c #F0B258",
"bX c #CD9669",
"nX c #E49C6B",
"mX c #CEA774",
"MX c #EBB46A",
"NX c #F3C25F",
"BX c #F5C56F",
"VX c #0F3D84",
"CX c #214F91",
"ZX c #59689E",
"AX c #787186",
"SX c #8B7A8C",
"DX c #6D86B8",
"FX c #988FA4",
"GX c #D2B48A",
"HX c #E4B493",
"JX c #F0CE90",
"KX c #EAD4A6",
"LX c #ECD3A8",
"PX c #A9ADCA",
"IX c #F1E9D0",
"UX c #FCFAEE",
/* pixels */
"i i i / M.m...| | j | | | | | | | -.| | | -.-.| | | ( -.} j 1 X X o o 2 y 9 9 9 9 9 9 9 9 9 u 9 w p F D u 9 9 9 i i r F 5.6.4.4.4.4.Z Z ! C D F F F ~ F L ~ ~ ~ S ~ *.~ &.*.~ S S S ~ *.*.&.*.F F *.S S S D J S S ~ ' ] *.~ ' ' L F S L *.*.i &.' &.' ' ' ' *.4.&.&.&.=.&.&.&.4.6.y.4.2.6.4.2.4.X.] ] 2.&.P P 2.2.4.P &.2.5.3.P X.2.+.2.4.L L ] P L J C D S C r i C r i r u i w : r u r t u t t 9 2 1 ; : e N N B S N w , 2 2 2 2 9 9 9 9 1 w S J +.P S B S S S J r r 8 8 N N S F i + + + = = o : /  .[ ` / [ / {  ./ ` ) ` / / ",
"r V C V / <...| | j j | | | | ( } | | -.| | } | } -.-.| | -.q o X X X 5 u : 9 9 ; 9 q w 9 9 9 9 u r ~ D 9 ; w w r p ~ =.y.6.2.4.4.&.C ! Z Z ! F F ~ ~ F ~ ~ ~ *.~ *.*.~ ~ &.*.~ D D ~ &.&.>.*.D F *.F F D S ~ ~ S ~ *.=.] L ' *.~ S ~ ~ &.F i ' *.*.' ' L ' ' &.=.&.&.&.&.&.4.5.i.y.5.5.4.2.4.4.2.4.5.6.5.2.&.2.3.5.2.2.2.3.2.2.] 2.&.] P P 2.] P J K K ' F S D N V r u r i u r w w t u w u u r 9 2 2 ; ; w i N N Z S V 5 2 , 2 2 2 9 2 2 1 w S P @.T J Z J S J B r N r r S N D S u + + = + + = y [ ` [ [ ` ` ` ` ` ` / / / Q E ",
"e V C C C ) ..} ^ ^ ( | ( | ( | | | } | | ( | ( -.| ( | ( | j + X o o 2 i : 9 2 9 9 w 9 9 9 9 9 u r ~ i = 9 w w 9 i *.5.y.2.4.2.4.[ C ' _ N F F *.F F ~ ' ~ ~ *.~ L *.*.~ ~ S ~ S S *.&.L =.*.F ' ' ' F S F ~ L L ' *.=.r.:.4.&.~ ~ ' G &.' i ' ' *.' ' ' ' &.=.&.&.&.2.&.&.6.q.s.s.y.6.5.2.] X.] 4.4.5.2.] ] 2.5.o.2.] ] 2.&.] &.&.L &.3.2.2.L P P ] L &.L J F D D p w w w r i w u u r w t u u u ; ; 1 ; : r N N B S C w 9 2 2 2 9 9 2 9 ; w S +.3.P G F F S L J r N 8 r N D N S w + + + + * = Q ` ` / ` _ ` ! W Q W Q Q R R R ",
"r N Z Z r V ( } j ^ ^ ^ ( ( ) } ( ) } ) } } -.) ( } } } } } } 9 o     : r 9 2 9 9 9 9 9 9 w 9 7 r u Q i 9 p u i r i *.q.q.4.4.2.4.F ! ' _ Z F ~ F F F ' ~ *.&.*.~ ~ S ~ *.*.*.*.' *.=.' ~ *.~ J ' ' ~ L ~ F S ~ F ' ' =.=.4.:.*.L ~ ~ ~ &.&.N ' &.' ' &.&.] &.=.&.4.&.r.4.4.5.d.f.s.i.r.5.2.4.2.4.2.X.5.4.X.2.4.5.4.X.4.&.] ' ' L L &.6.5.3.2.+.2.&.P L L J J S D N w r u r p u u r u u t w t u u 9 ; 2 ; ; 7 r N S S C e , 2 2 2 9 9 9 9 ; e S @.3.P S S Z S J Z r B M r V N S S 9 + ; + = + w / W / ` / Q E Q R C i i i i r y ",
"V B F Z M e i Q i r i i g i i g g Q j Q Q ( ( ( ^ ( ( / / / ) g o X X ; i w 9 9 9 u 9 9 9 w w w u N Q y : u u u u Q =.6.6.5.4.o.[ C F ' ' ~ ~ ~ *.F ~ ' *.*.*.*.*.*.*.*.*.*.*.~ *.&.>.*.~ D S ~ ' ~ *.F F F S ~ *.F *.=.=.[ [ *.' ~ S ~ q.2.D &.=.&.*.&.&.=.5.5.5.=.4.4.4.5.6.s.d.s.s.y.6.2.&.5.4.2.4.6.5.2.2.5.6.5.4.5.4.' F ! F ~ *.&.2.5.6.0.2.T ] L ] L ' S S V r u i D D p i i u r u w 9 w r u 9 1 1 ; w r N Z Z F e : 9 2 5 t 9 9 9 ; u G &.@.T S S D S J N r S N N D N S S = + + < = : C F Z F F F Z Z C C V V N r r e e ",
"r N S S N > 7 w : 9 9 7 w , w w r e e w w r w w t i u i i g i u o X X ; i w 9 w 9 9 9 u 9 u u u i Q ( u 2 u u i i ~ 4.i.6.4.4.4._ C D ' ' L ' ' ~ *.' *.*.*.*.=.*.*.q.*.q.*.~ ~ >.*.' ' ~ S ~ *.' F F F F F ~ ~ F ' &.=.=.*.*.' ' D ~ ~ &.&.p *.4.=.&.*.=.5.>.2.5.&.=.5.4.4.4.q.f.f.s.y.5.5.q.2.4.2.4.6.5.4.4.6.6.4.4.4.] ! F ~ F ( D ~ &.5.6.3.P &.L L P ' S F N D C i S p D r i i r u w 9 u u r u q 9 2 2 2 e N B J S N 7 : 2 2 5 w 9 9 : r G +.7.P S S S F J S N B N S N C S N = + + + = : B S S S B S Z B N N v r > > w 5 : ",
"8 e S B N 7 : 2 * * * * : : - : , 7 5 2 : 7 : 7 w > w 7 w 7 w w ; o o + r u w 9 9 9 w w 9 w r u r p D i u u u i i D r.i.5.4.4.X.F E D *.&.[ ' *.' ' *.&.*.*.*.=.*.>.>.&.*.*.&.*.>.*.*.~ ~ L ~ *.*.' ~ F ~ D ~ ~ *.*.&.4.*.*.' ' ' ~ ~ ] q.=.p ' =.&.&.*.*.&.>.r.=.=.2.4.&.&.4.d.s.s.q.6.5.5.2.&.2.5.6.6.4.4.6.4.=.4.4.] ~ ~ ! Q ~ F F F L ] 3.6.5.2.L L L J S N N D N C C D r u u C u u u q q u w w r w 2 1 2 u V N Z A N , 9 2 4 w w w 9 ; r L 2.3.L S S B S L S S S r C N N D w + + = = = 7 b b 8 N 8 8 8 8 8 7 8 > > - , * * ",
"7 8 r B N 8 w , * : : * : : - : : , : : : : 7 : : : : - : : : : : X X * u u u 9 9 9 w w 9 r p u p p Q i w r i r u F y.y.5.4.4._ C Q D *.=.&.*.' *.' ' *.&.*.*.*.*.*.&.~ *.*.&.&.q.>.&.&.*.*.&.*.*.=.=.*.~ ' &.*.*.*.>.=.F *.*.*.&.' L &.q.=.7 ~ =.' F F ] =.2.q.=.] &.=.&.] 4.s.d.y.6.q.6.>.&.&.4.r.4.4.5.4.r.] =.&.&.' F D D F D ~ F F *.F &.6.7.3.2.3.5.2.' S D S D ! S S r r r C i e u u w q u u u u 9 2 2 9 N N S J B e w 2 9 9 w w w ; r L +.P S B S F S K N F r r N D V S r = $ = + = : > 7 > > , > > > , > * - > - - * - ",
"7 7 7 8 r 7 7 : * : * : 7 : : : : 7 : : 7 7 7 , , , : 7 : : : : * o O + u i r 9 9 9 w w w u u r i ( ( i r i p u i ! a.y.4.4.4._ ! D ~ =.=.*.! F F F F F F F C D D ~ ~ *.*.>.q.&.q.>.*.*.*.*.>.&.*.&.&.*.' *.' ~ F F ' ' ~ &.*.>.q.&.q.q.=.=.p p *.~ F F F *.=.r.=.&.] &.&.&.q.q.q.q.q.q.q.q.*.&.r.4.&.4.=.&.*.' *.' *.~ F Q F ~ ~ F ~ *.F *.F 2.7.7.7.7.6.2.P S S N r F F F ~ D r i p r u w t 9 w w i i w 9 2 : r N J J S e 5 5 5 t 2 t 9 2 r L 3.+.G S B J K Z N N r r V N N F e = + = = ; , > * : : 7 : > > 7 , - > - * * * * ",
"r 8 r 8 7 7 7 * ; 7 7 7 : 7 , , , , 7 , 7 7 7 7 7 7 , 7 , , : : : = o o 9 i u w 9 9 9 9 9 w w w r D i u u p r u i ~ s.r.2.5.{ _ ! ~ =.=.L S N F *.D D F ~ F D F S ~ *.*.&.>.*.*.>.*.&.*.&.*.&.*.*.*.&.~ S ~ ' *.' ' *.' L ~ &.&.&.&.*.&.&.&.~ r r D D D D D *.*.*.*.' *.&.*.=.q.q.>.>.&.q.&.*.&.[ ' ~ *.' ~ F D ~ ' ~ ~ F D Q D ~ F ( F *.D *.&.w.e.w.%.+.J J L S D F L ' F D i i Q D u r t q w u r u t w w ; 9 e S S J J C w 2 5 5 w t u ; e P +.P J F C Z S Z N V V N C D S ! : + + + = : > , 8 8 8 8 8 8 8 8 > > * > , : * * ",
"N 7 8 N 7 7 7 * : : : : , 7 , : 7 7 7 7 r r 8 8 7 8 8 8 7 7 7 7 , : o o * i u u u w w 2 : u w : u r r u p p r i i ' s.5.2.4.] ! F ' ' *.~ F ' ' *.*.*.~ *.*.[ *.~ *.*.*.*.*.*.&.*.&.>.*.*.*.*.*.*.*.*.~ *.' =.*.&.r.r.=.L ~ &.&.*.~ ~ &.*.' *.D D ~ ~ D F D p F D *.*.' *.&.*.*.r.&.&.=.&.*.~ *.' ~ ~ ~ ( F D D ! ~ ~ Q D p F F ~ D ~ ~ j *.~ =.6.d. Xw.] M 6.6.5.5.5.=.' ! D D ~ ( Q r u u u w u i t i i u 9 9 t N S K K _ r 5 5 t w w w : w X.2.J S e e N S S V r N r N N D D * + + = : 7 8 8 v v r v 8 v v 8 8 > > 7 7 7 , * ",
"S r 8 r r 7 : + * * * * * * + : * 7 7 , 7 7 8 8 8 r v r 8 8 8 8 8 7 o X : u u e u w u 9 9 w 9 9 r D Q i p p u u i *.s.6.4.4._ Z F [ &.*.=.*.=.r.=.=.=.5.=.=.=.=.*.*.q.&.&.*.*.>.&.>.&.>.>.q.*.*.*.&.*.*.=.*.>.=.=.r.p.*.~ ~ ~ *.*.&.*.*.*.&.*.*.*.*.*.*.*.=.*.*.*.~ ' F *.~ *.*.*.*.*.*.*.~ *.*.*.' *.~ ~ ~ ~ F ~ [ *.' *.*.~ *.~ ~ ( Q p p p D ~ J J J N C ] J F L &.F S S C C N i i u r u u u i i r u i i i : w C Z P H L N 6 5 t w t w ; 7 2.+.V e u e u C r 7 w i i i C N i + + + = : 8 b b b b b v v v 8 8 > > , : * : * * ",
"L N N N 8 8 : * * * * * + * o * ; : * : : : : : 7 7 8 8 7 7 7 7 7 : o o ; w u r w 7 u w w w w : r Q ~ p g Q i r i =.f.5.4.4._ C D &.=.&.&.&.r.r.>.r.>.r.r.=.{ =.&.q.>.&.>.*.>.&.>.>.*.*.>.q.*.>.q.>.>.>.=.>.q.>.r.1.p.*.*.*.' &.=.*.&.*.*.*.*.*.*.*.*.*.*.>.*.~ ~ ~ ~ ~ ~ *.*.*.*.*.*.L *.*.*.*.) ' *.) ~ ~ ( ! ~ *.*.~ ~ ~ ~ ~ ~ ( ~ ~ Q Q Q C D D ' &.] 2.5.2.&.P ] J _ F F F ~ F D D i u u w i i u u t i u r V V Z K P K S y r e e t w 2 6 8.3.N 8 r r w w w ; 7 u , w u w 9 : + ; + : 7 8 8 7 7 7 7 > : * > * * * * * * * * ",
"S N r N r 8 : * * : * + * + * * * * * * * * : * : 7 7 7 , * + * * + o o ; r 7 u u u w w w u w w u ~ ( r i D i u C r.s.5.4.] C C D ' *.&.&.' :.=.=.4.>.r.r.:.r.=.>.>.&.>.>.>.&.>.*.*.>.*.*.>.>.*.>.>.>.&.>.*.>.=.>.p.p.F &.*.*.=.>.=.>.&.*.*.*.*.*.*.*.*.=.*.*.*.~ ~ D ~ ~ *.~ ' ' *.*.~ *.*.~ *.*.*.*.*.' ) ' ~ )  .*.~ ~ ~ ~ ~ ~ ) ) ) ( ~ ( ) [ ' 4.0.8.8.0.3.@.6.3.4.] ] ' ] ' ~ ! D u u u w p p i V C g V F F N N J 2.K Z r C y i C V u 8 0.w.] F S F D C w t r r w 9 7 r i w = + * : * * * : > : : > : * * : : * * * - * * ",
"F B N N b 8 : * : : : * * * * + * * * * * * * 7 7 7 , 7 * * * * * * + o 9 r w u r e u u u r e u i ! ! 9 u i r i Q p.i.6.4.] e E ' ~ ' :.:.>.>.=.r.r.4.=.r.r.r.=.>.>.&.&.&.&.>.>.>.*.>.>.>.>.&.q.q.>.>.q.>.>.>.1.p.p.p.F =.=.q.*.=.*.*.*.*.*.*.*.*.*.*.*.=.*.=.*.*.~ L ' *.*.*.~ *.*.~ ~ ~ *.*.*.*.=.:.*.[ *.[ ) ~ *.) *.~ ( ~ ~ ~ ~ ~ ) ) ) [ [ ' [ 3.e.d.i.e.0.e.e.9.3.2.4.] ] _ _ F F r u t w e Q Q Q i C V Z _ Z N J 3.P S V C C Z C D i 8 7.3.J S F N N D V C C V r u i C C 9 + ; ; 7 8 7 7 > * * > : * : * * : * : : * * : ",
"S G N v r 8 , : : : ; * * * * * ; * * : * , 7 7 7 * * * * * : : 7 7 ; o u p r u y u e r u r i u u ! [ r u R Q Q ! p.i.5.&.` i ' ' ' *.r.=.=.=.=.:.=.' L L F ! ! ~ S S ~ *.*.*.&.*.*.*.>.>.>.>.&.>.>.>.>.>.>.p.p.p.p.a.*.=.q.>.>.>.=.*.q.>.=.*.q.=.=.&.*.*.5.s.{ ' &.&.&.*.L ~ *.~ &.~ *.*.*.*.*.*.;.*.:.;.*.*.*.) *.*.*.) *.*.~ ~ ' ) ) ~ ' ' ' ' ] 5.e.}.9.e.9.8.e.w.0.3.2.] ' J ! ' D r t q w r i 2 : : e D C C Z S G 3.2.K V C Z C C i t e 3.3.B N C r V V e u e r r e r C r : + + * * 7 > 8 8 8 > * * * > 7 : * : * = * * * ",
"Z J B N M 8 , : : : * * * * * : : : * > , 7 7 : * * : : 7 8 7 7 , - o o 9 i r u u w r t w u i r N ~ { Q g Q ! / Q i.i.6.&.! V [ ' *.:.:.:.*.*.*.*.[ &.3.S N S r Z v N N ' L r.=.r e ! ' _ ] ' ' ~ ~ ~ ~ ~ *.*.*.*.&.*.D J *.&.&.] *.S r.J B L 6.2.] r.] K 2.2.o.K g.,X#X1X1Xs.G &.+Xw.6.4.' ' ' *.&.*.&.` { [ ' [ ' ` ' ' 2.3.5.i.o.! ' { 6.] 0..X+Xe.+.e.}.8.O.3.8.w.8.3.3.&.L J ' ' D y u t 6 t i , , e C C V C Z F J O.3.P Z C V V C C u w X.J M V V r r e 7 u w : u w y i r : + + = & * * > 8 8 8 8 , * - > - , , * * * * * ",
"J Z Z N M v : : : : : * * * * : : : > 7 7 7 , * * : 8 8 8 7 > * o o X o 9 i t r e u u t r w r p p ~ *.Q i Q Q ( ! y.i.r.] ) i *.~ *.=.*.:.[ ~ ~ [ ' 2.L L L B S ] e : V F 4.6.y.Z r N J S Z G B S S S r b b N 8 N N S S S S G S S b _ K P 2.K 5.K M B a.] P 8.] 6.3.T 6.1XaX#Xw.@.@Xe.}. Xe.6.2.P P P P I T K T T T 7.9.}.@X*X9.8.8.] 7.@. X$.{.|.7.K 8.T 7.8.o.P X.9.0.0.3.2.] ] ' F e t 5 2 5 2 e V Z F J N r B Z A J +.3.X.B C V C C i i 6 ` Z V i e r w u w 7 : w w w e r u * + = = * o o & * > 8 8 8 > - - * * * - * * * * ",
"J A J Z N 8 : * : * * : : : : : : 7 7 7 : : * , 7 8 8 8 : * o o o o o o 9 u e r r r t r r u i i i ! [ Q Q Q ( ( ! y.i.5.' ~ u ' ' *.' ' *.( F S ! C F M G 5.K B 2.F : 6 Z 4.r.F ] F S L 2.+.2.H S n S b n b b b b b b S n G L +.+.2.G H 2.X.G X.] , V y.] K d.A d..XL C g.#X<XXX7.|.#X@X'.}.{.{.{.}.OX@XXXXXoXXX|.|.|.|.oX%X%X$.U XXXX}.XX9.$.$.{.O.b e.9.$.9..XX.T }.8.0.0.6.2.] ' ' 6 t 5 = = 2 , C Z J Z M B B Z J J T 8.X.N N V V C R y w F C y w w w : : 9 w 9 w w w w e t = + = : - * & o o o * > > 7 8 > - * * & * * * & ",
"K A J Z S 8 : * : * * * : : : , 7 8 7 * * * 7 8 8 8 , * o o o o * - : o 2 i u r r u i i i i p p R ! [ ( ! ~ ! ~ _ y.s.r.' F e ~ [ [ ~ ! D D i u e e N B G 3.w.T H N i w > e ! / V r > N G Z B G m S S m B S G S S S n n G G G H H +.L B B v M J F 6 e Z 5.T e.e.Y  XP , H  X3.8.9.}.|.OX|.OX|.|.|.}.}.`.].XXoXoX|.$X$X%X%X&X-X$X{.|.|.OX9.Y 9.}.{.H J .X3.9.=X.Xo.7.}. X{.e.0.3.2.] ' e e 5 : 2 : > N > Z Z Z A Z J K K T 7.P N D i i V R i 5 F Z r w w w w u 7 w : : 2 5 w w u = + = , v v v - * * o o * : > 8 > - * * & * * o ",
"] A A J S 8 : * * : * : * * : 7 7 : * * : 7 8 N 7 * o o o o * : - * * o ; i i u u r i i u i i p Q ~ [ / ( ( ! ! V r.f.5.] F r ) ' ~ ! D r r r : : , ' G K m +.1X XB V e : : : 2 ) [ C M S V , > > v v 8 8 v v v 8 b 8 b b b b b b b A B B 6 M J 8 w y : B T 8.}.3.T Z N K 8.Y Y +.+.+.#.%.#.`._.`.`.'._.'.'.'._._.].'.'.`.'.`.|.}.{.U O.n T $.O.T Z b O.I }.=X{.T 8.XXOX}.XXe.0.5.2.] V r > : : , 6 A _ A ] _ Z J J P P T 7.T V C g r i C g 2 F C y w 5 2 w t w t 9 2 ; : w u u = = = - > c v v v > * o o * * * 8 7 * * * o * * ",
"] J J J S r : - : : : : > > 7 8 , * * , 7 8 8 7 * o o * : 7 * * * & & o ; i u u t y t u r u i i C ~ [ ( ( ! ! D N y.f.6.' D r ~ ~ ' ! i i u 9 : : : N L 3.3.I 9.8.T B u : : ; + + r D V C e 6 J N 8 v 8 8 8 > > 8 8 8 b 8 b 8 8 v c v v 8 > > E 6 V 6 * 5 v n I I B M V A n n m m m n n m m U U U U U U #.U U #.#.#.U Y 8.Y A {.{.Y U K b T K N V 6 M T .X3.Y 8.Y {.@XOX@X@X}.e.8.4.4.N V w - 6 > c T B J P K K K P X.T T 8.8.Z t i y r i i w E V w u w w 5 t 9 9 9 : w w w w w = o * * - > > v v v v > * o o * * 7 8 7 * * * o ",
"X.J Z J S r , * : : * * : 7 7 , * * 7 8 8 > : * o o * , , * * * & o o o + u u w r u w u w u r r i ( [ ( Q C ( ! ' s.f.6.' D w Q ~ ~ ~ N r u w : : * T 6.K .XG I +.7.+.Z r 7 7 : : : : 7 D e 8 D B ] &.S b n n b b b b n n n m S n n b b b v v N v Z { 6 > N L K A N A m I I m I U U U U U #.#.#._._.#.`._._.`._.U #.I Y {.0.A H Y Y Y U A o.V V V > B T 7.K d.8.3.}.OXOX@X{.{.e.T 4.2.V v > - r > A I V o.T H H X.T 2.T T 7.e.K N y y t w t 2 V e w w t 9 w 2 : ; 9 9 w 6 w u t = + = * * - > > > v b b 8 : o * * * 7 7 > * * * ",
"o.] G B J v , : * : : * > 7 , * - > 8 8 7 * o o * : , , * o o * o o * o o ; 2 9 9 9 w w 9 9 9 w r Q *.) Q V ~ [ =.f.f.6.*.D u D ~ ~ F D r r 7 - * : q.d.A K G G I 7.7.L S F D F F F D r r D N J J B ] +.@.@.@.%.7.7.%.7.7.7.w.w.w.9.w.9.7.9.8.7.3.P ] ` K 2.g.T 8.$.}.XXOX$X*X*X*X*X$X*X%X*X*X%X%X$X*X%X%X%X%X$XoX|.|. XXXY O.9.}.|.|.XX9.A J ! B 6 M A J B 2.T $.'.@XXX}.}.}.8.3.+.2.N M e > 7 c H T b T 7.3.T 3.T 3.+.Y 3.3.J N V e e e y w i e u w w w 2 w 2 7 9 9 w w w u w + & = * - * * * * - > v n b > * o o * , 8 * * o ",
"] X.A Z A N > - : * : > 7 * * * > 8 7 : * o o - 8 > * * o o * o & * * X o + = o + ; 9 2 ; 9 9 9 w i ( [ ( ! ~ ' { f.f.y.{ D w Q ' ' F i r r w ; - 7 5.0.q.2.P P H K P ] ] J B B S S B S N b S S A H K H m I +.+.+.+.$.+.+.7.+.+.$.7.$.$.%.7.7.%.%.+.L L L w.d.9.$.{.|.$X*X=X-X-X-X-X=XtXtX9XtXsXaXtXyXtXyXtXyXtXrX-X=X=XOX}.OX=XsXgXgXgX8XJ J J K B N N B _ ] B }.OX|.OX@XXX@X{.9.6.0.N N 7 , , c Y Y K o.9.7.T 3.3.O.$.+.7.] N V C Q F Q Z w y i t e t w w w 9 w 9 , w 2 u u w = + * : - , * * * * * > 8 n A v * * o * > > : * ",
"] T J A Z M 5 : , , > , : * : 8 8 7 * * o * * > > * * * * * + * * * * + + 0 9 9 $ + $ + + $ ; = 0 t w ( ( ( ! ! [ y.g.i.{ C w Q *.~ D i r w 7 * * : ] +.%.7.@.T X.G M G 2.N N N N N N b r N N N N B B N S n S m S m m L L +.I m H H L H I I I I I +.+.2.&.+.+.3.+.$.%.%.%.%.%.%.9.{.}.}.}.|.}.|.|.|.|.}.}.}.|.|.|.|.|.|.}.}.}.|.|.|.OX|.}.@.2.6.0.] V > 8 J Z L 7X=X*X*X@XOXXX}. X9.7.B N 8 : , n Y 7.A 3.9.9.$.Y 3.3.%.$.2.A r y V V i C i : r i t t r u t w w w u w 5 w e e u = = * : - , * - , > * , > > v n v > * o & * : : ",
"J X.] A Z B , : > > w , * : 7 8 7 * * o * : > > * * * * * + * * * * - = + 0 0 9 9 q 0 q 9 q 9 + = q 9 g R i ( =.r.s.g.a.=.i : ! *.F i r i w 7 : : * S 3.7.9.7.P X.S J J J S S S S F S S B S S S S S S G S S S S S S S L S S S L L L L H I L I I m I +.+.I I I +.T Y +.$.$.$.@.@.$.9.7.9.%.9.{.{.}.}.'.'.}.}.}.}.}.}.|.}.|.OXOX@X@X$X*XOXOXe.5.0.d.X.N e C Z D e.aX*X$XOXOXOXOX X X9.0.S B M : > T Y O.A T {.{.{.3.$.@.9.@.P B i i C i i i g - u i y t t t t w t u t u w t r r t = = - : , > > > , * * > > > > b A b v * o * * : ",
"N X.P Z J B 6 , 7 7 , - : 7 8 8 : o o * 7 8 > * > : - * * * * * * : t u r u u u 9 t w 9 9 t q 9 9 t t t t t i ~ r.f.g.y.=.D w Q F D r r r r 9 : : : e 6.@X#X3.G 2.P N 6.L L L ' F J J S L L ' L ' L ] ] ] ] S F ~ L L *.L 2.&.L &.+.5.2.&.2.2.q.q.q.&.2.q.7.7.q.8.e.0.0.e.w.w.w.8. X{.9.e.e. X}.e.}. X X}.}.{.{.{.XXOX|.}.}.'.}.|.|.].|.{.+.+.2.0.X.C w e e L }.-X$XOXOXOX*X@XOXXX}.e.J A B , > H Y 9.H 3.XX}.{.$.3.@.e.T K S C C i i i r y : y g i u r r t t u e e e u r i i u = = : , > * - > > > * > * > 8 8 v b B N * o o * ",
"e ] ] K J B e , 7 7 : - 7 7 7 * * o * 8 v > > > * : * * * * * * : p Q ( ( ( Q j t i i u 9 t u r u u u u i g D D ' s.g.&.' D 2 D F F D r r r 7 : : : > T e.7.+.H +.q.8 q.L 6.F w 6 w 7 w w e e e r r V r N r u p p p p j ( ( ( ( ~ ~ *.*.~ ' *.' &.' *.*.*.q.=.q.5.q.0.w.s.s.w.s.d.d.g..Xg.+X+X#X#X+X#X#X@X#X*X=X#X=X=X=X*X*X*X=X=X-X=X=XXXT 5.T 3.G e 2 6 N d.XX*X$X*X*X=X*X*X*X|.}. XH A A > v m Y .XA e.|.XX{.9.9.$.7.A K F i r r u e y u 2 w i i r i i i r i g r r r i r r t ; = 7 v v > > , > v 7 > * > > v 8 8 b m n > * o ",
", F o.P J Z > , , : * > 7 > * * o * r M > > > * * * * * * : * * 7 ( / ! Q Q ! Q D Q ( p t t i Q Q g u u ( [ Q *.:.y.,X&.[ Q ; i *.*.D D p p w : : * 7 r w.+.L G 7.w.b q.H g.*.o o o + o o + + o + : 5 2 9 f x v.k.k.k.k.z k.x v.k.k.k.k.k.k.k.k.k.k.k.-.k.( -.k.-.l.-.| -.-.-.-.-.z.-.n.-.-.m.;.1.,.1.*.L P X.P X.K K L T P ] +.+.2.2.2.P K o.3.7.@.r , , B 8.OX$X$X*X=X-X=X*X|.}.}.XXT H n > v n 8.9.n Y XXOX}.`.9.8.3.b P J V i y y y e u 9 , i r e u u t t w u t u e t u w 2 = = 7 B b b v v > > v 8 > , , 8 8 8 > v A B > & ",
", N X.] K J > > : : > 7 8 - * o * 8 N v 8 > * * > > * * 7 : > , 2 Q ( / ( ! Q Q g w r j i w u D Q D p i ! ) ) ' ] s.,Xi.{ C 2 7 r *.' D r p u 7 : : : 8 4.2.L +.0.w.n q.I g.L + O + X $ + $ $ + ; q q 0 f v.v.v.v.v.v.v.v.v.v.v.v.v.v.v.v.v.v.v.v.v.v.v.v.v.v.v.v.v.v.v.v.k.v.v.k.v.v.v.v.v.v.v.v.v.v.v.l t e t w : = = : = ; : 1 ; ; ; : H 6.@.9.9.G 7 > Z O.*X'.*X=X%X9X%X*X$X|.@X@XO.I I v v n Y {.e.{.9.XX|.}.9.3.G v 2._ Z C V i r e i u w w w w 5 : 9 2 2 ; : ; w : ; 9 w 5 : 8 8 v N b b v > > v b 8 > > 8 8 8 > v G b > ",
"2 e X.X.K Z r , - : > 7 , * o * > b v 8 > > > > > * , 7 , * 7 7 7 i ( Q Q ( Q ( ( i 9 9 t t j Q Q ( Q i i Q ~ [ ] y.,Xg.6.i w 2 r ~ *.S r r r 7 * : 7 N @.w.L L 3.w.b q.I +X] + $ $ + + $ $ & < 9 u q h n.T.T.T.R.v.R.R.R.v.R.v.T.T.b.v.v.v.R.v.v.v.v.v.v.v.v.v.v.v.v.v.b.b.v.v.v.v.v.v.v.v.v.v.v.v.v.v.v.x g t i t 2 = < 1 1 1 2 1 3 1 9 J 7.3.9.}.G > N B 7.XXU |.*X%X*X*X*X*X$XOX=XY I U c b n Y XX X<X{.$X|.|.}.9.H T 8.A Z ! Z F F F F S D D ! J _ ! F F F Q S D F D r V Q D r r e e 7 b m n v v > v v 8 > > 8 v > > b B b ",
"2 > ] X.P G 8 - : 7 > > * o * , v v v v 8 > > > > > > 6 : > > > : w y u i i g i i g u 1 + 1 i i i i i u i Q ! F ] r.g.s.i.E e y ! =.*.( D N r : : * 8 T  X}.T K @.7.B q.I ,X&.+ # $ & $ $ & < 4 u u u v.v.b.R.v.T.v.T.T.T.T.T.T.T.v.T.v.R.v.v.T.T.T.R.R.R.v.v.R.v.v.T.T.T.b.v.v.T.T.T.v.T.T.b.v.v.v.R.R.v.v.( j u j 9 1 < ; ; 1 1 4 4 3 : &.w.3.}.}.A > C v T $.U |.*X*X-X-X-X*X*X*X*X%.O.U U O.m 9.8.H Y XX*X$X|.OX9.Y XX}.A A P _ J L ] P ' J K ] K J J J F J ' J J Z V C V N C Z D V r 7 b G m n v v v b b c > > v c > > v n ",
"2 , C X.P J 8 : > 8 7 * * o * N b v v 8 > 7 8 8 > v e > > > r > , , , - ; w ; 2 2 : 9 2 ; $ ; 2 9 w w t r V i C N ' i.i.i.Q u e D =.=.~ D p r 7 ; * N H OX7X3.T @.0.n q.+.#X&.= & # # $ $ $ 2 h u u k.T.R.T.R.R.T.v.T.T.v.T.T.R.R.R.R.T.T.R.R.R.R.R.R.R.R.R.R.R.T.T.T.T.R.b.R.R.T.T.T.T.T.T.R.R.R.R.R.b.R.R.v.x u u u 9 4 2 2 2 2 2 3 1 9 L e.7.|.}.n r J b A Y }.@X*X*X9X-X-X*XOX*X=X9.%._.`.{.H |..Xv Y *X*X*X*X|.U }.OXXXI K P P T O.P H P T X.X.P J B J J M N B B Z N N r N J ] K J S V b G G H n v c n M b b > > v v > > b ",
"2 : r X.T B > , 7 > - * o * 8 M v v v 8 > 8 8 8 > v > > > v v > > 8 7 7 i Q Q i g Q R Q D ( Q i i Q Q Q ! ) [ { _ 6 Z 6.4.Q e C F =.&.~ D p u 7 = * S 9.-X*X@.P 2.3.n w.+.<X=.= $ & & $ $ < h y h x v.R.R.R.R.v.T.T.T.T.T.T.T.B.R.R.R.R.R.R.R.R.R.R.R.R.R.R.R.R.R.R.R.R.R.R.R.R.R.R.R.R.R.T.R.R.R.b.R.R.R.R.R.v.l g i u 4 : ; 1 1 4 1 2 : &.d.9.OX}.B S K A Y @.{.|.$X=X*X-X=X*X*X*X-X{.`.]._.#.U }.P B H }.=X%X*X|.`.|.$X*X%.$.7.$.9.{.%.{.`.{.}.`.3.Y 3.8.9.7.7.3.3.$.@.2.L +.+.@.$.3.2.B > b H m m m v v N n n c > v b v > > ",
"2 2 e X.T B > 6 w , * * o , N v > M v > 8 v 8 8 v M > > 8 v > > > v v 7 2 : 2 9 2 9 w w 9 w 9 w 5 2 w 5 5 e r F y.{ > C ! F u C F :.[ ~ D p r : = * S }.sX=X$.H T 3.G w.+.1X&.= $ $ # $ & 4 y g j B.R.R.R.R.R.v.T.R.R.T.T.R.R.T.R.R.R.R.R.R.R.R.R.R.R.W.R.R.R.R.R.R.R.R.R.R.R.R.R.R.R.R.R.R.R.R.R.R.R.R.R.R.R.R.n.j g i 4 2 2 2 2 2 4 1 9 &.0.%.OX%.K N B Y 7.7.}.|.|.@X*X*X*XOX|.*X:X{.].[.oX'._.%.v ] O.Y -X%XoX`.}.$X$X:X%XoX$X*X-X=X-X=X=X*X=X=X*X*X*X=X*X*X*XXX@X@X|.}.}..X X}.}.}.3.N * : b G m I m v n H n A v v b b > > ",
"2 2 w P T N > > > : * o * M v v B v 8 v v b b b B 8 > v v v > v v b v * * o ; 9 2 2 w t t t u t t r r u r i V N Z 4.[ 5 5 C Q ) ' &.' ! D i r : * * r }.tXgX9.H X.0.m  X+.1X=.= $ $ $ $ < 6 R h n.R.R.T.R.R.v.R.R.T.R.T.T.R.R.R.R.R.v.R.R.R.R.R.R.R.R.R.R.R.R.R.R.R.R.R.R.R.R.W.W.R.R.R.R.R.W.R.R.R.R.R.~.b.R.R.B.| h R g 2 4 2 2 2 2 4 6 2.0.7.OX%.P M 8 I 3.Y XX|.}.@X@X#XOXOX@X*XrX$X%X;X;X&X$X}.c V A 8.-X$X|._.|.$X;X:XiX:X$X'.'.9.%.9.$.+.Y Y $.3.$.+.T +.+.+.+.$.3.+.@.@.T @.T A c - * * - b m I I n v m I m n c v n A > ",
": 2 : J X.M , : : : o & e B v B v v 8 b b S n b b v v b v v v v v v * * o * : u u u e i i r r C Q i i D ! ~ { t._ V ! R 5 r ( ! ' *.! D i r r 2 = * 7 }.tXaX9.L 2.T m .X$.#X&.= # < & $ 2 h g ^ B.R.R.T.T.T.R.R.T.R.T.T.T.R.E.R.R.R.v.R.R.R.R.R.R.R.R.W.W.R.~.R.W.W.W.R.W.~.R.W.W.W.W.W.W.R.W.R.R.R.R.W.R.R.~.R.R.B.W j R 4 : 2 4 5 2 2 e 6.w.{.*X%.o.Z M I %.O.*X`.{.|.@XOXOXOX|.$X-XyXgXuXuXpXgX{.M 6 e H |.$XoX|.oX:XuX;X;XuX$X`.%.%.+.U +.+.T Y I I I H H P P H P P T T P H G J S , - - , * & > b m I I m n I U m b b n H n ",
": ; : Z X.N * = * * * : N b v b v v v b S m n b v v v b b v v b v - o * * * w u t t r i i i i i C R Q D ~ &.r.i.5.Z = 5 t 7 r ! ' =.*.~ p p r 7 * ; 7 e.-XtX'.3.8.w.H .X3.1X=.= & < $ $ 4 g g l.V.R.T.T.T.T.T.T.T.R.R.T.R.R.R.R.R.R.R.R.R.E.R.C.T.T.R.~.R.C.B.B.v.R.E.~.~.~.R.R.W.W.R.W.W.R.W.R.R.~.W.R.~.R.R.R.W.R.| Q W t 4 2 2 4 4 t y 6.e.`.*X|.Y J B I $.$.7X}.XXOX|.@X@XXX|.$X-X:XyXuXuXrX}.n v M M c H |.oXoX$X:X;X[.;XpXhXyXtX-X=X=X7X-X9X7X@X@XXX.X}.@X@XXXXX}. Xe.e.w.0.0.X.> > > - - * * > v I I I m A H I m n A H H ",
"; ; : V ] N * : : - : 8 v v B B b b v n G m b b b b n b b v n v > * & * * * u C u r i i i i D C D C ~ ' ' &.i.g.0.{ w 1 y i w D *.=.=.*.Q N p 8 , * : 7.$XaX{.+.0.7.I .X7.1X&.= < $ $ < 6 R l x.R.T.T.B.T.T.B.B.T.T.R.R.R.R.E.R.E.R.~.R.R.R.C.v.k.k.k.v.n.k.f f k x C.E.R.~.~.~.W.W.W.~.W.W.W.~.W.W.W.~.R.~.~.R.W.E.n.^ Q y 2 2 5 5 6 4 y 6..X{.=X|.7.A B T 3.{.7XOXOX@XXX|.}.}.}.@X-XgXhXkXgX{.n b v v c c c H '.$XoXoX%X%X:XiXhXtX].#.$.$.$.Y Y Y Y G A n A H H H H H G G B 8 > > > > > > , - - * * > b I U I n m I I m b n H ",
"2 2 : e T Z * : : w 7 V B B B n n b b G G n n b b n m n b b n > & * * * : : 5 i i r i i y r p F F Q ~ ' _ _ 4.g.d.4.i t y Q e e ' =.>.&.! D p u 7 * 7 7.tXaX'.+.8. XI  X+.1X*.+ $ $ + 1 t R | V.T.B.T.B.T.c.B.R.T.B.R.R.E.E.E.W.~.R.E.R.C.B.z 0 f s f f f 0 0 0 f 0 j B.C.C.E.~.~.W.W.~.W.W.~.R.W.W.W.W.W.W.R.~.W.W.V.| ^ g 6 2 5 w w 4 w 0. X9.-X$X#.H b I @.}.*X*X*X*XXX}.}.7.9.}.=X-XhXgX`.n b K O.X.o.K B n U oX$XoX&X:X;X;XyX-X`.7.7.$.3.7.T T X.T 6.T T 2.L P T T o.T X.r * - > > > > , > > > > * 7 n +.U H n I I I n n H ",
"2 : 2 w ] Z - : 7 : > Z A B A A A b m G b b n n n m m S n G v - * > * * : : : C i i i Q i r Q ~ ~ C F S F F ] d.i.5.C t i ! 7 w [ r.r.=.' Q N r w ; : &.OXtX].+.}.XXU +X@.1X=.; ; ; ; ; R l l.B.B.T.V.c.T.B.B.c.T.B.B.R.T.R.R.W.~.E.R.B.B.f % 0 3 % 3 0 3 % 0 1 1 % 0 0 j k.B.E.W.~.~.~.~.W.~.~.~.~.~.W.~.W.~.R.W.W.E.n.^ R 6 2 2 4 6 4 u 6.9.'.9X$X+.H B T %.XX-X-X-X*XOX}.9.7.$.{.$X-X-XOXm G K 8.}.Y e.7.9.o.O.U $XoXoX%X;X;XyXyX|.{.}.}.}.}.}.9.T T d.0.6.0.0.T 8.3.3.3.2.K , , 8 > , > - > > 7 8 7 > 8 m #.U U m I I U H m ",
"; : 2 , J A - : : 7 6 A K A G G b G H G m b b n m H m n n b > > > - > > : , w i i i i Q D Q ~ F D r r C ' ' &.s.d.6.E 5 i ~ r r ' 4.{ :.[ ! C p w : : +.#XtXOX#.XX@XU @X+.1X>.; 1 $ + ; R W x.V.E.B.B.B.B.c.V.R.B.T.T.R.R.R.R.E.R.v.k.v.f % . % 3 0 0 0 O % . % 0 % 1 % 0 f z n.~.~.~.~.~.~.~.~.~.~.~.~.~.W.W.W.W.~.W.m.^ E 6 5 5 4 w 9 V d.XX}.-X&X%.H A +.7.@X-X:XaX-X*XOX}.$.@.%.}.OXOX#.m n A O.|.@XXXOX}.8.U U |.$X].oX%X:XiX&X|.}.}.}.{.{.}.}.9.H K H L K 3.2.0.3.O.$.T K 8 > 8 > > > > > , , > > 7 > v I O.U Y I U O.U m ",
"; ; = : Z Z - : , 6 b P G A G A n H H G m m b b n I m m n 8 , - > > - > , , t D p i Q Q D F Q D D C D ! { =.&.s.d.i.! 5 D *.i N { &.' r.*.! D r r : : L #XiX[.#.9X=X+.@X7.aX>.; 1 ; = 2 h | x.R.C.R.E.R.E.E.V.E.E.R.E.E.E.E.E.V.k.k.( f % % O 0 3 0 % @ O O . % u 0 0 % 0 0 0 j R.~.~.~.~.~.~.~.~.~.~.~.~.W.~.~.~.W.W.C.| ^ g 5 6 t t t i w..X}.aXyX{.H A T $.$X-XuXyXtX-X*X|.{.$.$.`.`.'.I m m A U }.|.}.XX}.7.I U ].$X[.oX%X;XiX-X'.|.'.}.}.{.}.}.9.9.8.8.T K J G T 8.7.3.3.K e > v v v v > > > > 7 8 8 7 8 n U `.Y Y Y Y U H ",
"= = = : Z Z - - 2 > A P G m G b m H m m I L m b n H m H n > : : & > , , , , w u Q ! Q D D D D F ~ F F ~ ' &.=.i.d.i._ Q ' *.D C { &.' 4.=.~ D N w : : G g.tXtX'.sX=X+.#Xw.aX>.; 1 < + 2 R | V.E.E.E.E.E.E.C.E.E.E.E.E.E.E.E.C.v.z z % % % % % % @ O O % 0 3 . 0 j 0 % % 0 0 u j n.E.~.~./.~./.~.~.~.~.~.~.~.~.~.~.~.~.W.| ^ g 4 4 6 t t C w.}.}.tXgX'.H n Y %.*X&XiXgXhXyXtX$X'.9.9.{.'.'.+.m n S I $.@.$.@.T H n I ].%X[.[.&X:XkXgX|.|.|.}.|.}.}.`.9.7.3.9.w.7.X.K K T T @.o.P r v M b n v 8 e 8 8 v N 8 v v b T %.$.I U U T I ",
": = = - N Z - : , v ] T G L H G H +.+.m I I m m m m m m v * > > > > , > : * 2 u i Q ~ ~ p D ~ ) *.~ F D V ` 4.s.d.i.] ` *.&.D D [ 4.&.r.=.F D i r : : G tXiX].'.gX*X@.#Xq.aXr.; 3 < = 2 R | E.!.Q.E.Q.E.E.E.E.E.Q.E.~.E.~.E.B.v.0 % % % @ 0 % @ . % 0 0 f 0 % h f 0 O % % 0 0 0 ( ( 1.E./.~./.~.~.~.~.~.~.~.~.~.~.~.~.W.../ g 5 6 t h 6 r d. X|.yXhX|.H n @.%.-XyXpXhXiXhXyX-XOX'.|.OXOX].+.m m m I +.I U +.+.Y U n '.:X;X[.;XuXkX:X|.|.|.{.|.|.}.'.9.$.@.$.7.7.3.7.Y 3.3.T T X.N 8 B B A N > > , 7 > > > > 7 > b Y %.U m Y Y I ",
"; & = 2 r Z - > > Z T P H T G n I +.+.+.+.+.I m m I m n > * > > > - - & * * : w i D ~ Q D ~ ' ~ ~ *.F i r _ 5.i.e.i._ ! *.' F C =.r.4.r.=.~ D p r : : n g.tX[.].gX=X+.#Xw.aXq.; < ; < 4 R } Q.W.E.E.E.E.W.E.E.Q.Q.~.Q.~.Q.E.v.0 % @ % @ O % % .   % % 0 % % 3 % % 0 O O % 0 + % 0 j -.B.~././.~.AX~.AX~.~.~./.~.~.~.~.Q.x./ h 4 6 6 4 t D d.@X|.gXhX].m m $.{.aXuXxXhXhXhXhXyX-X$XOX$X$X#.+.+.I  XaXtXaXtXaXaXaX8X%._.oX%X%X;XuXkXhXoX|.|.|.}.|.}.XX}.%.%.7.9.3.+.3.$.3.7.3.T X.N > > > > > > > - , , , , > * > > m $.%.U I Y Y ",
": = = : 8 Z : 5 > K T T +.H G n m H m +.#.+.I m I U m b > > 7 7 > & > , , : w i p Q ~ ( C ~ *.D ~ =.[ D C ' s.8.3.i.J ' t.=.S N _ ' &.>.=.~ D D i : : b tXiX[.].gX=X+.#Xw.aX>.; < < = 4 h x.Q.Q.~.!.!.W.Q.!.E.!.~.Q.~./.Q.B.z % % % % @ O % % . . @ O % # % O # % 0 0 O O u 0 % 0 f j k.N.~.~.AX~.~.~./././.~././.~././.m.| R 6 6 h t y D f.@X|.gXjX].I H $.`.yXyXxXxXcXcXhXiXyX%X&X%X_.#.#.#.+.+.|.$XOXOXOXoXoX'.U _._.oX;XuXiXxXhX$XoX|.|.}.{.}.}.}.9.9.9.w.$.8.@.3.$.Y $.T P N e v > - > b B v > 8 8 v v v v v n $.{.U I Y $.",
"2 & < : > Z : , 8 P @.T T T I G n n H +.#.+.m m +.m m b 7 7 7 8 8 * > 8 8 7 w p ~ D ~ D r *.F i *.=.*.~ ! &.,X.X3.g.J ! r.' ' { L =.p.r.=.~ D D r ; : b g.tXtX].tXtXI g.e.sXr.: < 4 < < h z.E./.!.~.~.!.~./.~.Q././././.Q.x % @ % % % % @ % % @ . @ % . @ @ # . O % h 1 % j 0 0 $ q 0 h | Q./././.AX/./././././.~./.~./.N.} R 6 t h 6 t !  X@X}.tXzXe.I m #.%.iXiXxXzXcXzXpXpXiXtXtXtX].#.+.#.+.U |.$X=XtXe.tXOX#.#.#._.yXyXuXpXvXgX$X[.|.OXOX'.}.}.e.'.}.7.7.$.$.7.$.7.3.Y T J > N b v v > B b v v v v 8 b b N b b +.9.#.+.+.#.",
"< - < : e Z , 5 M T O.Y Y Y T T H H I I +.$.U +.+.+.m 8 8 8 8 v 8 * > 8 8 7 , i *.( ~ D r F D D ~ Q F ( ! 4.,XXXi.i.' C =.=.4.:.r.p.p.r.=.*.D D p 7 : v aXtX[._.aXtX+.aX9.dX=.; 4 < 4 4 t | K.!././././././././.~./././.E.x % @ @ % @ % % @ 0 % . % % % X # # . . O 0 f 1 u 0 0 0 q 9 9 j C././././././././././././././.m.^ g t 6 t g y Z  X@X|.tXzXOXI m %.w.hXiXpXiXiXtXtXtXtXtXtXtXtX_.#._.#.#.oXtXtXtXtXtX'.9.[.[.[.iXuXiXpXNXzXtXOXOX}.OX}.}.OXw.%.}.'.%.7.7.9.3.$.$.T P C 6 M b b v > b b b v v b b S n m n b I #.'.$.+.$.",
": = = : 8 C 7 5 B T $.T T I I Y I I +.Y U +.U U +.+.m v 8 b b 8 8 > 8 8 8 8 7 u D *.*.( D D D D D i F *._ 4.g.>Xd.i._ V =.r.&.' &.p.y.r.=.' D D r 7 7 8 tXtX[.[.hXtX+.tX|.dX>.: 4 4 4 < t | K./././././././././././././.U.z % @ @ % # # @ % % @ O O % 1 6 < o # % 0 0 u % % u ( u q 3 2 j | Q././././././.AX/./././././.m.} t 6 t t y t F +X7XOXiXzXOXI I %.}.hXiXxXzXxXzXzXtXyXiXtXpXzX[.[.tX[.'.OXtXiXxXiXtXtX].[.tX[.pXiXpXpXNXzX$X[.[.$XOX'.9.#X'.9.w.9.9.9.8.7.3.3.O.T P N , M n B B > B n B b n n m n m m n b b +.}.%.+.%.",
"2 : = 2 w C , > A o.Y $.Y Y Y Y I I U $.+.#.+.+.#.+.n v b b b b > > 8 8 8 v r D *.D D ~ ~ D F ~ N 8 D *._ ] g.<X.Xg.' e ! =.' &.r.f.p.p.=.*.F F r , : 8 #XiX[.].aX#X+.tXe.dXr.2 < 4 4 4 4 W V./././././././././././././.E.k % @ @ % % # . O % % 3 + 9 (  .E 6 y u ; 1 0 O @ f j f $ 3 3 h | U././././././././.AXAX).(./.m.} t 6 h y 6 g F  X#X|.tXhXOXI I 7.|.zXhXxXNXvXxXxXxXiXtXiXxXpX[.yXiX[.].=XtXvXxXxXtXOX[.tXtXtXpXpXpXvXBXzXtXtXOXOX=XOX'.|.}.}.'.%.}.e.{.Y @.3.$.+.X.S r M b A A v B B G n n G S m m m m n b +.9.'.#.%.",
"2 < < : 6 V > , H O.$.$.I T $.$.U Y %.`.%.`.$.I m m b b b m m b v > 8 8 8 8 S F p ~ D *.~ ~ Q r D D D *.&.&.,X<X.Xg.' w C ' =.r.s.f.f.a.4.*.D F r 7 7 8 #XyX[.].gX#X+.aX XdXq.9 4 4 4 4 4 R m.(././././././././././.)./.B.0 % @ @ # % # # # < s % 9 o.` o.` O..XM 6 2 $ O @ % u 3 + $ $ t j Q.).AX/././././.AX/./.AX/.^.x.W t 6 g y u i F +X*X|.gXzX#XI m %.}.zXpXcXvXcXNXcXxXiXtXpXNXpXtXpXxXhX[.tXzXNXNXNXNXtX[.iXuXyXpXiXpXvXBXBXtX$X*XOX*X$X|.'.|.'.9.9.}.'.9.$.Y 3.7.Y T J v b A A B v n G H m H +.H m m I m n b m '.'.#.%.",
"2 - & 2 5 y w 8 T Y 7.@.m I %.Y I #.9.}.'.`.`.U #.m b 8 8 b S b 8 8 8 > 7 8 r S D ~ D *.' ' D r N D S *.&.6.,X<X,Xg.] 7 F =.r.r.p.f.f.f.q.&.~ F p : : v tXgXtX].hXtXm aX|.dX4.9 4 4 4 6 6 h x.!.(.(./.).).)././.).(.(.).n.z % % # . % # $ 6 4 & 2 &.>X>X>X8XeXeXXX5.` 5 % O % 0 3 3 $ $ 4 | ^.).(.(.AX/.AX(.).).).AXAX!.x.R t g u i g C ' +X=XOXjXzXOXI I %.OXzXkXcXMXMXvXcXcXhXiXpXxXzXtXxXxXtX].tXNXBXNXNXNXtX[.iXiXiXpXiXpXNXBXBXaXOX$X$X$X$X#X|.OX'.w.'.}.9.9.O.Y 7.@.T T P 8 B G B b > b H G P H H H +.+.m I m b n 9.9.+.9.",
"- - - 2 5 e 6 8 X.Y O.U I Y 7.I b n U }.`.}.}.%.+.m n m b b b b v b b 8 8 8 r ( F ( *.*.~ ~ N r D D F *.' y.4X4X+X X' w ! y.s.f.f.f.f.p.p.*.~ S r 7 7 8 #XtXtX[.gX#X+.tX+XdXO.4 4 6 6 s 4 y } U.).).).).AXAX/.).AX).).).T.s % @ . . # # 4 c c V 5.<X8XeXbXnXGXrXeX9X4Xy.w 1 O % $ 0 3 1 4 | ^.).AX/.).).).(.AX/.).).).Q. .e 6 h y g i i F }.#X#XhXzXOX+.I %.OXzXxXvXvXNXvXcXcXpXiXpXNXxXtXiXNXzXtXaXBXBXBXBXBXzXtXpXpXiXpXpXxXNXBXBXgX$X$X$X$X*XOXoXOXOX'.}.{.9.$.7.7.$.+.@.T G 7 n m n n b b b b b n n b b n n n b 7 v 7.'.#.%.",
"2 < 4 2 : e > v o.9.8.Y I 8.%.Y I H +.U +.{.|.`.#.+.m m m b m m n n b b v 8 r ~ *.*.*.D ~ ~ ~ D D D D *.&.q.1X<X,Xd.' e { s.f.f.f.f.g.f.p.=.~ ~ r 7 : 8 #XtX[.[.zXtX+.aX}.dXt.6 4 4 4 6 6 g W A.(.).AX).).).).AXAX).).(./.k % @ @ @ o & W O.XXXX8X9XbXnXHXHXHXbXnXbXjXaXd.r % . O # 3 3 9 j Q.).(.AXAX).).AXAX).).qX(.F.W t y 6 g y p p F +XaXOXhXzXOX#.+.w.#XMXxXvXNXNXNXNXcXhXiXpXNXzXpXxXNXNXtXzXKXIXKXJXBXBXtXvXxXpXpXpXxXNXBXNXNXhX-X%X$X$X$XOXOXOX'.}.}.'.{.9.$.$.+.7.2.N 8 P I H I I m m m I I I +.U m #.+.m b b %.'.#.9.",
"; < : 2 ; e , b @.9.9.Y Y 9.{.%.U 7.{.%.U U %.`._.+.m I U m m m m n n b 8 8 8 *.~ *.~ ~ [ ~ ~ ~ ~ F ~ L &.y.4X<X+X.X] r { y.s.f.f.g.g.f.p.=.~ F r 7 7 8 tXyX[.[.zXtX+.tXw.dX&.9 2 & 4 4 W h h x.!.qXAX).SX).AXSXAX).).).).k.@ # @ . = V O.{.<X8XrXbXrXeXeX>XL.>X,XeXbXgX8Xe.6 = # X + 4 6 } Q.).AX(.AX(.).AX).).).).!.A.E 6 V g g g R i L +X=XOXjXzXOX+.+.%.#XzXcXvXNXNXMXvXzXkXkXxXvXvXNXNXNXBXjXmXIXUXIXIXKXBXtXNXzXzXpXpXcXNXBXMXvXzXiXaXtXtX*XoX*XOX X9.XX}.{.{.9.{.w.2.M > A Y Y Y Y U I m $.U $.%.O.U %.U #.+.I m #.OX'.'.",
": : 2 : : w , N 3.9.9.Y I {.{.{.7.`.{.|.`.U U #.%.#.U U U m m H I m m v 7 > 7 D ~ ' *.) ( ~ ~ ! *.*.~ ' *.5..X.X>X>X&.V 4.y.s.f.g.g.f.f.p.=.~ F p 9 : r #XiXyX[.aX#Xm aX#XdXq.9 < 2 6 6 W W W W !.).).SX).AX).!.AXAXSXAX).Q.s # @ # h E ` .. X@XrXrX8XO.c c W O.6.i.8XjXrX9X] 4 $ # # < V x.^.qX(.AXAXAX).AXSX).).qXK. .W V 6 g t g i y J +X7X#XzXzXoX%.#.9.#XMXNXvXNXBXNXvXcXzXiXzXMXMXBXBXBXJXmXJXUXUXUXIXIXBXdXBXNXzXxXxXcXvXBXBXzX$X'.|.9.{.{.XXY n v v n A 9.XX@.+.P 8 : > T Y Y Y $.{.U I %.%.%.`.`.`.{.U #.+.+.m +.OXOX].",
"< ; ; = : : : V o.7.9.I U {.`.Y %.U {.|.`.%.%.'.|.+.I I m m m I m n b 8 8 > : ; u D C u w w 7 w r r 8 u S F 4.g.,Xg.o.N ] r.r.s.f.f.s.f.p.&.F F p 7 9 r tXtX[.[.zXtXL aXe.dX&.9 6 < 4 R W W A.!.C.).AX).).).).SX).).).).).).V.% # 4 l & o & - ] >XrXeXXXO.i.XXeXbXeX<XrXrXrX.XE q 3 $ < 6 V.0X).qX(.qX(.AX).qX).qX(.A.W E Z R V y y R i *.+X=X#XzXzX|.#.+.%.#XMXzXvXBXBXNXMXcXcXzXMXNXMXBXJXBXJXmXKXUXUXUXUXIXJXzXJXBXzXxXkXxXNXBXBXMX-X#.G S b I =X@X3.I S : , 9.-X$.7 , : r P Y Y 7.U $.%.Y m Y I m #.`.`.%.`.%.#.#.m #.OX$XoX",
"; ; 1 : : 2 2 , n P I I O.}.{.{.`.U |.OX|.`.`.|.].#.#.U U U U H m m m n v > M ; o = 9 ; ; ; 9 2 w 9 w ! r 7 e o..X>X{ N _ =.J y.f.f.f.s.t.*.D D p : ; r tXtXtX[.zXtX+.tXtXdX&.9 < 4 < R ..A.qX!.C.qX!.qX).).AX!.).(.).(.)././.k.% h h 6 W W 6 6 O.nXnXrX>XO.O.O.>XeXrXrXjXrX<X6.` 6 1 4 g !.).SXAXAXqXAXqX).AXAXAXqX!...E W W R g R R R =.+X=X#XzXzXOX%.#.9.#XmXNXNXBXBXBXNXvXcXcXzXBXMXBXBXLXLXmXKXUXUXUXUXIXKXmXBXBXzXxXxXcXvXNXNXcXzXtX7Xw.b Y @X|.}.9.T , , +.*XOXN w 7 N 2.7.Y `.7.%.%.H > b G n U '.'.`.`.9.#.+.+.+.OX=X%X",
"5 5 5 5 w 2 : w B 2.Y m U 9.{.{.`.{.oX*X$X'.`.|.].#.%.%.U %.U U U Y Y n n v A Z ; 9 u u u u u w w i ~ =.r.{ { _ S r.F V Z / 6 ' r.p.f.p.>.L ( D w ; ; b tXtXtXtXzXaX+.#X#.dX*.9 4 6 4 g ..A.qXQ.V.!.qXAX).qXAXSX).(.!.!.!.!.!.Q.f W W W ` O.W & O.rXHXrXXXO.O.W O.8.8XjXlXrX9XXXi.o.V c x.0XAX!.qX(.SX).qX).).qXqXqX!.!.` ` ` E V g g V { ,XtX#XzXzX|.#.%.9.#XBXMXNXBXBXBXNXcXzXzXvXBXmXBXJXJXIXGXLXUXUXUXUXIXKXdXJXBXcXxXxXcXvXvXNXzXzXgXgX*XI {.o.Y }.{.@.e > Y $X=XT e w 8 P 9.`.`.%.`.{.U b m n U '.].|.].'.'.'.`.#.#.OX-X$X",
"2 2 : : : : w : N O.8.9.7.Y `.{.`.|.%X-X$X].].$XOX_.`.`.`.`.`._.{.`.U I b b 6 C p p p i C Q C i i F ~ *.&.r.g.f.{ J r 5 2 : = ; w i [ ~ D r p r 9 ; 7 b tXtXtXtXgXtX+.aXw.zX&.7 4 2 6 E W K.qX!.C.SXqXqXqXAX).qXqX).SX!.).).!.).K.x...c V c W c O.nXnXrXrXXXXX>XeX9XnXnXnXjXgX*X@X>X8XXXL.0X0XSX(.qX).qXqXSXqXSXqX).SXqXA. .W g t V g V &.XXaX=XzXzX|.%.$.`.#XmXMXNXBXBXNXmXNXzXcXvXBXMXBXJXJXIXmXKXUXUXUXIXIXJXzXJXBXzXxXhXpXxXNXBXzXhX@X|.:X}.{.A O.|.|.9.e > +.OX=XOXJ e w N O.{.`.`.`.`.Y c H H `.oX$XoX$XoX|.].|.'.#.#.'._.",
"2 2 5 w w w u 6 A Y O.O.8.8.{.}.|.|.-X:X%X$X|.%X$X_._.'.'.'.`._.].'.U Y b A e Z F ~ ~ D i D Q p D Q C Q ' { >X>Xi.s._ w w 2 ; = = = ; *.' D p w 9 * * b tXtXtX[.zXtX#.tXtXdX&.9 2 2 4 W ..^.).K.x./.SX).qXqXAXqXSXqX).SXqXqXSXqXqXK...6 W O.O.c XXnXnXrXnXeXeXeXrXjXnXMXnXlXlXrXrXrXrX:XeXqXSX!.qX).).qX).qXqX).qX!.qX0X!...W y t 6 g y &.+X9X=XbXzX|.%.$.`.OXMXMXMXNXBXBXNXNXcXzXMXBXMXBXJXKXKXdXJXUXUXUXIXKXJXaXBXNXzXxXzXxXcXNXBXjXyX|.`.-X}.{.U {.oX'. XH v T {.|.@Xo.r e 8 Y |.'.].].].U n b O.`.oX$X%X%X$X|.oX].]._.#.].*X",
": 2 2 2 2 5 : V O.8.{.9.9.{.}.|.|.oX-X:X:X[.[.%X%X'.].].].].].`.].].`.U m G 8 V D ~ ~ F r N C D i C D C C ' g.,Xi.f.r.' F Q ! Q ! ~ D >.*.~ r 7 9 + : b tXyXtXtXzXtX+.aXg.zX&.9 4 2 6 R x.^.C.k.j.x.!.qXSXqXqXqXSXqXqXSXqXSXqXqXSXqXO.A o.O.O.O.eXHXnXHXnXnXnXnXnXHXHXHXnXlXlXjXjXlXnXrXeX0X0XqXfX).qXqXqX0XqXqX0XSXqXqX0X<.W E 6 g V y =.+X=X=XzXzX].%.U }.OXMXBXNXzXNXBXBXMXzXcXvXBXMXmXBXBXJXsXmXIXLXLXIXKXBXaXNXNXxXxXpXxXvXNXBXsX*X}.-X*XU `.{.|.|.|.XX9.+.9.9.%.|.$.B w 8 O.oXoX$X%X*X_.n n O.oX*X&X;X&X%X$X[.$X|.$X-XyXhX",
"; ; = = = = : C Y 9.XXXX{.$.9.`.{.|.&XuXrX;X%X:X%X].oXoXoXoXoX].oX|.U U Y Y e C F ' ' F F ! ' ~ D N D D C S s.,Xg.g.y.Z C J F _ _ _ =.r.[ Q u w ; + : S tXhXyX[.pXtX+.tX#XaX&.7 9 9 t W z.V.k.j.z x n.E.).qXqXqXqX0XSX!.0XSX0XSX0X0XO.XXXXeXXXO.rXnXnXnXnXnXnXnXHXHXJXMXMXlXrXlXrX%XrXnXeX0XSXwXwXqXwXqXqXwXqXqX0XSXqXqXqXL...W y g i i &.+XtX#XzXzX].`.#.9.#XmXMXMXNXMXBXNXNXcXcXMXBXcXvXBXBXMXtXzXBXJXBXJXBXzXtXNXNXhXxXpXxXxXBXBXzX#.}.=X%.m }.`.|.%.%.|.OX'.7.H +.}.9.K w 7 9.*X%X%X:X:XoXU U U `.oXuX:X:X:X;X%X%X$X%X:XkXkX",
"o + = + ; ; 6 ] 3.O.O.9.}.{.|.|.'.oX%X;X;X%X;X:X;XoXoXoXoXoXoX].oX|.U U O.Y v C F ' ' F _ ' ' ' ' F ~ F F J y.<X X>X6.Z J ] J ] Z A [ ~ e 7 u r r ; 7 m tXhXyX[.pXtX+.aXw.zX&.7 9 9 w g | k.j.k.z z k.v.K.qXqXqX0XSXqX0X0XSXSX0X0X!.i.XXrXeXXXO.eXnXHXnXHXrXrXrXHXHXJXJXHXnXlXkXnXrXrXbXeXwXwXwXwXwXSXwXwXSXwXqXqXwXwXqXwXF. .E y i i C &.+X=X=XzXzX].`.%.%.OXMXBXNXBXBXBXBXvXcXxXvXNXzXcXvXvXvXtXyXNXNXNXNXBXzXtXcXpXiXxXpXpXNXNXBXhXOXOX].%.#.`.`.%.@.I XX|.$.I H H $.$.3.B 7 {.&X;X;X:X:XoXU `.U XXoXrX:X:X:X;X%X%X$X%XhXlXxX",
"+ = = = : : , J 7.}.9.$.XX|.OX|.|.%X%X%X:X;X[.;X%XoXoXoX%X[.oXoX$X].m U '.`.B C F ! ' ' _ ! F ' ' ' F F ' ' d.,Xg.d.r.S _ 4.] ] F { ' S V i r D r ; : I aXhXtXyXzXtX#.aX#XaX&.7 9 9 9 h z k.z z z v.z z k.C.(.qX0XSXqXqX0X0X0XSXSX0X>XeXrXrX`.O.eXHXHXnXHXrXrX%XrXHXHXHXMXnXlXrXnXlXjXbXwXSXSXwXqXqXqXwXwXwXwXwXwXwXwX0X0XA.` g R 6 i i &.#X=X=XzXzX].#.%.e.|.mXBXNXBXBXMXNXvXcXzXxXNXxXkXvXxXxXtXtXNXxXxXNXcXiXtXpXpXiXxXpXxXxXNXNXzX-XoXOX].`.`.`.%.$.Y #X|.{.+.3.H 7.9.8.J 8 {.:X:X:X:XrX;X#._.U O.].gXuXuXuX:X;X;X%X%XyXuX;X",
"= = = = = ; : K 7.XX{.$.@X|.*X*X%X:X;X:X:X;X%X;XoXoX%X%X%X%X%XoX[.].m #.oXXXA F F L ' ' ' F S F F ' F F ' ' g.<X.X.Xy.J J X.] A _ o.{ N F ~ D D 7 ; 7 +.tXhXtX[.hXaX+.tXe.aX&.9 ; 9 q f z z z z z z z z k.k.C.^.0X0XqXwXSX0XSXeX0X0X>XXXrXXXO.O.eXnXrXrX8XrXrXeX%XrXnXMXnXlXlXlXlXnXnXdXeXwXwXqXwXwXwXSXwXwXwXwXwXwXwX0X0XA.W R R R r r >.+X=X=XzXzX'.%.#.'.}.mXMXMXNXBXNXMXcXcXkXxXvXkXyXiX;X;X].tXyXtXtXtXtX%X_.tXtXiXxXpXpXxXvXNXcX$X].].|.'.`.%.$.%.%.9.{.}.%.$.7.%.`.7.J V `.rX:XuXkXkX;X%XrX`.c XXhXhXuXuX:X:X;X&X%X[.%X%X",
": : : = 2 = , L %.*XXX9.XXoXoX*X-X:X:XpXkX:X:X:X%X[.;X:X;X:X;X%X|.m 8 b %.#XL S ~ ' ' ] [ F F ' F ' F ' ] L g.,Xg.g.r.J S K 4.L { ] N ' =.D D D r : : +.tXpX;X;XzXtX#.aX%.aX&.; 9 9 u k z z k z z k z z z z k.K.0X0XSX0X0XSXSX!.SX0XXXO.XXO.O.c W O.XXO.eXnXHXrXXXXXrXrXlXlXkXrXlXMXnXeXwXwXwXwXwXwXwXwXwXwXwX0X0X0XwX0X0XA...R 6 g y V 4.+X*X=XjXhX'.%.$.`.}.zXMXNXzXNXNXvXvXxXhXxXvXpX[.].].].[.tXtXtX#XtXtX#XtX[.].tXxXpXpXxXvXNXiX].|.].|.'.%.$.{.{.Y $.}.{.%.%.9.`.}.3.Z C I %X:X;X:X:X&XyX:XI 8 H $XuXyX;X;X;XoXoXoX%X&X:X",
"2 2 2 = = = 5 P O.XXXX$.@XOX|.%X:XgX:XuXkXkXpXrX;X;X:X:X:X:X:XoXU n n b m $.L D F J ' ' ] F F ' ' ' S F ' ] g.,X X X6.S J ] X.] 4.&.B 5.=.! r r 7 ; 7 7.tXpX;X;XzXtXI aX#XdX&.; 2 9 h k k k k k z k d k k z k.n.!.!.0X0X0X!.0X0X!.0X>XO.O.O.c c 6 c O.XXeXbXnXeXrX{.rXrXrXlXrX:XrXnXeXwXwXwXwXwXwXwXwXwXwXwXwXwXwX0XqXqXQ.V.m.E g 6 t R &.#XtX#XzXsX'.%.%.`.'.sXzXNXzXNXMXNXcXhXiXxXiX[.oXoX]._.e.aXaX#X#Xg. X#Xw.'._.[.yXiXpXxXvXvXyX].'.].|.`.#.9.%.I @.{.%.%.%.9.%.}.}.T N F I -XuXhXpXhXhX-XU n b n U OXyXuX;X;X%X%X%X&X:XhX",
"w w 2 < = = 6 L Y *XXXO.*X*X*X*X:XhX:XkXxXkXrXpX%X%X:X:X:X:X-X%.+.9.|.}.+.+.n D ~ J ' &.{ F J ' ' ' F ' J &..X,Xg.g.5.N ' ] _ 2.2.] ' a.=.F N p r ; 7 w.tXxX;X;XzXaX+.tX#.aX*.9 9 h l k k z k d d k k k l j.z -.!.0X0X0X0XSX0X0XeX0X>XW O.c c c c O.XXeXeXeXeXO.XXXXrXrXhXlXhX*X<XeXwXwXwXeXwXwXwXwXwXwXwXwXwXwX0XwX0XC.x.l.| W i t y V 4.+X=X*XhXhX'.#.%.%.9.tXzXNXNXBXNXMXxXpXuXpXyX].U U U m n n b b 8 b b b b m #.#.tXiXxXpXvXvX-X|.'.|.}.`.$.9.$.$.9.`.%.$.}.}.{.9.+.+.J S U :XkXxXkXxXhX'.$.}.U }.%.#.&XhXuX:X;X;X:X:X:XkX",
"w w w < = * e P 9.XX|.{.*X*X*X*X:XgXhXkXvXkXkXpX;X;X:XkX:XrX:X#.%.'.'._.+.#.L ~ ' &.&.*.&.F ' ] *.J F S ~ &.g.+X X+X6.S ] 2.A ] 4.] &.p.>.' D i 7 7 8 w.tXxXyXyXhXtX%.aXtXaX*.; 4 g x k f f k f s k k f k l x x A.SX0XwX0X0XeXSXwXwXeXO.O.c c c W O.eXbXnXHXnXeXeXrXrXrXrXhXrXgXeXeXwXwXwXwXwXwXwXeXwXwXeXwX0XwXwX(.V.x.l.l.z.| E g V V 2.+X*X#XhXgX'.%.+.9.'.aXMXzXNXMXvXvXxXiXuXpXxXxX%X_.U U I m m G m S m m I #.[.pXiXpXxXpXxXxX-X].].|.{.$.U $.%.$.%.9.@.%.XXOX{.Y U 8.J F U rXxXxXxXxXhX_.|.OX#.|.OX`.%XhXpXuX:X:X:X:XuXkX",
"9 w 9 ; * ; e P $.OX{.{.*X*X*X%XrXhXkXvXvXkXxXkX;X;X:XkXrX:X;X_.#._.].}.#.+.S S ' &.&.] ' J ' ' L J F F ~ ] s.+X+X+Xq.' X.2.J ] 6.g.p.y.r.~ D p 7 : 8 '.tXpXyX[.zXtX#.#XOXdX&.: 2 t l f k k s k z f d f f z l x x.0XwXwXwXwXwXwXSXSXeXO.O.O.c 6 O.eXHXLXHXHXbXnXrXrXrX:XrX:X:XlXdXwX0XwXeXwXeXwXeXwXwXeXwXwXwXwX0Xx.x.l.k.l.l.| g 6 r V &..X=X*XhXgX'.U U %.'.*XzXNXcXNXMXcXzXiXuXiXpXxXpX[._.'.U 7.$.O.8.O.{.U #.#.yXxXpXuXpXiXxXkX&X_.U {.|.$.9.Y U 7.@.U $.%.}.}.$.m 8.}.K F +.gXxXvXvXvXhX`.'.'.#.'.]._.OXpXkXkX:X:X:X:XkXxX",
"2 w 7 ; ; ; e K $.@X}.{.9X-X%XrX:XkXkXvXvXkXlXkX:X:XpXpXpXpX].`.[.yXiXtX|.#.m r ' &.{ { ' ! ] J *.' S F F L g.g.d.+X6.L P 4.S P 2.p.a.p.=.~ D p r : n |.tXpXtXyXhXtX%.aX'.sX&.9 4 h k f f f s s f f 0 d f f k k x.wXeXwXeXwXwXwXeXeXeX0XO.i.O.o.O.eXSXbXeXeXeXHXHXrXrX:X:XrX:XlXsX0X0XwXeXwX0XwXwXeXwXeXwXeXwX0XV.l.z.l.k.k.k.^ R t y r &.@X-X*XgXgX'.$.Y `.}.OXzXMXvXMXzXvXzXiX;XuXpXpXuX].].'.%.{.{.{.}.{.XXU 9.].yXpXpX;XpXiXpXpX%X_._.{.}.U 9.Y 9.@.I $.9.$.+.@.H n 3.9.P _ @.gXxXvXvXcX[.-XzXgXtXhXzXtX].iXxXkXpXpXpXpXkXvX",
"9 2 ; = ; ; 7 T 9.XXXX}.9XrX*X:XhXkXxXvXMXlXvXkX:X:XkXpXkXkX%X_.[.tXtX[._.OX7.N L &.&.' ' F ' _ &.' F F *.] g.+X+X,X6.&.P 2.B ] ] A 4.u.=.F p r 7 : L }.tXpXyXyXhXtX#.tXOXaX&.; 5 g f s s s s s 0 a s s s f z j A.wX0XwX0X0XwXeXwXeXwXeXO.O.O.O.XXeXrXnXrXnXrXHXrXrXrXrXrX%XrXlXsXwX0XwXwXeX0XeXeXeX0X0XeXwX0XL.x.| l.k.x x | | | g y i &.}.=X*XhXtX'.U I %.}.].zXvXzXNXvXxXhXyX;XuXiXpXuX_._._.U I T O.O.7.O.U '.'.iXiXuX;XiXiXkX:XoX].`.{.$.Y Y Y U I Y 8.3.I T +.P G G 7.X.&.@.jXvXvXBXvXtX&XiXyXOXtXyX[.tXpXxXkXkX:X:XkXxXvX",
"; ; ; = = = : 2.$.XX{.8.*X%XrXrXrXkXvXMXMXvXvXxX:X:XrXkXkXkX:X;XyXxXxXpXtXhX}.S J &.&.] ' J L J &.' F S L &.,X+X X+X6.2.] 2.S S F J u.t.*.D N r 9 : I #XyXiX;X[.aXtX+.tX#XaX&.9 6 l f f 0 f d s d s f s d f 0 z A.0XeX0X!.C.0X0XwXwXwXeXeXO.c W O.XXXXeXeXrXnXrXlXrXrXrX$X%XrXlXeXeXwXwX0XwXwX0XwX0X0XeX0X0X0XA.l.l.k.l x x x | W i y y &. X=X=XjX-X`.$.I %.}.].zXzXvXcXzXzXiXyX[.;XuXuXuX[._.#.Y n b b n H A U #.[.iXiXiX;XuXuXuX:X].U Y $.Y H H $.9.3.+.H T Y 7.+.n G Y e.L ' 7.cXvXBXNXNXpXiXNXNXiXNXNXhXpXxXxXxXpX:XpXkXvXvX",
"+ = ; $ = = : P $.7.T 7.}.oX*X'.%XkXkXMXBXMXvXxX:X:XkXxXxXlXkXpXxXBXBXNXhXMX#XS L &.&.] ' ' L ' ' ' J F L &.g.,X+X,X0.&.&.&.N N N J f.r.[ D D r : : N +.tXyXyXtXhXtX+.tX9.aX2.w g ( f f d s d 0 s s k k s k k | !.wX0Xx.x k.V.0XeX0XeX0XeXL.` W c O.O.O.XX%XrXnXrXrXrXoX'.:XrXlXrXwXeXeX0X0X0XeXeX0X0X0X5X0X0Xx.l.| l | x ^ l | / R i u &. X*X=XgXtX`.Y +.%.9.+XgXcXcXxXzXiXyX-X[.[.;X&X;X&X].U m b c > 6 c v U %X;XuX:XiXuX;X;X:X%X%.O.$.$.@.o.H 7.8.O.K A T T 3.G n 3.w.3.J L {.cXBXNXBXNXvXvXJXBXNXBXBXNXvXxXxXxXkX:X:XxXvXvX",
"; : ; 9 2 2 , 2. X}.I }.@X*X$X`.oX;XpXvXBXBXNXvXkX:XkXxXvXvXlXvXBXIXIXIXMXBX1XS ' L P ' ' ' ] ' J ] F F ' &.+X+X+X+X6.' L K N b S 4.p.r.' ! p r : 7 S I ].tX[.&XhXtX+.#X}.sX2.r g -.k s s s 0 d d s s s s s k.x.L.0XA.l z k | K.0XeXeX0X0XeXA.W W O.{.XXeXrXrXHXnXrX*X`.XXrXlXrXeX>X0X0XeXeX0X0X0X0X0X0X2X0XL.| k.W l l l l l | ../ C i &.}.*X$XyX-X`.U T $.'.#.oXhXxXhXpXyX&X$X].oX[.[.[.[.[.].U b c 6 > c U |.;X;X;X;XuX[.;X;X:X|.U K @.Y Y Y T Y T H b G P ] P L P 5.3.K J P #XvXvXNXBXBXNXJXIXIXKXIXIXJXNXvXxXxXkXkXpXkXvXcX",
"7 9 : : 7 7 7 T {.XX.XXX=X-X7X*X:X:XuXvXMXvXxXkX:XpXxXcXvXvXMXBXLXUXUXIXKXLXdXG ] L S J J &.' ' J ' J F ' &.g.,X+X+X6.H S v M N ' s.p.r.' Q D 8 9 7 r 7.OX$X[.[.tXtX%.tX}.aX&.t g } j k d f d f f f k f k k j.| x.K.A.k k k l A.0XeX0XeX0XeX0XO.O.XXeXeXrXrXHXrXrX<X`.XXrXrXlXrX<XO.eX0X0X0X0X0X>X0X0XA.A.L.!.| l l l h l h l W ..W C i &.}.#X=XgX-X`.U I $.#X=X&XkXiXiXyXyX&XoX'._._.]._.].]._.'.Y v M 8 U ].[.[.[.%X;X;X[.[.[.oXU n A L G G H I m A v B B r V N B N b N N S &.sXvXNXBXBXBXJXIXUXUXIXUXUXLXJXvXvXxXpX:XpXlXxXvX",
"9 7 9 : ; 9 7 2. XXX@X9.*X*X*X%X-X:XhXvXMXvXkXkX:XkXlXvXvXvXMXJXIXUXUXUXIXIXdX2.&.] S S S ] ] ' ' ' J F J &.g.<X+X,X6.L ' N B N &.p.y.:.! D D e 7 : b 9.OXtXoX[.gXtXL tX|.aX2.6 R } f f z f f z k k f k f k l l.| x.x.l k k k V.0X0X0X0X0X0X0XO.c O.XXrXeXrX8XXX{.O.`.rXrXlXnXrX*X}.eX0X0X>X0X!.2X0XA.l.| x.A.| x l W l l l l W  .W C i &.w.OX$X:X-X%.I I +.=XtXgXiXyXyXtXtX$X}._._._._.].].].[.$X|.n n n `.].].oXoX[.$X[.].[.[.'.%.{.7.T I T 3.3.3.2.T ] B > 8 F ' S J G J S w.MXvXNXBXBXBXJXIXUXUXUXUXUXIXJXvXxXxXkXpXkXxXvXvX",
"w 7 : : : : > X.XX*X@XY XXOXOX=XrXyXhXcXvXvXkXxXpXkXxXvXvXvXvXJXLXUXUXUXKXJXdXw.q.&.L S S ' L J L &.*.F ' 2.g.<X.X,X6.K S B S J &.s.q.*.~ D p r : 7 P %.{.*X|.|.aXtX+.#X|.aX&.w C } W f k s l h s l h k k k k.k.k.l.l k k k.l x.2X0X!.0X0X0X0XD.W V O.O.O.O.O.c H O.*XrXrXlXlXrX%X9XsXeX3X0X^.2XL.^.x.l l | V.x.| ^ l l l l l ^  .! C V &. XOXOX:X*XY H H 8.XXaXzXiXyX-X%X$X].'.`.'.].].[.[.[.[.;X$XY c U |.].].'.].].|.'.'.#.U oX%X*X|.}.XX}.{.9.e.9.7.X.P L L ] +.L 2.7.q.&.7.cXNXBXBXJXBXBXIXUXUXIXIXUXIXBXNXvXvXkXpXpXxXvXvX",
"w 9 9 ; 2 9 , L {.OX@XY XX*XOX-X:XyXgXxXvXvXkXxXkX:XxXxXvXxXxXcXMXJXJXJXMXBXsXw.7.&.&.~ S ' &.] ~ &.&.F ' 2.g.,X+X+X6.G B Z J L 4.p.r.] ~ D r 7 7 8 w.#X@X@X.X7.tX#X#.#X}.aX&.w g ` ` ..h W <.W h A.| k f k k.x l z.k.k k k k x.!.!.L.L.L.!.L...c V c c c c c O.XXXXrXrXlXlXrXrX9X7X<XsX3X0X3X!.0XL...W W l | | ^ l l ^ l W W |  .W R i ] e.@X|.-XOXI A b H I OXyXyX:X%X$XOXOX].].OX[.&X;X;X;X;X;X;X{.Y oX%XoX'.`._.'.'.{.%.U }.oX|.`.%.U U U I I m T H K H H G G G H 2.@.+.P 7.tXNXNXBXBXBXBXJXIXIXJXIXLXJXNXvXvXxXkXpXpXxXvXvX",
"9 ; 2 ; : w , P XX@X@XY XX*X@X*X9X:XuXkXvXxXpXkXkXkXkXxXxXvXxXxXhXvXvXvXhXNXgX3.&.&.&.L F ' *.L ' J F L ] 5.,X+X+X.Xy.Z S S B B L y.&.' ~ S p 7 : 8  XXX}.OX}.8.#X|.+.#XOXaX] 6 R ` ..A.h W L.W h A.x.h f k l.k l l.l k z k k x.C.!.!.Q.!.!.m.R W c W c & c O.XX*X-XrXrXjXjXgXaX=X7X7X9X4X0X0X2X0XL.x.^ x x l W W l l R l ^ x ^  .! V y ]  XOX|.*X}.H B B H m #.$X-X&X%X$XOX$XOXOX[.[.&X;XuX;X;X;X;X%.Y oX;X[.oX].'.`.{.%.@.%.|.oX|.%.Y I I T K b H T I T H H B N G T +.+.&.+.8.}.cXBXBXBXBXvXNXBXBXzXBXBXNXxXvXvXxXkXuXpXxXxXxX",
"2 7 : ; : ; > ] XX*X*Xm XXOXOX*X-X:X:XkXxXxXpXkXkX:XrXkXlXkXkX:XyXpXpXpXyXiXtX+.&.&.L ~ S L ' *.&.' J J ' 6.+X<X,X.Xr.F J J J S G q.&.&.~ D r 9 : 7 2.e.+X@X9.{.d.e.+.#X%.7X] 5 g W W | l l x.W l | | l l k k.k.k k.k.k.l k.k.k.x.x.V.n.x.x.R & V c V c c O.XXXXrXrXrXrXjXjXgX=X|.*X7X*X8X>X2X2XL.A.} ^ h h g h h h h h h h h ^  .E V y &. XXXOXOX8.J B B 6. X#.'.$X-X$XOX$X$XOX[.&X[.[.;XyXyX;X;X:XoXU 9X;X%X[.oX|.'.%.%.@.%.'.].|.U U U @.T H K @.I G G G K G S S L P P 2.X.3.9.zXNXBXBXBXxXkXNXvXtXcXvXpXpXxXxXxXkXpX:XpXxXxX",
"u 9 : : : : > ]  X*X<Xm }.@X|.|.%X&XrXxXxXxXpXpXrX:X:XhXkXrX[.].$XyXgXgX[.].9.H P L &.' J ~ &.' ' L ' ' { 5..X,X.Xg.6.S B L K K 4.p.p.=.~ S r : - N G B T {.|.|. X3.7.@X}.7XL 9 h | l W l l l l | l l j.l l.j.l x k.k.l k.l x l k.x k.l l | h . < 6 c 6 A O.XX*X*XrXrXrXrXsX=XOX#X7X7X}.>XXX8X4X>X..{ ` g h h h h h h l h h h W ` W V e ]  X}.XX}.T K A G T @X{.`.oX%X*X$X%X=X-X-XtX%X%XyXyXyX;X;XyX-XOX:X:X&X[.$X$X].'.%.+.%.'.$X|.U @.$.Y T P T I I H H A J G N N B P T X.+.T %.zXvXNXMXvXuX:XhXiX&XtXiXtX[.iXxXlXkXpXpXpXxXxX",
"w w : ; 2 2 6 X.}.@X*XH XX@XXX*X*X:XhXvXvXkX:XrX:X;X:X:X:XkX;X#.U $.#.#.#.`.@.J *.J ] ] ' L F ' J ' J ' ] 4.g.<X Xd.r.J N ] J ] y.f.p.&.~ D r : : G w.3..XOX=X|. X0.s.OX}.aXJ w g W h s s s k s s s s s s s h l s s f s k k k f f k f k h } ^ X & 6 c c n O.XXoX*X*X9XrX9XOX7. X9X=X|.|.*X*X*X*X,Xt.y.A. .} W W l W W l W l W | { E i V ] e.@X|.{.s.o.T T P I %.{.$X*X$X=X=X-X-X&XyXyX:XyXuXyX;X;XyXyXyXuX:X%X%X%X%XOX'.%.Y #.].$X'.$.@.+.T I H I @.T P K G P K B v J 0.3.2.2.+.$.zXvXvXMXvX;X].'.9.#.'.]._.[.xXxXkXkXkX;XpXkXxX",
"w 7 2 : 5 2 6 o.XX*X@XY XX@X}.*X-X:X:XxXxXkX:X:X:X;X;X;XuXrX:X`.Y %.}.`.'.|.9.J ] ' L ] *.L ' &.' ' ' J ] s..X,X Xd.6.S N ] K J 5.y.y.=.F D 8 : : P 8.Y @X@X$X|. X0.w.@XOXaXJ w E W s s s s s s s s s s s s s s s s f s s s f s f f h l W { t.& o 6 c c c O.XXXX8XrX8X*XOX+X#X+X@X#X@X=X*X*X8X{.L _ r.4.t.t.a. .W W x W l j l W  .E V r &.e.|.XX0.3.0.] e.9.|.@X@X*X*X*X*X9X-X-XtXyXyXtX;XyXyX&X&X:XyXyXyX&X%X$X%X$XOX|.%.Y 9.$X$X}.$.I H H G G +.3.I P A G J J B A T 7.0.+.+.5.$.gXxXvXvXvXkXoXOX|.%.#XOX'.&XcXxXkXpX:X;XpXkXkX",
"w 9 : ; : : 6 K 8.@XXXK XX*XXX@X*X%XrXkXxXkX;X:X;X;X;X:X:X:X:X'.m G T H U }.7.J J ~ ' *.&.' L F ] ' *.' ] 0.,X,X.Xg.4.N N { N S q.q.>.*.~ S w : : N K 2.I }.|.%.%.3.3.OX}.aXJ 9 g | l h s k f f l s h l s k s k k k k l k k l l l | W E R _ O.g . 4 c V U O.XXXXXX*XXX>X1X#X<XOX=X@X9X9X=X8X{._ i ! R ! ! =.D.p.:./ ^ ^ ^ l R W { W y y &.e.}.}.0.3.K A 3.I %.*X@XOX*X=X-X9X9X:XtXgX-X-X-XtX-X&X%X-XyX-X-X=X%X%X*X%XOX|.`.%.'.$XoX|.%.I H H Y H H H K G B B A K J J T T +.T P +.I &XxXxXvXvXxX%X'.#.I %.%.].hXxXxXkXkX:X:XpXpXkX",
"9 9 ; ; 9 9 7 L i.@XXXK XX@XXX|.|.oX:XkXkXrX;X;X%X[.%X;X:X:X:X%X`.n > v `.:X}.L J _ ' ' &.&.J J J *.*.' ' 5.+X,X+Xs.&.J S 4.B B 4.r.=.*.S D 7 : : V X.T .X@X`.{.w.2.3.|.}.7X' 5 h W W l l l l l l l l l l l l l l l x l l k.l.W ` ..6 V V A X. .& & c A K O.`.{.}.#X9. X+XaX=X+X@XaXjXtX#X@X] i j i i i Q F _ 5.,X,Xr.) ^ l R ^ [ E V y &.e.}.}.9.5.B b T 7.U {.{.@X9X9XaX-XaX-XtXgXyX-X-X-X-X*X=X-X-XtX-X$XOXOX$X$X*XOX}.%.|.$XoXOX}.U Y T I A n H K H B G G K G G H X.3.@.T &.G =XxXkXxXxXxXpX'.n b n _.hXxXkXkXpXkX:X;X:XkXpX",
"9 9 2 2 9 9 w L O.{.d.A .XXX}.XXXX|.:XkXkX:X;X:X%XoX%X%X%X;X;X%X$X9.c m $XrX}.J ' ] ' ] &.*.F ' ' *.' ' J 4.+X,X+Xd.2.6.s.y.] 2.q.r.*.*.F D r : - 8 G J 5.0.Y 9.7.2.@. X|.7XJ w E | h f k f k f s l l l l k l s k l l l l W h R V 6 c V c Z K  .& c c O.O.U O.U }.#X X X#X=X+X#XjXmXaX=X7Xq.D r R i g p R _ i.0.6.4.=.:./ ^ W W { E i i ] w.e.OX8.X.J N G 7.}.7X}.*X-X9X9XtXtXaXaXyXsXaX-X=X*XOX$X=X=X-X-X#X*X*X$X#X$XOX}.9.'.oX|.*XU I Y +.P A H P K G A A G K K G T 2.L L P &.G *XkXpXkXxXkXkX:X`.c U :XkXpXpXpX;XpX:X;X:X:X:X",
": 2 ; ; < = : ' T X.K M d.XX}.XXXXoX;XrX:X:X%XrX%XoX*X%X%X%X%X$XoXXXI `.$X&X}.B ' ' ] *.&.' ' F &.' J ' &.3..X,X+Xf.5.y.s.s.s.y.q.p.=.F ~ F r 9 : 7 X.7.b o.9.7.0.3.+.XX{.7XL 5 R ..l k h l l l l l k | l l l l | l | ..x.i 6 R c 6 Z V 6 V A 4.c c n O.%.O.U U  X@X9.d.}.#XaXmXJXsX=X7X1X' i i r g g Q F y.6.] J X.d.d.6.W ^ | ..W y e ] 0.{.XX8.J S M M b X.9.@X*X-X9X-X-X9X-X-XtX=X=X*X=X*XOXOX*X*X*X*XOXOX=X=X#X#XOX|.9.'.].|.}.Y I I I H G G K H K A G B G G G X.G B S L L A *XuX:XpXpXpX:XuX*XU $XuX:X:XuX:X:X:X:X;X:X:XuX",
"9 ; : $ = 1 5 { t.i.o.B O..X X}.XX|.:X:X:X;X%X%XoX].$X%X%X%X%X$XoXoX`.|.$X&X|.e D F ~ *.r.4.&.*.*.~ ~ ' =.6.g.,X+Xs.4.6.s.s.5.&.5.r.=.*.' F p 7 : 6 3.@X X8.$.Y @X}.+.OX}.7XJ 6 V | W l l l l l l l l l l l x x.| A.A.u.6 - V Z c c A Z c N A X.K A U O.XXXXO.n }.@X9.e.#XaXmXBXsX=X#XaX5.p g g u ( Q ~ 5.s.2.S i.@X7X7X<Xd.{ [  .E y y ' 9.8.}. X] C Z V N B I |.%XaX-XaX9XtX9X=X=X=X=X=X#X#X|.OX#X*X*X@XOXOX#XOXOX#XOX}.9.'.|.|.`.H A n G S B H G G G J G J B N A K P L J L ] A *X:X;X:X:X;X;X:XoXU %X:X:X:X;X;X;X:X;X[.;X;X;X",
"2 2 2 = 1 ; 5 { t.i.i.` o..XXX X}.XX%X-X:X:X$X:XoX].oXoXoX$X$X|.].|.].oX%X-X|.7 r D D ' *.*.L &.=.F r F 4..X,X,X Xs.6.6.6.6.G L r.q.=.~ ~ ~ p 7 : , P @X@X}.9.}.*X|.Y @X|.7XG 5 V x.l l h l s l l l l l x l l | A.i.O.C & V _ K A K P J B A _ A O.{.XXXX8XXXO.H }.@X#XaXbXJXmXsX=X#X7X#XF j i u p ( Q *.s.w.S 5.<X7X=X#X7XaX4Xr.{ Z y e _ 0.{.}.}.i.J Z Z P 2.@.{.*X9XaXaXaXsX=X=X=X=X=X@X@X@X+X@X#XOX|.#X}.#XOXOX#X#XOX{.%.'.|.|.U H A A G B G S B G L G S B B S 2.+.P J J J K A }.-X|.$X;X%X%X%X$X'.*X%X%X%X%X%X%X%X$XoX%X:X%X",
"2 1 2 1 < 2 2 ` o.i.i.o.O.>X{.{.}.XX|.oX$X|.oX-XoX'.XXoX|.$XoX].'.|.oX$X%X-X}.M i u i D F ' ~ ~ *.! 7 r *.6..X+X+Xf.5.6.6.6.4.P 5.q.=.~ S D p 7 : w b +X7X}.$.#.9X|.$.|.}.7XJ 6 W W W s k h h l l h l | x l R u.8.8.8.6 : ` X._ ] o.d.2.Z J o.K i.*X9X*XrX*X%.Y 1X7XaXbXHXmXaX#X{.1X7Xs.D j j u p D F s.g.5.T +X#X@X7X9X8Xi.e t ..W y w _ 7.{.}.|.}.A B B P 3.7.#.=XaXyX-XOX-X9X9X=X=X7X#X@X#XOXOXOXOX XOX}.OX#X#X*X#X}.{.9.9.'.}.Y A A G K G G B B J L S v N C S &.S G J J J ' A e.OX|.oX%XoXoXoXoX|.|.oX|.|.].|.oXoX|.].oX%X[.",
"2 1 : < < 2 5 [ t.i.f.{ t. X8.8.{.*X|.$X-X$X$X%XXX{.|.oX|.|.|.'.}.|.|.OX$X$X}.B u w t u r D C D D r , w i ' s..Xd.y.&.q.6.q.s.&.q.p.*.S D F r 7 : : 7 +.@X9.%.].yX].U |.|.8XZ 6 V | l l W W W W l l l k.x h ^ i.3.8.5.: e y.O.o.X.e..XO.B ` o.o..X8XrXrX9XXXY <XaX#XsXmXbX=X}..X+X7Xd.~ j j g h j ( >.+Xe.+.+X#X=X7X#XaX3.& < + E W y w ! 8.9.}.XX}.m M 8 B T Y $.=XtX9X=X=X=X*X=X=X7X=X@X#X#X|.}.OX X|. X X#XOXOX#XOXOX X%.%.'.{.Y A H A G B S B b J B N B B B Z v N N S F G J J Y '.'.oX].`.|.oX|.].oXoX|.].|.oX|.OXoX'.*X$X$X",
"1 : 2 < 1 2 2 ` 4.t.i.o.O.i.i. X{.@XOXoX$X$XXX$X|.`.{.|.'.|.|.{.`.{.}.|.}.|.|.2.: = ; 2 9 w ; 9 9 9 w u 7 N P 5.L L L 4.6.y.s.p.y.q.q.~ D D r r : , v H 9.{.'.].yXOX+.OX{.7XW 6 W | W l W i.i.O.` h l | l W { 8.8. Xo.- _ 0. X3.o.8.{.O.A Z i.H.{.rXrXrXrXXX{.sXaXbXdXaX@X7X}.1X9X7X4.D ( j u u ( ~ g.#Xw.e.aXaX=X=XaX@X8XD.1 + g / t w J 0.{.}.OX}.I A 8 b 2.T %.=X=X|.$XsXaX-XaX7X7X7X#X#X+X X X#X X}.}.|.OX#XOX#X@X X}.9.9.%.{.H H A B S B b b S J N v B S B B M b S F F J L A 7.XX*X:X%XoX|.|.|.oX|.|.'.`.'.'.'.].|.`.oXoXoX",
"1 : < = 2 2 ; [ r.y.a.o.o.i.i.i.}.@X|.|.|.|.|.oXXXU {.|.}.'.}.%.$.%.%.9.%.`.{.2.D w r u u r j ~ D ( ~ ~ ' 4.p.g.5.4.&.6.q.s.s.s.r.q.r.*.~ D p r 7 7 &.@.9.OX].].yXOX#.OX}.1XS t R | g W i.XX%.{.O.` W x | ^ 5.7.9. XX.6 o.0.+X8.e.{.{.}.w.2.,X6X1X9X9XrX-XXX@XbXBXmXaXw.1XaX*XtXaXw.~ p ( j u p *.*.#XaXq.tXaXtXtXaXaXdXGXGXN.0 h Q t t _ 9.{.{.|.|.I n S S 7.9.|.=XsX=XOXsXaX-XaX-X7X1X#X#X+X X}. X}. X}. X}.+XOX#X#Xe.w.7.@.$.%.H m G G S N v 8 S S b Z S L B N S J J J L L &.J Y |.$X%X$X|.'.'.`.}.|.].`.`.}.].`.'.{.#.|.|.].",
"2 < 2 = = 2 2 / 4.t.t.o.` i.i.0.8.|.|.|.}.{.}.OX|.U {.{.'.{.`.$.I Y @.Y +.@.$.S D p i p i p ~ *.' *.r.r.4.y.g.+Xw.y.&.4.y.s.6.5.q.p.q.*.~ D S 7 9 7 L T }.-X]._.tX|.%.}.}.=XG u g } h O.XX}.{.{.XXO.W | j  .>X9.7.d.` 4.>X] .X XY {.}.}.}.8.1XdX8X9X9X-X9XOX9XsXdXaX#X#XaX=X=XaXaX*.( p j p u ( *.>.aX+X&.1XaXaXaXaXmXGXmXJXmX( g W y 6 _ {.}.`.OX|.I m G H 7.@X-X-X9XOXOX7X9X=X9X7X7X*X@X+X+XOX X+X X+X#X}.}.#X#X#X X}.e.%.$.#.9.+.G S G S N r N S S B J G S S B S L ] ' L L ] J H 9.`.|.|.}.{.%.%.%.`.'.{.$.{.{.}.{.{.U }.'.`.",
"< 2 < = = < 2 / t.t.i.{ ` i.0.8.7.XX|.'.`.{.`.|.{.Y Y {.{.%.%.I H H I I H +.L N i p i i r D F *.=.r.p.q.y.q.g.+Xw.w.&.&.4.6.5.4.>.5.r.=.~ D p r : 7 S +.$X-X_._.tX}.#.}.#XaXS w R / W i.}.{.XX$X*Xd.} | j u.+Xe.}.5.V ] o.J d.XX3.O.%.}. Xd.8X6X<X9XrXrX=X|.bXdXdXaXw.aX=X=Xd.+Xg.*.( j ( j p -.*.g.aXq.&.tX#X#XaXGXGXGXBXmXKX2XC W i 6 J {.}.}.OX|.U m m G G 9.{.|.}..X}.7X7X@X=X=X7X=X#X+X+X+X}.d. X}. X X}.}.+X}.}.9.9.$.+.$.7.H G S B b 8 N B S J B G J G S S J _ J S N r r 6 T 9.#.'.'.{.%.U Y Y %.9.U Y U `.`.`.9.O.{.{.`.",
"= 2 = < < : 2 ! ..i.A.` o.i.6.6.O.XX}.{.O.`.U {.{.U Y Y $.$.@.P n A T +.+.H L S D i r r D D *.>.&.r.y.s.y.f.<X+Xw.w.&.L 4.y.6.4.&.=.5.*.S D r : : ; &.|.&X&X_.].tX}.$.|.}.#XS w g | W O.XX{.*XnXjXXX` x ^ 2X<X%.}.6.V t.d. X.Xi.8.3.%.}.}. XdXmX8X8XrX-X$X#XmXmXmXtX+X=X=X9X@Xw.~ *.p j p ( ( ;.&.g.aX&.q.1XaXtXaXJXGXBXGXmXKXGXr./ y e L 7.%.}.OX].U n m L +.H @.%.}.9.w.1X1X#X7X<X*X1X#X+X X}. Xd.e.}. X#X#X#X X X Xw.$.+.Y $.%.H S N N N S S S J S N S G S S S S N V N N C e - n %.%.{.{.{.Y Y T Y Y U U I Y %.U %.Y U {.`.`.",
"2 < = < 1 1 2 / ..t.t.` ' i.y.5.Y 9.{.9.7.7.Y 9.%.m I +.@.+.+.H b B P P K K J F D D p u p ~ *.>.=.&.r.y.y.d.,X+X6.s.L N 4.y.y.6.5.5.5.*.D r 7 7 : ; G #X=X-X#._.tXe.+.}.}.<XA t V } W O.XX{.*XbXsX X .W | eX,X$.}.i., 4..X@Xs.O.d.}.OX#X}.d.dXmX8X9X9X9X|.rXmXBXbX@X@XtX=X9X#X+X*.-.p ( ( *.( *.>.aXg.L #XaXaXaXmXKXGXJXGXGXmXKX6X/ i w L $.%.}.OX|.+.n n +.$.+.9.|.*X@Xe.7X=X7X=X1X*X#X#X+X+X Xd.e.g.#X#X+X X XOX X X9.7.+.H +.$.L S r N N S J S S B N S S S B S N r r r F ' Q 7 B I %.{.Y Y I T T I T Y Y I o.$.$.%.O.U {.U `.",
"4 2 1 1 = < 2 ( t.y.t.[ { y.6.5.T 3.e.3.Y Y I @.Y A H T Y Y T n 8 v A J G K J D D p D r i N ~ &.5.=.4.a.r.q.<X+Xw.w.L C 4.q.6.y.r.q.r.*.F N r 7 : * b ].%X-X_.'.tX'.#.}.OX7XZ t R / W ..O.{.}.oX@X}.o.W [ fX+X7.7.K : ] e. Xd.d.8.{.OX|.+.+XdX2X8X8XrX9X@XsXsXGXaX{.@XaX=X#X1X4.*.( p ( ( ( -.*.~ aXtX+.g.w.aXdXGXGXmXKXJXmXmXKXGX:.t 6 L 7.$.9.OX}.I n m +.#.+.}.=XOX X9.1X1X#X<X#X#X+X+X X}.g.e.+Xe.w.e.e.e. X X Xe.7.$.+.m +.$.P b 8 r S S S N N N B N S B B N v r N N S F Q e B H +.Y T I H H G H Y Y Y H I Y Y U Y U Y {.U ",
"4 1 1 + = 1 2 ^ O.A.u.` C ] X.o.K X.T T Y I H H T b A H L H K N 6 8 N N N B Z V D p D F ~ S S &.q.r.r.r.4.4.+X+Xw.w.' S 2.i.5.5.q.y.p.=.~ D r r : * 8 9.*X&X_._.-X}.$.}.}.#XZ w R / W O.O.O.{.{.{.}.o.W :.fX3XT X.Z = 4..X.X0.5.o.e.OX}.w.1XmXaX7XaX9X*X7XaXdXmX7Xd..X=X7X=Xw.Q >.j ( p -.( -.*.q.,Xq.q.tXaX#XdXGXGXGXKXJXGXmXBXGXI.i w J 7.$.}.|.}.I n m +.#.#.`.OXOX9.9.<X@X<X#X#X+X#X+Xe.e.e.e.g.w.e.e. Xd.+X+Xe.9.+.7.G m +.@.+.N F J ' F S N N N N S S S N N S F F J F F D e N A I Y I A A A A H I K H A H T I I I m Y Y Y ",
"= $ 1 + + = ; g / ` [ / Z Z Z Z P 4.O.T T A n S A e 8 M v N N > , , > w 6 e r r i D D D D *.*.&.=.4.&.4.4.&.f.+Xw.w.L J 4.6.6.6.4.r.p.5.*.F D r : * 7 w.$X=X_.#.=X}.+.}.}.*XB t R / ` O.o.Y O.O.8.O...` p.dX5X] _ e i >X3.o.] y.i.0.d.+XXX1XGXmXaX9X9X@X9XbXGXbX<X@X.X@X7X+X~ } ;.p ( ( -.( *.*.g.tXq.&.q.tXaXGXGXGXmXIXGXmXmXmXGX6XV w S 3.%.{.].}.+.n n +.+.+.}.@X@X@Xw.<X@X7X#X+X+X X+X+Xg.w.w.w.w.g.d.d.e.}.e.w.9.7.@.m n I +.2.L S F S S S N B N N C F S N N N S S F S D N e e v B b c v b b v v N V n b n H I Y H A H n A ",
"$ + + + + + < g W ! _ { A.t.i.i.i. X0.X.X.K N b B 8 N N S N N 8 > 6 e r r N V V r F D D r r ~ ' *.r.4.r.f.4.g.+Xw.d.L L 5.w.s.q.q.p.s.r.=.F D r 9 * 7 #.OX=X#._.=X9.#.e.'.#XZ 5 W W W W A ` ` o.o.o.` ` Z.dX5X{ Z 6 W  X.X4.{ i.O.0.+X.X.X8XaXaXsX9X9X@XjXdXmXaX@X<X@X<Xq.q.D *.-.p ( ( -.( *.*.+X X&.T +X#XaXKXGXGXGXKXKXmXmXdXGXfXr 8 F +.7.e.OX'.U m m I +.%.%.XX#Xe.3.+X<X#X+X+X+X+Xw. X Xd.g.w.g.e.w.w.d.w.d.e.7.+.2.P G H T +.H S S S S S S F Z N J F B N r 8 N S S i S D r , 8 L A A N M M v v M B B G A A H K A B G T K ",
"9 1 $ $ $ = 4 / t.:...{ f.H.H.a.i.e.O.T P K B b N N B Z S N S N w 8 r V M N N C F F ~ ~ D D ~ &.=.4.q.s.s.2.w.+Xe.e.&.] 5.s.s.s.q.f.f.p.=.*.F p 7 ; 7 +.OX$X_.#.=X'.+.9. X<XB t W ..W W W V A W E ` W / a.dX6Xr.i = C 6.6.Z i.i.i..X@X X+XdXdX1XaXsX*X<XaX1XmXaX@XXX@X1Xg.*.( >.( p p ( ( ( ( >.+X X&.L 9.+XsXKXdXmXKXIXKXmXmXdXmXdX~ r F +.@.}.|.].m m n +.I @.%.$.9.3.2.+X@X+X+X+X@X+X+X+Xd.d.q.d.q.w.w.w.w.w.d.e.7.@.L n m H P L S S S D S S S S B F ' F B Z N i N i D N D D 7 r b L P H A v b M M A G H K P K A v M v A T I ",
"2 $ $ 1 $ ; 2 ( ..{ { { A.H.i.i.5.i.3.H K G B N N v B S B N N V 8 e e 8 r N r N *.J F F ~ F N L *.&.4.y.y.2.q.+Xe.d.2.J 4.d.d.y.y.f.f.a.r.*.F D 7 : 7 +.OX$X#.#.=X9.$.9.e.#XN 6 V ..W V c c W c 4 g W ` f.,X6Xy.r o R g.Z 4..Xd.i.@X+Xd.@XdXHXdX9X9XOX7XaXmXbX1X}..X7X1Xq.( ( ;.p j p -.( ( *.&.+Xq.' 6.w. XdXJXGXmXKXKXKXzXzXdXmXmX=.w J @.+.{.}.'.m m n +.U %.U Y $.T G s.<X+X+X+X+X+X+Xg. Xd.g.q.g.g.g.w.w.d.w.w.0.+.L b H I +.H S S L F S S S _ J S J S F F D N r N r w *.D r N b J G A B M M B b A G G G H H A N v > N K H ",
"9 $ 1 1 $ + = ^ t... . .A.D.A.O.4.0.4.J A A B v N v N S N N V e > e e e e r r S F *.~ D D D S ~ F L =.y.g.4.w.d.e. X&.G 6.d.s.q.q.g.f.s.q.*.~ D u ; , m OX$X%.#.*X9.U 9.9.+XM 6 W W W W 4 4 V 6 < 6 g ` >Xd.fXr.V o 4 / o.0. X8. X@X@X0.@XmXKXdX8X9X#XaXmXGXaX@Xi.@X7X#XL u -.-.( u p -.( p ( &.#Xg.J +.%.}.dXmXGXGXGXKXGXdXdXmXdXmXp.9 F 3.@.e.|.}.I n n I U +.%. X0.7.] B g.<X+X+X+X+X+Xd.+Xd.d.w.w.w.w.w.q.w.w.w.q.@.P S G H P G B F F L F F ' ` J S S F F F S S N p r D ~ p 7 r N N b N M M M 8 N B m G n A A A N e > M J m ",
"2 ; 1 1 $ + ; ^ t.<...[ i.t.A.O.4.y.o.J G S B 8 8 8 N B N N 8 7 , e 6 e r r M D ~ ~ ~ ~ L ~ D L S D ' p.y.2.s. X}. X5.&.q.w.w.q.6.s.g.f.y.*.' F r : 7 m |.OX#.#.#X`.U 9.}.XXV 6 V W W h 4 < 6 6 # 4 h ` P.3.aXr.R & o 5 y.w. X3.e.XXo.8.<XGXKXdXsX7X@XsXdXmX7X@X3.{.<Xw.p p *.( j 0 j ( j j ( &.g.q.~ +.+.e.aXaXGXmXJXKXGXdXdXmXbXmXJ.9 D T +.w.}.}.+.n m H +.+.Y 3.3.0.] M S g.g.+X.X.Xg.g.g.g.g.q.3.q.q.w.q.w.7.w.w.3.P S S m H S S F ' F F F F ' Z N F J ' S D S F D F ~ p 7 9 r 8 N v v M c > v > M B B b B B N r w , M A B ",
"2 $ 9 $ = = 1 ^ <.t... .A.A.A.t.t.y.4.J G S b 8 8 8 r N N N r , = e w 6 w u e V ~ L ' ' *.~ r F S D ! ] 6.5.0. Xe.d.6.5.w.g.s.q.5.f.g.f.p.*.F F r ; : m }.OX#.%.#X9.+.9.{.>XV 6 V W h 6 4 < 6 4 $ < h O.+X6.I.g.C < X 4 :.P 8.7.e.+X.X{.<XmX6XaXaX<X<X@X<XdX1XXXi.i.@X=.9 h -.*.p 0 ( ( 0 ( p &.g.q.' 7.+.w.#XaXmXmXKXIXdXaXdXmXsXmX2X7 F +.H 9.}.}.m n G I +.I Y 8.8.0.3.' S P 5.r.6.4.2.4.2.4.+.+.s.w.w.d.q.7.3.6.6.&.L n b S H S S J J D r p D N r r C S ' J J D N r : : w u w r 7 8 v 8 8 > 6 8 > v v N M v > > > , , 6 A b ",
"1 9 1 $ 1 1 1 ^ M...<./ ..A.t.{ :.4.4.J J S N 8 7 7 8 N N V e w * w e e r r 7 p L ~ &.' ~ ~ F D ~ ' *.F q.6.w.+X Xd.6.3.s.g.w.2.q.f.f.f.p.&.*.F r ; 7 n e.OX#.#.@X%.+.7.9.XXV 6 6 W h 6 < & 6 4 $ $ 6 t.g.+X2.,XZ 1 X t ` i.}.}.{. X Xe.1XGXdX,X7XXX<X+XaXaX+XXXe.8.,X! 9 p -.-.u u ( j u j p >.s.&.S T m 7.P.mXmXGXKXKXfXaXmXGXdXdX6Xw S 2.I w.'.'.U n n H +.+.$.{.e.}. Xg.6.J J S S S J ' ] 2.q.g.q.w.5.w.q.q.q.7.5.+.&.b b B P G S F F S r 7 N Q u 7 r J ' ' ' S D D r p F ~ r r 8 N 8 > e M 6 M M M r 8 8 > > 6 , , , e N B ",
"9 0 9 ; 1 1 1 W M.M.<./ { A.u.t.=.:.o.S A A N 8 7 7 8 8 v N w ; = 5 e e r u 7 p ~ L ~ L ~ F D ~ ~ L &.J =.s.d. X Xd.6.w.q.g.g.s.q.f.g.G.s.>.F D r 7 : m }.OX#.#.#X$.Y %.9.,XV 4 6 W h h 4 4 t 6 < < E i.w.8X5.s.[ 2 X 6 4.5.0.X.3..X0.7.8XGXKXmX8X}.7XdXmX7X.Xe. X.Xo.t u -.*.j 0 p j 0 u j p &.w.&.N J b q.aXGXGXGXGXGXaXdXJXJXdXsXdXi S 3.H 7.}.9.m n m m H +.Y e.e.8.@.7.0.5.4.4.5.4.&.2.6.+X+Xs.7.6.q.w.6.7.6.7.q.3.&.B b B J F F F F L F F ' ~ r D ' ' &.&.J D S N D F L D 7 r 8 N N 7 8 e 8 e > 8 8 e > 7 e e e e w 7 N V ",
"1 1 3 < < = 1 ^ <.M.,.W } 1...{ ` ] { A J J N 6 7 7 7 8 r 8 w : = = : 5 2 2 , R *.' F *.F F F F ~ ' &.*.&.q.d.d. Xd.w.s.s.g.g.f.f.f.f.f.q.>.L ~ r : , b }.|.+.#.#X$.I $.7.+X8 w g W W W l h g g f t  .i.+.6X<X&.&.t X + ' r.P A o.i.i.i.<XmXGXdX1X X7XdXdX#X XO.+Xg.~ 9 u ( -.u 0 j j 0 q j D q.2.~ N S L +XaXGXJXGXKXGXaXdXKXGXdXaXdX*.D +.P 7.9.9.m m m H +.m +.%.9.}.w.7.7.q.&.] &.4.L &.w.g.g.w.q.6.q.0.6.6.7.6.3.2.&.N v b B N S F F F F F ~ r 7 D *.F ' J D L S r D S ~ D r e 7 8 8 e 5 : , , , , , 5 , w e w 7 w w 8 N e ",
"2 4 1 < + < = j ,.,.,.g y Q  ./ _ _ { B 8 8 > > 9 , 8 N N N e 5 = 2 5 2 2 5 : u ~ *.F ~ F F D N S *.&.*.&.5.g.d.d.d.y.f.f.g.g.g.f.g.s.f.p.=.' D r , , b '.}.#.#.+X#.+.$.w. Xr 9 h W W l f s f f f h u.i.+..XaX2.[ r + . o C o.K _ 5.6.8.<XdXsX1X X+X#X1XaX+X8.e.e.&.9 0 j -.p u u j u 1 h u Q 5.q.D r J &.#XaXGXGXGXGXdXaXdXKXKXdXfXdXp.p +.I @.}.9.m n S m T m +.7.}. X}.7.7.3.T H P =.L N 6.d.s.s.5.2.&.+.2.7.6.q.6.2.L N N b b N N S N D D F F r D F J J ' ' ~ ~ F L ~ ~ L D i 5 w : : : - * = : 6 6 5 , , 5 7 : - ; : 7 N B ",
"9 q 4 1 3 < 1 j ..m.,.| } } <.t...' ! Z N 8 7 7 7 7 8 N N r r : 2 6 w w w 5 : 2 ~ F ~ F *.*.D r D S *.=.&.4.g.+X Xg.q.s.s.g.g.g.g.s.g.f.p.=.' D r : : b 9.'.#.#.OX#.H +.3. Xr 5 6 | x.W W l l l x | H.i.H q.aXp.' V =   . t K ] A o.o.8..XaXdX,X7.+X#X6X+X X0.6.L p 0 0 j ( u 0 0 ( 0 1 h u ~ 5.{ i 6 Z 2.g.dXKXGXdXKXaXaXGXKXKXmXaXdXg.S &.T 6.w.9.m n m S L m +.w.e.e.e.9.7.$.T L J L 4.&.L q.d.y.5.2.3.5.6.6.3.6.7.5.L v 8 B B N r D D ! F F F D F F J ' L *.' L L ~ ~ L F D C 7 w : : : : * & 2 e e e w e w 6 , : 7 5 w N Z ",
"t q 4 3 1 0 4 g ..,.,.} ....<.<.' F Z ' _ C N V r 7 r N N N e : = w w 5 2 9 5 ; p F J *.D F D r D ~ ' &.' &.d. X Xd.s.f.f.g.g.g.f.f.g.f.s.*.L ~ r : : v 7.}.+.#.+X+.I +.}.d.V 5 h l W l x x | | | ..>Xg.T 2.1X2XL ! 1 X X < V ! V { { o.d..X.X3.@.<Xe.e.q.d.7.i.S u % u j j 9 0 0 p 0 0 u 9 F 5.4.6 : Z ' f.dXGXdXdXGXaXaXKXLXLXmXaXaXI.L +.L @.9.#.m n S m I m $.}. X}.w.7.e.w.@.&.@.P q.a.&.5.y.w.5.5.5.5.6.5.5.6.q.5.L N v v B N r 8 w i Q ! ~ ~ D F ! ~ ~ ~ J ' ' ~ L S L ~ C w w 2 : : : : * , e w e e w w : : : 7 : > N B ",
"0 9 9 ; 1 0 4 j | ,.,.} ,.,.<.;.~ F F ' F Z N V e 7 7 N N r e 2 = w w w 2 w w ; 9 D F D D ~ ~ D ! ~ ~ &.' &.w. Xd.g.s.f.G.g.g.f.g.s.f.g.f.&.&.F r : : v 7.9.#.+.OX+.H +.0.d.e 2 h W l.l.| k.| | -.1.1Xg.T 3.d.6X&.~ 9 X # o y ! W ` Z X.6.o.8..Xw.<X X<Xe.w.@.S i q $ g j 0 0 0 p j 1 0 p 0 *.&.' 9 ; r J g.GXfXaXdXmX1XdXKXKXKXmXaXaXfX&.+.L +.w.9.m m m S L m @.+X X X}.9.w.w.6.T 4.2.&.&.q.4.2.5.2.4.5.6.q.2.2.6.q.5.F N b r N B F Q i : w w u 9 ; 9 w r D Q D L ~ S F F F N w 5 w : : 5 : : ; ; 7 u e w 6 > 5 , : 2 : > N N ",
"9 9 1 $ = 1 0 g ..,.-.} M.1...} / ! ' ' S Z N r w : w r N e w : = 5 e w w 2 w ; : p D ~ F ~ ( p u D F ' &.5.g..Xd.d.q.s.f.g.g.g.f.f.f.f.p.>.*.D 7 7 * v %.#.U #. X@.T @.9.d.6 4 s W k.l l x l.z.-.S.aXI.&.6.q.,Xq.D u X . X 5 Z ` V 6 K o.H d..X X@X@X,X6.6.&.D j 2 3 j p ; 0 0 j p O 0 q 2 *.*.~ t q 2 J ,XmXaXaXdXdX5XmXKXKXLXGXfXaXY.5.&.L 5.w.%.m b S m L m +.w. X}. Xe.w.7.w.w.s.q.&.T 5.6.6.5.2.&.4.5.2.T &.6.6.&.L r 8 N b B L ' L D : : 7 9 ; * = 2 r r p S D D D S D p : w w 5 : 5 5 5 ; * 7 r e e w w , : * * : 6 M C ",
"0 9 1 ; 1 4 q j ..-.| } M.M...Q ! ! F F S Z V e w : 7 e e e w ; * w w w w w u : u Q *.*.D F F D i F ~ ' ] q.,X,Xg.q.r.s.f.g.g.f.q.p.s.a.p.*.~ S 7 : : 8 7.%.+.#.}.+.H Y 8.{.V 2 6 l l.l l.l.| | | Y.dX2X2.2.g.w.p.N i O # . & y B E V J X.3.e.0.7.+X+X+XT 2.r p j % 0 j 0 0 u ; j 0 O 0 9 9 ~ &.! 3 1 2 F 5XfX#XY.mXaXaXGXKXKXKXGXaXaXaXq.G m +.9.7.m b m m L m +.w. Xe.}.d.7.w.+Xd.7.2.2.P &.6.6.4.4.&.4.4.&.&.T 6.4.&.L N 7 N N N F F F F F ! F ~ F D D D r 7 7 D S D S p D r : 9 w , 2 , w : = = w u w w w : : * = * 2 > r N ",
"q 0 ; $ 2 3 1 h ^ ^ g ^ ..m.} ^ ) F D Q S N r 6 7 : : u e w w ; = 9 w u 7 w w w D *.~ ~ Q Q D Q ! ~ ' ' *.4.+X+X+Xs.q.s.s.f.g.s.&.2.q.g.p.&.S N r : : 7 7.%.+.+. X+.I T 7.e.6 4 4 l l.| l.x.x.x.,.3XdX1X3.&.+Xw.6.D w 2 . . . = V V V Z 2.s.+Xd.w.+X+X+X3.2.7 j 9 O u j 1 0 0 0 j 0 O p 0 9 ~ L i + O X D aX1XI.fXmXfXfXGXKXGXKXGXaX1X6X2.P L +.9.%.m n m S T m 7.#X7X#X+X+X+X+X+X+X,X+X6.&.5.4.4.6.4.5.5.&.L P &.4.6.4.F r * 7 e : e F D D D Q ~ D F D D D D C p S D D D i r 2 2 w w w 7 2 , 5 = 1 w w 7 w , : ; = * : 2 6 e V ",
"2 1 + $ 1 1 0 h g g h j ,.,.} Q Q C C D N N V 6 : : 2 w r w w ; = 5 u w w 2 w u ' L ~ D D ( F ~ ) ~ F ' *.q.+X<Xg.g.q.r.s.f.g.6.] S q.p.p.&.D N w : : 8 3.%.I #.}.+.H +.0.0.6 4 h ^ z.z.x.m.A.A.D.6XGX1Xq.+.q.I.q.~ : ; X . . O V Z C _ q.aXaX+Xg.aX#XaXw.&.p p % 1 j 0 1 h O j p O % u 0 u L &.w O . o p aXg.w.aXdXaXmXGXGXGXKXGXfX+XI.&.&.L 2.7.$.m b S m L m w.#X<X@XXX+X Xd.w.w.g.+Xg.6.q.y.q.q.2.r.6.2.T &.2.6.6.&.F w w r C 7 : e V i r r 7 9 7 9 7 7 : 9 7 9 : : 2 * + * : 2 w 5 , : : 9 + = , 5 6 : - : : - & : : 6 V r ",
"1 ; $ 9 1 1 q | ,.-.^ j ,.| / R Q D r D N V r 5 : : : 6 w 9 : = = w w w 5 2 2 i ' *.*.Q i D *.*.' ) *.*.r.p.I.+X+Xg.q.q.s.f.y.L &.&.q.f.q.&.F S w : - 8 $.7.I +.e.+.H +.8.8.6 6 h x z.l...x.A...D.fXGX1Xw.q.q.aXq.*.w + X . . o V J V ] 1XdXdXq.g.#XI.aXq.*.p 9 O 0 j O 0 u O f u O % u ; u &.&.w $ $ X p q.w.w.fXdXdXGXKXGXGXGXGXaXaXg.+.L m &.7.%.n b S G T m d.#X@X+X+X,X+X+Xd.g.g.g.s.w.6.q.4.2.r.5.&.&.&.4.&.5.4.&.F 7 w N N B C N F F Q D u u w 9 9 w 9 2 * + X X o + 9 r w 2 2 5 2 5 2 2 = = 2 2 2 : ; : ; & < 2 2 6 e e ",
"0 1 9 $ 1 $ 3 | ,.,.^ Q ..} / E ( i w V r r e w 2 = 2 w 9 , : + = w t w 2 2 2 Q F *.Q D D D ' *.~ ~ *.*.p.f.g.+Xg.g.5.p.s.p.L B L r.q.a.r.*.D S u : * 8 +.%.m #.e.I I +.3.8.6 6 q | x.z.x.A.A.A.a.dXGX6Xg.w.q.#Xg.~ r $ X X o 6 o.4.Z 6.g.dXdXg.w.g.aXaX&.p u ; O 0 0 % j % % p 0 . 0 0 O p &.' 9 = p 9 9 &.q.q.dXdXmXKXGXmXfXKXGXaXaX,X&.L L +.7.7.n v G n I m w.+X+X+X,X+X+X,X+Xg.g.+Xg.s.q.4.r.&.r.5.4.&.&.4.5.q.&.&.N 7 7 N N 8 N S F ~ D r r r u 8 9 8 w 7 9 u w 7 r p S ~ r 2 2 2 5 2 ; : = o : 2 : - : = - < - : 2 w 6 > ",
"0 1 1 0 1 3 0 ( -.| ^ g ..} ^ ( ( r w w w w w : 2 = ; 2 : ; ; o + < ; < = = 1 D ~ ~ D *.~ D ( ' ~ ~ ~ ' r.g.,X+Xg.g.5.q.y.=.' ' S ~ S r.q.*.D D r : * v +.#.+.+.e.+.L I 8.i.6 4 f x z.x.x.V.A.A.G.fXGXaXw.g.q.g.,X*.w 1 # + i 6.0.i.o.i.L aXaXtX#XaXaXfX~ u 0 % % u O 0 f . 0 j 1 O 0 0 + ( &.~ r i r 9 9 *.q.g.dXdXGXGXGXdXfXGXGXaX+X+X+.L m 2.7.%.n b S m H m w.,X+X+X+X+Xg.g.g.g.s.f.g.f.s.q.q.q.5.6.&.L &.&.>.2.=.&.N 7 7 8 N 8 r 8 N N e 7 7 7 8 9 7 9 7 7 : r p N F S S S C ; ; = 2 ; ; : o o + & & < ; : = * = : : 2 : : ",
"2 2 3 3 < $ q | | } ^ g } } / / W t = : : : 5 5 2 = = ; ; ; $ + + + = = 1 2 2 i D ~ ~ Q ~ ( ~ ' *.~ ~ *.r.P.,XI.g.g.6.p.q.S 8 r *.*.D S =.*.S p e : * M +.$.m +.e.+.L +.w.7.: < 4 f | x.x.V.A.A.p.dXGXfXd.w.g.w.g.*.: $ 3 9 6.o.X.o.o.0.g.6XaXw.g.e.aXq.u 0 1 O 0 0 O j 0 O 0 p + O 0 0 + Q ' N w ) ' t ; S *.g.dXfXGXGXKXdXdXKXGX6X+X#X+.L L 2.7.%.b b G n L G w.+X+X+X+X+Xg.g.g.g.g.f.s.p.q.p.r.r.&.2.L L &.&.&.&.=.] p : 7 r N 8 r r N i r 8 w u 8 7 7 9 7 9 , r D F F D N N r : ; : : 9 : 2 : 2 2 ; * 2 2 2 : ; ; = : : 5 > ",
"1 1 1 3 < $ 0 } | } j g }  .( g y 2 w 5 6 w w 5 2 = + 2 2 9 ; + + = 2 1 2 2 9 j ~ D p r p D ( *.*.[ ' *.=.+X+Xg.d.d.6.q.y.F r : 7 r J *.=.J D N r ; * v @.7.m +.9.+.m I w.q.5 < 4 t x l.x.n.m.A.r.6XGXdX#Xg.+Xg.f.F ; X 1 t ] 2.0.5.6.d.dXmXdXe.g.aXg.p ; 0 O 0 0 O 0 0 O O j 0 O % u 0 + D L i 2 w [ i O r S +XmXGXKXKXGXfXdXKXmX1X1XI.2.P L +.7.+.m 8 G G H n w.+XP.+X+X,X+Xg.>Xg.g.f.a.q.q.p.5.&.&.r.&.L &.=.4.4.=.[ D 7 7 N V F S N S r r r u 8 w w 7 7 7 ; 2 w D F F F D S i 9 9 : 2 : w : : : : = = ; 2 : ; : ; = = 2 6 w ",
"1 1 1 $ $ $ 4 | } } j h } ^ E Q i C ^ C r r t 2 2 = = 2 w 2 = + O + ; : < 4 2 i *.*.p p p D Q ~ ~ ~ *.~ =.g.+Xg.w.g.q.p.r.F S r r r 8 F >.D r p w : * v +.$.I +.w.I m I %.7.6 1 3 4 h ^ z.n.n.<.5.,XmXdX#Xg.g.g.p.~ ; O O $ : J o.o.5.g.sXmXdX+XaX5Xp ; 0 0 O 0 O O 0 % O O f 0 . ; f O 1 F J p t = Q t O ; p 2XGXGXGXGXdXfXdXKXmXfX1Xg.&.G m q.%.+.n b A G H n w.,Xg.+X+X,Xg.H.g.f.s.s.s.q.q.4.>.4.r.5.&.&.&.&.{ 4.=.&.D w 7 M N J S C i r i r r 9 7 ; , 9 7 9 : w N D F F F F C 7 , 2 : 2 : 5 : 7 2 = = 2 : ; : 2 1 = = 2 w w ",
"3 3 1 1 $ < 4 | ^ | | h ( } ^ / ^ Q ( R y t u : ; = = 2 2 < + + o = 9 ; : 4 2 i D ~ *.~ D ( ( ' ~ ~ *.*.=.f.g.g.s.g.q.=.F J N D D D 7 F =.F r N r - * b @.$.H +.w.I I L w.6.5 < $ $ s l | z.| <.=.s.dXmXaXI.+Xg.q.*.9 o . X + y e V J y.5XaXdXfXq.p 9 0 0 O 0 O . 0 % O . 0 j 0 O 0 q O 1 *.*.C j e y < O O ~ Y.GXGXGXmXdX5XmXKXGXdXaXg.&.+.L 3.+.+.m 8 S S H G 6.+X,X+Xg.g..Xg.f.s.s.s.p.5.4.q.&.=.4.4.4.&.&.] { =.=.] C w 7 v N F N N r D D r 9 7 9 : : 9 : : 7 r N D S S D D C w : : : : : ; 2 ; : o + 1 = : 1 ; = * = 2 w 5 ",
"+ < 1 $ $ $ 3 | ^ | } x } } ( ^ ( R ^ y w 5 2 2 1 = + 2 2 = = o o + 2 2 : 2 9 Q ~ ~ ' Q Q D ~ ~ F ~ [ *.4.g.d.s.w.q.2.' ~ S S N S N , Q *.~ r e : + * b +.7.I I w.T H I 0.O.4 < % < 0 h | x l <.5.&.,XmXaX,X1X+Xs.' 2 X . . . ; : 6 r S r.+X5Xa.r 1 0 0 O 3 % . 0 % % % . 0 u 0 . 0 0 O 9 S F i ~ &.e + o o _ 4XGXGXmXmXfXaXGXLXJXmX5Xg.L &.K T $.T n v B G G G 6.g.+XP..X+Xg.f.g.f.g.s.a.6.r.{ { &.&.r.=.&.&.&.&.4.&.{ C 5 7 N N S F D C C D r : w 9 , 5 , 9 w , w V N S F F C i 9 2 2 2 < ; : 2 < : & o * = 1 = = = + * 2 2 : ",
"< + 1 < < $ 4 ^ ^ | ^ j } / W ^ R i R g 2 w 5 2 = + o 2 2 = + O + < 2 2 < 1 2 D ' ~ ~ ~ Q ( ~ ~ ~ ~ *.=.g.,Xf.g.s.q.5.S N N N S N D ; * w r w ; o o + b #.7.m I w.T H H 8.o.6 < 3 < 0 l l l ^ 4.&.H q.dXdX+X+X+Xs.{ 2 X . . . % 4 : 5 : D *.F w ; 1 0 X % % . % 0 % % . O 0 0 % O 0 0 . 9 ~ F 9 D *.Q 2 X o ! g.6X6XdXdX6XdXKXKXGXdX1Xf.H L K +.$.T n v n G G n 6.+X.XP.g.g.g.f.s.f.s.a.y.t.r.=.{ ' &.4.=.] L 4.4.4.4.[ C e e M N J F ! C i C w : w w : : w w : 5 w r C C Z C C r 2 1 1 ; ; < 2 2 < < = o o = = = = = + = 2 5 2 ",
"3 = $ < $ < 3 | l W h E } } R E g w g i w w 2 1 + + + = : o O o o + 2 2 ; ; 2 ~ ' F F Q Q ~ ~ ~ ~ ' ' &.y.s.6.f.s.q.r.*.8 r N r r D u 0 ; + ; + o o * S +.7.I I 7.+.H P 8.X.6 3 < < 4 ^ x ^ / _ m m T g.dXdXg.q.6.' w X X .     < 5 9 : 9 : = $ 1 0 + 0 3 X % 3 . % O . % f 0 O O u % X u ~ D 9 =.r.' y X = ' 2.0.6XdXdXdXdXGXKXKXdX1Xg.L L G 3.@.T n v B A G n 5.H.,X.X+XH.H.g.g.i.s.y.y.r.=.=.&.' *.=.=.&.4.&.4.4.=.] D w 8 r N F F F N r 7 : : : 9 7 : 2 w : : w e N Z D C N y : = = = = = = = = = o + = = < + = + = = ; : : ",
"4 3 3 3 4 < 4 | l j j ^ | E g g u t y u t 2 2 < + + o + + + o o X + ; ; = < 2 ! ' ~ D p D Q ~ ~ ~ ' *.=.r.6.6.s.y.5.4.L N N N N D D r 9 ; = ; = o o + S $.@.H I 7.P H H o.X.6 < 3 < q l x ^ ..r.5.5.2.L f.mXdXq.L ! 9 + X O O X X 1 9 ; + + + 0 0 + 0 % X % 0 . % % O . 0 p 0 O % q 1 O p ~ p S 4.s.5.y X + J ,XaXdXdX8X+Xg.<XdXKXdXaXg.P L G @.@.I H v B G n G 5.g.,X.XI..XH.g.f.p.y.r.r.4.{ =.{ { &.:.=.=.=.&.=.=.{ ' C w 8 v r F F N u V w : 7 9 w w , w : : w w w C S F D C y 2 & + & = & + & + o X + = 1 = = + + + = < : 2 ",
"h f 4 t 4 1 4 j E h j ^ ^ l E g y h y g 4 2 2 = $ + o o o # o o o $ = < = = < Q ' ' F Q D i D p i ' [ 4.g.6.6.s.y.y.=.r r r 8 r N D r w ; = = o o + * S @.$.H 3.0.H H H 3.o.2 $ < 3 s h l l <.>X+X3X1X+X3.w.fX,XJ w : 9 4 O $ $ % + o o O + 0 $ % 0 + . % 0 O # % O % O 0 0 0 O % q O O i [ i >.r._ E 2 X X C .XaX#Xg.w.7.7.q.+XGXdX4X+XP X.H 3.$.H K v B B A G 6.g.,X,Xg.g.H.f.s.a.a.r.r.&.{ { [ ] &.=.=.F ` *.&.{ { [ C w 8 r r S S C N C u : 9 w 2 w : 5 : w 7 5 7 N D D Q V t : & & & + & = = + o X + = * = = = + o o = = ; ",
"3 1 0 4 f 4 4 l h j j h ^ ^ } ^ E h g t 6 2 < = + O + O $ # $ o X $ = $ $ $ = y ( ~ Q C D i p i r Q ' ' 4.y.i.s.s.r.&.D r ~ D r r S D D D u 9 = + * * m %.$.+.@.0.H H S +.2.; $ # < < s l x ..,X6XaXaX6X6Xg.w.g.r.7 * = y t 1 X . . . . + 0 O % % . X % # X # O . O . O u 0 0 . 3 0 O + D ` t 2 g < 1 + X X 5 ' *.q.+.I +.w.+XdXmX1Xg.s.K P A T 3.G B v b B b G 6.>Xg..X.XH.g.s.p.y.a.r.r.{ [ ' ! ' ] [ &.&.=.&.&.&.&.' N w e 8 r F ' F C r 7 : 7 : w 9 : : 9 w 2 w w u C i C i g : < = + * < = < + O $ + = + + + O + + = = - ; ",
"$ $ 4 3 4 f h x x ^ | j j ^ ^ ^ j g 4 4 5 ; < $ $ o o = # & o # o o # = $ + + ; r ( D i p p p p i D V S 6.g.d.f.y.[ :.F r S N r r r r p F p r ; ; = , G 7.$.@.+.7.P G S O.T - $ % % s f x x } I.6XdXfXaXdXdXaXg.>.C : 2 : t i u q + X # % . O O . . O . . . . X 0 0 0 ; u 0 % . 0 0 . 1 g ! 2 + + $ & < # X < ' =.&.L q.5XaXmXmX1Xq.4.X.J J A T T G V N N B b G q.,X+XH.g.f.p.y.r.y.p.4.=.' ' [ ' ' &.=.*.&.=.&.' [ ' ' i w e 8 w F F ! Q w 7 9 9 w w w 9 w 7 , w w u e i t r r i 2 ; = = = = < & = + & + = + * + o o + = < ; ; ",
"X % % 3 4 f l ..| | | ^ g l j g g y t t 4 < < & = # + $ & $ o + $ + $ + $ $ $ + 2 u u i w 9 r i i i D ~ &.4.r.=.Z ! =.D r r N D N r r 7 ( D u r ; * 7 H 7.3.@.+.0.P G G o.o.4 a s s s l x x ;.4.q.aXfX6X+Xg.P.g.4.F u w ; = ; 2 r i t 4 % O X . . X . X X $ 1 g -.( 0 0 0 0 % O h 1 . 1 C Q t g i y h 5 & X o ` &.b &.I.aXdXdXg.w.d.s.] A K A T X.Z N N b S n H 6.g.H.g.f.f.y.r.r.r.r.{ { =.] { ' ' &.*.=.[ ' F F ] [ ! r 5 e 8 7 D Z C 7 u r w w : : : 7 2 9 5 w u 7 e u w i Q y : ; = = = = & + + + O o o + o + + o + + & - ; ",
"X X % % 3 % f j | | ..| f j g g h t t 4 4 2 $ + < # & & # $ & # # & $ $ $ < < < $ + + ; + + + + + = 2 w w 7 u r V ! F ~ r F D D p S D p *.p u w : = e I 3.H 2.P 2.H G A P P h k k f l x x x :.6.6.,XdXdXdXaXa.~ N e 9 5 w ; = + + ; 5 i g g u q 4 0 t g g g i w 9 ; O 0 0 % 1 O f % . 0 Q C i C N V 6 t + o o u r b q.aXaXfX1XaXdXGX6Xf.S J A X.2.J M M B K B G 0.g.g.H.f.s.p.r.4.>.4.=.{ 4.' ' &.=.=.=.&.' ' ' [ ] ' ~ r 2 e e w e C r w C C w 7 : : : w , 7 w e e u e u N D D r 1 = = = < - < & + o + = o + + o o + = + * = = ",
"O O O O % $ 3 h ^ } | | g h g h y 4 2 2 5 < = + $ o + $ $ & # & # $ & # $ < < 3 $ ; ; ; 1 1 9 9 q 9 2 t Q [ &.y.' ~ ' =.r F ~ S p ~ *.*.*.r p w = : > G 3.T H T +.G B A 2.P h k k z k x x v.H.,X X,XdXdXdXdXaXP.~ 7 ; = 2 2 = + o + + o 2 5 w t t 6 5 4 5 * = 2 u ; 1 p 0 0 O % p % O 9 i i e C ! Q C e 2 X . o w =.,XdXGXGXGXKXKXdXfXf.L L G X.P Z r v 8 J G G 6.g.g.f.y.p.p.r.4.r.r.r.r.=.{ &.*.=.=.=.*.*.' ' *.=.{ ! y 2 e w w C F C w r i w : w 2 w w u w u i w w e r C D p r 4 ; = < - < = $ = = + = + * + o + o + o = = = ",
"% % $ % $ $ 3 h g l | | f f g g h 4 5 1 1 < $ + $ $ # & $ < $ $ & $ $ $ $ $ < 4 u w u i u p i p ! Q ! y.a.g.s.i.6.&.*.>.D D *.~ S ~ >.*.~ p r 9 : 5 ] 5.Y X.P P 4.H B B T ' f f f k f z x -.r.,X1X,X1XfXdX5Xu.*.Q u 2 + o 2 < + o X X X X o o = - < : 2 : 5 e C p ; 0 0 0 0 % 0 0 O O 9 g C ` [ Z e , r 2 o X o *.2.3.g.2XdXGXKXKXmXaXs.J L A P X.e e > > F K b 2.y.p.y.q.y.r.r.4.r.=.=.=.' &.r.=.&.' =.&.' &.[ &.*.[ ) r 2 6 5 7 C F p 2 w r u w 9 ; : w e w w e w w w D D C N r 2 : 1 < < = = < + & $ = = & o = + o = + o = = ",
"% $ 3 3 % # O h l h | j h g g t 2 4 4 2 < & $ $ $ $ & $ & # & # # = o $ $ $ $ 4 u i i r u p i 8 i ! F y.i.0.s.4.6.&.&.r.D S D ~ p D ~ >.~ r u 9 = , J T 3.T 6.H L G B B 2._ f f f f k k l j ' 6.6XmXmXdXdXdXaX=.r * = 2 < o X + % + + + < 1 4 6 i / [ =.{ o.&.&.p 1 u 0 % 0 O 0 0 O O u C y 6 6 V Z ` Q 9 X . 9 *.6.s.g.g.Y.fXGXGXdX2Xa.S L G L ] B > r , B G i.5.5.5.y.r.r.r.4.:.:.=.=.' ~ *.r.=.&.&.*.' ' [ ' ' ' ' ~ r ; 5 , 9 D S r 5 w i w : ; : : w t w w w w 5 w r D i r w 2 = ; - < = = + & + & + + + = + o o = + + = ; ",
"+ % $ % % < 3 h ^ l ^ h q f g 4 4 4 1 < < $ + + $ O O O + + + + # $ O $ & $ $ 6 i u i i u i D Q C S ` ] s..Xd.0.q.&.&.=.N r p D D ~ D :.) i r 2 = : v B +.P L G P B B A 3.] f f f k f k k ;.q.q.P.aXFXGXGXdXaX1.~ 2 + = 2 4 1 + o O $ < < $ < ; 5 6 y e e r C E u 1 u 0 0 0 O 0 0 O % u p r ` { ` _ Z e t O X ; >.g.5XaXmXGXGXKXdXa.&.F N G B L K N , e e v B J T q.s.a.p.6.4.=.&.:.=.r.&.! F =.' &.&.' ' &.' [ [ ' ' ! u 2 : 7 9 D F N 7 r i w : ; w w w r 9 9 u w w 6 i ! C u y 2 = = = + + + + o = + + o o o o O + + o + * ; ",
"% O % 3 3 % % h l g l g 4 4 q f 3 $ < < $ + o $ 3 < < $ % % + % < $ < $ % % $ 4 i i r i r i D D D D ! S X.s.g.y.q.&.*.&.p r r D D *.F *.~ i w 1 = : b b 3.0.G G K B A K 3.L f f k k z l x :.g.+X#XfXdXGXGXfXI.;.i ; X X + = : 2 2 1 = + o + < ; ; 2 2 w 4 y t u 9 0 q 0 3 3 % h % O ; u p p _ S Z Z V t u O X % i S q.fXGXKXKXKXGX1Xy.' V K A P K N , : C v G A L 4.y.y.y.y.f.r.' ] :.4.=.' &.=.=.>.:.&.*.*.*.~ ~ ~ ~ Q t ; : 2 : D F D w w u w : w u w w w w r e w t w i D C r r 2 = * = < = $ < = = = = = = < < = + + + o + = ",
"O O % 0 3 % 3 h l g h h f 4 f t 4 $ $ < < < $ $ $ $ + % % + O + $ $ $ < % < $ 4 r i i u r C C F ! D F F L 5.2.3.q.=.*.*.D i r u D *.>.=.( i w 1 * , S H  Xe.H S K B B G 3.&.g l ^ ^ | ^ ( X.2.+XaXfXGXGXmXdXaX;.C = X . X + = = < 2 4 t t 4 < - : 2 2 2 5 2 < + O q q % f 0 % f % % 0 u u p L F C i C y 9 O X O Q s.+XaXfXGXPXKXKXfX,Xr.N J b P P 8 : * E S G K ' ] r.4.4.5.y.s.r.{ r.r.r.>.=.=.=.=.*.*.*.' [ *.' ~ ' Q u ; : w 9 S D D w r u e w 7 7 : 2 : 7 r y w t e y C D C i 1 + + + + + + + + + + + + + & = + + + O o + = ",
"O O % 0 3 3 % h j l j h q 3 4 4 1 $ < % 3 < $ $ 3 3 0 0 0 0 0 1 3 3 s 4 4 q 4 4 r r i e u D D D F ' ! D 4.6.4.6.2.=.J *.r 8 w 7 9 ~ >.*.F i w ; = , J L d.@.B Z S S S B @.w.5.6.4.6.r.6.r.s.q.w.aXdXmXGXdXfXq.~ u + # O .   . o = * * : 2 2 t 6 y / ( / ) / ^ 0 % f 0 3 0 % % 0 % % 0 u u p N p C g t 2 0 % X O *.s.g.,XfXGXGXKXdX,Xw.4.J K B K J e : : V ] K H G ] 4.4.4.=.r.r.r.r.4.r.&.=.r.r.>.=.&.*.*.[ ~ ~ ~ ~ ! C w 2 : : , i S N i r u e 9 9 w w 7 w w u u w 6 5 e i D C w 2 1 ; 1 ; < = < = = < + + $ + $ = + + O o + = ",
"O + 0 0 % $ 0 h h h h h 3 3 3 3 1 4 3 0 3 f f f q h 0 0 0 f f f f h l l l l h q g i i i i D C D D ' J Z 4.6.6.s.5.*.D ~ p r p p 7 D *.*.p r 9 ; ; 7 G H 6.L B J B _ L ] 2.3.o.T 3.T 7.3.2.,X+Xq.q.fXGXGXGXfXq.*.0 O O O O . . O 5 , & * * * = = : : 5 5 w w t $ 0 f s % f % % 0 % $ 0 q y i R g 9 1 3 f q < X + / i.,X6XdXKXIXLXGX,Xq.s.g.L N S L 7 ; * 7 ' 0.o.G ' =.4.5.=.=.r.>.r.p.r.4.' =.>.=.*.*.*.~ ' ~ ~ ~ ! ! C t ; : 2 : D S i u r r w 7 r u w 9 w w w 6 5 2 5 w u D r w t t t 9 9 4 4 2 4 1 4 < 1 < 1 1 = < = < + = < ",
"X O % % % % 1 q h f 0 3 3 3 0 4 f f f h h f h f f q f h h j l x | k.x l x l l 1 5 y i i V i D C D ~ ~ F 4.s.i.6.&.F D *.~ ~ S D D Q Q D r u 9 ; = 8 B B S S L J ] S B &.X.P H H P T T T @.g.6X6X2XaXGXGXdXP.>.( 9 O O ; O . . 9 C N y 6 w 5 : * : : e i C g 9 $ 0 f % 0 0 % f 0 % % 3 9 t y / t f u f q f 3 O < ' y.1XdXdXGXKXKXdX1Xg.q.L ~ S L F r 9 : : C 2.8.G L =.4.>.r.=.4.=.r.r.r.r.*.~ &.&.*.*.*.*.~ ~ ~ ' ! F i 2 1 : 2 : N D N w w w u w w r w 7 w 7 u w 2 2 : 5 r C r e 2 4 9 h h g g j h h g g 4 2 2 2 2 2 2 4 2 4 2 ",
"O O % O O % $ 0 9 1 0 0 f h l h h h l h h f f h l l x l.l.l.n.x x l l s f l x t : u r r r i D C C D ' F 4.s.6.4.=.F D *.&.&.~ D *.*.r u r u 9 ; = 7 N 8 S ] S N K 6.P Z J b N b b B A A L T p.aXmXmXfX5Xq.q.L p 9 O O % O . . 9 W Z B K 3.4.&.] J Z N C e 6 + + 0 0 0 0 0 % 0 0 0 % 3 h u  .t.g t f u 0 f 3 # 9 :.5.+XdXGXGXGXGX1Xg.d.d.&.&.4.] F N 7 w : : Z 2.G ' 4.r.5.=.r.>.&.>.=.=.=.*.~ ' *.*.*.' ' [ ~ ! ! Q C r 5 1 - : : r r r w u w w w w 7 w w u r e : : 2 2 5 e E e w g h t 4 f f h l j | ^ | x j g g t 4 4 4 1 2 t ",
". . . X X . O % 3 f h l j l l f f f f f f x x | l.l.l.l.l.x k f f s k x x k.l.f w y r w r i C D D D ~ ' ' 5.6.y.&.F u D =.=.' *.*.=.D 9 r u 9 = * r F J ] 2.L 2.s.g.4.J J Z N N B B B K 2.w.g.+XfXdXdXfX1XP.q.~ ; O O % % O   9 V c M o.d.7.7.0.0.s.4.4.r.[ t < 0 0 % f 0 % f % 3 % 0 q i t.f.Q q f h f 4 3 O ^ P.s.s.,XGXGXGX3X+X,X1Xg.T S L L r.D 8 r i w - B B ' =.=.4.=.=.=.&.=.' ' ' ' ~ ' *.' *.~ ) ) ! C y C i r w = : : ; w e u w 7 w w w 9 7 7 u r r e w w w w w e i r t | n.z.| l h f 4 h h x | | | | | | | j h h 4 4 ",
"% % 3 0 s f h f x j z j k f f k f x x x k.l.l.z.z.l.x z f f 0 f l x x k.x k.x 3 : u u u w u D i D D Q ! F 6.q.q.*.D r p &.r.4.=.*.=.*.9 9 u 9 ; * e =.G w.0.e.OX@Xw.P P G 4.5.3.3.6.3.e.+Xg.w.g.#XdXGXdXP.q.q.p = O $ $ % O O r J V A o. X7.3.w.d.+X6._ ` _ 4 4 f 0 % z s % f % f % 0 0 y u.f./ q f h 0 0 % o 6 a.5X6XdXFXmXGXdXdXdXdX+X0.T X.P 2.&.&.N r D r V B ' &.&.' &.=.r.*.*.' L ' ! ' ' &.*.*.~ ~ Q D V i i V y 2 = ; 2 ; 9 i w w u r w w u 7 w r C C w w w u w r i i e q x l.z.l.l.x x h f h f h h l | l.-.n.| | x l j ",
"l z z x x l l k f h f f h l x -.n.n.n.n.n.n.l.| x f f f x x v.-.z.l.n.k.k.l.l.0 : e r e w r r p i D D ! F 2.6.6.] F r r ~ &.>.r.=.r.=.u 9 9 ; ; ; : V ' S H #X7X#X9.3.&.] H T P H T 3.3.0.+X4XsXdXdXfXaX,Xq.L r + O % 3 1 O t L ] J ` O. Xd.+X,X1X,X6.Z Z ` h 3 f 0 0 f % % s % s % 0 f g D.H.` q f f 0 3 % X ; F g.dXKXGXbXdXfX6X+Xs.d.3.0.P X.L &.7.6.N F Z Z V ' &.&.&.=.4.=.*.] *.*.' ' ' *.=.*.( F D F C r r i i i 2 < = 2 ; 9 r w w r w w 5 u u w y t w 2 w e e w r i e w t l.n.n.B.x.x.x.n.n.z.l.l f h f f l | n.n.n.n.n.",
"x z x k f f f f k x k.k.n.n.B.n.n.B.n.n.k.x k f f k x n.n.n.l.n.k.k.l.k.l.n.k.9 5 u u r 9 r i i i F ~ F F L q.4.*.F i i F ' *.>.r.>.*.u ; 9 9 ; = w , > B +.}.*X|.7.6.] P 2.6.+.3.H H B 3.7.d.1XdXdXdXaX1XP.~ p + # O % $ + i F J _ P 3.e.#X#X+X,X,X6.6.f./ 6 f f % 0 z % s f % f # f f h t.I.O.f 0 h 0 3 # < u.P.d.g.fXGXmX6Xg.5.3.0.3.7.7.H &.L G w.#XP N D M V { [ ] r.5.6.=.=.*.*.=.&.' ' *.' ~ F D V N i r r i V u 2 ; = : 9 i 7 w r p r u w 2 : w w 2 = = w e u r V u t r u n.C.C.E.V.B.C.C.V.V.R.V.B.l.x f f f h x l.n.B.",
"k f s s s k z k.-.v.n.B.B.n.B.B.n.l.k.l f f f k x l.n.l.v.| k.k.l.l.l.n.l.k.k.0 : u w 9 9 r r e w p D r i F >.5.&.F i D F D 7 u ( *.Q ; 9 9 9 + * u e r &.s.H +.8. X2.G H  X}.9.@.+.2.+.2.2.2.q.g.aXaXP.q.q.S 7 < X # 3 % = / F Z A J 5.w.g.<Xd.#X4X6.s.O.W 3 s s 0 f f @ s s a f s s 3 g F.A...h f f f s @ $ ;.g.fXdXfX6XdXGXdX<X<X.X$.Y Y H X.+.G +. X7.S 8 e F ' ] r.5.r.p.r.&.&.&.=.=.' ' ~ D S D F r r r u e r r u 2 1 ; : 9 t u : w u i r y 5 < : w u : w r u r C r w u 9 4 z.C.V.C.B.V.B.B.B.B.V.B.V.V.n.n.| h f f f l x ",
"s k k k.k.k.v.B.B.B.B.B.B.B.B.n.n.k.x x x k.x x x k.k.k.l.l.l.l.k.l.l.z.v.| x 0 5 w 7 9 9 w i r w i D e w N 5.r.&.' r i D D D e r ~ r + + 9 9 + + r 7 7 B P G 0..XP B 4.w.1X{.3.@.$.0.d.P K J o. X+Xs.3.X.' F 6 < X # % $ $ V ! Z A o.O. Xg.,X X6X4Xt.o.{ j s s a 0 f f @ s a 0 d s s s W A.L.<.f s f 3 % @ < { r.,XdXLXGXGXGXdX4Xg.e.9.{.8.0.3.5.P 2.G 2.y.J N Z ' ' 4.] 4.t.=.&.&.=.{ ' ~ ' ~ D F ! F D r u r V i V r 2 = ; ; ; u w u 9 2 2 2 5 w 9 ; t i 2 u r r C r e u w ; 1 | B.V.n.n.x.n.c.x.l.x.l.c.l.l.l.l.k.x x x x k.",
"k.k.k.v.v.n.n.n.n.B.n.n.x x x x x x k.x x x x x x x x x x x x x x x x x j v.| 2 w w w : 9 r u u i i C i i C =.5.&.' w w N F ~ *.*.*.D u 9 : ; + * F V > 8 N B 2.T A G ] i.}.3.T T O. X8.o.X.{ i.@X1X0.i.] e e 2 $ X $ % $ 1 R ! ` J ` O.s..X,X,X6X4Xo.` <.h s f 0 d z 0 a z s d s s s s l A.A.x.f s s s a # < ..a.4XfXGXGXHXGX6X3.5.}.e. XXX{.e.H _ .X' B B J Z F ' ' ] r.r.r.&.[ ] [ [ ' S ' ' F D D C C N r r w 5 u 9 1 + ; 2 t i e r w 9 2 : 2 9 2 1 2 w u e i i i u r r w + 3 x.n.n.n.n.x.x.l.l.x.l.l.z.l.l.l.l.l.l.z.z.z.z.",
"k.k.k.k.l.l.v.z.n.n.v.k.l.l.n.l.k.l.l.l.l.l.k.| l.l.| l.l.l.| z.l.z.z.| | n.| 0 7 w w 9 2 7 9 e D D D C r C 4.4.' ! 9 : u S ~ ' *.*.D u 9 ; 2 + + ! [ M e V e Z &.] K J J G B N N B ] K A _ o.] +X1X6.5.4.V 2 < X X # 3 # 6 ` _ W J ] 4.i.g.>Xg.,X>X` W W s s d d d z a a d a z d s d d k x.A.A.k s a s % # q ..5.g.,XaXaXaX6Xs.X.o.5.0.}.}.}.XXo.A P B Z M N J Z { &.4.4.=.=.&.[ ' ' _ &.[ ' [ D D S C C r V u = 2 5 2 < + = 2 t i i u w r w 9 w : : u u w r y t 9 2 w y r ; + 4 | z.z.z.z.l.z.l.| l.l.k.l.l.| k.x l.x l l.l.x ",
"k.k.k.k.k.k.x k.v.-.-.l.n.l.n.n.n.x.x.x.x.n.z.z.z.z.l.z.z.z.z.n.x.x.n.n.m.m.m.0 9 w w r w w u u i i C i r C 4.4.' F : w p F F F F ~ D w 2 ; + + o ; u w w 2 : * , w , , : * : 2 : - : > A o.5.s.+X,X3.4.o._ 2 o X @ # % $ R ` Z ` A _ O.i.H.g.,X3X,X` R W s f d d f k a a z a z d d d d l !.L.x.k s s s a # ..A.u.2X,XaX4X+Xg.g.3.` ] K _ O. X,X>Xo.V D S B J ] J &.=.r.r.4.4.r.&.' F ' ' ' ' ! w C D D r N r ; = 2 w w = + ; 1 w r w 7 r r w w w : 9 Q C t 4 ; $ + + + 1 = o + t V.C.C.C.C.V.V.V.V.V.V.V.V.V.V.V.V.V.V.x.V.V.V.",
"j.f k s s f f h l l x l l x l x l l | l l l | l l l l | x x l x x x | | | | | 9 ; w w w w w e r r r i C i Z &.=.' E w 9 r D D D L *.D w 2 = + o X + + + + + o o + o * o + + + + + + o ; W K o.d.<Xg.5.4.o.Z 5 o X . # a # 6 ` Z o.V K y.g.H.H.4XeXI.` / h s d d d d d d d j.d j.d d h.d j.C.!.V.j.d s a # s x.F.H.y.6X8X4X0.3.0.4.e 5 6 , - 7 V u : * 2 5 e Z _ _ =.&.r.4.=.r.4.] ' ' ' ' ' ~ F F D i C i V e = = ; 9 9 1 + ; : t i u w r u r 9 w 9 ; u t ; < = + = 1 ; = + * 1 h n.V.m.V.x.V.n.x.x.x.n.x.z.x.z.z.z.z.z.x.l.l.x.",
"k k k k l z z x k.l.x k.x k.k.x x | l.l.l.| k.l | k.| l.l.| | | | | -.| | -.n.9 ; 9 w w w 5 w r u w i C V ! &.4.' D w 9 r i N N D ~ D 9 1 < + + + + ; + + + + = + = + + + = + = + + ; w V J o.d.g.+X6.] ` _ 6 +   X # 3 % 4 { _ ] Z J O.H.>XH.4XfXH.` | k a d k d z h.a d h.d j.d j.j.d j.C.!.x.j.s d a a W D.i.,Xf.0X.X4X,X.X5.E & + + o = + = o + + o + * 5 _ { { 4.4.r.4.r.&.' ' { { ' ~ ! F ~ F ! i y r 2 1 = = 2 9 + + + 1 1 9 w u e w w w u 9 ; ; = 9 u r 1 X + $ 4 1 + 2 6 | z.z.z.l.l.l.l.l.l.l.k.l.x k.x k.x | k.l.k.x ",
"k k l z k l l x x l.k.l.l.l.z.l.l.l.l.x.l.l.l.| l.l.l.| | | | -.-.| | -.| z.| 9 : w w w 2 w 9 t e w i i C D =.r.' D w w u D D N D F D 9 = = + + + + 2 2 2 : ; ; ; ; ; 2 2 ; ; ; 2 w e i V R ` O..X<X.Xo._ V V < X . # % % 4 O.` o.Z K t.i.H.i.>X>XH...W s d d d z z d a j.j.h.h.h.j.h.h.c.V.!.E.j.j.d d a x.F.D.5X>Xg.4.>X.Xi.O.r = = + + = + + o = = = ; : e Z ] { { r.=.=.[ ' F ' { =.' ! ~ F F R t w 2 ; ; ; 1 = 1 9 < + + = = 1 2 9 9 2 2 w u 9 2 ; 9 u 9 w 2 = 1 9 9 + + + q V.K.C.C.C.C.C.C.C.V.V.V.V.C.x.V.V.x.V.V.x.x.V.",
"f f k k k l j.x x k.x k.x k.l.x l.l.x l | l l l l l | x k.-.x | x | n.| ..n.l.q + ; 9 9 : 2 w u u w u D r D =.&.' D u w r S r p D F D 9 2 4 = = 2 1 ; h i r w u u p i i e t u r i C S F & , A O. X>X.X` _ C E <   . # % % < ! 4.` V o.O.i.H.A.D.H.H.} l d d d z z h.h.d h.h.h.h.h.h.h.h.c.!.!.c.j.h.d a d V.>XH.2X,X>X,X,Xd.i.] w 1 1 $ = = + = = = 2 t C ~ [ ' ` 4.4.r.r.&.{ ] _ ' [ =.[ ' F C y w 2 ; + = + = = 1 ; 2 + + = 1 $ ; 1 t w 2 2 9 w + $ 9 $ 1 $ + $ 1 1 9 q $ + + 3 z.x.m.n.x.x.x.z.z.x.z.x.l.l.l.| l.k.k.| l.k.| ",
"k.B.l.k.B.n.n.B.B.n.n.n.n.B.n.n.n.n.n.n.n.n.-.n.m.n.m.V.n.V.m.V.m.N.V.V.N.m.V.q 1 $ ; ; ; ; 0 ; 9 9 u p p *.>.&.~ p r w r p p D D ~ Q r r 9 9 u u u : u u 9 9 ; 9 9 9 r p u i i D F J *.F B o.O.XX>XeXO.c W E O   @ # % % % E ! ` A o.i.H.H.t.4XfXP.;.j d d d z h.h.h.d h.h.h.b.h.CXZXh.c.W.W.c.c.h.h.j.x.!.!.eXeXeXO.>Xs.i.o._ w 5 2 2 2 ; 2 ; ; , r i F ' =.&.&.r.4.4.4.{ &.[ ' ' ] [ F Q i w 9 w u 9 9 9 9 9 ; 1 + ; + O + ; ; ; ; 9 w : ; ; ; O + + + $ + + + + $ ; 9 1 1 1 t m.V.C.C.V.V.V.V.C.C.C.V.C.C.V.C.V.V.V.C.V.V.V.",
"j.k.k.k.k.j.k.k.k.k.v.l.B.n.V.B.V.V.C.B.V.V.B.V.V.V.V.B.V.m.V.n.V.m.m.m.m.m.| 1 = 9 9 9 ; ; ; ; ; ; ; ; 7 *.=.*.F p u w u r r r p F Q D i 9 7 u ~ D r ; 0 u 9 9 9 p p u p 7 r i F F ' *.J ] O.{.XX>X8XXXO.` E # . . # % % q [ Z ` Z o.y.H.A.A.5XfXY.-.v.d d h.j.j.h.h.h.b.h.VXVXb.CXZXCXCXZXZXZXc.c.c.!.eXeXeXeXXX>X4X>Xo.` ` ! r u u u w u w w : w C D N ~ ' ' ' =.[ ' { [ ' J F F ' ' V w 2 ; ; 9 ; : 9 u i p 9 1 + + o + ; $ + + = 0 w u 2 + O + % # $ $ $ $ O O % + $ ; $ 1 f m.Q.Q.!.Q.Q.Q.Q.Q.Q.Q.Q.!.!.!.!.!.E.!.E.!.C.E.",
"x z z z k j.k.k.x x x v.B.V.V.V.V.C.C.B.B.V.n.B.n.n.n.n.n.z.n.-.m.m.M.n...| h + + + % $ ; O 0 ; 0 ; ; % ; 7 ' &.F p u 7 w w r u p p i D D w w r D ~ ~ p 9 9 7 r r r p p p D D F *.*.L &.` o.{.>XXXXX8X>XO.O.W # . . @ # < W ] ] _ J o.i.H.i.A.3XfXU.v.z d h.h.z h.b.h.h.VXVXCXCXVXCXDXCXVXZXAXW.c.c.SXeXeXeXeXeXeX>XO.A.H.O.Z ! C i r i i i i e u i D D F J J ~ _ ' ' ~ _ _ F _ F ! ' Q D C D Q Q i r u r r u r w w 9 + + + ; ; 9 $ 2 9 u u 9 % + + + $ $ $ 3 + + + + + O + + 9 1 | Q.Q.U.Q.K.C.!.C.C.C.E.Q.C.!.E.C.E.C.R.V.c.V.",
"k.k.k.k.k.k.k.k.v.n.B.n.n.V.B.n.B.n.n.n.l.n.x | x n.n.-.| l...n.,.x.} ^ ^ ^ t $ 1 $ + ; ; ; ; ; ; ; 0 ; 1 : p ~ F r 9 9 w r u 7 p u 2 w C D D ~ ~ L ~ D p 9 ; r p r p ~ *.*.' ~ &.*.*.L K o.XXO.O.XXXX>X....R . .   # # 3 ` J _ A Z { a.A.A.A.L.Y.P.v.z h.h.h.h.h.h.h.h.VXCXCXCXCXZXPXDXCXZXZXW.ZXSXFXeX!.eXeXeXeXeX>XO.B ` ` _ D D F C D i C i N r D F *.' ' F F F ' L ' _ J ~ F F ' ' ) ~ D i i D D u r w w 7 7 9 7 ; O O + ; u u 9 9 0 9 + O % $ 1 $ $ $ 1 = O X % + ; $ $ $ 1 g N.K.K.Q.C.Q.C.C.C.C.C.x.V.C.Q.Q.C.Q.C.C.V.V.",
"z x z k.x x k.k.n.v.-.n.n.n.v.n.l.n.n.| -.l.| l.| z.| | | | n.,...| E ^ ^ ^ 9 + + ; + + ; ; ; O + ; 1 1 9 9 D ~ D p 7 2 w i i w p 0 + u i Q D ~ *.*.*.L ~ r 9 7 p p p *.*.~ ~ L Z ` ` ` o.O.XXO.A O.XXi.6.u.y X   . @ # < : Z _ ` Z o.f.>XA.D.0X^.U.R.h.b.h.b.b.b.h.h.VXVXVXCXCXCXZXPXDXCXZXZXZXZXFXeX!.!.!.eXeXeX8X>XXXW 6 E Z D D C C D C D D D D F D F L F ~ F *.&.*.' *.F *.~ ! F ~ ~ D i i u e u r u r 9 9 9 w 9 9 + + + + w e w t ; + + 1 $ $ + + $ < < < % + $ $ 1 0 9 9 2 2 | } m.A.K.!.!.K.Q.K.C.C.C.K.K.Q.K.Q.!.!.Q.C.",
"z j.x x k.z k.k.n.v.v.-.v.-.x l.| k.x | | | | | | | z.n.m.m.-.} ^ R g g g ^ 9 1 ; O O . O % 0 ; ; ; ; ; 9 9 D ~ F p 9 2 9 r w r r w 9 w u D D F L *.*.&.' *.D r p r u F ] *.] ~ Z ` ` o.O.XXXXi.c O.>Xi.4.y.4     @ # # $ i ` ] Z E { t.H.A.L.0XfXfXR.b.VXb.b.CXb.VXh.VXVXCXCXCXZXDXPXPXDXZXZXZXFXFXZXZX!.eXFXeXeX8X>XO.W c W Z C D D D D D C C D ~ *.J *.' F ' F *.*.' ' F F F ~ J ~ F ~ Q i r u r r e w r 7 u u w 2 9 O + ; ; 2 u t 9 + + ; ; $ $ $ + O $ O $ $ + $ + ; + $ 9 4 : j / ^ | ..N.K.K.K.K.C.K.C.C.V.C.V.C.C.C.Q.C.",
"k.k.x k.k.x k.k.| x k.n.-.n.z.z.k.-.x -.n.n.| n.n.n.n.m.n.| j g g j g W } } t 1 ; 1 + O O ; ; O O ; ; 0 9 7 D ~ F p 9 ; 7 i p Q D u u w 2 Q D Q ~ ~ ' ' =.' F D D r r ~ F L *.' ` V W A O.XX>XO.c o..X4.' :.4   .   . # $ / V _ _ V { o.H.F.L.0XfXDXZXCXCXCXCXCXVXh.h.VXCXVXCXCXZXDXPXDXDXZXZXDXFXFXZXFX!.SXeXeXeXXX>XO.W W W ` F Q Q D D D C F D S F *.F *.' F D F D *.*.F ~ F F F Q D D Q p u w r i i r u 9 w 9 9 1 $ + o + ; 2 w q 1 $ = ; $ 3 < + + < $ + + ; 9 1 9 ; + $ 9 2 1 g / / / / } ..A.K.K.K.C.N.N.V.A.K.N.V.V.V.C.",
"k.k.v.k.x z x x v.x k.k.l.n.n.n.n.n.n.n.n.n.m.n.m.n...| g g g g R ^ ^ } ..} t $ ; ; 1 % + ; % ; O ; 9 9 9 9 F ' D i 9 ; 9 i p i D r u u r ~ D ~ ' *.~ ' *.~ D p r D D F D D p D / V c c W XXXXA ` K i.6.J ' o @   @ . @ 4 ` Z _ ` E o.t.H.L.K.0XAXAXZXCXCXCXCXCXVXb.VXVXVXVXCXCXDXDXPXPXDXDXDXPXPXFXPXc.!.SXeXeXXXXX>XO.O.W A W ! D C C i D F ~ F F *.~ &.*.~ F S D D D *.F ~ ~ D D D Q D Q i r u i p i r 9 w 9 9 9 2 + X O + = 1 2 ; + + 1 $ + + + + $ $ + $ $ $ 0 0 ; 0 1 $ 9 1 1 } } / ) / / W ..x.A.K.C.N.V.m.m.m.<.x.x.V.x.",
"x x x x x x x v.| n.n.v.n.n.n.n.n.n.n.n.,.n.x.z.| ^ h g t g R h E ^ ,.-.....t + + ; + 1 + 1 ; ; 1 1 1 ; 9 9 D *.D r 9 2 9 r r r u p r r p F *.*.*.*.*.D ' D i r p F ' ' F F D F C C D N A >XXXc W K O.O.` W & . .   . # 1 ` ' _ _ E o.{ D.L.L.qXqXAXZXCXZXDXDXDXCXc.VXCXVXCXZXDXDXDXPXIXFXFXPXDXFXPXSX!.SXeXO.x.x.>X>Xi.{ ! F ! F N p p p ~ ' ' D D ~ L *.*.D D D D N D D F F Q C p D i r u u r i u u r u w w ; w 9 1 $ O + + + = 1 1 1 + + $ $ + + 1 3 1 + + < $ $ $ $ 9 + + $ 1 ; -.M.....( / [ / / / m.A.K.A.A.V.m.m.m.m.m.m.",
"x x l x x x x k.| x x ( -.x x | | | } | | | } ^ j g g y g g E W ..<.......| 9 + ; + + + + + 9 ; 9 1 9 1 ; 9 ~ F F p 9 9 : 9 9 9 9 r p u p F *.p p *.*.*.*.i p N D F F =.F C i D Z S F F A XX>XA ` o.O.>X` R # @   . . X X Q { _ Z Z o.4.i.F.J.0XqX(.~.DXPXIXPXPXPXPXSXSXDXDXPXFXZXZXFXPXFXPXFXFXFXFXSXFXSX!.x.x.x.O.` O.` D Q ! D D r D S ~ &.&.*.F ~ F r D S i N D D D ! ~ D N i C p p i w w r r r r r t w 9 w 2 2 + + O + + + 1 2 1 1 2 1 $ + $ < $ 3 < + + 3 ; + $ $ $ % $ 9 ; ; | S.A.Z...[ ` / ` / / } ,.Z.A.A.A.Z.N.M.M.m.",
"% s s % 0 0 f f h f h h h h h j g h h h g g h h h h t h g g ^ } / / / } / } 4 ; 1 $ + ; + + + ; ; 9 9 1 ; 9 F ~ F p 9 ; 9 r u r u p p i D Q D D ~ ~ *.*.*.i p D *.~ F =.*.C C S C S _ ! c O.8XA c O.eX4X` h X   @   @ # # 4 { F M E :.4.A.L.L.3XK.K.AXPXDXDXZXAXSXSXSXPXPXFXSXSXFXSXFXPXPXPXFXPXSXSX!.0X!.x.x.x.W c i E Z Q D Q D p r D ' *.*.' F *.D p r D D D D r r ! ~ ! D p D D Q Q j i i u u u r u w w w 2 2 2 = $ + + + = 2 2 1 9 0 1 ; $ + 1 $ = $ + $ $ ; $ ; $ + ; 9 9 2 < / S.Z.Z.Z.1.../ W _ / / / ^ ..} ..} } ..| } ",
"x x l x l l x x x j x l | x x j x ^ ^ j ^ j R E R E E ^ W E ^ ^ / ^ ` ^ ( / t = ; ; 0 1 + ; + + ; ; 9 0 9 9 p D F p 9 ; w i i p D Q D D Q D ( ~ ~ D ~ *.*.~ p D D *.~ F i i D ! ' ' _ S W O.>XO.c o.O.O.` t X       . # O ; V _ Z Z ` { O.D.D.0X^.B.v.b.CXb.CXCXc.!.!.SXSXHXHXPXPXPXPXIXPXPXFXSX!.!.c.c.x.x.!.O.W W W ` ! D ! D D p p ( L ' ' F D *.F D p D D p i r D D D D Q D p p D D w u i i i r 9 w 9 9 2 2 1 1 1 + $ O + = 1 ; 1 t 9 ; $ ; 3 + = $ + + $ = + $ $ 1 % 1 ; ; ; = } S.M.Z.Z.A.Z.M... ..... .} .... . ./ / ^ | ",
"l x z x x x x x | x x -.x | x | ( | ^ ^ ^ ^ ^ ^ ^ ^ / } ^ Q Q ( ! ` / ` ~ ( 9 ; 1 ; ; 1 + $ $ $ ; ; ; 0 9 9 i *.F p 2 ; w p i i D Q Q ~ ( ! ( *.*.( D *.*.p i D D D ~ i u e C C _ _ ' F W c O.>XO.O.O.O.` 4 X X @ @   @ + R F _ ` _ ] ] t.A.H.3XJ.n.j.j.h.b.b.h.VXh.c.c.!.!.SXSXFXPXPXPXPXFXSXZXc.c.h.c.x.x.l d s s W W ! D ! ! D p D ~ ' ] F F ( ' F N D N D D r r D D D Q ! D D D Q j t i i p C i u w 9 2 9 9 2 1 < = $ O + ; 9 9 1 2 ; $ + $ $ ; $ 3 $ + ; $ + $ % ; + $ + ; ; = / S.u.A.D.A.D.D.F.F.A.A.A.A.Z.Z.Z.Z.M.Z.M.M.",
"a 3 % 0 3 0 0 0 f f h f f h h h h t t h t h h t g g g g R / ! / ! W ( ! Q *.0 ; 0 ; ; ; 9 $ 1 9 0 1 ; ; w w u *.D u 2 ; 9 9 i r D ( Q ( ) ~ Q *.~ *.*.*.*.p r p p i *.D i ! ) ` { ' ! ' ` c c O.>XO.XXi.o.< # @     @ X g Z Z Z A W ] { 4.a.A.L.u.-.k d j.h.j.h.h.h.j.c.c.x.!.!.!.!.wX!.eXSXZX!.VXh.h.h.j.j.d a a @ W ` Q D D D D D F ~ *.~ ~ D ' ~ D u i p p D p D D N ! ~ Q D D i i D i C p i i u u w w t q 9 2 1 < < + + + + 2 q 1 ; $ ; ; + + $ ; $ $ + $ $ $ $ 9 ; ; 1 % 9 2 1 E  .[ [ [  . . .......} } / / ) / / ^ ^ ^ W ",
"0 0 f 0 f f f f f f f f h h h h g h h g g g g g g g g R W ! / ! ! ! Q / Q ( 9 + 0 9 ; 1 1 9 2 ; ; 9 1 1 9 u p D D u 9 ; w r r p C Q Q ( ) ) *.~ *.*.j *.*.p w D j r j p y ! / F [ ' ' Q R V W W J >X>XO.E < # @ @   . + W _ V A _ _ K o.{ a.D.2XJ.| s d d j.d j.h.h.d h.j.c.x.!.!.!.!.ZX!.ZX!.c.h.h.h.h.h.a a a a @ k W D D D D D D ~ F ~ ~ Q D D D D D D i i p r D D p Q D D Q D i D i R i i i i u w w t t 9 9 4 1 < 1 + O + = q q 2 1 1 1 ; $ < + $ 1 1 1 $ 1 + $ ; $ $ ; $ $ 1 ; R .. .[ ` ` `  .`  ./ ` _ ! ! / Q E E R R R ",
"k.x k.k.k.x k.k.-.-.-.x x | | | | } | ^ ^ } | ^ ^ W E E Q E _ W ! ! _ ! ` ~ 9 ; + ; 9 0 9 $ 9 0 9 9 9 9 9 w p *.Q i ; 1 w p p p j D ~ ~ ~ ( ~ ( D *.~ *.*.p r p Q D p D Q D Q F ~ ~ { [ Q V W ` F W o.{ ` < # # @   . o < c _ _ Z Z J X.` u.t.H.r.^ s a d d d j.a d d d d j.c.c.!.!.AXSXAX!.c.c.h.h.h.a h.a a a @ @ q E i i Q D D D D D D D C i D D p D i i i i u p Q ~ ~ Q C Q Q p Q D i g i i r w w w u t 9 9 2 1 1 1 + X + + 9 9 1 2 2 2 1 1 1 1 < < < + 1 $ $ ; $ ; 9 % 9 9 2 ; Q t.4.:.:.{ { 4...t.t.t.<..... . .......} } ",
"x k.x x k.x k.x l.x x x | | | | | ^ | ^ ^ ^ ^ ^ ^ R C E E E F ! Z ! Z W _ _ t 1 1 1 1 q u 0 1 ; 9 9 9 q 2 9 p ~ D u 9 + 9 i D j D Q ( ~ ( ~ ~ ( ( Q ( ~ *.p i r u p i r g Q ~ ~ ! &.*.*.D D ! ~ ' &.{ [ / % # # # . . < V ` _ Z Z Z ] ] ` t.t.f...W 4 a s s d k a a a h.a h.h.a d x.!.!.x.j.j.j.h.d h.a a h.a a a @ a ( / C Q ~ ! D D Q D i i i Q D i D u u i i 5 e p D D Q Q D i i Q j i u e r u w w u u u 9 9 ; 1 ; + + + + + 4 9 2 2 1 1 4 3 1 1 = $ 1 1 $ + % $ 1 $ 9 9 0 0 4 2 ! u.t.t.t.4.t.{ t...t.A.t.t...u.<.<.<.<.,.,.",
"x x x x x x | k.l.| | | | l.| | | } ^ ^ } ^ ^ R g R E E E J Z _ _ ! _ Z ! E 5 ; 2 9 2 1 q u 0 9 2 w q q 4 1 r Q p u r = ; 9 u u p i j Q ( ( Q Q ! ! Q i ( Q g g u V R u t Q ! Q ! ( ~ ) ~ ( F ) [ [ [ ~ E X # # @ . . 4 _ ` _ V _ Z _ { ` t...H...W < a a s a a a a h.a a a h.a d j.!.Q.j.d j.d d h.a h.a a a a @ @ % ^ Q C Q ! Q C C C ! Q r i p D p i u r i t w t u r u i u w t i Q i w e u t u w w u w q 9 9 1 ; $ + % + + 1 2 9 4 q < 1 < 4 1 < $ < $ $ $ + $ 1 $ 1 + 1 ; 9 2 ; W { { 4.{ 6.4.t.t.4.{ ....t.t...:.....:.....",
"f h f f f f f h l h h h h h x E j ^ j E Q g R Q ^ / E _ _ Z J J ! _ ! Z V C 5 1 ; 0 0 ; 1 0 q 0 q q q u q 2 u ( i r p u 1 ; = 2 9 9 9 q w q 9 9 t u w u C i i g i t t u u i i i i i j i j D i Q ( [ Q ( h X @ # @   @ O R Z Z J B Z A o.{ r...y.` E & a a s s a a a a a a a a a d V.!.).C.j.d d d a a a a a @ a @ @ % g C g C i r u y i i i r i i i i r , ; : 9 w 9 t q 9 9 t w u u u 9 9 9 9 t 9 2 2 2 1 9 2 1 1 2 O + 0 + + 1 4 9 1 1 1 1 < < < + < 3 $ + $ + 1 $ 1 + $ 0 9 1 1 = C { { o.4.4.r.o.5.t.t.t.t.t.t.t...:.t... . .",
"3 % $ $ + + $ $ 4 3 4 4 4 f 0 4 4 4 q g t y i g E C C Q ! _ Z ! A Z Z Z Z E 5 < + + 1 1 1 0 9 9 2 0 1 9 u q g Q u r j D u 9 9 9 9 9 9 2 9 9 9 9 9 2 9 i j i i i i t t t e w u u i u t w w u t i i i i i 4 @ # @ @ . . # W Z V Z c Z _ ] ` t.{ f...6 # # a # a a a a a a a a a d z.Q.qXFXSXC.x.x.d a a a a a @ @ @   % u i i g i u r u w w w w t w : u w u e r 9 9 2 9 9 9 9 q t t 9 9 1 2 2 1 1 1 $ = + 1 ; ; 1 0 ; o $ ; O + $ t 9 2 2 2 9 1 1 < < 1 1 + + 9 $ $ 1 $ + + $ ; $ + = C { { r.r.4.4.5.5.O.4.4.o.{ ` ` _ W E Q Z E ",
"$ $ $ $ % $ $ 3 4 4 0 4 9 h 4 q h 6 y u t i y y V C V R Z Z Z A Z J Z F Z / 4 3 0 % 1 0 0 1 0 9 1 0 1 1 9 u ( i t i g g u u u u t u 9 w u u w u u u r i i i g i i g p p i p p p i C i i r i i Q C i p D 4 # # .     . # R _ B V V V J o.` t.{ y.` t # # a # a a @ a a a a a k.c.Q.(.AXSXFXAXAX!.j.a a a @ a @ @ @ @ . g g i C j i i u u t r i u w r u u i r r u w 9 9 q 9 9 u 9 r 9 9 w 2 0 0 1 2 1 9 1 ; 1 $ ; 1 % 1 1 + + O + 1 1 1 2 9 1 1 1 < + + $ + 0 0 % $ $ $ + $ $ $ + 1 + i ] ] ] o.X.4.5.4.4.o.{ ] _ J ! E Z V i y y ",
"h h f h h h h j h l x j l j g ^ ^ ^ ^ Q Q ^ ! Q / Q / ! _ ` ` ' _ J _ J Z y 4 1 1 0 0 % 0 $ % + + + $ % $ 1 u r t r t w 9 9 u 9 w u r u i u i p p i p i p D p D Q D D D D Q Q Q Q ! ( ~ ~ ~ ~ ( ~ ~ ~ ~ 4 . # @ @   . @ 5 W _ W V V B ` { <.{ t.Z 6 # # # # # # a @ @ a a d C.!.!./.SXSXFXAX).Q.l.a a @ @ @ @ @ @ @ % g Q D C i i i C i i i i i i p r u i r p p p r p p i r w u w w u w u t 9 9 9 0 9 ; ; ; ; ; ; ; O ; + % O O 0 1 1 1 2 1 1 $ + 3 9 $ $ $ 1 ; $ + ; $ $ $ 1 0 3 + t ! _ J ' ] X.X.X.2.X.X.] ] _ J F Q C Z C C ",
"| j j x x j j | | } | } | ( ( ) } ) } ) / ) / / ! / ! [ ` ` ` ] ' ] J Z N 2 + < + % $ + + + $ + + + + ; 1 2 t w w w w w w r i i p Q Q Q D ~ Q ~ ~ ~ ( ~ ~ ~ ! ~ ~ ~ ~ ~ ' *.~ F ! ~ ~ ~ ~ F ' J ' ~ ` ~ 4 X # X @     . + ! ] V V Z K {  .4.{ y.W 6 # # @ a # @ @ @ a @ @ a k k.n.B.K././.V.z.^ s a @ a a @ @ @ # . . ( ~ ( ! ! F ~ ~ Q ~ D D Q F D D D p N D D D F F F D D D S D C C i r i r i u u u u u w w 9 9 ; ; ; ; % O O 1 1 + + $ $ $ + + + + + + + + + O O + + + O + O + + 2 Z J ] X.X.o.4.5.5.6.6.6.3.5.4.o.{ =.{ { ' ",
"j x j x ( x x | | | | | -.| ....} / ) ) ) [ ) [ ) [ [ [ [ ] { ] &.&.] ] ` C t 9 9 1 9 9 2 0 9 9 9 9 9 9 9 t u r u u r u i i D D D D Q D ~ Q ~ Q ! ~ ! F F F ~ ! ~ ~ ~ ~ ' ' ~ ~ ' ~ ' ' &.*.&.=.=.=.&.=.2 # # . . X o X u ` ] Z E B J X.{ { { O.A 2 # # # @ # @ @ @ @ @ a @ @ @ @ @ a a @ # 4 h l < a @ @ @ @ @ @   O ^ &.&.&.[ ' ' J ' ' ~ ~ L F ~ F F D D S D ~ F F F J F F D F D S D D D D D C N N r r i r i u 9 : 9 1 1 ; ; ; $ 2 ; 3 $ 1 $ < 1 $ $ + + + ; + $ $ + + O + $ $ + ; V ] 2.4.5.6.6.0.0.s.s.s.s.i.y.4.4.=.&.{ { ",
"h h h h h l g l x ^ | ( | -.} } ;.) } [ ) [  .[  . ...{ ..{ 4.4.4.t.4.o.4.o.! Q j u g g u u u u u u u u u i j D Q Q p D Q ( ( ( ( ~ ( ~ ~ ~ [ ~ ) ) ' ' [ ~ ' [ ' [ [ *.*.*.[ &.=.=.=.4.r.t.r.r.r.r.r.:.2 X # X X 4 Z 4 W V W c c Z A ] ` { { ] 8 : X # @ # # @ @ @ a @ @ @ a a @ a @ a @ a f j l s @ @ @ @ @ @ # @ . j &.4.=.&.&.] ' [ &.[ ' *.*.' [ *.[ ' *.F F ~ ' ' ' ' F ' J ~ F ! F Q F F F Q ! D ! D D p r u w 9 9 9 9 : 9 9 2 9 9 2 9 9 9 1 1 1 1 1 3 < ; ; $ 1 1 $ 1 1 1 ; u ! ] 4.6.i.d.d.d.d.s.w.w.w.0.r.r.5.4.4.{ { ",
"$ % $ < % 3 4 4 4 q h ( } ,.;...} ;. . . .;. . .[ [  .{ { { { { 4.5.0.6.5.r.[ ! Q Q ( Q Q j Q R u 9 2 2 ; w u w w u 9 : : 9 w w u r e r u r i i i r p i i r r u r i i V C Z Q ! F ! ! ! _ ! J _ _ _ _ ! < X X   X 2 B Z A Z K V V A X.] ! ` ] ] V 2 O X X @ @ @ @ @ @ @ @ @ @ @ a @ @ @ a % 0 g V % @ @ @ @ . @ %   . q ` _ ` ' ' ' ' _ J ! _ F S F D S Z D D C p r D D C D D C C i C i C i i i i r r i i i p r r r w w w w w w w w 9 w w 9 9 t t 9 2 9 2 1 2 2 1 9 9 9 9 9 9 9 9 w Z &.] T X.5.6.0.0.6.3.2.&.] ] K J J J F F F ",
"$ $ < $ < % < 4 h | ..-.,.,.,.;.;.;.;.;.;.:...;... . .{ <.O.t.t.y.i.s.s.i.y.{ Q Q Q Q ( ( / ( i 9 9 9 9 2 9 2 w 7 7 : ; : 9 w r w r w u e e y e r r r u r u 6 w t w y y E Z N N N C Z F Q Z C Z Z _ J E 5 X X . $ V A Z c K A V y B ] ] C ' ] 4.B : + X @ X @ @ @ @ @ @ @ @ @ @ @ @ @ @ @ % h Q g s @ @ @ . . @ # @ . q F Z B V N N N M N N e 8 7 e e 8 e > e 7 7 , 7 8 7 e r e e e w , 7 : : : : 2 2 ; ; i p p p r r r w w u w u u r w u w w w w 9 w t w t u u u u u u u u u u u u ' 4.3.6.X.T +.2.3.2.3.2.X.P K J B B V M e e ",
"$ $ % $ $ $ 3 h | -.n.,.,.,.,.,.,.;.;...;.;.:.:.:.:.:.t.t.t.t.d.g.H.d.g.s.y. .Q ( Q ( ) } } g 5 9 ; ; 9 : ; 2 w j ( D p Q ( ~ ( ( Q ! Q Q ! ( Q ! ~ F ( ( ( ! Q Q ! ! [ [ *.*.&.&.[ { { { ' [ { &.r.r.4.e 5 1 X O y Z J Z K ` V y B A ` Z ! ] P r 6 = # . @ # . @ @ @ @   @ @ @ @ @ a @ @ # u F W < @ @ @ . @ . % . . q [ ' ' ' ' ' J F F S F D F D F F F F F F D D D D D C S D D N D C r w w 7 2 : : : : 5 r D p p r u p p r r r u w r u 7 w w u u u u w u u r u u r p i u u p u D 4.d..Xg. Xs.0.0.7.0.0.0.2.2.] J Z Z S J Z B ",
"$ 3 $ 3 < f | | -.-.-.-.,.,.<.,.;. .;.;.{  .........4...t.t.y.f.g.>X.X>XH.s.>.) ) / ) } / g 2 4 4 w 4 2 2 2 w Q *.-.j j ) ) *.*.*.) ) ) ;.*.*.*.>.>.*.;.;.) ) *.[ *.*.&.*.=.=.>.>.r.r.:.r.r.r.r.y.a.s.u.N V 6 2 6 y Z Z J A ` A V B K ] Z ! ] J r , < O X @ . @   @ @ .   @ @ @ @ @ @   @ # u D R 2 @ @ @ . # . % @ . 3 >.r.5.y.r.6.r.r.6.5.4.r.4.=.=.4.=.r.=.>.=.=.=.=.*.*.&.*.*.&.=.*.*.D w u u w 7 : 2 2 7 u D p D p p r p r p r 7 r u r u r u i i i i i r r r r u u u r u w u F 6.d. Xd..X X Xe.6.@.3.3.@.&.] K J S J { r.6.",
"$ $ < 0 l | | | -.-.| -...,.;.,.;. . .>.<.u.u.u.u.u.u.t.A.f.H.>X>X<X1X<X<X>Xp.[ ;.-.} ( h 5 2 4 6 4 5 2 5 t Q ;.;.;.*.*.*.-.;.;.*.;.*.;.*.;.*.;.*.*.>.*.:.*.*.*.;.>.>.r.p.r.u.r.r.r.t.p.p.p.p.a.f.p.G.t.C V e V y 4 V V Z Z K Z e J o.] F Q ] ] S 6 2 + X X @     @ @ . @     @ @ @ @   # # 9 ~ E 4 . . # # t 1 $ @   1 :.r.r.r.5.r.6.y.6.r.6.r.q.6.r.5.r.5.5.>.5.r.r.=.r.4.&.&.' &.&.&.&.&.S r r e e u r 7 : : p S D r r N S D D D p p u u r p p i u i i g g i i r p i r u r u r F 5.e. X+X X.X.X+X.X9.7.3.4.+.T ] P K J Z ] 4.",
"$ < f | x | -.-.m.-.,.,.m.1.M.<.t.<.t.u.Z.u.u.A.u.u.t.A.D.f.H.H.,X<X<X<X,X>Xt. .;.,.} t 6 4 4 4 t 5 5 t w j ;.;.>.;.;.;.;.,.<.1.1.>.1.>.1.1.1.1.r.>.:.r.>.r.>.>.u.r.r.r.u.r.p.a.a.p.p.r.r.r.r.a.y.a.H.u.> 6 6 V V Z J Z A Z _ Z V B H ` F F ' P N 6 : < $ X . .   @ @ @   @       @   @ % O 9 ~ r 4 o # O X ! ! j X   # :.y.y.y.y.y.r.r.y.q.6.6.y.q.6.6.6.5.r.5.5.6.4.4.4.4.r.r.4.=.4.=.=.=.*.S r e e u w w w w 7 D ~ D r r p S ~ F D D D i i r u p u i r i i p i p i i i u u r p ' 5.d. X+X+X.X@X+X+X.X X7.3.6.2.2.] L K J B J ",
"f l | -.n.-.-.n.,.m.M.m.M.,.,.<.<.<.<.u.t.u.u.u...u.A.i.D.f.H.>X<X<X<X<X,X>Xp.;...^ t 2 t t t 6 t t t t Q ;.>.<.;.;.>.;.;.;.1.1.1.>.>.>.1.>.1.>.1.u.>.>.>.1.u.p.u.>.*.*.=.:.*.=.=.r.r.r.:.[ r.r.r.f.H.y.6 V e V V Z B G J A J Z E A J J F Q &.J e 6 : 4 2 o X     . X . @   @   @   @ @ % O 9 F C y u j g u &.S ~ +   # [ y.y.y.y.y.y.y.y.y.y.q.y.p.q.y.y.q.y.y.y.r.y.y.r.4.5.r.r.r.r.r.4.4.r.*.N N i r r u 8 8 r r ~ ~ L S p S F ~ ~ ~ ~ F ~ D D i i i r u r i i i i p i i i r F ' 0.e. X X+XXX+X+X+X@X+X.X9.3.3.X.P K J B b B ",
"^ x | | x | -.-.-.-.-.,.<.,.1.M.<.u.Z.u.u.u.u.<.u.<.u.t.t.H.>X4X<X1X8X<X<X>XA. .Q 4 4 2 4 5 2 5 t 5 5 ( ;.,.>.,.>.,.;.;.;.;.1.1.1.1.;.-.;.;.;.>.>.1.p.>.>.>.*.>.>.>.>.>.>.>.>.q.r.r.r.r.r.p.>.p.p.a.P.*.6 6 6 e 6 N B A Z A J W Z J K ] Z _ =.&.N r : = & + X   . . . . . . . . . . . O O ; 9 D F V Q / / { 2.J ! +   X ! p.y.i.s.p.y.y.y.y.y.r.5.q.s.s.q.y.y.y.y.y.y.q.6.4.5.5.r.5.5.q.q.r.r.r.=.D e e 8 r e e e e r F ~ ! F F F ~ ~ *.F *.~ L D S ~ p p p r u u i p i i i i j ! { 6. X X+X,X+X@X,X@X<X<X+X+Xd.T X.T L P J S J ",
"| | | | -.x | n.-.n.m.M.>.M.M.M.Z.D.A.D.A.u...t.u.u.u.A.H.H.>X,X<X<X8X8X<X.Xu.E 5 4 5 5 2 2 2 6 2 t / <.>.1.>.1.1.1.1.;.>.1.>.>.1.1.1.p.1.1.1.p.1.1.1.>.>.>.>.>.>.>.>.>.*.>.>.=.>.r.t.r.p.p.a.p.G.P.J.*.6 > e 6 6 V R V V B V B Z X.X.] _ F =.&.J 8 e 2 4 2 & O . . . . . . . . . . . O O O 9 S D y _ C F &.2.] ' 3   . Q D.s.i.f.f.g.f.f.s.g.f.p.s.f.s.s.s.y.y.y.y.s.f.s.s.p.r.r.=.5.y.q.q.q.y.y.4.S V V r r e e > > 8 S [ ' ' F F F F F D ~ D ~ ~ ~ ~ ~ Q D r 7 u r u i r r D ' o.s. X+X+X@XXX<X@X@X@X@X+XXX.Xe.2.P P K S J J ",
"j | x | -.-.-.m.m.,.M.,.>.1.1.Z.Z.D.A.u.4.u.u.A.u.u.t.D.H.f..X,X<X<X8X<X<X.Xo.y 6 t t 2 2 5 2 4 2 ^  . .;.;.;.<.1.1.1.>.>.1.1.M.1.p.N.1.a.S.S.1.a.1.a.p.p.p.>.p.p.p.D.p.D.p.G.p.D.G.G.D.a.p.D.p.S.G.D._ > 6 6 e t e y V V V V Z Z A P ] ] S 4.L N N , ; < 5 3 = O . . O O O . . . . O O ; O ; D F D { Z ` 4.{ Z =.h     h D.H.a.p.s.f.G.f.f.s.s.s.y.p.p.a.f.f.s.y.f.f.f.f.s.s.a.q.5.q.q.r.5.5.y.p.y.=.N r M V V C V r r e F &.&.' ' ' J ' ~ J F ~ ~ ~ ~ ~ ~ ~ F i i p i i i D ~ ] 4. X,X@X@X1X7X7X7X7X<X<X@X+XXX Xd.3.P G B S K ",
"| x ( x x | | | m.m.M.1.N.Z.S.S.A.G.t.t.u.A.u.t.u.u.u.t.u.i.H.>X<X4X8X<X<Xi.{ g 4 5 4 5 5 4 6 t ^ ;.} ;.;.;.<.1.1.1.-.,.1.1.1.1.1.S.a.a.S.S.S.F.F.a.F.F.D.D.D.S.F.G.G.P.P.P.P.J.G.F.J.P.J.J.P.F.D.D.Z./ 6 > 6 6 6 6 e y y c V Z A K P ] 4.' 5.L B C 6 ; - < < o . . . . O O O . . . O % ; O ; D D S 4.{ Z ` &.{ ' i .   q u.t.a.f.D.f.a.f.p.a.u.r.r.r.a.f.f.a.s.H.g.f.g.H.g.g.f.s.s.y.f.a.p.p.p.p.a.a.*.r r V V r y i r r V F [ &.*.*.[ *.F *.~ ~ ~ ~ S D D D D Q D D i i p ~ *.{ 4..X<X1X7X8X7X7X8X7X7X7X@X<X@X.X X Xw.P S S J ",
"| n.| | x | | } -.m.m.1.1.Z.S.S.A.u.A.A.u.A.A.u...t.t.t.u.i.g.>X<X7X8X<X8.o.] C t 4 t t 4 2 t } ,.<.,.<.;.1.1.1.1.<.,.;.-.>.1.1.1.S.S.N.1.S.F.S.S.F.F.F.F.J.J.J.P.J.P.J.J.F.J.J.J.J.P.L.J.L.F.Z.D.S.S.Q 6 6 e V c y > 6 6 V V Z J P ] ] r.&.5.4.] V 5 : 4 4 < & O X X X O . O . O . O % % % ; p V N ' ] _ ] ] ` _ g X   % 1.H.G.D.D.a.y.r.p.a.y.a.a.s.H.f.a.f.P.g.g.g.P.g.H.g.i.a.f.f.f.a.r.r.>.y.y.p.p.&.N V e e e 8 e e e r S { &.{ [ *.~ [ ~ ~ ~ ~ ~ F D p p D D p i i D *.*.4.5.d.@X<X<X7X8X8X9X7X7X7X=X@X@X@X.X Xd.w.2.K J ",
"| -.n.-.-.-.n.| ..,.<.m.1.M.S.1.u.t.t.t.t.t.u.t.t...:.t.t.i.>X,X<X8X8X<Xe.o.] E y t 6 2 w t / ,.1.<.,.<.1.1.1.M.M.1.-.^ -.,.M.M.S.S.1.1.Z.S.F.J.J.J.J.J.J.J.P.F.F.F.J.P.J.P.P.J.J.J.J.F.J.F.F.F.S.S.D.;.8 6 e V V 6 V V 6 V V 6 Z P J ] r.&.5.] K Z 6 5 5 2 < & X   . X O . . O O O O ; 1 O ; r r N { ] { J Z ` [ C o   . ..G.p.f.a.a.p.a.a.D.f.p.p.f.f.f.g.P.g.g.I.H.g.H.H.f.a.f.H.g.g.f.f.f.a.a.a.a.y.y.' N e e e e r w 8 N C Z ' =.[ ' *.*.[ *.~ ~ ~ *.*.~ D D D D p D Q *.&.4.r. X,X*X<X*X7X8X7X8X9X7X7X<X<X@X.X X X0.s.3.] ",
"x x ( -.| -.-.-.-.-.,.,.,.M.1.;.t.A.t.t.t.A.t.......t.t.H.>X4X8X8X8X9X9X7X8.] Z t 6 t t t / <.,.,.m.1.1.1.S.M.S.S.M.1...-.;.1.1.1.1.1.u.S.S.S.F.N.S.S.a.S.S.F.F.F.F.F.F.F.F.F.S.F.F.F.F.J.J.D.F.L.F.F.F.[ 6 6 y e y V V e e V c Z 2.J ' r.=.6.J J Z V 6 6 5 2 < O   X X O O O O O O % % 1 % O r N C ] o.o._ _ Z ' ` } $ . R D.a.D.f.G.D.H.f.G.s.a.a.D.f.g.H.g.H.>XH.,XH.g.g.f.g.,XH.P.g.H.f.f.a.a.a.a.u.a.p.{ C V e 6 6 e V Z N M Z [ =.*.*.=.*.*.*.~ *.( ~ Q ~ ~ F ~ D D ( [ &.o.r..X<X<X<X7X7X7X8X7X8X8X7X*X@X.X.X Xi.i.0.s.6.",
"| | x j x | -.-.m.-.} } <.<.<.1.t.A.A.a.A.f.i.t.u.a.A.f.H.,X4X8X<X-XgXrX<X8.X.E y t 4 4 j ,.;.,.<.1.1.1.1.M.M.Z.M.M.;.-.( -.,.Z.u.N.Z.M.M.M.S.S.N.F.F.F.F.J.F.S.F.S.S.F.F.S.F.J.F.J.L.P.L.J.A.F.F.F.F.F.D.:.V , 6 e t 6 e e V V Z &.J i ( *.r.2.] B , , 5 : 6 < + X X X O . O O O O % ; 1 + ; w V Z X.] 4.] 4.` ' ` D.<.4 y D.G.a.f.a.a.a.a.p.H.H.H.H.H.g.H.H.f.f.g.H.g.H.H.I.,XH.H.G.g.g.f.H.G.a.a.y.a.a.p.p.' v e e e C C e > e N C [ [ &.*.*.*.*.*.*.*.~ Q ~ p *.Q F ! ' &.{ ] y..XXX7X7X7X8X9X9X9X7X7X<X<XXX+X X X}.d.d.e.e.",
"| -.| j h h | ^ | ..| }  .<.Z.S.A.D.A.D.H.H.D.D.u.t.t.H.H.,X4XXX@X9XrXgX*X8.` Z t 2 t j ,.,.1.M.M.M.M.1.1.<.<.M.M.M.M.<.,.<.;.,.,.1.S.S.S.F.F.F.F.F.F.F.F.S.S.S.S.A.S.S.F.F.J.F.F.F.J.J.L.G.F.L.F.L.F.G.F.H.A.W 6 , , 5 6 V V N Z B F 1   2 =.&.] A M 6 6 6 & < : + + + o X O O + + % 1 % + ; u r N X.] ` ] { Z ` { G.D.S.>.f.G.D.f.a.a.a.D.f.H.H.H.H.H.f.f.f.H.G.H.>XI.H.I.P.g.H.f.f.f.f.f.H.f.D.s.D.s.a.p.u.r.Z 6 6 e e e e V V V V V ' ' [ ) [ ~ ' ( ' ! ~ ( ( ~ ( D ~ *.=.&.4.0.+X<X<X7X7X7X8X9XsX8X7X7X@XXX}. Xd.d.i.e.i.e.",
"x j j x | ^ | } ..,...} ,.<.<.<.u.t.a.a.A.i.t.t.u.A.t.a.H.,Xi.{.9XjXjXjX7X8.X.W t 5 E M.1.,.,.,.,.,.,.<.1.M.M.M.1.1.,...,.,.,.M.S.S.S.S.A.S.Z.Z.Z.N.A.S.S.S.S.A.S.F.S.F.F.F.F.F.F.F.F.L.J.H.J.J.J.J.L.L.L.L.H.H.t.` E y 6 5 e e Z ] _ <   + =.S J ] B V 6 6 5 2 ; + $ 2 9 0 + + + + 2 $ 1 + + r e N o.4.] Z F ` 4.a.G.G.G.G.H.D.H.D.D.G.H.H.H.H.D.f.a.a.H.f.f.H.I.,XH.H.H.>Xg.f.f.f.H.H.H.H.H.H.H.H.D.H.G.p.r.t.r.C > e , , 6 e e V r V C *.:.:.;.[ ! ! Q / ( Q D Q Q F *.=.r.y.q.s..X<X<X7X7X8XaX9XaX9X9X7X<X+X Xe.{.i.e.8.8.e.",
"-.-.-.-.-.n.,.m.m.,.} ..<.M.1.Z.A.D.A.H.H.H.f.A.A.u.D.H.g.5.o.@XjXnXMXnX9X XX.W y g ,.,.<.,.,.,.<.M.M.1.M.M.<.1.,.<.M.M.M.M.M.M.M.S.M.1.M.1.S.Z.Z.N.S.S.S.S.S.F.S.F.F.S.S.F.D.F.F.F.J.P.J.L.I.L.L.L.L.J.L.J.F.F.F.D.D.t.[ R Q E _ o.[ O   + [ X.X.] Z e 6 6 2 ; ; = ; 9 9 r 9 7 9 9 2 = O + + w i M X.] ] { 4.a.D.G.G.G.H.G.D.D.D.H.H.>X>XH.H.u.f.a.G.H.H.H.H.H.H.g.G.f.G.G.G.H.H.H.G.H.H.H.g.H.H.D.G.D.G.y.r.t.y.:.C 6 , 7 e e e e 6 e i E :.1.:.:.*. .) ) / ! Q Q Q ~ ~ =.4.y.f. X.X<X8XaXaX8XsXsX8XsX9X8X7X@XXX.X.Xd.d.{.e.{.",
"-.n.,.m.,.,.m.m.,.,.,.M.M.Z.Z.S.A.t.H.H.f.A.A.i.t.D.D.a.{ ] e.7XgXjXMXlX9X.Xo.! / <.1.,.<.1.1.m.M.,.<.,.,.,.M.M.M.M.,.<.M.1.M.M.M.Z.S.Z.S.N.S.S.F.S.S.S.S.A.S.A.F.A.F.F.F.J.L.L.L.J.J.K.F.L.J.L.L.J.J.L.F.A.F.F.F.K.F.F.D.2 o 4 t C g     + :.4.K ] Z 6 : * & * * o + * 9 p r r C C e w 9 + + u i i { C R u.H.G.H.H.H.H.G.G.f.D.D.H.H.H.H.H.H.H.D.G.H.H.H.f.t.H.f.H.H.,X,X,XI.,XH.f.H.H.I.H.H.G.G.H.G.G.H.D.r.:.r.u.r.R e 6 w > 6 e r r e y C [ 1.1.:.:.:. .) ) ) ( ( *.=.=.r.p.f..X>X@X8XsXsXjXjXjXjXjXbXgX9X1X@X.X.Xd.i.i.d.d.",
"-.-.-.-.-.-.| ,.,.m.M.<.<.u.Z.Z.t.D.t.t.f.t.f.D.A.A.t.` Z ] 8.XXaXjXlXgX7X{.o.[ :.,...,.,.,.,.,.,...,.,.,.,.M.M.Z.m.M.M.M.1.1.M.Z.M.<.M.M.N.Z.1.1.1.M.S.F.F.A.A.K.F.F.F.F.F.F.D.S.J.G.F.L.L.F.L.L.J.L.L.L.L.F.F.F.K.F.F.F.q         .     # y t i E C i t w w 5 : : - - : w r i F C C r i w : w r 2 +   1 F.L.J.L.J.H.H.H.H.H.G.J.>XH.H.D.H.H.H.f.D.H.H.J.G.I.>X>X2X,X,XI.,X>XI.H.H.H.,XH.H.a.G.G.G.G.D.G.a.y.a.a.a.u.t.C e y r y V r V V y 6 e [ 1.>.:.:.;.;.) ( ~ *.*.:.r.r.y.g..X1X<X@X8XsXsXsXjXjXbXjXjXaX7X<XXXXX X}.{.i. X",
"-.| | -.| -.| ,.,.,...,.<.<.u.Z.A.f.H.H.H.H.D.A.u.t.E Z Z ] o. X9XlXbXjX7X X4.{ / R g g t t g g u g g g g R R ^ W R g g g g g g g g R g g E / } *.} ) } W  .../ / ...... ...<.,.;.,.......<.M.Z.u.A.Z.<.<.A.x.t.<.Z.Z.1.m.q .               .   X   o o X t ;.[  .` W E Q r ; + 9 i C D N N N r r :     < <.t.u.t.t.u.u.Z.u.u.r.u.u.A.u.t.A.t.t.t.u.u.y.a.p.D.a.D.f.t.a.u.a.y.a.u.p.f.D.D.a.r.r.r.:.r.:.:.4.4.t.4.:.t.t./ V e V r e e y i y y e y ) t.<.:.:.<.;.;.*.*.=.>.r.y.s.d.,X1X7X7X*X7XbXbXsXgXsXjXsX9X7X<X<X.X.X Xi.i. X",
"-.-.-.| | ( ......m.,.<.<.<.u.Z.A.f.H.i.D.i.a.t.:.V V Z W P o.{.=XjXlXjX<X XO. .Q i g g u t g y u h 9 6 4 4 y g g g 4 5 6 4 t t t g t g g g ^ ^ ^ W / / /  .^ W  . .....W R ^ / ^ W / } ....x.............<.Z...<.M...} } q . .                           q <... . ... .;.g       X + : u D C C u = X . + W W E E E E C E E Q / / ! W _ ! ` ` ` [ ` ! F F F _ _ _ _ _ ! ! Z ! ! Z ! J F _ J _ ' ! _ F Q C C V V V y V r e e e y i V V r e e e t e y / 1.1.:.1.>.;.:.:.>.t.y.p.s.d.,X7X8XsXsX7X7XsXjXjXsXjXjX9X7X*XXX.X.X.X{.{..X",
"j | | x | | -.} ,.,.m.,.<.<.u.A.A.i.A.D.H.D.D.u.R y 6 r C _ 4. X<XrXsX9X@X}.O./ C y 6 t 6 t 4 4 t 6 t h g y g g R R g t g g R R g R g y g g E E i R t i R g R R W } ` W W W W } ../ ^  . .` / ` ..<.....<.<...../  .}  .} h . . .                         q ..[ ..` / / [ ^ .       .   X + 2 t 2 o   . + W _ _ ` ` ! ! / Q R C C E Z E C C E R C Z F E Z Z Z E ! ! _ _ Z Z Z Z F Z ! S Z C N C V C Z Z Z D ! Z C C y V r e e r e e e w w w w t t r y / >.1.1.1.1.:.>.>.u.p.p.f.g.>X<X7X9XsXjX9XaXjXbXbXbXjXgX9X<X@X.X.Xi.i.i.8.",
"-.| | | -.-.} -.,.,.,.,.<.<.<.u.u.u.A.f.H.A.t.t... .` [ { t.i.>X7X8X9X7X<X.Xy.{ ) ^ ^ j j E ^ ^ ^ ^ W ^ ^ ^ ^ ^ ( / Q ( Q ^ ^ W ^ ^ ^ ^ ^ ^ ( / E / / / / ) } } } } [ ..<.,.,.<.<.<.....M.<.<.Z.A.<.A.A.Z.Z...x.,...,.<.,.| X     . X . .                 3 m.;...x.....;.-.1     .           O O .   . + *.=.[ { {  .[  ./ [ / ) ! [ ` [ ` ! ` ~ ! ! ! _ / ! _ ! ! ' _ ! J J ! J _ J _ J F F F J Z ! Z Z ! Z _ Z E E C C Z E F F E Q F i r r y u u w u ! 1.u.1.1.;.1.r.r.a.f.f.g.>X<X7XsXsXbXbXjXbXzXnXzXnXjXaX7X@XXX.X Xe.e.e.",
"( g g g g j ^ } } | } ..<.<.<.t.t.y.t.H.H.i.D.J.F.G.F.D.H.H.,X8X8XsXaXeX4X,XH.D.1.1.,.,.,.;.,.,.,.,.1.,.1.1.1.1.M.1.1.1.1.Z.1.M.Z.S.M.1.M.Z.M.1.1.u.u.1.u.Z.u.Z.Z.A.Z.F.A.Z.A.F.A.D.K.L.L.L.L.L.L.2XY.L.L.L.L.I.L.L.K.F.S.K.0     .     . O .             h L.P.L.>XY.H.J.F.u       .   @   . . O X X . 1 S.P.P.H.J.H.J.F.G.J.J.J.J.G.G.G.H.G.J.H.J.G.G.G.f.f.G.G.G.G.D.G.G.H.H.D.G.a.a.a.a.a.D.f.D.t.f.a.t.u.p.p.p.u.a.a.Z.u.t.r.u.1.u.u.u.1.1.>.1.:.:.:.:.:.;.*.[ :.:.:.:.t.y.s..XXX<X7X=XaXjXlXjXjXnXMXnXzXjX9X1X,X.X X Xe.d.",
"j x ( | ( | } } ..m.,.,.<.,.;.<.u.a.H.H.f.D.J.G.J.G.H.F.L.H.3X4X6XsXaX8X<X>XH.u.1.<.<.<.<.,.<.;.,.,.;.<.;.<.1.1.1.1.1.1.1.u.u.1.1.1.1.1.1.1.u.u.u.Z.M.u.t.1.<.1.<.1.Z.A.<.Z.A.A.F.F.F.K.K.F.L.L.L.L.L.L.J.L.L.F.F.K.F.F.F.A.l .                           j U.J.J.Y.L.Y.J.K.j     .               O + O + F.Y.I.I.I.2XY.2X2XY.H.I.J.G.G.P.I.I.I.I.I.I.I.I.I.H.J.H.H.J.H.G.H.G.J.G.G.G.G.G.G.G.G.H.J.J.H.H.H.H.f.a.D.D.D.D.a.Z.D.a.S.u.a.a.u.Z.a.Z.u.Z.Z.Z.u.;.;.;.>.<.r.r.r.t.i.s.H.+X<X7X9XsXbXnXnXMXzXMXmXjXsX9X7X@X+X.X{. Xi.",
"| ( ( ^ ^ ( | ,.,...,.,.,.1.Z.S.F.D.D.a.t.J.F.G.D.L.F.J.H.H.>X4X6X8X8X1X4XH.H.D.1.1.<.<.<.<.<.<.>.1.,.<.1.<.1.1.1.1.1.1.1.1.1.1.1.1.<.<.<.1.1.1.1.u.Z.Z.S.Z.S.Z.S.S.D.A.M.Z.A.A.A.A.F.A.F.F.F.F.A.A.F.F.K.L.L.L.L.F.K.K.K.K.| . .                         j Y.J.L.L.J.J.J.K.j         .     . % % 0 O . % 1.P.I.L.Y.2XI.L.2X2X2X2XI.I.I.P.I.J.H.H.I.I.I.I.I.H.I.H.I.H.H.G.J.G.H.G.D.G.G.G.G.G.G.G.G.H.D.a.D.f.D.f.D.f.a.a.a.a.u.S.Z.D.Z.S.Z.S.Z.u.D.Z.u.u.u.u.>.:.1.t.t.r.y.i.a.s. X+X<X7XaXjXzXMXMXMXmXMXMXzXjX8X<XXX.X.X X8.8.",
"^ | | ( | } ,.,.,.,.M.,.M.M.Z.Z.A.D.r...t.u.u.t.1.r.u.u.A.f.H.,X<X1X<X<X>Xf.t.>.[  .} ) ..} } } } -. .}  . . .*.;...;...;.} ;. .....} ..-... .} ;.....<.:.:.<.:.:.1.1.<.x.u.Z.m.A.Z.A.M.Z.A.A.A.A.A.N.A.S.N.F.K.A.K.A.F.A.K.n.O .   .                     ..K.L.J.J.J.J.J.F.| .         . O % 0 0 % X . 1 D.L.Y.Y.2X2XI.L.2X2XY.I.I.I.I.I.I.H.I.I.I.I.I.I.I.I.H.H.,XJ.J.H.I.H.G.G.G.G.G.D.a.H.G.J.G.H.G.H.H.D.H.D.G.D.G.D.D.D.D.D.D.D.S.S.S.S.S.Z.S.Z.Z.Z.Z.S.u.:.r.u.u.u.y.i.a.f. XXX<X7XgXbXlXmXMXMXnXzXjXjXbXrX7X<X+X.Xi.{.i.",
"| | ( -.,.,.,.m.m.M.M.M.M.A.D.A.D.[ C V R V y V V r i C Z ` o.i.<X<X<XXXs.o.` V y w t t 6 4 2 t 9 w t y w u u y t g y t u t u t t u t t t 9 9 t t t t y y i i C i C C / R R R R l ^ | | }  .} ^ ^ ^ } } } ..} | ..| ..x.,.,.,.O . O .                   . | ..` /  .....<...E           . . % % O X . O <  ...O.t...t.....` { {  .{ { [ [ *.{ { &.{ =.=.&.' ' ' { u.a.4.r.r.r.=.=.=.=.=.=.&.[ ' ' [ [ ' ` ` ` _ _ _ ! E F C E E C R R i i i R i i i i i y i i C i Q r.u.u.y.a.H.H.,X1X8XsXdXjXmXMXMXBXJXBXMXjXgX9X7X@X>X.X Xi. X",
"-.-.<.,.,.m.,.1.m.M.M.M.M.<.,.<. .C R C C V V V y V V V Z J X.0.{..XXX.X0.o._ R i t w 5 2 2 5 2 2 4 i t 5 w w w w t t 4 6 4 4 5 4 6 2 2 2 < 2 2 u 5 5 t y i i i y y y y y g y g h h R W } x.x.x.z.} | ......| | | ..| ....n...< . X . . . . .           X .......... .......E     .       . . O . O X X $ / ..` `  ...{ { ` ` / ! E Z ` :.[ ! Z C C Z _ F F _ ` ` 6.y. .` _ _ _ ' ' ` ' ' F ' ! C N N V C E Z V y y e e 6 w 6 > 6 5 5 , 2 , 5 2 5 2 2 : : 5 2 5 6 r ` t.a.u.f.f.H.,X<X8XaXjXbXMXJXJXJXJXKXJXMXzX9X7XXXXX.X.X.X X",
",.n.n.,.-.-.-.....,...} ..,.<./ 6 i Q Q D C V y C V C Z Z J ] 2.i.e. Xe.3.X._ C t 6 w 4 5 2 4 t t t t 2 5 2 w w w t q 6 t 6 t t t 6 4 2 = 2 2 4 g u y R Q V y 6 w 5 e t y y h h W ^ W | | ^ ^ ^ ..,.M.m.x.....x.z...m...,.m.m.h   X O . . . . .         + x..... .` ` ......j               . O O O O o < ..{ ..` ` `  .{ ` ` ` ` { :.t.r.{ ! Z C Z C Z F _ ' _ Z { { [ ' ` _ F F Z J _ ' _ F J ! Q C V N C V y V y i / Q V e 6 5 5 5 5 5 2 w 5 6 4 5 5 5 5 6 6 e y y [ t.p.G.g.>X<X1X7XaXjXnXJXLXLXJXJXLXJXBXnXjX8X<X>X.X.X.X X",
",.-.-.| ( -.,.,.,.m...M.Z.Z./ R g g i i C y y y r e V C Z J ] 4.O.i.8.3.4.] _ V e 6 t t 2 2 4 2 4 t w 6 w w t w w 4 w 5 w 2 4 6 4 4 6 4 6 g R R g y 6 y y t w w t i E ^ ^ W ^ ^ W W | | | | | W | | m...l.W x.W ..| ..z...n.M.h X   X X X   . .         $ ....` W .... . .<.g         @   . X $ O O O O ; *.{ {  .o...o.u.t.t.t.{ { ` W ! Q W ! Z ! ` ! { o.! Z _ { u.t.! E E Z F F _ J J ! J F ' [ [  .[ ` E C i t 6 t e y t w w 7 9 2 4 6 6 5 2 5 4 5 6 t 6 e t e y C ` a.D.g.>X,X<X8XsXjXzXJXLXLXJXJXLXLXMXzXsX8X@X>XXX.X.Xg.",
"| g h j j } -.,.M.M.M.M.1./ u t g E Q E Q C V y e y V V E _ o.o.5.8.8.5.X.` ! V t 6 4 5 5 2 2 6 t 6 4 6 5 5 5 5 w 5 5 2 2 t 6 u t g g g g g t 4 g y w t C i i y y i i R R i g h h h W W W l.} x...z.x.| | | ..x.z...x...m...m.f   X . X X   .           2 ....} ....o... ...6           . . O O O O . O $ -.....A.A.A.A...{ ` { ` ! Z Z Z E Z V Z Z Z { u.r.` ! ` ] 4.4.` Z Z F J F _ ' F F ' _ J ! E Z E / ` [  .[ / R e 6 w , : : , w t 6 6 6 5 2 4 5 4 t t t y y V C Z { a.f..X,X<X7XaXsXbXMXJXJXJXLXIXJXHXbXsX7X<X.X.X.X Xg.",
"| ( ( -.-.,.m.M.M.M.M.M./ t y t y y r i E C V C C y V C C _ _ X.o.y.6.3.X.] Z V w t t 4 2 5 4 4 4 5 2 4 5 t w w w y y y R R g g t 6 t 4 4 5 4 2 t y 6 e i 6 e e e t y V g 6 h t h h h h l W l | | | ^ | W | | ..x.....x.,.m.n.h o . . . X               4 x...W  ....... . .q       @ @ . O O + O O X X 1 ,.<.t...t.t...O.u.t./ W ` ! ! Z E Z Z V V ! { ` _ S Z Z J ` ] ` ` _ ' _ _ _ _ _ J _ _ Z ! Z E V V V V V E ! /  . .) Q R C C i y 6 6 5 2 2 6 4 5 6 6 6 6 r V Z Z Z 4.H.,X,X1X7XaXgXjXmXBXBXBXLXLXJXmXjX9X8XXX,X.X.Xd.s.",
"} -.| ( -.,.M.M.M.m...R 6 t R R y y r y i e t 6 t y V V V Z _ _ ] o.X.X.] J W R Q R y t 4 6 u t t 6 u u y g g i i R i g h t 4 4 5 2 5 4 6 h 4 5 2 2 t t V e 6 y C y t y h g y h V h h h W l W h W | | | ..z.| ..} ..x.M.x...m.0   . o .                 h A............. ...9   @       O % $ % O X   X 1 ,.<.......{ .... .` ! W ! ! ` _ ! ! ! _ _ ` ` J _ F F _ Z Z Z J Z J ` ' { { _ _ ! F Z Z Z ! Z C V y y V y V V 6 i C C C E E W Q E E W W W E V y e 6 6 e y C V Z ! ` i.,X<X1X7X9XsXbXMXJXBXBXJXLXJXMXbXsX7XXX.X.Xd.i.i.",
"| -.-.-.;.,.-.-.....^ t t g g i E C C C R i V y y V C y V Z _ ] ] ] X.X.] ' ! R t y g y t y j u g u t t i y y y y t w 6 6 5 5 4 4 5 2 2 2 2 2 < 2 4 t y V V 6 V V t 6 t 6 h 6 t h t h h l ^ ^ l | | ..| | | | | | x.m.x...M.m.4 . o   . . .             j <... .<.A.<...} ,.q   . . . . . + 1 3 O . . X 1 ,... .{  . .{  .[ / Q Z E C C Q F _ ` ] [ ` ! Z Z Z Z _ J J ` J ` ' ` { { :.{ ' { ' ! [ ' ` ` C V V V i V y C C V e y i e y V y e t V i R W ( /  ./ / / W ! F ! ` ' ] y.,X@X1XaXsXbXnXBXBXJXJXJXJXMXnXsX8X,X Xg.g.i.6.",
",.,.,.m.,.M.1.,.-.| y 4 6 t t t y C i V y y y i V y V V C E _ ` ] o.X.] ] _ E y h 6 5 4 g -.} | ^ ^ ^ / ^ ( ^ } / / / ( / ^ / ^ ^ j ^ Q E j E R E E / / { ` ` / _ ` / / W R ^ W ^ ^ | | | | | -.| x.z...z.m.M.x.m.M.m.m.M.x.m.f .                     . z.N.M.M.A.A.A.<.1.M.f     . % O . X % % X X X X 4 A.A.A.A.D.A.t.>.,.[ [  .:. .{ [ :.=.r.t.t.t.<.=.:.t.4...{ { { :.{ r.t.4.t.4.:.r.=.4.r.u.r.y...` ` E V V y e V R V V C C e e y y e t y y R Q C V R E / /  .t.t.t.{ :.o.y.g.+X<X7XtXsXjXzXmXzXcXmXMXmXjX7X<X.Xg.i.i.i.4.",
"m.m.,.,.,.M.M.M.^ y } t 6 4 6 t y y y t e i V C y y V V V V Z Z J ] K ] ] J Z V g 6 6 i } u.1.1.<.;.;. .;.;.<.M.M.1.1.<.<.:.,.,.,.;.;.;...,...-.} ;. .r.u.{ { t.{ <.:.;.} } ..| ..z...m.m.m.m.m.m.m.V.V.V.V.V.V.m.m.N.m.V.V.m.x .                       m.K.U.L.L.L.L.L.L.K.x   . . % 0 + O O O . . . . f Y.Y.U.U.Y.Y.Y.J.Y.P.L.J.J.J.G.G.H.H.P.G.H.J.,X2XI.I.I.2XI.2XH.H.,XY.H.,XH.I.I.I.P.J.I.H.I.L.H.G.` _ _ ! C V r 6 r V V y e e e 6 6 e 6 w y i i y e t e V V C W ! E Q _ 4.s..X@X1XaXgXbXnXMXMXmXnXmXjX9X1X<X.X>X>XH.H.g.",
"1.M.1.( ( M.m.^ 4 4 g t t t y y y y t e 6 e 6 t e e e y V N Z Z J ] o.] _ _ E i 6 6 t ( 1.M.M.>.<.<.1.1.1.1.M.1.,.1.<.;.;.;.;.;.<.;.,.;.;...;.}  . . .:.u...{ :.o...;.;./ } } ..| } | ..m.m.m.m.V.V.V.x.n.V.m.V.V.C.C.C.C.N.V.N.h                       q K.L.K.K.K.L.L.L.U.-.      . % 0 0 % X . . . . h L.Y.L.L.Y.L.L.J.F.Y.Y.Y.Y.Y.J.I.Y.2XI.H.D.f.D.D.H.L.,XI.2XI.2XI.Y.,X2XY.I.I.I.J.I.I.I.I.I.H.2XJ.t.E ! W { { E V V V r e e 6 e 6 y V V y e 6 w y g R C V V V Z V Z Z _ ] i..X<X7XaXjXbXMXHXMXMXMXbXjX8X<X<X,X+X>X.XH..X",
"M.M.M.<.M.,.W t 6 g g 5 2 5 4 5 t 6 e t e t r y y V y t V C V Z _ ` ] J J Z E E D i p 1.1.1.1.1.1.1.1.,.1.N.1.1.1.1.1.;.<.<.<.<.-.-.1.1.-.-...} } -.[ *.t.` { 4.t...;. ./ / } | ..| m.,.,.n.n.m.m.x.m.m.V.A.A.C.C.K.C.N.V.N.m.m.j           . .         O -.K.K.K.L.L.K.J.L.N.3       . + O . . . . . O ( U.^.^.Y.Y.^.Y.Y.F.P.U.U.P.P.I.Y.2X2X2X,XH.I.H.J.G.G.G.D.G.H.J.I.I.I.I.I.I.I.I.Y.I.I.2XI.2X2XH.H.G.:._ E Z Z E E ! ! E V e w 6 w 6 6 y e e e w 6 e V V C / W Z C Z Z _ ] i. X<X7X9XjXmXMXMXMXMXMXbXsXaX1X<X>X.X>Xg.H..X",
"m.M.M.<...g 4 6 4 g W t 4 5 6 4 6 t y y t y V V y y e e y V V Z K _ _ ] Z _ V V r u ,.1.N.1.1.1.1.1.1.1.1.1.1.1.1.S.1.1.1.M.1.<.1.1.1.-.>.-.,.} -.)  .;.<.4.{ ..t...;.[ } [ } } | ..| | | -.n.m.V.m.C.V.C.C.C.C.A.C.N.C.V.m.V.l       .                 . f K.J.K.K.F.K.K.K.U.j .       . O . . . O % % -.U.Y.Y.^.2X2XY.Y.Y.P.Y.Y.P.P.J.I.I.2X2X2X2X2X2X,X2X2X>XH.G.D.a.f.H.I.I.I.I.2XI.I.I.Y.I.I.Y.I.I.2XI.G.[ Z Z ! Z Z V V Z E R i y e y e e 6 e e 6 w 6 t y y C Z C Z W _ _ X.0.d.@X7X8XjXMXMXMXHXMXnXbXsX8X8X<X<X,X,X.XH.g.",
"m.1.m.,.g 4 4 2 4 6 ^ t 6 t 6 t 5 w w 6 e e 6 w 6 e e e V V Z _ _ ` ] ` J C V i u *.1.1.1.S.1.S.1.1.1.1.M.1.1.1.S.1.1.1.M.1.1.M.1.1.1.1.,.;.-.} ;.) *.:.t...{ :.....:. .} / ( ^ ^ ^ | ..,.m.m.V.V.A.V.C.C.V.C.V.V.V.N.V.V.m.n.f                           3 N.K.L.U.L.U.K.J.K.m.% @ .   . O % % % 0 0 ; 1.U.Y.^.Y.^.Y.^.Y.U.F.P.P.Y.Y.Y.I.,XY.2X,X2X2X2X2X3X2X3X2X2XY.I.G.D.H.I.I.I.I.I.Y.2XI.I.I.L.J.H.H.J.J.u.E C V C Z E V e 6 e e e e C ! / / Q C V e e e t V R V y C E _ ] o.y. XXX<X9XjXnXMXMXMXnXmXjXaX8X<X,X>X.X>X>X>Xg.",
"m.M.} g 4 < - < 2 t ^ g 6 4 6 t t t w 6 t y i i y e r i i V V N B Z Z B C V V i -.N.1.1.1.1.1.1.Z.S.1.S.1.S.S.1.1.N.1.1.1.1.Z.N.1.N.1.-.,.,.;.-.-. . .;.t.t.{ { t.{ [ ) ( ( ^ ^ } | | n.n.m.m.m.V.V.x.A.V.V.V.V.V.V.V.V.V.V.V.x @   . .   .               l.K.K.K.L.L.K.K.U.K.U.h O . . .   O O % % % u U.^.Y.U.^.Y.Y.2X^.Y.F.J.J.F.P.P.Y.2X2X3X2X2XI.,X2X3X3X3X3X3X2X2XY.2XI.J.P.G.P.G.P.P.I.I.2X,X,XI.I.J.J.G.r.Z V V _ { ` C V y w , 6 6 6 6 e V Q / / ^ E C R V V V V Z _ _ o.6. X@X7X7X9XbXnXnXMXnXzXbXsX8X1X<X,X>Xf.f.f.H.",
"<.-.g 1 2 2 2 2 6 R ..} R g g R C i t e w e w 6 w 6 7 w > r r V V Z Z Z V V i / 1.S.1.>.1.1.N.1.1.S.N.1.u.u.M.S.1.M.1.1.1.Z.Z.Z.1.1.1.1.-.1.>.-.;.}  .:.t.>.:.4.r. .) / / / ^ } ^ | | ..z.m.n.m.x.n.n.V.V.n.V.V.V.V.V.V.V.V.m.n.%                         -.K.K.K.K.U.U.U.U.U.F.j O O @ .       . O 0 N.U.^.^.2X^.Y.U.P.P.P.P.P.Y.P.F.J.G.P.I.I.2X,X3X2X>XY.2X2X5X5X2X2X2X2X2XP.P.G.G.G.p.p.p.p.D.H.2XI.I.I.I.P.D.` V c V Z V e e V y y 6 V y y e 6 e e y V E / /  .{ / _ _ _ ` X.5.8..X<X9XgXsXjXnXnXzXbXjXsX8X<X<X,X>XH.H.H.H.",
"| g j h 4 2 6 h h ^ ,.} R h 6 4 5 5 2 5 2 , 5 , 6 6 6 8 6 e e V C Z Z E Z V Q <.1.S.S.1.1.1.1.1.1.N.p.N.N.S.S.S.F.S.S.1.M.Z.Z.Z.N.S.1.1.1.-.>.-.<.;.:.1.t.r.:.=.{ [ [ [ ) / } ^ ^ ( | -.m.m.n.n.z.n.V.n.n.x.V.x.V.m.V.x.V.n.V.x.0         .               x C.N.N.K.C.K.K.K.-.3   . % O O O O O O % ( ^.Y.^.^.^.^.^.Y.^.Y.U.F.Y.Y.Y.I.I.I.I.I.I.G.G.H.J.H.G.J.Y.Y.I.I.,X2X3X3X3X5XI.I.G.G.G.G.g.A.f.A.t.a.G.P.G.G.D.! V V Z V e V V y V y V V V i e e 6 6 6 y V V V E ` / { 4.y.i.i.i.d.XX<X9X9X#XsXbXbXbXsXaX8X<X,X>X,X,X.XH.s.",
"9 1 1 q 4 t j E E ^ g 5 2 2 2 2 5 w w 5 w , > w w 6 6 7 6 e e V N N S F V Q 1.1.1.S.S.S.S.1.S.S.a.N.u.S.S.p.S.F.F.N.N.u.1.N.N.1.1.1.1.1.1.>.-.>.;.;.;.:.;.[ [ [ [ {  .=.) } } ^ ^ | | | | m.n.x.x.V.n.V.B.V.V.V.V.V.V.n.n.V.m.B.k..       . . .         . m.C.K.K.U.K.C.K.N.3       . % % % % % % O j U.^.2X^.qX5X(.(.5X5X^.Y.P.3X2X2XY.2X2X3X2X2X2X2XI.2XI.I.I.I.P.P.P.H.P.P.2XI.Y.2X2XP.P.P.P.G.H.H.i.G.a.D.a.p.u. .N e e c e V y 6 c V V V V y 6 6 6 y y y V V V R V V Z ` 4.i.d.>X.X{..X@X<X#X@XsXjXsXbXsXeX8X4X<X,X,X>XH.f.",
"= + 1 4 4 4 2 g j 6 t 5 5 2 5 2 2 5 2 2 2 5 6 6 6 w e y i C V Z Z V C V i ;.S.S.1.S.1.1.S.S.S.S.F.S.S.F.F.F.F.S.F.p.F.S.F.S.p.S.N.S.1.S.S.1.>.-.) ) ) [ ..:.:.:.:. .=. . .} ^ ^ ( x | | l.x.n.n.n.n.V.V.V.V.n.n.V.V.V.V.V.V.B.V.z . . @ . . . . . .     3 V.A.K.K.C.K.K.K.V.%   . .   . % % % O . . O -.^.^.^.5XqX5X5X^.^.2X^.Y.Y.2X2X2X2X2X2X2X2X2X2X,X2X2X5X2X2X2X,XI.P.P.G.a.g.P.I.Y.I.I.Y.I.H.J.H.H.H.G.a.a.a.a.p.[ V V V e y V V e e V 6 V 6 y V C V V V V V C Z E E Z Z _ 5.s.0.{.>X8X8X7X7X<X+XaXsXsXaX8X8X4X4X,X,X,XH.H.",
"< $ < 2 1 1 2 h j t 4 6 t t 5 w w w 5 5 5 6 t y 6 e t y r e e y V V r V *.S.S.S.S.1.S.1.S.S.S.S.S.F.S.F.F.F.F.S.S.S.N.F.S.F.F.F.S.S.S.S.>.1.>.1.;.1.;.1.1.p.>.p.:. .r.[ ) } / } | ( | n.-.n.n.n.n.V.n.V.V.B.V.B.B.B.V.V.V.V.V.n.0   . . . . O .         f C.N.V.C.K.K.C.K.V.%     . .           O O O z ^.^.5X^.^.qX5X^.5X^.2XY.Y.Y.2XY.Y.2X2X2X5X2X2X2X2X2X2XY.2X,X5X2X5XY.I.J.J.g.G.G.P.P.P.I.2X2XI.,XP.P.P.f.D.D.a.p.D N V r V 6 6 V e V V C y 6 R E V R R ! W Z V E Z Z Z _ i. X0.i. X@X7XsXjXsX*XXX8XaX8X4X1X4X1X,X3XP.g.g.",
"< < < < < 2 2 - t W y 4 6 g g t 2 2 2 2 5 5 6 6 6 5 w 6 e V i V e V i ~ 1.F.S.1.1.1.1.1.1.S.S.S.S.S.S.S.F.S.F.N.F.F.F.F.F.F.F.F.S.S.S.1.1.N.S.1.1.1.1.a.S.p.S.1.:.:.:.:.;.;.} } } | -.| n.n.n.n.n.V.V.V.V.V.B.V.V.V.V.B.V.V.V.B.1 . . . . .   .       X 0 m.C.C.C.C.C.K.C.C.0         . . % . X O O O -.^.^.(.qX(.5X(.5X^.5X^.Y.Y.5X2X2X2XI.2X2X2X5X5X3X3X2X5X5X5X2X,X2XI.5XaXY.Y.Y.I.P.g.G.a.P.I.I.Y.I.I.I.P.P.P.J.P.G.u.D V V V M V y V V E R V V V V V V V V V C V Z _ _ _ K i. Xd.e. XOX@X=X9X9X7X@X,X8X8X1X4X<X4X,X,X,X,XH.",
"4 2 1 4 4 4 4 < 2 4 R h 4 4 u 6 w g i w w 5 5 2 5 5 6 w y V E C V C Q u.S.S.D.1.1.N.S.S.1.S.1.S.S.S.N.F.P.N.P.P.F.F.F.F.S.S.1.S.F.F.F.S.S.S.S.S.S.1.1.1.p.1.>.>.;.:.:. .;.( } } } | | | n.m.V.V.V.V.V.V.B.B.B.V.V.V.B.V.V.V.m.} 9 + X . .           X 1 ; z.C.C.C.C.C.Q.K.Q.n.O . .   . . O . . O . 0 U.^.(.5X(.fXqXqXqX5X^.5XY.P.Y.Y.Y.5XY.I.,X2X2X2X2X3X5X6X5X5X5X5X5X,XI.I.2XY.Y.fXI.2XI.I.I.I.I.H.f.P.H.P.f.G.G.G.J.G.>.p C V y c V C F C V N V 6 V V V V V ! ` W Z ` { { o.6..Xd. X}..X@X#X=X=X7X@X.X X6X6X4X1X5X,X,Xg.H.H.",
"< ; 4 6 4 & 4 2 4 6 6 g E } ^ t t y Q g t 5 2 , : 5 6 w e e e w e i ;.S.F.S.F.S.1.1.1.1.S.1.S.S.S.F.F.P.N.P.F.S.S.S.1.1.S.S.S.F.F.S.S.1.>.1.N.>.1.1.;.>.1.p.>.>.>.t.>.;.) / ;.,.-.-.-.n.N.V.V.V.C.V.V.x.n.B.V.B.V.R.C.V.N.-.Q C S D r 2 o         . 2 2 o h C.V.V.C.C.C.K.K.B..   . . . . O # # O O -.^.(.5X(.(.(.5XqX5XqX5X^.Y.Y.5XY.Y.2X5X2XP.3X3X5X2X2X5X5X5X5X5X2XY.2X2XI.I.I.aXI.I.5X2X5X2X2X2X2XI.P.P.P.G.S.p.p.p.u.u.D r y V R ` C e e 6 6 y V e 6 V V y C ` W Z Z W ` 4.>Xg.8.8. X}.XXXXXX@X@X@X.X0. X4X5X,X,X,X,X,XH.,X",
"h g g g 4 < 4 4 2 6 6 g ..^ 6 2 2 2 6 t i g y w 5 5 6 6 6 w 6 w e } S.S.S.S.1.1.1.1.1.1.1.1.S.N.S.N.1.1.S.>.>.-.1.1.S.N.S.N.1.1.>.S.1.>.;.-.*.-.;.;.;.>.S.G.S.p.a.a.1.>.;.;.;.,.,.n.m.m.N.C.C.K.C.C.C.C.C.R.V.V.V.V.C.V...E V A A o.` _ C y w 2 : w 9 o O 0 N.R.m.V.V.V.K.K.C.f   @ % O . . .   . O N.U.^.^.(.5X(.fX5XfX5X^.5X^.Y.Y.Y.Y.Y.5X2X5X5X5X2X2X5X5XY.5X5X2X5XY.5X2X5X2X5XY.I.2X2X2X2X2X2X2X2XI.,XI.I.I.I.P.P.f.S.a.r.D y V V V V V V y e y V e V t V e V V E ! ` o.4.6.y.O.2.3.8. X XXXXXOX@X@X.X{.i.g.,X,X,XI.,XI.,XH.",
"u g 4 2 2 6 4 4 2 4 4 q j 6 2 2 5 6 4 5 6 Q } u 6 4 6 t e e y i Q 1.Z.1.<.>.1.;.>.;.;.-.-.1.1.1.S.>.>.-.-.-.-.>.>.-.>.>.-.*.>.1.S.1.1.-.-.*.-.*.1.1.S.F.S.P.p.F.D.S.a.t.;.( ;.,.,.,.m.m.K.Q.Q.U.Q.K.E.E.C.V.C.R.V.m.m.) y V ] K K K K H K J F Z i 7 * o O 0 N.N.V.V.B.V.V.V.C.x .   . % 3 O O . . 0 U.(.^.(.fX(.qX(.fX(.(.5X^.2XY.P.Y.aX5X5X5X2X5X2XI.2X5X2XI.I.2X5X5XI.5X5X,X5XY.aX5X2X,X5X2X,X,X2X2X,XI.2XI.2XI.I.P.P.G.G.D.:.V y V V V Z V V V W / W R R i C V e V ! [ _ { 4.o.4.y.6.5.8.e.XX+XXX@X.X X Xi.6.f.,X2X,XI.,X,XI.",
"< 2 4 4 t 6 5 4 : 2 2 5 g h 2 2 5 4 4 6 2 w y w 5 6 g E i y r ( 1.1.Z.S.1.M.1.1.1.>.1.>.-.>.1.1.-.>.>.1.>.1.-.>.1.N.S.S.N.S.1.-.( -.>.-.>.>.S.S.S.S.F.J.F.F.S.p.a.a.D.S.1.<.,.1.M.m.m.V.K.Q./.Q.Q.^.U.Q.K.E.C.C.,. .` Z V V 4.5.o.o.X.] ] J Z V : o O O O j R.N.B.V.n.V.n.V.V.V.3 . o + % = + o . p U.^.(.(.(.AXfX(.fX(.^.2X2XY.Y.P.Y.Y.5X5X5X3X5X2X2X2X5X2X2X2X5X5X5XfX5X5X5X5XY.2X5X2X5X2X5X2X2X2X,X2XI.,XI.I.P.P.P.P.P.P.G.G.` y c y R ` R y e V V E W ` / ` ! E Z Z ! _ ` t.r.o.4.0.i.i.0.i. X{.}..X Xd.0.5.o.G.,X2X2X,XI.I.",
"= < = 4 t h g ^ g 4 ; 4 ..g 2 5 5 2 2 2 5 t 2 5 5 u y t 6 i Q >.S.u.1.1.>.,.;.-.-.-.-.( ;.-.1.S.S.S.N.1.-.>.1.1.S.S.S.S.1.1.-.*.-.1.S.S.S.S.S.S.J.S.G.F.P.p.>.S.G.G.D.G.D.D.N.1.M.N.N.K.Q.^.^.(.(.U.K.Q.U.K.M.[ _ J Z V ! ] 2.5.O.o.] J Z V 6 = X o O O % ( N.R.B.n.n.n.B.V.V.m.x $ u S ! _ _ Z p p U.^.(.(.fXfXqXfX(.fX5X^.Y.Y.Y.P.P.Y.5XY.I.2X2X5X2X3X5X2X2X5X5X5X5X5X5X5X5X5XaXY.aXY.5X2X,X5X5X5X5X2X5X2XI.,XP.P.f.G.G.D.G.J.a.E 6 V _ _ e e e r i e 6 w y C R ! _ ! _ ` { o.a.i.4.3.3.8.8.e.0. X}..X.Xd.3.X.] ' G.I.H.I.H.J.",
"o = = = < < 6 g } ^ g ^ ^ 4 5 4 6 - 4 6 6 5 4 6 5 6 2 5 2 t } 1.>.1.1.>.>.-.1.1.1.1.1.;.1.1.N.Z.>.N.-.( ( >.>.N.S.S.S.S.S.N.S.S.1.N.1.1.S.S.S.S.F.F.S.G.P.S.p.G.P.G.F.G.F.S.S.1.N.N.N.U.U.(.(.(.^.1.S.L.A...W J Z c 6 & c O.O. .L m D r w * o o o + + ; 0 -.R.N.C.B.B.n.B.n.B.N.W y F X.3.5.o.` *.S 1.^.(.(.fXfXqXfXfXqX5X^.2XY.Y.P.P.2X2X2X5X5X2X5X5X2X5XY.2XI.I.3X5X5X5X5X3X,X5X5X5X5X5X5X5X5X5X5X,X2X2X1X2X,XP.P.P.P.P.G.G.G.F.>.p F ~ D y 6 e t V y y y e y y e C Z ` F.G.a.p.y.2.3.0.i.8. Xe.e.e.{.i.0.0.5.4.=.4.D.H.H.H.H.",
"; < = = & < 2 5 g ..,.g 2 2 5 2 : 4 6 4 4 5 2 2 2 2 : 2 9 ( 1.1.S.1.N.S.S.S.1.1.1.1.1.1.1.1.1.1.1.1.>.*.>.-.-.>.-.*.-.>.>.>.N.>.S.S.S.S.S.S.F.F.F.P.P.P.P.S.G.P.G.G.S.G.S.S.1.1.N.N.N.U.(.(.5X(.N.Q Q j V W Z V 6 & & c W c V V 8 r 7 * o o X + ; u u Q -.N.U.~.E.C.B.B.n.B.n.B.l e A O.i.8.o.X.L ~ =.(.fX(.(.(.qXqXqXfX(.5X5X^.Y.Y.P.P.2XY.Y.5X5X2X2X5X5X2X2X2X3X2X0X5X5X5X4X2X5X1X5X5X4X5X,X5X5X,X1X2X2X,X2X2X,X2X2XP.P.P.G.G.J.J.*.r V r e w e V C V e 6 e y V y t V Z.G.o.` ] 4.6.6.6.8.8.i.{..X{.i.0.3.X.4.D.4.` ` f.J.I.J.",
"4 = + = 2 4 ; 2 g } g 4 - - - ; - 4 2 6 w 5 2 : 2 2 5 2 g >.Z.Z.S.1.N.>.1.1.1.>.1.1.1.N.S.1.M.1.>.>.-.( *.-.>.>.>.S.S.S.S.N.S.P.F.F.F.F.P.F.F.P.F.P.P.P.P.>.S.P.G.p.S.S.S.S.N.1.N.N.N.N.U.(.qXqXN.g 9 * 6 & - - 6 6 W W c & & & ; + O 0 q h ( -.*.-.>.,.>.U.(.~.U.R.C.B.B.B.B.m.g V ] 2.5.6.5.X.P J [ ^.AXqXqX(.(.(.fXqX5X^.^.2X^.Y.Y.J.Y.P.P.Y.Y.aX5X^.5X2X2XI.5X5X5X5X5X5X5X5X4X4X5X5X5X5X5X5X5X5X2X2X5X2X2XI.2X2XP.P.P.P.G.G.D.G.S.*.i y r e y e y r e e y e y V y / A.` _ Z ] ` X.4.6.0.0.8.e.e.i.8.@.+.X.] ] ` J B ` a.H.J.",
"= = & < ; 2 ; 2 Q } t 2 4 4 - 4 2 - 2 2 : 2 : - - : 2 i <.1.1.1.1.>.1.1.1.1.1.1.S.1.1.S.S.1.>.,.>.-.( ( ( -.-.>.N.F.S.F.S.N.P.N.S.S.S.F.F.U.F.F.F.F.U.P.S.p.p.p.G.P.S.>.S.F.F.F.U.N.N.U.^.(.(.qXK.h 1 & 4 6 V E V V 6 & & & 6 & ; 0 p ( ;.1.>.1.;.1.>.1.N.^.(.(.~.U.E.C.B.B.B.n.W B C G i.X.X.4.o.] ' ^.qXqXqXfXfXqXfX(.(.^.2XU.Y.Y.Y.J.P.J.P.P.J.Y.5XY.I.2X2XfX0X5X5X5X5X5X5X5X5X2X,X4X5X4X5X3X,X2X2X,X,X2X2XY.,XP.P.,XP.P.P.G.G.F.D.p.! C V e 6 t e e y V y 6 6 6 E t.` V Z Z J K P ] X.o.3.8.8.8.8.8.6.3.T K K _ _ Z N ` D.J.",
"2 < < 1 = = 2 t }  .4 4 2 q 6 4 2 - < - < : : 2 2 2 i  .1.;.;.;.>.1.1.1.1.1.S.N.S.S.1.-.-.;.) ) ( ( ( >.-.>.-.S.S.S.S.S.S.S.q.N.S.S.J.J.U.F.F.J.P.U.P.U.S.p.G.S.p.S.S.p.>.S.S.N.N.U.U.U.^.^.(.U.Q.m.j 9 ; = & & & & & & & & 6 6 ( >.1.S.S.1.>.>.>.1.>.>.K.(.qX(.^.(.(.U.E.C.B.n.R V Z ] t.o.J K ] ` { ^.qXqXfXSXAXfXfX(.^.2XU.P.Y.Y.Y.P.Y.I.I.Y.P.P.P.P.P.P.I.Y.5X5X5X5X5X5X5X5X5X5X5X,X5X4X5X1X1X5X5X,X2X,XaXP.2X,XI.I.G.P.G.G.G.a.J.G.u.[ [ / Z V 6 e e 6 6 e r E t.[ V C Z F J ] P X.X.X.3.2.3.3.7.8.3.5.X.] J Z ! J C V ' a.",
"< = = & = = t } } / 6 : - 6 4 ; & 2 : 2 - ; : 2 - 4 Q  .) ;.>.1.N.>.1.1.1.1.1.1.>.-.-.;.( ^ ( ) >.N.S.S.N.>.N.>.S.>.>.S.S.S.S.S.S.S.F.F.F.F.J.K.F.F.S.S.S.p.p.>.>.1.F.F.N.>.1.N.N.U.U.Y.^.(.^.U.n.| f $ = = : : - , 4 2 V W / x.S.S.1.>.>.>.>.>.p.1.S.S.U.qXAXqX(.(.(././.E.R.| 4 V o.o.o.o.] _ P J ` Y.qX).(.qXfXqXfXfX5X(.Y.U.J.F.F.J.P.Y.2X2XY.Y.Y.I.P.g.G.P.I.2X2X2X3X5X4X5X4X5X5X5X5X5X6X5XaX5X1X2X,X,X+XI.,X2X,XI.P.P.P.G.G.G.G.J.J.[ C C R R y V C C Z W ` u.D.` V C B Z F ` P X.X.X.T X.X.O.T Y T o.X.J B B C C V M r [ ",
"= : < = = = = R Q R } t - 2 6 6 4 - 4 - - 4 2 : 6 R /  .<.1.1.1.>.N.N.>.>.1.1.1.;.-.( ( / ;.1.1.N.S.S.N.S.N.>.-.>.>.S.S.S.S.S.S.S.F.F.F.F.F.F.S.S.S.S.>.S.S.G.p.S.p.p.S.S.>.-.1.1.N.K.U.^.qX(.^.U.m.x j u u g j W W *.*.:.u.u.u.S.p.p.S.p.D.p.D.S.p.S.S.U.SXSXAXfXAXAXqX(.Q.B.l & - R ] o.` ` o.] K V F.fXqXqXAXAXfXqX5XY.U.Y.U.U.J.J.F.J.Y.Y.2X5XY.aXY.I.2XI.Y.,XI.I.I.2X2X2X3X,X5X1X5X5X6X6X6XY.2X2X,X5XI.I.g.P.,XI.I.P.P.P.P.J.J.J.J.J.D.~ E ! C 6 6 6 C t.D.t.{ R V Z C Z Z Z Z J J P X.X.X.2.X.3.X.X.P K J B N M M V r 6 e ",
": < = = = + = g / w t R 4 2 4 4 2 2 & - < - 6 4 h / ,.<.1.1.1.<.>.1.1.>.>.-.-.*.( *.-.>.1.1.1.S.S.S.S.>.>.>.>.>.>.N.S.S.S.S.S.S.F.S.F.F.F.F.D.S.S.S.S.>.p.P.G.P.P.G.F.S.S.S.S.1.1.N.U.U.^.(.qXqX^.N.1.1.1.S.N.1.u.t.1.u.1.u.u.u.>.p.>.p.p.D.D.D.G.D.a.F.^.qXfXAXAXqXqXAX)./.V.s 6 6 : c o.c c Z A V 6 x.).qXqXfXqXqXqXfXU.U.P.F.J.J.S.F.F.P.2XY.Y.I.J.Y.2X2XaXY.2XY.,X2X2XI.,X2X,X2X2X2X4X6X6X6XaX5XaX2X1X1XaXP.,X,XP.P.P.g.P.G.G.P.G.G.G.P.u.Q R y y e r C  .! R E E V V C Z Z J J J G J K ] P X.T X.T P J Z A B N N V N V e > ",
"1 = + & = 4 u ^ } 2 = i g 2 ; ; = ; : : 2 2 5 4 } ;.;.:.<...<...-.-.;.-.*.-.*.-.,.1.1.M.1.1.M.1.1.1.<.;.;.>.1.Z.N.S.S.S.S.S.S.S.D.D.F.S.F.F.D.S.S.F.Z.D.D.G.J.J.P.F.P.F.F.u.N.1.,.m.K.U.^.(.(.(.K.S.S.S.S.1.S.1.M.1.1.S.S.S.a.D.D.a.a.p.>.p.p.p.S.q.S.P.(.AXAXfXAXfXDX(.(.(.v.0 6 6 6 ` i.c V A J V 5 -.qXqXSXfXfXAXqXqX(.U.P.P.P.J.F.F.F.J.Y.2XY.2X2XI.Y.Y.2X2X2X2X2X2X2X2X2X2X3X3X4X3X,X1X1X4X4X6X6X6X1X6X1X4XaXP.I.2XI.P.g.G.G.D.G.G.G.P.J.;.C V C E ! E V y y V ` [ R V N C Z J ] K J P P X.] P ] K K F S B V N N V Z Z C V ",
"2 1 2 2 t h t q g g t t g 4 t 6 u t h t t 4 t g E Q ^ W / } ^ / ( ( p ( j ( ( -.;.} ;.) ) ;.[ ) } ) / ) } } [ ) >.>.>.*.>.>.>.>.1.;.<.>.-.1.1.:.1.<.:.<.u.u.D.t.S.p.S.S.N.1.1.<...M.N.C.Q.U.(.U.F.p.>.1.1.1.N.N.N.K.N.N.N.M.S.S.S.p.p.u.p.p.u.1.>.S.S.S.^.AXfXDXAXAXfXAX(.(.z 0 & - 6 A.>XZ V c c 6 & x (.(.(.).AXqXfX(.^.U.N.N.K.K.K.J.F.F.P.J.P.J.I.I.P.I.I.I.I.I.2X,X,X2X3X3X3X4X5X1X6X4X1X6X8X1X8X4X6X1X4X4X2X2X,XP.I.I.P.P.D.G.a.D.D.G.J.D.Q i i V V V e y e y V / :.[ Z N C Z S _ _ P ] T X.X.X.X.P L _ F Z B N N N Z _ ] ",
"= 4 t 4 2 < 2 t -.-.g i ^ ,.m.,.,.} } g 6 t g 5 2 5 4 6 4 t 4 g p 9 9 : 9 9 9 u ) [  .i u e 6 5 w 2 2 2 ; w 5 5 0 ( p u 7 u 0 p E R C t u u r e u i R V E ! Z W p D *.Q / Q } } | | | z.B.B.E.U.m.( j j ( n.N.C.V.C.N.V.n.../  ./ Z Z F *.>.( p ( ( p ( N.(.(.(.(.(./.~.(.~.-.0 4 6 6 &.4.Z 6 c 6 & + -./.(.^.U.U.U.U.N.N.N.-.-.....} } *.( / [ ' ] =.r.&.*.` ] :.r.4.r.6.5.5.y.y.y.y.0.0.e.e. X.X.X X.X X Xs.i.q.q.q.q.=.&.&.*.[ ~ ' [ ' ~ ~ ! ) :./ C [ ) ;.>.<.` C R E ! W F ! J _ ' ] ] X.5.6.i.5.5.4.4.o.] ` _ J Z F Z ! F ",
"< 1 = = ; g ^ g i 9 t ^ 1.1.} R g g g 2 4 g g 6 w t i g t 5 4 6 0 9 w u r u w u ( ;.Z.<./ r w 4 : 2 : 2 e e 6 6 u p ( u 9 9 7 p C / / R r u e 6 e Q 6 V R Z V E D D D D W } ^ ( W l | z.n.C.E.C.B.j x N.C.E.E.C.C.E.C.C.C.V.m.} R C Z [ j r 7 9 r p p ( N.~.(.(.AX(.(.(.~.U.k.% & = 6 r Z 6 & & & & ; n.U././.(.(.(.U.N.N.-.( -.} } / / j ( Q _ _ ! ! ' =.&._ ` ] ] X.] ] X.4.5.3.2.3.6.8.0.8.8.0.e. X X.Xd.0.8.+.&.&.L ' S S S D S F Z N e r 6 e >.:.C V y i ! ..u.u.[ i e V C C B J J J K ] X.X.X.P ] P P J S G Z B C C N V V ",
": 1 4 4 g g 4 g ^ } g 6 i y t g / E j t y i t t i g t 6 4 : 6 6 2 6 g 6 u 2 2 : 2 5  .S.;.E : : : 2 2 R  .! V 6 y 6 y C u 7 9 r 6 i y V V R V 6 y R e y E E V E V Z Z W ! W R g W l | l.n.B.V.R.E.B.N.Q.U.E.E.Q.Q.E.E.E.Q.Q.U.N./ V ! Z r 7 7 r 7 7 9 p -.~.(./.(./.~./.(.U.v.O o & < : : 5 < & & & t x.Q.Q.Q.Q.!.Q.Q.C.B.N.-.-......./ W E / ` ` [ { 4.4.t.4.{ P ] P ] X.X.4.5.5.2.0.0.0.e.d.{. X X}. X X Xe.8.3.3.2.] L J J D Z Z N F { / Z e V Z ` y r r V V y V ! [ [ ! ! ! _ Z Z J J _ K K K ] P K K L P K S B N M M M M V ",
"t g g g t g y g g 4 2 2 ; 2 y g i 5 2 t g t E E 5 2 : 5 : < 2 - < 2 6 4 : 2 ; 2 2 5 g [ / R ; : 2 2 ; , 6 6 V i V V e e p ~ p w 5 5 5 6 V i C E C y e y V V V V W Z W W E V g g h l | k.n.B.B.E.E.U.U.~.E.Q.Q.~.Q.E.Q.Q.E.K.K.K. .E V 6 7 9 : : 9 9 9 u ( U.(.(.(.(.(./.~.(.v.%   o X X o O & & & 6 R m.Q.Q./.Q.Q.Q.Q.V.-.k.-.-.....n.<... ./  .[ { _ _ J _ { y.&.P 2.2.X.X.X.2.5.3.0.8.e.{. X+XXX@X+X}.}.}. Xe.0.8.3.T L L S F J Z Z Z  .[ E Z V C ! V 6 7 u M V V e 6 e y Z ! { &.J S A A J K K P P X.X.o.J J B B N M v e 6 > ",
"4 R ;.( 4 2 < - = < = = - 2 2 ; : = 2 y t / R 5 2 - 2 2 & 2 4 : 4 6 2 - 2 : 5 4 2 ; u / / R 6 2 4 : : 4 : 6 6 V W { / e w ( *.p : : , e y R V [ W , 6 6 c R E E V V V W W V g g l l | l.l.B.B.C.E.Q.E.E.Q.~.~.Q.~.Q.E./.^./.C.C. .C y , 9 , ; : 9 7 9 p -.R./.AX(./.(./.(./.N.p o           o ; y V W V.Q.E.E.K.Q.!.Q.B.n.| -.-.| W R R R R / [ :.{ [ _ ` ` ` r.y.5.4.X.] X.2.2.3.0.6.8.e..X@XXX@X@X@X@XXX X X9.9.0.2.T ] L J J _ ] _ J Z V e e e e C ` V e e e e 6 6 e 6 V V V C Z J J ` ] K J J K K K X.X.] S B N v N V 8 8 > ",
"^ / g 2 - = & < : ; = = 2 , < ; = : g y g  .i 4 6 2 : - 4 : : 6 6 4 & 4 6 2 6 4 2 = 6  .E : 5 6 6 V 6 , : 5 6 6 E { E u r *.>.F 5 , 6 6 6 6 e Q V , 6 r E V V V V V W V V g R h W l x l.k.n.B.C.E.E.Q.~.~.E.Q.E.~.Q./.)./.Q.V.,./ r e w 7 7 7 w 7 9 0 p >.R./.AX/.(.(.(.~.~.~.( h 5 - < < 6 R R ! E } K.C.Q.E.E.Q.Q.Q.B.x.l.n.-.} | W W R g V E /  .t.t.:.{ 4.s.f.y.5.2.X.T o.2.2.3.7.8. X}.XX@X@X@X*X*X@XXX.X X8.7.+.2.P L J L ' _ J Z N e 6 e 8 r V [ [ y e > e r e e 6 e Z E Z _ Z Z _ 4.4.] K K J K G J G S B N M M M N M V "
};
