/* XPM */
static char *out[] = {
/* columns rows colors chars-per-pixel */
"256 256 256 2 ",
"   c #050402",
".  c #0A0604",
"X  c #0B0A05",
"o  c #05060B",
"O  c #080708",
"+  c #04090E",
"@  c #0D0C0B",
"#  c #170905",
"$  c #130C06",
"%  c #120E0A",
"&  c #1A0D0B",
"*  c #0F100B",
"=  c #14120C",
"-  c #1B140A",
";  c #1B140C",
":  c #040913",
">  c #040C12",
",  c #0D0D11",
"<  c #130E11",
"1  c #0B1317",
"2  c #141412",
"3  c #1B1611",
"4  c #161816",
"5  c #1C1A14",
"6  c #1D1C19",
"7  c #240C0A",
"8  c #22150C",
"9  c #281509",
"0  c #24190D",
"q  c #2C1B0C",
"w  c #37180D",
"e  c #321E0C",
"r  c #280D11",
"t  c #231611",
"y  c #2B1513",
"u  c #241C14",
"i  c #2A1D13",
"p  c #231E19",
"a  c #291E19",
"s  c #291F1E",
"d  c #331D13",
"f  c #371A16",
"g  c #2E200F",
"h  c #34210D",
"j  c #3A240E",
"k  c #3C290E",
"l  c #262016",
"z  c #2B2116",
"x  c #25221B",
"c  c #2C241B",
"v  c #2E281D",
"b  c #342313",
"n  c #3A2513",
"m  c #362914",
"M  c #3C2A14",
"N  c #32261C",
"B  c #3B251B",
"V  c #332A1D",
"C  c #3C2C1C",
"Z  c #3B311E",
"A  c #121C23",
"S  c #19252C",
"D  c #262521",
"F  c #2A2621",
"G  c #2C2A24",
"H  c #2C2C28",
"J  c #342C22",
"K  c #342B26",
"L  c #3A2E24",
"P  c #3C3225",
"I  c #34322C",
"U  c #3D332A",
"Y  c #3A3428",
"T  c #243138",
"R  c #383732",
"E  c #3C3A33",
"W  c #442517",
"Q  c #422D15",
"!  c #4D2A17",
"~  c #4C2219",
"^  c #432D1B",
"/  c #4A2D1C",
"(  c #463215",
")  c #44321C",
"_  c #4B341C",
"`  c #4D391D",
"'  c #53341E",
"]  c #523C1E",
"[  c #462C23",
"{  c #552D25",
"}  c #433424",
"|  c #4B3423",
" . c #4D3A23",
".. c #42362B",
"X. c #473728",
"o. c #45392D",
"O. c #4A3C2D",
"+. c #533524",
"@. c #563627",
"#. c #533D24",
"$. c #5A3C24",
"%. c #533C2A",
"&. c #5B3C2C",
"*. c #453B32",
"=. c #453D37",
"-. c #4B3D32",
";. c #543E31",
":. c #643B29",
">. c #71372B",
",. c #56411F",
"<. c #4B412E",
"1. c #564124",
"2. c #5B4324",
"3. c #54422B",
"4. c #5B442C",
"5. c #5D492C",
"6. c #4D4134",
"7. c #45423A",
"8. c #4D433A",
"9. c #534335",
"0. c #5A4533",
"q. c #544936",
"w. c #5C4A34",
"e. c #54453A",
"r. c #594739",
"t. c #56493B",
"y. c #5B4B3C",
"u. c #5D5037",
"i. c #5D513C",
"p. c #62442C",
"a. c #634B2D",
"s. c #68492A",
"d. c #734F2D",
"f. c #6C522E",
"g. c #644433",
"h. c #634C33",
"j. c #6A4C33",
"k. c #624E3C",
"l. c #694938",
"z. c #754B35",
"x. c #6C5334",
"c. c #63533C",
"v. c #6B543B",
"b. c #69563A",
"n. c #725534",
"m. c #775936",
"M. c #72553B",
"N. c #745B3C",
"B. c #7A5D3C",
"V. c #7B613D",
"C. c #364449",
"Z. c #4B4D49",
"A. c #554B42",
"S. c #5C4D41",
"D. c #534F48",
"F. c #5E5143",
"G. c #5C5349",
"H. c #614F41",
"J. c #6B4E41",
"K. c #7B4E41",
"L. c #635344",
"P. c #695645",
"I. c #665A43",
"U. c #6B5A44",
"Y. c #655649",
"T. c #695749",
"R. c #66594B",
"E. c #6C5B4B",
"W. c #745D43",
"Q. c #795B43",
"!. c #715E4D",
"~. c #655C51",
"^. c #6D5E51",
"/. c #715F51",
"(. c #795F53",
"). c #6D6246",
"_. c #6E6249",
"`. c #746345",
"'. c #7B6343",
"]. c #74624D",
"[. c #7B644B",
"{. c #7C694B",
"}. c #6E6153",
"|. c #746353",
" X c #796654",
".X c #7C6956",
"XX c #776759",
"oX c #7C6B5A",
"OX c #78705E",
"+X c #596262",
"@X c #7D7062",
"#X c #884E38",
"$X c #845B3B",
"%X c #86653D",
"&X c #91653F",
"*X c #8B5A45",
"=X c #826444",
"-X c #846A44",
";X c #886847",
":X c #846B4C",
">X c #8B6D4B",
",X c #956948",
"<X c #887047",
"1X c #8C724C",
"2X c #93734C",
"3X c #826C54",
"4X c #896B53",
"5X c #816E5B",
"6X c #986955",
"7X c #8B7354",
"8X c #85715D",
"9X c #8B745D",
"0X c #967956",
"qX c #9B7D5A",
"wX c #A67151",
"eX c #A77B57",
"rX c #847362",
"tX c #857365",
"yX c #8A7563",
"uX c #8C7965",
"iX c #877769",
"pX c #8C7B6A",
"aX c #947C64",
"sX c #927E6B",
"dX c #AA7B65",
"fX c #9E815B",
"gX c #A4845C",
"hX c #B5855C",
"jX c #9B8367",
"kX c #95816D",
"lX c #8C8172",
"zX c #998673",
"xX c #A78965",
"cX c #B88A66",
"vX c #B7956B",
"bX c #A38C76",
"nX c #AC9173",
"mX c #BA9973",
"MX c #BDA178",
"NX c #C68F6D",
"BX c #C6956B",
"VX c #C89975",
"CX c #D39D78",
"ZX c #C6A67A",
"AX c #D5A27A",
"SX c #D1AD7B",
"DX c #B09883",
"FX c #D9A885",
"GX c #D1B08A",
"HX c #D6B688",
"JX c #DDAC93",
"KX c #E5AF8D",
"LX c #E9B896",
"PX c #DCC193",
"IX c #ECC69A",
"UX c #F3CFAB",
/* pixels */
"bXkX9X5XyXuX|.P.y.|.|.^.^.T.T.r.L [ =.=.;.e.P.|.|.L.yXpX|.`. XyXrXyX5XrX/...o.e.r.S.L.(.!.!. XE.L.5X5X(.[. X(. X!.!.Q.[.|..XsX8X X!.|.!.!.!. X|. XrX|.F.-.J -.E.XXoXE.L.|.XX.X5X|.k.L.y.L./.XXH.H.S.k.T.E.E.E.(.yXiXrX5X X].E.E.L.[.yXsXoX..& X 6 I t.oXkXzXrX(.L.L.P.E.k.9.S.Y.H.A.r.e.e.K a J K K [ e.L.S.9.S..X^.L.L.!.|./.T.T./...c U ..-.O.;.S.k.S.y.y.r.T.L.L.L.T.E.k.i.L.L.y.L.E..XT.H.y.y.y.k.H.H.H.T.H.r.-.J z U A.E.Y.-.-.y.y.T.|.q.-.9.6.e.L.9.U -.-.9.9.;.e.y.E. X|.T.T.Y.k.y.;.r.Y.XXXX-.3 X X 4 H t.oXlXXXE.r.9.r.",
"bX9X X.XuX8X5XE.y.H.L.L.S.Y.L.H.e.8.A.;.S.Y./.(. XE.rXrXE.].5X5X8XpXrXXXY.-.A.e.;.S.T.T.P.].!.L.L.W. XXX5X X!.|.[.[.(. X X X8X5X X X].(.|.]. X XyXpXE.L.6.J D.yX5XoX(.T.|..X.XrX.XL.L.H.H.Y.^.r.e.y.H.T.L.T.L.(.oX.XrXoX.X^.E.T.!.!.yXuX!.} $ X 4 L t.XXkXzX5XL.y.L.E.E.y.-.O.-.e.=.-.e.-...U *.....-.A.S.y.q.Y..XY.r.Y.E.E. XE.L.H.[ U ....o.-.r.H.r.y.y.9.t.i.L.|.T.P.U.L.k.L.L.P.P.L.E.Y.L.F.L.k.L.H.H.Y.XXE.A.-.N c G.^.|.T.9.-.L.S.T.E.L.9.-.-.-.S.8.L -.-.9.t.9.e.r.L.Y.T.E.^.L.H.S.r.y.T.5X|.o.3     * v 8.XXzX.XS.-.9.y.",
"kX X].8XyXyX8X].L.r.-.;.;.S.S.S.H.H.A.-.^.5XtXsXpX5XL.c.I.|.@XoXuXuXrXXX/.H.H.H.H.Y.E.E.E.!.E.!.T.!.oXsXkX!.P.|. X[.W. XyX X(.9XsXuX|.|. X.X XoXsXsX^.L.o.P T.lX5XoXrXlXiX8XoXrXXXE.H.9.y.L.L.-.;.H.Y.T.T.Y.T.].T.(.pXyX8X|.E.E. XP.rXsX|.P = X 4 I 8.|.kXzXW.y.H.E.E.E.L.;.....K [ o.-.*.=.;.-.o.=.r.T. XXX|.L.q.9.y.Y.T.}.XXT.T.H.-.;.*.-.A.A.S.r.r.y.y.q.y.y.U.oX|.9.H.L.L.y.H.E.E.L.H.|..XT.H.y.H.T.T.T.@X^.t.-.a J }.@XT.T.XXXX.XL.E.T.F.q.-.[ =.t.-.[ ..e.e.9.e.r.y.y.9.E. X^.E.L.k.k.e.H.oX|.*.t   X * x 8.XXlXXX<.O.9.y.",
"9X{.]..X5XoX4X].L.L.;.A.H.Y.Y.H.T.T.A.L.(.8X8XyXsX5X!./.E. X X XrXoX8X8X X/.H.^.!.E.T.T.W.E.E.!.T.T.P.sXaX].].[. X X!.oXaX3X X8XsXuX.X|. X5XXX5XpXrXL.y.Y 6.oXkX5XoX8XrXXX XoXoX XE.L.r.k.T.T.e.9.T.(.T.T.E. X|.E.!.yXyX8X8X|._.(.!.uXkXrXo.- X 6 I t.oXbXsXL.y.L.T.E.L.H.-.-.U L *.-.-.=.;.A.-.o.S.E.E.]..X|.H.t.L.y.Y.L.T. X^.T.L.H.y.e.;.-.r.e.r.r.k.y.q.9.r.L.uX|.y.H.L.T.S.y.|.XXE.P.].XXE.T.y.T.T.T.E.oXL.-...a ..oXyX].E.|.R.L.c.T.L.y.t.-.} e.A.-...o.S.t.e.A.H.L.y.r.!.XX|.^.L.y.S.H.T.oXXX6.5   O 2 v t.OXkX).O.O.<.9.",
"3X]. X X.X3X XP.S.S.S.|.tX(.Y.L.^.T.L.|.pXpX8XyXyXyX8X5X(.^.L.k.Y.L.yXzXpX|. XXX|./.E.E.!.!.E.!./.H.y.5X5X8X8X3X5X XP. XyX8XrXuX8XyXuXsXsXsX.X5XrX X9...O.L.8XkXyXpXoX|.(.!./.E.!.!.P.E.L.L.Y.y.;.Y.(. XoXrXpXyXyXyXsXsXyXrXoX|.5XyXyXyX|.P ; X 4 Y G.pXzXuXU.k.H.H.H.E.Y.;.o...-.Y.Y.r.-.y.S.q.e.Y./.|.!.!./.T.E.T.S.r.6.e.9.r.oXoXE.H.F.L.S.t.9.r.y.y.y.y.9.Z 9.|.T.].E.E.T.y.y.!.XX.X].E.T.^. X|..X^.Y./.|.t...J U y.XXoXoX}.L.y.y.y.y.y.S.y.e.9.9.e.9...o.y.S.Y.^.XX.X.X|.oXoX@X XE.H.T.|.E. X}.o.;   O = G ~.rXuXL.%.O.9.6.",
"8X{..X.X X X XE.T.T.H. XtX/.T.^. X^.^. XoX8X5X5X5XuXtX5XoX^.T.E.T.Y.pXbXsX.XrX5XoX X/.E.].E.E.U.L.r.H. X8X9X8X.X.X!.P.|.5X8X8X.XoX8X8XuXuXsXyX5X8XXXy...F.|.8XiXoXrXXXE./.^.!.!.|.!.E.!.E.L.H.H.S.L.E.oX3XrXyXyXyXpXyXpXpXyXrXyXkXsXyXaX!.V = X 4 Y }.zXzX.XL.y.H.H.H.L.y.r.S.-.9.E.T.H.r.H.L.L.H.H.^.T.P.P.!.(././.H.r.9.e.9.L.pXtX!.L._.T.T.y.e.e.S.y.9.e.O.O.w.}.E.|.P./.E.r.r.T./.(.E.T.T.E./.XX X|.E.|.|.Y.o...y.T.oX|.E.E.L.L.L.L.L.L.L.y.y.y.e.9.9.o.-.;.y.E.E. XXXXX^.XX|..X X|.^.XXoX^.XX^.U =   O * Y XXyX.XL.6.O.9.O.",
"8X9X.X X X4XyXyXiX!.H.T.!. X XXXXX X|. X X/..X5X5X8X8XyX@X@XE.E.L.y.(.rXuXuXyX X.XlXyXT.T..XoXL.0./. X X4X5X X X X|. X X!.|.E.].uXyX!.!.(. XsXuXrX.X|.L.E. XXX X X|. X|././.!./.!.(.!.!.!.E.T.L.L.c.L..X8X X!.!.|.|.E.!.oX8XoXoXzXzXkXuX XJ & @ 6 I XXDXkX].P.U.L.y.L.E.E.^.T.;.O.r.y.L.L.L.T.L.L.L.S.H.P.L.!./. X/.L.H.-.9.-.e.T. XXX.X|.L.XXyXy.;.y.L.y.O.9.S.L.T.L.P.T.T.H.H.L.L.y.k.y.I..XL.y.k.r.|..X^.T.E.S.9.F.L.U.L.L.L.L.y.S.L.L.i.L.y.y.y.y.e.9.-.e.-.9.(.E.L.H.k.S.S.y.T.E.E.E. XyXiX.X|.*.=     * Y OXpX!.r.r.e.9.6.",
"5X9X.X[.4XyX8XyXyXH.H.T.E.oX.XXXXX X XE.T.E._. X3X5X8XrXoXoXL.H.k.H.!..XpXsX5X5XrXzXpX|. X5XoXP.r.oX5X5X.X.X3X.X].]. X!.!.|.`..XyXyX].!.!.!.sXpX8X X XXX X X|.|.|.|.|.(./.(./.E.!.E.!.E.E.E.T.Y.L.r.w. XyX XP.T.T.T.Y. X@XoXXX.XzXzXuXiX|.P - X 4 I |.zXaX].!.!.L.y.Y./.XX(.S.-.9.r.L.L.L.L.L.L.L.S.e.S.H.Y.E./. X/.L.H.-.9.9.r.y.E.5X.XE.T.XXpXE.k.L./.T.O.9.U._.E.H.E./.L.y.T.H.y.k.y.S.E..XP.r.r.9.].rX XT.T.Y.L.L.y.L.L.L.L.L.L.k.L.L.y.y.F.y.y.y.A.A.;.=...9.E.!.y.y.r.y.e.y.T.T.E.Y.XXiX@X XY.*.= X   * U @XpXE.r.y.q.O.O.",
"5X3X X(. X3X(.!.P.L. X]. X.X.XXX.XoX|.T.L.].|..X5X5X XoXoX5X3XtXsXsXsX4XuXpXuXyXyXpXoX5X.X|.|.E.E..X5X8X.X X|.|.`. X!.!.|.|.oX3X3X.XE.E.L.!.sXkXpXyX.X(.|.!.].|.|.].|.!./././.|./.E.E.E.T.y.%.L.L.y.H.T.!.!.E.T.L.L.Y.!.^.(.E.5XsXsXyXXX9.z - X 4 K |.kXaX8X!.P.L.H.T.T.L.L.9.y.T.y.L.P.Y.L.L.Y.L.e.9.y.L.T.T.T.Y.T.T.P.H.|.5X5XXXE.XX X^. X X_.I.E.U.L.H.r.H.H.T.T.L.T.L.L.k.H.y.H.H.L.T.U.Y.L.y.y.9.E.tXoXoX|.Y.F.L.S.L.L.L.L.k.F.y.y.L.y.i.y.e.e.r.O.-.-.-.-.r.y.k.y.y.e.9.e.r.L.k.T.Y.XX.XoX|.9.z *     = Y @XrX XL.6.9.6.O.",
"9X3X5X3X|.(.W.!.E.[..X X X.X.X.X.X.X XY.T. X.X.X.X X X5X5X3X5XaXbXbXzXyXyXyX9XrX4X8XrXyXyX|..X8X.X3X.X X.X].].`.|..X|.].]..XyX.X.X!.]./.P. XpXsXsXkX.X!.!.!.|.|.].|.].!././.(.E.|.|.!.T.T.9.9.L.e.L.E.E.T.^.|.E.T.Y.H.L.E. X XrXpXzXyXE.V 0 = X 6 I }.zXkX9X!.c.L.y.L.L.H.t.r.T.T.F.L.T.T.T.T.Y.S.9.A.H.L.E.L.L.L.E.E./.|.rXsXuXoXE. X X^.|.|.|.E.].T.L.U.!.E.L.L.P.L.y.y.L.L.L.H.H.H.E.!.P.L.y.y.c.r.E.rX.X@X.XL.F.k.L.L.k.c.L.L.S.L.L.L.L.L.y.9.r.9.J o.o...e.r.e.y.L.S.y.S.e.e.y.y.Y.E.|.oXXXE.Y - *   O ; E XXtX XH.9.9.-.-.",
"9X3X5X X!.P.E. X5XoXoX X.X.X.XoXoX.X_.I.uXyXXXoXoXoXoX3X3X X5XuX.X XpXzXsXoX.X XP.L.!.5XuXkXzXzXsX8X5X9X5X.X.X X]. X.X|.U..X8X8X3X5XyXoX.XoX.XoXoX.X X|.|.(.E.!.E.E.|.|. X5XoXXX.X.XXXT.Y.e.t.-.P y.T.XX XE.^.T.L.y.y.e.E.E.|.oXuXyX|.y.V u % @ 5 Y }.kXuX.X!.L.y.r.r.9.q.L.L.T.P.L.P.L.T.T.T.L.r.H.E.E.T.E.T.L.E.E.L.E.5X XE.!..X8X|.L.L.y.9.9.y.].|. X5XyX X!.E.E.!.T.L.k.k.P.L.k.k.T.Y.E.T.T.!.L.L.T.E.E.L.P.L.L.L.L.L.L.L.k.H.L.T./.T.L.L.L.L.y.e...o.f [ A.L.L.P.H.S.e.9.-...-.y.F.^.}.|.Y.e.J 5 * X X 2 Y }.oX_.L.9.q.O.o.",
"3X3X5X!.L.P.(.5X5X.XoX X.XoXoXoX.X.XT.{.kXpX.X.X X X(.(.3X5X5XsX[.U.5XkXpXE.T.(.y.r.T.yXzXbXbXDXzXyX3X8X3X.X X].!. X.X/.U..XuX9XyXyXrXoXrX8X X XXX|.|. X].|.!.]. X|.|.L./.iXpXpXrXpXiXE.^.S.-.o.-.L.Y.rXpX|.|.E.A.e.-.r.E.Y.E. X8XrXT.o.z u % $ 6 I E.sX9X].T.U.y.w.9.r.i.T.T.P.L.L.Y.E.T.T.T.L.y./.XX XL.T.T.L.L.P.T.].5X!.r.L.XX.XL.9.e.-.Y O.y. X8XyXsXuX X!.E.E.E.T.L.y.L.E.T.r.y.E.|. X!. X|.E.|.T.L.L.L.L.T.L.L.H.k.y.H.F.r.9.Y.(. X|.|./.L.L.r...K U o.6.S.XX!.y.H.-.o...P e.t.y.F.Y.|.E.-.u = *   O 5 U XXOXY.S.q.r.o.} ",
"3X8X5XT.E..X.X3X8XoXoX.X X.X.X.X.X{.].oX@X4X|. XT.E. X3XaXzXuXyX X].|.oXXXF.y.S.r.y.E.yXsXbXbXnXzX X[..X3X.X.X.X.X XE. X.X3X9X8X3XyX5X!.!. X X X|.|.5XuX|.!.].|.T.e.A.e.L.A.S.|.|.F.L.|.|.L.A.t.S.e.O.F./.E.E.Y.;.-...t.S.H.T.E.|.oX6.z 5 u & % D Y ~.kX XU.P./.y.9.y.T.T.E.I.L.P.L.T.P.Y.L.T.L.k.Y.E.T.L.L.r.y.T.|.oXoX!.E.c.c.T.T.q.O.o.U o.9.U.oX8XyX9XyX Xy.P.T.E.E.L.L.L.H.y.T.T.T. X/.T./.E.L.Y.L.L.L.y.L.XX^.H.H.L.i.-.-.*...;.-.t.L.e.;.y.Y.y.-...-.-.U } S.S.r.S.-.U J P e.6.9.y.y.^.y.z - = *   @ 5 U XX Xk.9.y.t.....",
"3XsXsX(. X X5XoX.XoXoX.XoXoXoX.X.XoX.XoX.X X!.E.k.H.3XuXaXkXsX5X@XoX X|.^.U.H.r.H.E. XsXjXbXzXbXjXU.!. X5XoXoX.X.X!.E..XpXyXyXyXyXiXXX^./.XX X|.!.!.iXzX|.L.!.|.r...-.S.-.L A.(.y.O.y.P.|.T.L.L.Y.-...-.Y./.^.S.o.o.O.e.Y.Y././.^.XX..u u 5 = = D Y }.pXU.c.U..XL.y.y.E.U.L.T.T.T.T.L.L.T.E.T.T.T.T.T.H.y.r.O.y.}. XoX8X!.P.U.L.S.y.r.9.o...9.y.^.oX5X9XuXyX!.0.L.L.|.!.T.!.H.y.r./. X X|././.^.L.q.F.y.L.L.y.L.rXoXy.y.F.r.L L ..*.L K r.Y...} 9.S.H.9.9.t.-.N J *.q.G.y...J Y P -.8.t.y.y.T.8.8 ; 3 @ O % p E oX|.9.%.T.L.O.-.",
"yXyX5X3X5X|.5X.XoXoX.X.XOX3X.X.XoX3XoXoXoX3X(.E./.oX5X5X8X8XuX9XuX8X.X|. X X XL.L.E.!.|.3XyXaX4X].E..X.XoX.X].oX5X XU.^..X]..XoXoX XL.S.H.H.E.!.!.!.(..XH.r./.!.c.r.L.R.e.-.H.J.H.F.L.|.XXE.E.XXXXF.y.e.e.S.S.9.o.9.-.r.Y.T.XX X X.XO.z u p = 4 D Y XXkX|.U.!.|.c.P.L.L.L.U.P.T.T.T.T.T.T.T.T.T.Y.T.T.L.y.y.F.Y.U.E.E.|.|.|. X}.L.c.H.H.e...e.y.H.P.!. X X!.r.k.T.T.].T.T._.E.L.r.H.E.L.^.E.Y.A.6.-.-.6.F.y.S.y.Y.L.O.9.S.r.o.o.=.A.U ..e.e.;.6.e.L.L.t.y.Y.F.6.O...o.6.6.U Y o.Y 7.9.L.Y.Y.^.A.0 3 = * @ 2 p *.oXXXw.9.H.r.9.t.",
"5X X3XsXuX X.X3XoX5X.X.XoX.XOX.X.X.X.X8XoX X X X X5X5XoX5X8X8X9XkX8X8X8X|.|.E.y.k.E./.E.!.8X5XU.k.]..X.X.X.X].5XrX.X|.U.|.].XXXX|.L.-.O.} A.E. X!.E.E.E.k.y.T.E.L.F.L.|.T.A.y.H.L.y.Y.XX.X_.E.rX8X XE.L.-.-.-.9.6.e.-.e.Y./.oXyXyX@X6.z u l 2 6 H U @XzX4X].U.c.L.5XU.L.L.L.U.T.U.L.T.T.T.T.T.T.T.T.T.L.L.I.T.T.T.E.|.E.]. X.XE.(.T.L.T.0...e.y.y.y.T. XL.O.;.S.T.E.E.y.P.|.E.Y.y.y.H.H.H.H.t...U J L e.L.H.S.A.t.e.o.-.e.y.-.-.S.S.o...o.e.9.e.A.Y.H.y.L.|.T.S.e.....P U U Y Y J -.e.Y.E.T.(.A.l ; ; @ X 4 x =.@XrX!.y.r.-.F.E.",
"bXsX5XuX5X X3X5XyX3X5X(. XoX5XoX X3X X.XrXoX X X X|.!.!. X X|..X8X5X5X X!.XX/.L.E.T.E.!.].|.].E.E.|. X|.|..X.XoX5XoX.X/./.(./.^.L.q.9.y.e.L.E.|.].E.E.E.H.y.k.H.L.L.L.!.L.r.y.A.e.t.^.E.T.oX5X XXX/.E.L.y.S.t.A.-.-.y.A.L.XXrX8XXXE.o.g 5 x 2 x H E OXzXkX9X3XE.T. XP.c.P.W.U.U.P.P.E.L.T.E.T.T.E.T./.T.L.L.P.H.y.L.E.I.L.E.!.E.E.H.k.P.y.r.H.y.y.H.Y.L.H.y.y.H.L.H.H.T.E.E.T.E.H.S.S.S.S.9.*.*.*.o.o.t.F.F.y.y.y.9.-.-.9.t.e.-.e.;.o...*.-.*.r.S.y.L.E.L.Y.L.S.e.*.-.o.-.o.L *.o.-.t.L.E.y.y.*.l = = X @ 6 G 8.rXrXXXE.L.9.L.L.",
"nXDXjX9X5X X5X8XuX5X5X3X X3X5X5X5XoXoX8XbXkXXX X|.E.E.].!.E.E.|.5XrX.X!. X5X5XXX|.L.U.E.U.P.!.].!.`.|.|. X5XyXoX8X8XoX|.|.E.T.S.9.e.S.^.Y.L.E.!.|.!.!.E.E.L.L.T.U.E.T.y.S.L.y.} -.^.(.J.E.iX5XE.E..XoXE.S.Y.Y.S.-.A.L.L.L.(.yXrX|.L...0 - l 2 x I E }.lXuXkXuX8X|.E.P.L.E. X!.U.W.L.!.E.E.P.L.T.L.5XpXXXL.L.L.y.y.L.L.y.H.Y.T.!.E.k.H.L.P.P.H.e.y.r.y.y.H.H.k.H.L.Y.T.^.E.!.E. XT.H.S.A.e.-.o.-.A.t.6.S.L.L.y.y.r.e.6.8.e.9.t.H.-.o.;.=.[ J -.H.S.9.L.|.T.A.y.T.Y.A.-.e.-...U -.6.*.t.L.!.H.9...l = = % X 6 v 7. X|. X.X].F.y.r.",
"DXDXzX8X X X3X8XyX3X5X3X5X5X5X5X8X5XyXrXyX5X X|.|.!./.|.|.!.!./. X X!./. X|.|.XX|.y.H.T.L.U.!. X|.].|..X5XyXsXrXtXoXiXoXT.E.XX(.T.T.E.L.L.L.T.E.!.!.T.T.E.L.L.P.L.].|.|. XY.S.r.^.XX/./.(.5XyX3XoX8XoX|.T.E.T.A.;.t.y.S.T.|.iXpX XE.*.u 5 l 3 x I *.~. X{.kX9XyX|.L.U.L.!..X].P.L.E.!.E.L.!.T.(./. X XE.L.P.L.r.y.y.y.y.L.S.L.L.H.L.H.k.L.L.e.O.A.;.r.y.H.T.H.S.T.T.T.|.XX|./.XX(.r.;.L.H.y.r.S.D.e.-.e.t.y.y.y.r.t.e.e.e.e.S.H.H.H.H.e.-.;.r.S.A.y.L.oX XE.T.^.H.e.e.S.-.-.[ R *.*.y.L. XE.S.*.l $ = * X 6 F *.S.c. X@X.X].r.9.",
"DXbXsX(. X5XyXyXtX3XXX X5X3X X8XbXzXbXsX X|.].!.E. X(./.|.!.(. X/./. X X!.L. X.XE.9.y.E.T.E.]. X.X^. XoXoXsXzXyXyXoXsX/.9. XyX5XrX.XE.S.9.9.9.L.T.!.E.E.E.T.E.L.L.U.].rX5XE.(.E.(.E.L.(.5X5XuXuX5XXX X^./.T.E.!.H.-...t.E. X8XyX.Xt.v u - l 2 x H =.A.y.oXkXaX9XW.y.Y.E.]..X!.P.!.P.P.T.J.oXrXiXiX XL.T.H.c.L.H.L.L.L.y.L.L.H.r.H.L.9.9.T.L.9.L e.y.y.k.H.L.T.H.T.T.^.8XXX X^.E.XX-.;.Y././.^.S.e.9.o.O.o.t.e.y.y.y.y.y.t.-.-.H././.L.S.S.r.y.y.r.Y.Y.(.XX/.T.T.H.r.r.S.A.t.o.J L 9.r.L.XX|.A.J - * = * * 6 H *.9.r. X@XoX!.O.6.",
"bXbXzX3X3X5X8XuXaX5X X3X5X5XyXaXkXzXaX3X|..X X.X X X|.E./.|.|. X^.E. X X/.XX XXX X3.y. X!.!.3X5XoX X@X.X XsXzX8X8X.X XL.E. X8XaXkXiX^.Y.y.Y.H.T.P./.|.|. XrX/.P.|..XrXsXoX!.(.P.!.!.T..X5XyX5X9X.X5X.XE. XT.L.^.i.e.e.L._.|.8XyX].P g 3 u l 2 x H Z.A.A..X9XaXjX|.L.E.!././.E.!.!.!.!.T./. X8XtX!.L.T.^.P.L.Y.L.L.y.F.F.L.L.S.y.H.L.L.T.T.E.9.C e.T.L.L.E.T.T.T.E.L.T.oX|.^.E.L.A.e.S.T.(.oXoXY.S.O.6.t.6.8.6.S.S.H.T.T.r.A.L.T.|.XXT.S.t.9.H.9.y.E.E. X!.E.T.E.L.S.y.;.S.A.....-.r.y.L.|.^.-.u ; * 5 * * 6 K E o.9.E./.oXXXr.e.",
"bXDXnXyX X5XyXyX5X X X3X3X5XaXsXyX3XE.!..X8X5XoX.X.X/.T./.|.|.!.!.E.|.^.!. X|..XE.O.y.XX X5X5X.XoXXXoXE.E..XpXsXoXE.;.r.|.rXiXsXbXrXoXE.!.|.T.Y.T.E.8XpXkXzX5X5X5XyXsXkX5X(./.L. XyX8X5X5XsXsXaX5X5X.X|.^.L.P.E.F.r.L./.rXyXkXuXq.z l u v c = 6 I 7.S.E. XyXsXzX8XE.L.E.(.T.P.L.P.P./.5X8X.X/.H.y.H.T.(.E.E.E.T.S.y.F.Y.F.y.k.H.S.y.H.L.L.L.6.L S.Y.T.J./.Y.T./.T.S.H./.|.^.^.9.;.G.^./.XX8X8XT.H.e.S.S.6.6.e.L./.@XiX@XY./.^./.XX XL.H.A.e.L.E.E.H.!.oXE.P.E.T.H.S.t.9.S.;.*.;.t.Y./..XoX~.c ; 5 = 6 = X 6 G E *.y.].|.oXXXL.y.",
"kXbXbXpX XXX(. X X X.X(.(.5XuXaX8X X!.|. X X3X.X5X3X XE.|.!.L.k.T.E.].|.!.!./.E.L.;.S.XX5XyX5X5X8XoXXXU.E.(.XX|.^.t.o.A.T.oXrXsXsXyXXXE.T./.^./.E.].rXuXyX.X XE.(.yXaXyX3X3X XU.P.5XyX(.5XbXnXsX8X8X X!.E.T.P.T.H.r.T.!.sXzXkX8X..V V v v v = 6 I *.D.|. XuXaXkXsXP.H.L.Y.J.H.H.H.H.T.5XrX|.T.L.H.H.E.T.E.T.E.T.S.y.L.y.9.9.y.S.L.k.y.r.y.y.;...S.T.E.(././.^.E.P.y.S.L.T.Y.S.U ..e.t.|. X X XE.y.e.e.L.A.t.y.L./.|.^.L.y.y.T.|. XY.T.T.H.r.y.!.!.H.(.iXyX!./.E.L.k.e.e.e.=.o.9.r.E.oXiXrXt.t p u u 5 * @ 6 F Y 8.y.T.].oXoXL.O.",
"uXkXuX X!.H.H.XXXX^.L.H.H.|.yX5X4X X(.[.!.!. X.XyXyXoX|. XT.L.L.}.|.XX X!.y.y.H.E.y.H.oX8XuXaXaXyX.X].|.XX!.S.9.} U 9.-.-.L.oXpXkXrX(.H.S.L.(.oX.XrXoX8XT.e.-.y..XyXyX.X3X8X5X!.L.[. X(.4XsXbXbXbXbXsX|.E.E.T.L.e.9.L.!.aXzXkX.XO.-.Y c 6 l = 6 I E S.(.!.5X5X5X XH.e.O.e.L.H.S.o.O.y.T.!.P.E.L.L.H.y.H.T.T. XY.L.T.L.9.-.y.y.H.T.Y.e.O.O.w.9...H.T. X5X XoXE.H.T.L.Y.S.o.L J L *.U U F./.XX5XE.6.O.-.S.T.L.L. X/.L.A.[ -.S.(.oXE.T./.!.L.0.r.L.H.S.E.8XyXoXtXtX!.y.9.e.e.e.o.-.9.L.@XoXXX6.N J l 5 - * X p F E F.L.Y.T.U.U.t.6.",
"fXuXuX.XF.9.9.T.^.T.y.L.L.E.5XyXsX9X(.W.!.(. X X4X8X.X/.T.Y.H.H.|.].|. XL.9.w.y.T.y.P.3XaXyXaXsXsXoX X5X^.J.H.e.o.-.-.....S.(.@XuXXXH.E.E.!.3X3X5X5XXXoXL.-.r.|.5XyX5X5X8X3X X/.P. X5X!. XsXzXzXaXsXsX XT.L.L.k.9.9.L..XkXkXsXE.X.6.*.V z u = x R E G..XoXuX5X X|.y.....=.A.e...o.-.9.L.E.!.XXE.H.H.H.L.T.L././.L.L.A.-.r.S.S.r.F.S.o.O.6.9.q.9.Y./.oX3XoX@X_.L.}.L.D.-.*.U U U U L K 9.L.^. Xq.9.r.r.L.T.(.^.E.S.S.9.J e.S.Y./.E.T.!.T.J.y.y.H.y.k.T.oXuX8X(.oX/.e.9.9.-.*.[ e.J.^.@XoX^...J L z 5 3 * X p F E F.F.E.^.L.y.r.o.",
"kXkXkX_.;.9.-.O.6.-.y.S.E.|.uXzXbXuX3XoX X X X X X.X XE.L.H.E. XXXT.T.^.L.L.T.T./.!.!.5XsXdXbXbXsXtX5XY.H.H.A.=.*.*.K J ..e.E./.(.L.r.H.!.3X8X5X5X XT.L.y.S.8X5XuXsX8X5X5X3X X(.T. X!.k.0.!. XoX(.5XsX!.L.k.y.r.9.L.8XsXsXsX(.O.O.q.*.z u p = 6 R =.R.pXsXkX8X5X|.9.o.-.L ..[ L -.L.r.T. X8X5XE.L.L.H.T.L.L.T.E.L.e.;.-.L.R.Y.r.y.S.9.e.t.y.L.y.^.(.5XtXyXyX.X XT.6.6.*...*.U F p p U 8.A.F.S.-.O.e.P.E.T.E.^.S.e.t.-.e.^.^./.XX/.E.T.E.T.H.9.H.r.[ -.H.L.L.H.|.!.-.;...o.o.o.H.XX5X@X/.=.L U K l 3 3 @ * 6 F o.F._.oX.XE.L.-.L ",
"aXyXyXL.A.S.e.t.A.A.S.T. X XyXjXbXuX X XXX(.W. X5X X!.H.L.L.T.E.E.E.U.T.L.L.Y.L.XX X(.8XsXsXnXzXsXsX(.A.A.r.e.;.-.U F L e.A.e.H.H.T.T.T. X5XtX5X X/.E.H.S.T.(. XuXsX8XoX5X5XoXXX!.5X|.L.k./.E..X5XsXsX!.P.L.e.L.T.E.yXzXbXrXL.9.9.6.J 8 5 3 $ S R E A.@X5XpXrX.XT.e.t.=.*.o.*.-.9.k.L.E.]. X.X!.J.H.L.H.L.T.T.T.S.9.e.e.S.L.Y.r.6.t.6.t.t.t.U.L.T.(.5XyXiX5X X Xq.-.o.....K J u t v L =.t.6.6.6.9.S.E././.Y.L.y.e.-.-.r.L.|.(. XE.T.E.T.T.H.H.H.y.O.r.y.y.T.^.oX/.;.e.X...e.r.T.tXiX5XL.-...*.J l = = X * 6 F R t.E. X XY.S.-.P ",
"aXyXyX|.Y.y.e.F.E.(.oX5XuXaXsXaXbXsXXX(.(.W.!. X5XoXL.r.-.;.y.y.E.@XXX5X XL.y.r./. XE.oXtXzXbXtX!.E.;.;.A.e.=.*.*...*.-.K ..=...*.-.(.XX5X5X8X XE.T.H.0.9.e.9.k.P.H.!. X5X3X X5XoX XE.T.^. XoXsXuXuXpX XL.L.y.E.8XpXuXuX XE.F.9.-.J N 5 3 3 % s I E 8.R..XkXyX.X!.L.t.-.;.A.L.L.E.!.5XoX.XyXyX|.P.L.H.y.H./.T.k.e.-...o...9.R.Y.T.Y.6.6.<.9.F.y.L.E.XX8X5XL.y.O.L o.*.I K N c J N D c U U L N -.T.P.E.T. XY.S.y.-.o.-.*.-.9.9.9.L.E./.E.E.T.L.e.r.y.y.L.L.XX|./.T.y.r.-.;.J.XX XoXY.S.t.=.U F y u = = @ 2 D H Y 6.t.}..XP.L.9...",
"kXuXsX8XP.y.y.y.P. XyXyXsXbXzXsXzX8X X(.!.!.!.(.!./.S.-.-.-.S.L./.@XXXrX|.y.H.S.T.T.L.^. XyX8X!.L.H.k.e.-.-...L U *.-.o.L *.U K o.-.XXXX|. XrX].E.T.y.;.9.y.L.Y.L.U.!.5X5X X5X X.XL.L. X.X.X8XkXyX8X.X|.Y.L.L. XkXkXyXE.L.R.e.o.P v z u 3 = 2 D R E 8.F.OXkX3X8XoXT.y.8.-.e.L./.(. XyXyX5XyX XE.L.Y.H.y.Y.E.L.y.-.} U o.6.y.E._.XX}.y.6.9.t.e.r.k.L.E..XE.y.9.....o.U F a a F K K c c L v V Y i.T.S.L.E.|.S.F.q.-...o.6.t.q.e.S.E.!.E.E.E.P.k.X.r.k.S.T.E.|./.T.T.y.e.6.-./.tXoXE.y.t.=.U J l l 5 = = @ 4 G D I 8.6.^.oXE.T.y.-.",
"pX.X5X5X X|.T.S.;. XaXyXzX0X9X9XaX5XQ.!.P.E.E.L.L.k.;.o.-.S.XX5XoXoX5X5XXX|.!.L.y.X.;. XuX8X XP.P.E.J...J K U L o.=.....-.-.K ..9.E.oX/.E.P. X].U.L.y.y.L.P.rXkXsXsXsXuX X/. X(.].E..XoXoX.X_.uXaXaX.XT.9.y.T. XyX|.L.i.y.y.U V u v v z 3 % 6 D R E 7.A.oXuX[.!.|.E.Y.S.;...-. X5X3X8X5X(. X XE.H.r.r.r.r.r.9.-.L J L e.Y.T.^.^.|._.T.F.S.y.....L. X X/.H.r.r.e.o.N a a c F J J v K K a z Y 7.}.Y.y.e.y.L.L.r.9.%.r.r.F.XXrXrXrX X!.y.L.L.H.y.9.k.L.T.k.L. X X|.L...L 9.L.|.^.S.e.-.-.-.J u p x x 3 @ X 4 D H J =.8. XrXE.S.y.9.",
"E.L.|.pXrX XE.S.-.8XsXjXbXuX4X8XyXoXL.y.k.H.y.k.L.y.O.-.r./.oXrX8X5X.X5XyX.XE.T.H.} 9. X5X5XoX^./.|.S.J L *.K U *...U *.8.-.U -.S.rXuX|.y.k.(. X(.P.k.|./.P.iXbXbXzXsXuX X!. X!.E.`..XoXoXT.I.yXsXuXoXy.B y.E.@XoXi.q.6.7.Y c c c J L x = $ 6 H I R E t. X.Xc.i.oXoX}.L.9.} ;.8XsXsXyX/./.XX(.T.;.o.-.o.[ 6.-.[ L ..-.E.|.E.E.E.E.}.E.S.y.9.} } E..X^.E./.Y.H.S.L y J a c G F J c K I v N o.i.XX|.y.o.r.F.F.L.S.e.y.y.U.iXpXpXpXrX|.y.k.L.H.H.y.k.L.Y.9.L. X/./.L.L N 9.L.|.H.t.*.U K v u u c v x 2 * X 5 D H I *.A.T.}.y.e.E.E.",
"S.L.^.|.L.6.-.-.9.5XkXjXaX5X.X|.E.T.y.H.H.y.y.H.T.L.;.t.Y.^.(.XX5X@X@XrX|.E.L.L.r...T.@X(.!.Y.L.XXE.-.U *.G c U U K U =.8.*...t.|.pXyX|.L.!.!. X|./.L.E. X8XuXyX5XyXuXpX5XoX5XoX|._.|.XXR.L._.OXoXXXL.U J q.^.^.6.E =.J c z z v v V H v = 2 p H R R E 8.R.).L.L.|.R.-.U ..L T.rXiXtX|.E.^.H.L.r.*.;.o.o.-.r.A...-.S.G.T.^._.}.R.^.U.y.9.e.9.U ..Y.E.L.S.A.L.G.-.J K F 3 5 s c a v H v v J t.OXXXT.y.9.i.y.y.F.y.9.y.L.|..X.X|.XX X^.Y.L.!./.Y.r.y.L.e.9.L./.^.S.*.N U 8.G.t.U K v c a p a c l x x 2 * * 4 H H Y E A.Y.Y.9.t.F.-.",
"D.t.*.6.P V Y *.F.}. X].|.|.L.6.y.G.F.i.S.Y.Y.Y.^.I.F.}.}. X XXXoX(.}.^.y.6.e.6.<.<.G.).t...Y F.G.6.Y Y Y 0 l J I Y R Y E J J Y y.XX}.Y.Y.R.I.L.F.e.9.L.|.XX_._.R.}.|.@X|.}.@XiX).7.6.6.<.7.t.i.q.o.Y J J o.-.C l l x 5 - 5 l x 5 u l 5 2 4 D H I C.R 7.G.}.F.6.7.P c v J *.R.XXoX_.T.R.A.6.A.y.8.8.t.8.8.t.A.q.8.G.).~.I._.~.G.G.t.o.o...} P 6.R.y.Y L o.G.8.J v v 4 $ 5 c c v v x x x J <.}.).t.t.y.y.q.6.6.o.U q.E._.Y.S.S.I.U.E.T.L.XXoXt...o.Y Y Z <.q.o.P V v v Y L x l l 5 5 5 5 5 u 5 l 5 5 * * 6 D H D H 7.}.A.E P V l ",
"*.R v v u u G Y 7.6.<.7.7.*.P J Y Y Y Y Y U *.U U U ..*.*.=.6.8.-.R P U L L L J v V E Y J c v V Y l v G x 6 5 x v G G D x v G v E *.U I U U Y V v c v Y Y Y H v G L Y Y P I Y Y z 5 l l l x x l 5 5 5 3 2 6 t 5 = = = * = 2 2 4 5 5 4 4 4 6 H I R E E R E 7.*.Y v x 6 F E E 7.8.7.*.U Y K K Y Y Y J I I Y R Y Y Y Y U R Y o.U J J J K v v z G *.Y x 5 z L K v p 5 x * * 5 6 5 5 6 p x D D E t.E Y o.R Z G v l u z Y E J v V J U *.E Y Y J P z u u 5 g l 5 5 4 4 3 = 3 = = = = * * * * = = 5 5 4 4 * 4 5 x D H H H I 8.<.v l 5 3 ",
"I I H H x l 6 p x l l 3 = 2 2 , = = 2 4 2 = = % = = $ = $ % % 3 = ; = = = = = 2 5 l x 5 5 5 l 5 x 5 4 5 4 6 6 6 x D D D H H G D H I F x x p 6 6 l 6 x 6 5 l 5 5 3 3 6 3 = 4 = = 4 5 6 6 5 6 5 6 5 5 2 2 3 4 4 4 5 5 4 4 4 6 6 x l x D x 6 H I I R E 7.I E I H I H F x G G x G x ; = = * = = * = = = = = * % * % * * = % * * * * = X @ % * * = = * X % * $ % $ X * X X X * X * * = 4 5 6 6 6 5 = 2 ; = * = X * * % = * X % % * X X @ @ $ * * * X * $ * = * * * * X X @ * * * * * * * = 2 = 4 6 6 6 6 5 D D G H H I H I I G p x x ",
"E E R I R R R R E E I I H G H D D x D D D x D x x x x x 4 p s p p D 6 p x D 6 x I I H G H I Y R R I I I I R I I R H E E E E R R 7.E E E E R I I H I E E H G I G I H I H H I G G G H I H H H H H H G H G G F v G D D D v x G H D D D H H H R E E E E E 7.E I H I G I H H I I H F p 6 5 p 3 2 x 4 5 p 4 3 4 3 = 2 * = 5 5 = = = 2 = 2 * = 2 2 4 * = 4 = = 2 4 = 2 = * * * * = 6 5 6 6 x G v x l 5 4 2 4 3 2 = = * = = = 2 = = , , * = * = * = 2 , * 2 = = * * = 4 2 2 2 5 5 2 4 4 5 5 6 6 x x D D D D H H D H H I I I H R H G H G ",
"7.=.Z.=.7.7.7.=.7.7.7.Z.=.7.E =.E R R R R R R R R R I H H I I I I G H H I R I I E E I E 7.7.E E E E E E *.7.*.E E Y E E 7.7.E E R Y 7.7.6.7.*.R E *.7.7.E 7.7.7.E *.7.7.<.E E E E E E R I R Y R Y I I I I I I H G G H J v G v v v H I Z Y E E *.E E E 7.R Y E *.Y Y Y R Y Y I I I I I K x x I v G G v x c x l x 5 5 x x x x x c x x x x x x x l p v D x F F x x x x x x 6 v v G H H I I J H G v v G J I G G x x x D D D x 6 x x D D 6 6 6 6 6 6 p 6 x 6 4 6 x x x x x x x x 6 x x x G G D D H H H H D H D D H H I F G H H F x G ",
"A.Z.A.Z.7.Z.Z.A.D.D.F.D.A.Z.Z.7.R R R 7.=.E E E E E 7.R R =.=.C.R I R R E E R T I 6.I.)._.E.).U.).)._._.E.U.U.I.I.c.L.I.R.R.I.I.I.I.U._.R.U.R.R.T._.R.I.U.I.R.R.R.I.).G.i.F.i.i.i.i.i.i.i.i.F.i.t.t.t.t.q.t.t.6.<.6.<.<.<.6.6.<.<.q.q.q.q.8.8.8.7.6.q.q.t.8.q.6.6.7.8.6.7.6.6.-.*.6.6.*.o.o.*.o.o.o.....o.P Y Y } Y U ..o.Y Y ....U ..U o.Y ..Y E U o.o.U ..U o.o.Y Y Z Y E U Y ..E Y E <.Y Y U U Y Y E o.Y I H F H H I I F H H H H I H G H G G H H H D x v v I I I H G G J G I I K H Y R U E =.E Y Y I J I U I U L R I I I I H ",
"^.G.A.A.D.}.@XlXlXlX@XR.A.A.D.A.7.8.8.G.~.e.A.A.R R Z.R I R =.R I H H R *.R U I v }.nXjXjXkXjXzXzXzXxXjXzXzXxXjXjXkXjXjX9XaXkXjXkXjXjXkXjXjXjX0XuXuX9XuX9X9X9X9X9X9X9X9X7XOX7X8X8XoXoX7XoX3XoX.X.X X{.].|.].].].E.`._.).E.W.).E.).U.).).I.U.U.U.U.I.).I.U.T.I.L.L.I.c.G.i.L.F.F.y.c.i.i.y.i.y.F.i.y.u.y.u.y.u.w.u.w.y.y.u.w.y.y.u.y.y.w.q.w.9.q.9.9.q.q.9.9.9.9.q.q.<.<.<.q.6.<.<.<.<.<.6.6.6.6.<.<.<.6.6.Y v K H H I I Y G K K I Y I U I J J I J I *.E U *.8.G.G.t.R 7.D.~.}.G.G.G.t.A.7.-.-.8.q.7.G.7.7.8.8.8.Z.-.G.6.7.7.E o.",
"@XS.y.T.~.@XDXlXDXzXpXXXY.L.S.A.t.t.G.XX|.^.e.e.-.I I I H R R R R K *.G.Y.Y.L.A.6.8XnXjX:X:X:X:X<X:X3X{.:X:X7X:X1X:X:X7X:X3X7X1X<X7X1X7X7X:X7X:X:X7X7X<X7X7X7X7X7X<X3X3X7X7X3X{.:X:X{.{.{.{.:X{.:X{.[.{.{.[.[.`.`.`.`.`.W.`.N.).U.).).c.N.U.U.U.E.P.I.b.U.b.b.v.v.b.b.b.b.b.b.c.c.c.c.h.c.c.h.y.w.c.c.u.u.u.u.u.u.u.u.w.u.w.u.w.w.w.w.q.w.q.3.3.4.3.3.3.4.<.1.3.<.3.3.3.3.3.9.3.3.3.3.3.3.<.3.<. .<.<.X.V 8 p F J J J *.*.=.6.7.A.A.t.A.A.t.A.A.i.t.F.}.L.G.T.E._.G.q.F.}.XXtXrXXX^.^.T.r.-.-.-.7.i._.G.I.E.}.R.Y.^.}.F.-.o.*.*.",
"rXS.S.rXkXpXzXzXzXzXsXkXrX@XXXG.9.I..XrXiX.Xy.t.t.K x H I I K R =.Y.(.@XoX}.^.Y.L.aXnXgXN.'.:X>X[.:X:X7X3X=X'.[.:X>X:X'.M.M.W.'.'.'.-X'.'.'.N.x.N.x.x.M.m.n.M.x.b.M.n.x.x.x.n.x.x.b.x.f.h.x.n.f.x.f.x.f.f.f.b.5.h.f.h.b.5.a.h.a.a.a.5.h.5.5.5.5.5.5.5.5.5.4.5.a.5.a.5.5.4.3.5.4.1.4.1.5.2.4.3.3.5.3.5.3.3.1.1.3.1.1.1.1.1.1.3.1.1.1.#.#.#.3.3.1.1.1.3.3.3.#.1.3.1.<.1.q.1.1.<. . . .w.3.w.3.3.<.3.3.C d i 8 z V F U -.Y.^.~.XX}.|.XX|.XXOXoXXX}.E.T.E.}.|.|./.^.}.F.I.Y.E. XoX@X5X|.XX XE.L.A.e.U A.^.^./.(.XX(.XXoX^.L.-.U S.E.",
"yXL.I.@XiXoX.X@XrX.X@X X XiXlXiX XrXoXoX@X|.E.^.S.J 3 G I H I =.T.XX^.(.XXrXyXoX XjXnXxX;XaX[.W.5.Q.[.9X'.x.'.mXmXbXaX0X7X:Xh.1.'.7X'.7XnXxX>X7XfX`.2.7XxXxXxXgXfXfXfXfX0XfXfXfXfXfXfX0XqXqXfX7X0X7X1X0X7X1X1X7X0X7X1X1X1X1X<X<X:X<X<X<X<X<X:X<X=X:X:X:X:X:X'.{.<X{.`.V.V.V.V.'.`.V.'.`.`.V.V.V.N.`.N.N.b.N.`.b.b.N.N.M.v.v.x.x.x.x.h.a.a.{.8X].<.3.5.5.4.3.b.U.N.`.{.).3.<. . . .X.w.) O.X.) 3.`.L.h # 0 8 c *.*.e.e.T.XX^.^.|.^.I.].@XXX|.|.oXXXXX^.L.T.}.I.y.F.t.L.}.oX(.L.(./.L.L.r.r.A.Y.D...-.t.H.y.A.D.S.S.t.L.Y.-...D.F.",
"pX|.}.|.|.U.|.].E.U.Y.L.L.|.zXDXzXzXzXpX/.T.XX8XS.K 2 G R H *.~.XX5XXXE..XDXDXzXlXxXxXxXxX X_ Q 0.3.c.1.4.v.nXjXU.h.h.w.v.Q.J.4.3X:Xa.x.N.N.'.v.v.`.#.:XfXfXfXjXfXfXfX0X0X0X0XqX0X0X7X7X1X1X0X2X<X1X<X<X<X:X<X1X>X:X:X:X<X{.{.<X{.V.'.'.V.V.'.'.B.'.'.'.'.V.V.V.V.N.x.x.b.x.x.x.x.x.n.n.n.b.b.x.x.x.x.x.x.f.f.f.5.x.h.a.a.a.2.a.4.5.2.4.1.`.`.#.M )  .#._  . .a.kXuX].9.) Z M M Z C q 9 M C | 3.W.v.O.8 8 8 L t.e.*.-.t.H.y.0.r.y.y.}.oXE.L.E.yXrXrX/.r.y.F.r.9.t.e.S. XXXT.r.y.e.o.-.-.[ -.(.A.U -.*...o.....o.o...F.^.A.-.9.0.",
"|.E.|.XXoXoX8XoX|.|./.^.XXyXzXkXoXXXiXrX X XrX|.e.v @ x H H A.XX(.5X5X5XpXbXzX8X{.xXnXxXW.4._ 9.].W.k.%.) !..X_ n n ^ |  .O.%.#.3.h.5.x.c.v.b.v.c.} m 3.5.4.p.a.5.5.5.2.p.4.1.4.5.5.2.2.2.2.,.2.,.,.2.,.,.,.,.1.1.,.,.,.1.,.] ] ] ] ] ] ] ` ` ` ] _ _ _ _ _ _ ) ` ` ` ` ( ( Q ( ( ( ( ( ( ( ( ( ( ( ( ( ( Z ( M Q Z k Q Q Q Q Q Q M Q M k M Z M M | <.3. .%.3.w.sXk.3.C N 0 9 q M C q q C | k.W.U.P.O.9 8 8 N J F v N ..-.*.o.;.e.q.L.L.L.L.Y.^.|./.S.Y.y.r.r.F.S.8.9.L.Y.e.;.A.;.o.;.t.-.-.A.e.-.*...U U U U ..*...S.A.-.9.r.r.",
"L.S.Y.XXiXlXrX X|.(.^.^.iXkXyXoXT.H.Y.L.^.uXsXoXe.c X 5 F I D.E.^.XX X8XbXDXsXE.`.xXnXxXV.c.b.U.[.P.w.) b X.| C b q q g m m d b M M ) 9.h.P.v.c.B 9 z M M Q Q Q Q Q Q Q ) Q Q ( ( ( ( _ ( _ _ ( ( _ ( _ ` ` ( ` ` _ ` ) ` _ _ _ _ | _ _ _ ( ) _ _ ) _ _ _ ) _ ) ( _ ( _ ) _ ( ) ( ) _ ) ) ) ) ) ( ) ) ) ) ) ) ) M Z M ( Z M M C M M M M j m z b m Z X.O.} ^ C C X.v q i & 0 i b C n 9 q ^ %.k.v.v.h.X.- 8 t u t u u u v K L ..*.9.A.t.r.e.y.y.S.A.y.y.E.L.e.e.S.y.-.o.;.-.*.-.-.9.A.y.;.e.e.-.-.G.-.U ..[ I L o.....*...U X.e.H.",
"E.L.L./.XXyXoXY.L.T.L.(.pXpXyXrX_.H.r./.oXrXyXrXq.z = 4 G U A.L.^.(.(.yXkXuX8XL.u.kXvXxXV.5.5.h.c.%.} b - q z m B i i q i 0 - 9 q g b q z b i 9 9 9 q h q b b h j b j j b n M j M M M M M M M Q ( Q Q M ( M ( M M ( Q ( Q Q ( ( Q ( ( Q ( ) ) ( ) ( Q ) ( ( ( ) ( ) ) ) ) ( ) ( ) ) ( ( ( ( ( Z Q M M M M m h j j m b h h h b h h z h g e g q q q g q 9 q L c 9 9 0 8 - 8 8 0 i i q & i } O.3.h.h.3.w.0 8 8 8 ; 3 3 u u a L ..o.-.-.-.A.9.9.9.e.q.L.L.T.H.;.r.S.A.9...-.;.-.r.9.-.r.A.e.-.-...9.A.e...J I ..=.=.*...-.e.-.*.9.y.",
"E.^.XXT.T.8XoXS.-.A.=.E.pXsXpX8XoX X^./. XoX5X8Xt.V & 4 D U A.U.(. X3XaX9X5X!.H.u.uXnXxX0X7Xh.w. .M q 8 & 8 8 0 0 0 0 8 - - & 8 8 0 q 9 q i i i i b b m b b b j b n M b M n n M M n M n M M M M M M b M n n m b b n M n m k M b n j b j j h b b e e e h b h h h e h j h h q q e h h e e h h h e e q e q 9 q 9 q q q 9 0 0 9 9 9 9 q 9 9 9 8 8 9 0 8 8 - - 0 8 - 9 - - 8 8 - 8 8 q 0 9 b ^ %.w.u.c.3.6.9 - 8 ; & ; ; ; ; a J L ..-.o.-.e.-.9.t.9.e.H.L.^.L.e.r.S.r...-.r.r.S.y.r.S.r.A.A.A.-.e.A.H.Y.^.e.e.S.~.Y.-.-.A.e.-.A.-.-.",
"^.|.@X|.E.oX.Xy.o.=.-.oXzXsX5XXX|.|.!.E.oXrXrXrXL.J = 4 D R I.XX5X5X3X5X].c.P.S.q.fXnXxX{.7Xx.5.M g 0 z z L z 8 t u 8 & - - 8 8 u 0 u u q u a b N z b N b m C M V C C C C C C C Q } ^ } ) ) ) ) ) ) ) ) } ) } ) } C ) P ^ C ^ C C C C M C C C C C C C B C C M k C C M V B m n B m m m m b b m m n m b b b b b d b b b h h z h h z z z z l i i i a u u u 0 0 u 8 u 8 0 u 8 - z t N V B ;.O.#.c.{.W.9.X.8 8 8 ; X % % = ; t c J L o.*.-.-.-.=.-.e.e.S.S.S.L.r.e.e.t.X.-.9.r.S.r.S.S.A.S.t.r.e.e.r.e.A.G.-.e.A.L.Y.e.-.A.e.-.L.-.-.",
"oXXXoXXXE./.E.A.t.A.8.XXlX8X!.T.E.E.P.Y. XoXyX@X).J 2 4 G E }.9XsX9X X5X!.k.y...q.uXxXxX4X7XN.4.h 9 9 z V g 8 - - - - $ $ - ; 8 - - - - $ $ # - - 8 # - # 8 # 8 8 - - 9 - 9 9 - 9 9 9 9 9 9 q 0 q 9 9 9 9 9 e 9 9 q 9 q 9 9 q 9 9 9 9 9 9 9 9 9 9 9 e 9 q q q 9 9 9 9 9 q 9 9 9 9 9 9 9 9 9 9 9 9 9 9 9 9 9 9 - 8 8 8 8 7 8 - - - - - $ - - - # - # $ $ - u 8 - 8 - 8 8 - - 8 0 B C C ) %.c.`.u.3.| o.- 8 u ; $ $ . $ $ - l v P ..o.-.o.-.-.6.e.9.e.6.t.y.9.-.e.A.o.-.;.S.S.H.A.e.y.A.y.t.t.-.6.-.-.-.9.r.r.;.-.e.e.S.S.A.Y.=.o.",
"^.^. XE.^.^.A.r.-.*.U ^.pXXX/./.E.Y.I.|.|.oXyXrXy.v = 5 v 7.|.uXaX9X XW.y.0...-.w.0XxXjXQ.=X>Xn.4.C 0 i g 0 g 8 9 - # $ # # ; ; - - - # & 8 3 8 V q # 8 - # - # # - 9 8 9 - 9 9 9 q 9 g e g h h h h h j h h h h h h h m h h h h h j h h h h e h h h h h h h e h h j h h h h g h e q g g e q q g g g g 9 9 g q q q 9 9 9 9 8 0 - - 9 - 0 - - - - $ - 8 z c 8 $ - - # - - 8 - 0 C ) | _ q.5.N.jX{.b.) 9 $ ; u 5 . $ X * % = u l v U o.o.o.O.*.o.6.e.9.-.8.-.-.9.e.=.*.e.e.r.y.r.r.y.e.y.t.A.9.9.9.-.e.-.8.A.;.8.A.e.=.*.;.;.A.;.-.",
"L.S.T.^.T.-.=...U J J Y.pXXXT.^.E.E.U.}.|. X@XiXF.v = 6 G 7.XX9X4XJ.U.c.r.X...S.c.7XxXgXB.nXvXx.` P q 0 0 0 g q 8 - - - $ & $ - # - $ $ $ 8 a z l 8 9 9 0 N N - q q u q 8 9 i g g h b g j m M C M M k M M Q Z M k M M ( ( M Z ( ( M Q Q Q Q ( ( ( k Q Q M M M M M ( ( M Z M k k C M M M k k m k k k k m k h k h b b q g e 0 q q 0 0 0 5 0 5 8 0 l c c t - $ # - - - - i u b L  .3.5.4.U.`.v.nXjXv.3.g - - 8 3 $ X X $ % * ; 5 z J ....U ......-.-.-.-.9.-.8.6.L [ e.9.e.e.r.e.r.r.e.e.e.r.e.y.t.Y.L.-.*.*.-.=.;.-.*.o.-.-.=.=.-.",
"R.Y.^.|./.o.U U *.G ..E.iX/.E. X/._.}.|. XXXyXpXI.P = 5 H 6.OXyX!.W.!.L.9.r.S.T.L.9XxXxX'.ZXgX] ) m 8 u g - 0 q g 0 - - 3 3 ; 8 - 8 $ - - - - 8 9 z g c V C V z V } C Z q g g g g m h m k M M j M k M k M k k M k k Z k M k k k M k M M k k k M k k k k M M M M M M k M k M k M M M M M k k j m k k m k k k h h h b b n | m m v m V - g - - ; g l 8 $ # - - - - - 8 a z z P #.4.h.p.1.5.w.h.q.) 5.h.M - - - 8 X $ * % % = = - l c J L P P U ..o.-.-.-.-.;.-.U i K e.y.9.r.e.e.t.e.e.y.S.A.y.S.e.S.A.-...*.-.-.=...*.o.-.=.=.;.e.",
"Y.Y.Y.|.^.U K ..K L 9.y.E.E.|.|.|._.^.].|.XXrXyXi.Y ; 5 H 8.@X9X3X5X(.H.y.H.E.L.c.9XxXgX>XZX;X( e 8 # 0 0 - 9 9 g g z u N i N u c c 8 l c z l l z N N V C M n B X.| <.Z P O.M m Z V M Z Z M M m M M m m m j M j m h n m m b j b b j h m h m j m j h b h j b j h h m b h h h h m h b j h h h h h h j h g g g g g q } 6.v L C b V z z g l V z V v t 8 8 u u u z z 8 a i z Z 3.w.v.5. .` N..XV.x.N.U.M.M - - 8 3 $ $ $ * $ $ - ; 5 u c z z K [ ..o.*.-.-.=.-.} N N ..L.Y.e.e.r.e.9.e.e.r.y.t.r.A.9.6.-.*.*.*.o.*.=.;.8.=.*.-.;.8.A.",
"S.D.Y.R.S.U ..U L -.F.S.y.E.}.|.|.U.}.E.E.|..X5Xi.V = 4 H 8.oXyXaX3X(.E.E.|.H.L.P.qXxXxX<XvXm. .n 8 u C 0 9 # - 8 z C B P V C V -.u c P Y P P J V Z } } X.<.Z P  .C X.M | X.z Z X. .} ` X. . . .<.1. .` ) ` ) ) Z ( ) Z Z ( Q Z M V M m M M m m m M m m m m V M m M M M k m m k m m b m m m m b b b b b g m m g z m m b O.P b P b V b P <.l c 8 t i v v N c J V u N } O.O.4.0.h. .| #.w.jX{.0XjX7X{.<.0 - 3 u $ $ X * $ * - - - u z u i K ..o.o.P o.-.-.-.K J u L D.S.e.A.e.;.e.e.e.t.q.e.e.r.9.-.-.-.-.-.o...-.A.8...[ ..*.-.=.",
"L.^.XX|.E.o.J -.S.G.R.XX@X_.L.E.}.}.|. X.XrXrX5XI.J = 4 D 7. X{.3X4XW.E.E.|./. XP.qXgXaX:XqXx.1.C i N V 0 - # - 8 z V } C O.} e.C i } -.o.-.-.%.<.O.X.9.r.m b } O.} O.M n } O.9.q.3.q.3.4.4.w.w.5.w.5.5.q.3.2.1.1.1.1.1.3.1.1. .1.1. . . .<.1. . . . . . . .X. . . . . . . .` } ) | | ) } ) | ) ) ) ) } ) Z Z Z V M m C X.q z b q q z } N 0 8 c V V V V V V J z c b z <.%.} |  . .1.3.w.`.'.fXxXfX{.3.g 9 - u $ % X $ X * = = 5 t c J K V N L *.o.-.-.e.;.-.o.K U O.O.9.e.e.e.t.9.t.e.e.A.e.;.e.t.e.e.-.-...-.-.=.-.-...=.8.e.8.",
"T.^.(.|.}.-.V S.T.T.E.|.iX@XU.T.U.|.|.oXoXyXyX8XE.V = 2 D 6.|.`.(.5X3XP.|..XP.L.v.jXxXxX'.-Xa.#.C q 0 8 - - - - 0 z C O.r.I.r.) V ;.w.0.y.w.w.y.w.h.w.h.3.| 3.h.h.w.h.4.0.h.v.c.v.b.b.b.b.x.v.v.b.x.x.b.x.b.b.h.h.f.h.h.5.5.h.h.a.u.a.u.5.5.h.5.5.5.5.w.w.5.5.4.3.5.5.3.3.3.1.3.3.%.#. .+. . . . . . . .` ` _ ) ) } ) ^ M C M Z Z Z ) ) v z N Z L L L } L L C b N C | y.9.^ e } <.<.3.5.{.'.:X0X:XN. .z - 8 l $ % % * * * * - - u p N L J y J o.o.9.e.e.-.-.o.L J ..O.6.-.A.-.9.8.6.6.9.e.;.e.A.t.-.A.-.*.-.*...*.....-.=.;.A.A.",
"E.L.L.y.r.-.o.L.T.T.L.^.|..X@X|.^. XXX.X5XuXyX Xr.v * 2 H 7.|.].Q.!.W. X5X3X(.L.E.jXxXxX'.V.a.#.n q 0 z 9 - - 8 8 c C O.!.[.L.0.k.v.M.M.N.M.N.v.M.v.v.v.a.v.M.N.N.M.M.N.v.N.N.M.N.N.N.N.N.N.W.Q.N.N.N.M.N.M.N.M.M.n.n.b.n.n.b.n.b.h.x.f.h.h.h.h.h.a.a.a.h.a.a.p.5.5.4.4.4.2.3.3.1.1.3.1.1.1.1.1.1.1.1.#. . . . .` _  . ._  . .Z ) } ) } ) Z Z Z ) L } } } Y P V o.].y.Z V O.X.%.9. .<.h.7Xv.x.v.{.{. .q 8 8 u % = % % % X % % - 5 l z V J J o.-.-.-.-.9.O.o...L L O.O.-.-.e.-.-.-.-.9.e.9.-.e.r.r.9.9.;.9.e.e.-.*...=.;.=.*...*.",
"/.L.e.e.;.A.-.H.I.F.L.E.E.rXiXoX(. X.X5X8XyX5X/.9.c X 2 G *.U.].W.k.(.8X3X XE.y.v.jXxXxX'.Q.'.#.M z z P - # $ - z V } O.P.W.0.k.U.`.].[.!.`.'.'.[.W.Q.W.W.W.Q.W.`.W.N.N.W.W.W.`.`.Q.W.W.W.'.W.Q.W.W.N.N.N.W.N.N.N.N.M.N.b.b.N.b.x.x.x.b.h.b.h.b.h.h.h.b.h.h.w.5.h.5.5.5.4.4.4.5.0.4.4.4.4.4.3.4.5.3.4.3.3.1.4.1.1.<. . . .X. .)  .) ) ) } ) P ) } } } C Z Z Q L | w.) q z C Z w.P.3.1.a.0X'.:XjXzXN.) 9 8 - u & - * X = = % = 3 u l z c P *.8.-.9.o.-.-...P P ..P -.-.=.-.-.-.e.9.e.9.9.e.9.-.e.S.e.o.;.A.e.A.;.-.-.A.e.-.[ L K ",
"T.H.k.y.H.A.o.H.Y.S.Y.T.L.|.XX X/.5XtX5X9X9X3X(.6.V X = x U E.[.(.3X3X5X4X X(. X`.fXxXxX'.7X:Xh.M z q b - - $ & u N ..e.Q k.0.n M n n n b n n M M M M M M n M n j M j M n C M Q M M C M C C Q Q M Q Q Q M C M Q m Z M M Q Z Z k M M ( M M M M m M M M M M M M Q M k n M n M n n b m C M M m n b m j k m j m j M b j b m j h h g h g g z i e b q q b q g q b i h j w.Z z ..z } 3.5.u.3.1.[.{.qXnX0X<.m 8 8 3 t - - = = $ % % = ; 5 l c P ......-.-.....-...P P U ..-.9.9.-.-.e.A.r.S.S.y.A.;.;.S.^.r.-.-.S.H.y.e.*.-.8.8.=...[ I ",
"/.E.E.T.T.H.O.L.E. X/./.^.|.E.T.(.tX9X8X9X3X5XoXe.v X * x U }.3X5X8X5XyX.XW.9XpX].jXxXxX-XfXqXv.j e # - 8 - - - u N O.O.b  Xk.b y.O.;.9.%.0.9.0.9.0.w.r.w.3.0.w.w.w.w.w.3.h.0.3.0.3.0.4.k.4.y.3.c.9.w.3.9.w.9.w.1.q.1.w.1.3.q.3.5.X.9. .3. .u.1.9.3. .%.X.0.%.3.| 9.| %.X.O.| 3. . .O.| 3.) O.X.O.}  . . .<.X.O.) o.| O.P | P ) X... .} X.} O.} o.C } } | X.C ) ) 9X .q z L O.b.U.].v.3.b.b.W.9Xx.( b 9 8 8 a - 3 ; = = % % = 3 u l v Y ..U K L ..L ....P J B U L 9.e.-.e.e.9.9.e.^.XXE.T.e.-.H.Y.r.-.;.S.H.e.A.;.;.8.8.8.;.=.*.",
"/././.!.y.L.L.T./.(.XXXXoX|. X|.@XyX5X5X5X X^.E.6.v X * x U |.yX(.H.!.aX.XP.U.W.`.jXxXfX'.xXfX4.) m - # - - # - a U X.L  .9Xc.Q U.0.O.9.O.-.3.w.0.y.3.y.r.3.0.0.h.0.w.h.3.w.0.3.0.9.4.r.0.4.y.%.w.3.9.1.y.3.3.3.4.w.4.w. .3.3.3.9. .O.X.<. .w.O.3.X.<.5.w.3.O.O. .3.) O.| <.X.O.X.X.O.| O.| 3.} X.| 9.3.3.3.O.O.P 3.} X.C X.C ) Z X.X.C } C O.C } C } L P | | 9. .9X .9 a L O.E.].{.b.w.w.1.7XnXb.Z b 9 0 8 z - - ; = * $ * = - 5 u z V L J J L U U [ *.U U } ..*.e.=.;.e.;.A.=.9.A.r.S.S.e.e.;.9.e.;.e.S.H.;.e.;.=.=.8.8.e.8.=.",
"/.XX|.!./.XX X X|. XXXXXiX8XoXrXzXrX3X5XoXE.L.t.-.L % 2 x ..XX8XW.v. XyX XW.P.!.[.fXgXxX'.4X'.1.1.O.9 q 7 - 9 0 c N d 9.k.7Xh.) ].O.q i B B C C C C C C C ^ ^ L } C } C ^ C } C ) ) C } ^ } } ^ } ^ } ) | ) ) ) | ) X.) ` X. . . . .) _ |  ._ | ` |  .#. .| | #.X. . .| } )  . . . .|  .` ) | ) ) ) ) _ ) C ) ) X.) Q Z } Q V C m C b m b m h h g z b q q b U.w.) yX .0 N |  .3.`.U.1.3.3.4.zXxX5.g z 9 0 - u $ * $ = $ * % X $ = ; l V J z J J J } U ..o.-.-.-.;.-.-.A.A.=.A.;.-.} C S.Y.t.9.-.-.e.-.;.S.A.*.;.*.-.-.;.e.8.=.;.",
"|.}. X X.XoX X X/.|./.|.8X XY.^.(. X3X5X X/.L.t.6.J = = D R  X3XP.U.5X XU.W.l.P.`.0XgXjX'.0X;Xa.1.3.i V - 8 8 ; u N o.y.h.9Xh.Q E. .9 u u u t z c c c V V J N B B N B V C V V B V C V V J C C J L C C L V Z C ) Z P } C Z } P } ) P ) Z Z ) } ) } Z P ) ) ) ) Z Z C ) C Z ) Z ) Z Q Z Q Z Z Z Q Z Z C M C M C C C C C C C C V B V N b V N b N z z z z z z 3. X0.) aX3.q N <.L.`.{.v._ _ [.N.`.7Xw.g b 9 8 0 l - $ $ = $ $ % $ $ & = 5 x v J J v L U U ......o.-.-.=.o.;.e.A.e.-.-...P ;.H.-.-.-.9.e.9.r.;.-.-.-.-.-.-.e.r.e.;.e.",
"iXrXpXkXzXiXoXXXXXoX X/./.J.y.H.;.E.tX8X5X(.L.L.y.Y = 2 D *.oX9X5X9XW.0.k.U.l.k.u.0XxXgX=XjX-XN.x.} 9 } 7 - t t z ..-.c.c.9Xh.^ b.) q 8 # X # $ $ X # # $ - $ $ $ $ $ & $ $ $ $ & $ $ $ $ # $ $ $ $ # $ $ & & $ $ $ $ - $ $ - $ & $ & & & = - $ - & & - $ & - - - - - & - # - # - & - & = - - - - 9 - - - 8 - 8 8 8 8 8 - 8 8 8 8 8 8 - - - - & - - & # V W.:Xv.) uX1.q V %.P.3X9XP._  .[.x.j.{.0.d m 8 0 - l - - 5 = $ * * % * = = ; u c L L z J U ..L U [ ..*.-.-.o.-.=.;.e.-.9.9.-.-.L o.9.-.o.;.L.A.A.-.;.;.*.-.e.Y.^.^.T.T.",
"oX.XXXsXzXyXoX5X X X X|..X].].T.-.y..X[.8X X!..XL.Y 2 4 G 7.@X7X3X3XJ.v.!.Q.J.P.v.0XxXxX'.qXB.>X[.e 9 } & # 9 u z } -.H.k.9Xh.) [.%.i t . X X X $ * $ - - 5 5 3 3 ; ; 3 ; % ; & % = = % @ % = @ % % % % % , = * % % = & = = - = $ - = - = ; ; ; ; ; ; ; - = - - - - - - 5 - - 5 = 0 - - ; - ; ; 3 u 0 0 l l l z v v l l 0 0 0 0 u z u z z u u 0 8 u p 9 O.{.7Xh.Q aX4.q C O.c. X[.U.#._ '.x.'.kX].q m 9 8 - a - - 2 = % = = @ % = - 5 l v Y U N N J } ..[ U -.-.o...[ -.-.-.;.-.e.y.S.e...e.9.9.-.9.L.y.9.9.9.t.*.-.q.S.L.y.L.E.",
"^.|. XyXsXiXpXzXsX5X|.{..XoX XY.O.S.XX.X8X5X8X9XL.Y ; 4 I <.OX{.W.l.J.Q.(.!.W.!.J.0XxXxX'.eX=X0X3Xe 9 } 8 # 9 u a L 9.L.c.qXh.} P.%.b p . X = 4 2 2 - 5 l l z z l l u u 8 5 6 u 5 ; ; = ; ; 3 3 ; 3 2 3 3 3 3 ; 3 6 5 5 5 0 0 5 5 0 5 l g 5 u l l l l l l l 5 g l l l l l l l l l l l 0 l l l l z z z z z g v v m Z Z Z v v v v v N N c V v v v v c c z %.3X0Xh.B yX%.q B O.P.[.5X[. .%.!.x.1X7Xh.e m 0 0 - u $ = = X % $ = % = $ = 5 g V U U V V K U o.-.....o...o.-.-.-.-.-.-.t.T.T.y.L.q...O.-.9.H.H.9.-.9.-.-.-.9.9.L.r.L.].",
"XX|. XrXuXrXzXpX8X|.XX5X.X.XyXXX-.e.S.T..XrX X].y.J = 4 G 7.oX|.!.W.(.W.J.Q.3X!.v.0XgXxX=X0X0X;Xv.d q } 8 & z u i L %.L.k.0Xb._ W.3.b z . % = 6 5 5 5 z V v m v N c z p x u l u u u 3 3 5 u 6 6 5 3 3 3 3 u p p l l z u l l l l z c c c c z v v v v c v v v v v v v l v v l v v V v v v v z g g z c b c v Z Z m Z Z Y Z Z m m v M C V C J L P Z J V V c 9.7X9Xv.} aX1.q V %.L.[.7X`._ 1.B.v.{.:X .M B 9 8 - u - = % % $ $ * % % = - 5 x N U K V J J L -.-.o.....-.*.-.-.-.-.9.9.y.E.}.r.r.9.O...9.r.y.y.9.9.-.o.6.-.-.r.y.r.L.!.",
"|.^./.rXrX X(.T.P.|.5XoXoXyXkX|.-.-.o.9.Y.E.O.X.O.P - 5 G 7.oX.XW.Q.!.W.W.3X(.J.v.0XxXgX=XxX2XN./ b z } 8 - V 0 u V 6.L.v.qXx. .3X#.b z . = 5 p l l z N Z V J V N c c z z z u p p 4 4 6 6 6 p 6 6 4 4 6 p z l z c c v c c c z v v v v V V v V V J V V J V V v V Z v Z v v Z v v v m V V V V v v m v v v v V Y Z Z Y o.<.<.` Z Z C Z P C L C Z Y Y P Z v q.0X0Xv.^ uX%.9 B 9.U.:X'.[.x.1.Q.n.N.:Xh.3.o.9 8 8 u $ = = % $ * % $ % = 5 l J N V J L L K L o.o.-.e.-.-.-.*.-.-.-.-.t.F.XX!.r.X.9.O.6.i.L.y.y.9.6.e.S.A.-.e.e.9.9.y.L.",
" X5X.X5X5X5X|.P. XoX.X@XoXyXyX^.O.-.6.-.R.-.L 9.q.U = 4 Y 7.XXoX X(.W.W.[. XW.W.W.0XxXxXN.;Xs.j n n i } 8 $ Z i c P O.U.N.xXM._ W.3.M z X = 5 l x c v V C P L K c a a a c p p 5 5 6 6 p p 6 6 5 6 3 u x c z z c c v v v z v v v V V V v V V Z V J Z J Z P P Z P V Z Z Z G Z v Z V Z v V V V V V v N V v v c N Z } } <.<.<.<.Y Z P C P C Z Z Y Z Y } Y V w.fX1X5.) 9X4.q N X.U.3X:XxX:X] V.x.:X:Xb._ } 0 - - l $ = * * * $ X $ * = 3 c Y J V J P L } U ....-.;.o.o.-.-.-.-.=.e.H.E.^.y.q.O.9.-.w.F.y.q.y.e.r.F.F.e.9.9.e.A.e.t.F.",
"!.L.y.c.!.!.E.5XkXzXkXkXzXkXrXE.X.6.6.o.L P -.A.y.*.= 5 I *.XX8XyXyXyXuX X].(. X!.qXgXxXN.x.2.( _ C q } 8 9 Y 0 N C %.E.[.jXV.+.3X .M c . ; 5 x c v V V V C P C z a c c a u l x 6 6 x 6 6 6 5 5 6 p z v c c v v v V J v V v V V V H Z J V V V J J L J v l V J P Z Z I Z Z Z Z Z Z Z Z Z Z Z Z V m V V V V V N N Z P Z <.<.<.<.Z V C P P Y ) Z Y P Z Z V u.jX:Xv.} aX&.q B C 4.Q.7X9XaXh.`.f.7XMXx.k q 9 8 - u = = $ X $ * * * = 2 ; J o.X.} ....o.-.;.-.-.o.-.o.o.o...o.o.o.o.;.E.I.H.L.y.9.-.9.L.y.;.9.y.y.L.c.r.e.9.e.;.} O.-.",
"E.P.E.]. X[.5XuXaXzXbXzXzXpX XL.9.6.8.o.L ;.y.F.8.J @ 6 I =._._.oXyXaXyX X!.(. XJ.aXgXgXV.gX0Xa.#.M q } 9 8 8 l C )  .c.N.nXQ.` W.4.( c X 3 u l c c V C L Z P V c c z a a z x p l p x p 6 3 5 l p c c v c F v J v J N V J V J J V Y V Z V V V J V z l u 5 u z J Z Y Z Y Y Z Z Y Z Z Y Z Z Y Z Z Z V V V v V v V m V Z Y <.<.<.<.Z P } P } Y Z Y Z Y Y Z h.xX<Xu.} aX4.q } o.5.].7Xv.a.$.`.f.fXMXV.( M 9 u 8 l - = = * = * = ; = = 5 J ..o.O.*...*.-.-.o.O.o.-.-.-.o.O.-.*.....-.F.i.y.T.y.q.-.9.L.L.9.q.L.y.L.y.y.r.9.;.O.-.O.9.",
"oX.X8X8X8XuX8X5X.X8X9XuXzX8Xy.q.O.o.U N z O.S.9.J c @ 6 R *.Y.Y.H.T.3XaX3X3XoX5XQ.fXgXxXB.xXgXf.#.M q ) - - $ z C O.U.3.5.xXN.` 3X5.Z N $ = l x c v V Z P P V z z z a z z x p 6 6 p l p 5 5 p z c c c N c N v J J J J J J J V V V V V V Y v v l ; 3 u 5 5 5 p z D Y I Z Z Y Y Y Y Y Y Z ) Y } ) Z Z Z Z Z V v v v Z Z Z Z ` Z <.<. .P } } Z Z Z Z Z Z Z h.xXqXa.Q 0X&.9 B X.0.`.9Xv.( #.`.f.1XGX'.` C 8 0 ; z ; - = * - $ $ = = ; 6 u a J ..L L ..[ K } -.9.r.r.t.;.o.-.-.U J U o.o...y.F.y.r.q.y.y.r.r.y.r.r.y.y.9.r.e.r.y.S.H.",
".X.X8X3X7XaX8X8X.XyXyXoX.X XL.y.6.o.z 3 J 9.r.o.V p * D I *.G.L.L.E.8XaX5X4X8X/.u.fXgXfXV.xXgXf.] k q } 8 - - V X.3.) ) x.nXM.` `.h.) N . ; p l v N Z Z P Z c z z x z z t p p 6 6 p 6 6 u x c z c z v v v v J V V G J J J V V J Z G J v z p u = 3 6 u 2 = - = 3 5 x x 3 - x J ....P P Y Z P } Y } P Z Z Z Z v v v v v Z Z Z Y q.q.<.) Y } Y Z Z P ) Y m c.xXfXx.) aX4.q i X.0.J.fXb.h.a.V.f.1XHX%X] k 0 0 3 g - = = = $ * $ = - 2 ; - - Z o.L J L J L ..-.-.t.L.A.-.-.t.t.U K U U -.O.t.S.y.e.r.r.y.L.y.9.e.S.r.r.9.S.L.r.k.H.y.",
"8X9X9X8X5X3X.X.X.X.X_.].|./.T.q.6.L u J -.y.y.o.c = 4 H R 7.Y.R.L. X8XyX3X3X X0.b.fXgXfXm.xXgXf.,.M q P 8 - g  .<.c.) 3.[.xXM.` [.h.| N $ 3 u z v V Z P } V c z z z z x p 5 6 6 p p u 6 x z v N v g c N V V J V V J V V J J J c l l l 5 3 3 3 2 u x p 5 6 6 % % = 4 4 = = = = p a u 8 c Z ..} Z Z P Z Z m Z v Z Z v v Z Z ,.<.<.e.w.<...} Z Z } } Z } Z b.xXfXb.) aXp.9 b %.k.:XfXb.f.a.N.a.1XGXV.( Z 9 0 - l $ $ * * $ $ = 5 l x 5 5 5 v E L z z z V U *.} o.9.9.t.y...O.=.t.t.=.-...*.9.9.9.9.9.L.Y.q.9.9.9.O.9.y.E.!.L.y.y.y.",
"yX8X.XoXuX.X[.!.U.u.q.L.T.S.S.-...z c *.t.A.;.o.z 3 v I I 7.Y.S.y.!. X5X5X8XT.%.b.2XgXgXV.gXvXf.1.M q } 9 8 b 9.} r.X.v.=XxXN.#.[.1.) N $ ; a a v C P } L N z a z x z x p p 6 p 6 6 u x c c v c z v v v J V V V Z V V P J c 6 ; 3 5 5 5 6 p u 4 2 2 < 2 p x 6 @ * * 2 = , % = % % 3 3 t z Y P Y } Y ` Z Z v Z Z v v v v Z <.<.<.9.w.9.X.} Z Z Y } Z Z ) b.xXfXn._ aXh.e d X.3XfX0Xx.n.2.N.a.7XHX<X,.Z 9 0 8 l = * X X $ $ $ - l c c p x c P v l x z c Y *.L P O.e.G.t.o.*.e.t.G.t...L O.9.-.-.;.e.S.y.6.P O.9.;.L.E.|.L.y.L.y.H.",
"U.Y.U.u.k.]..X!.y.r.r.y.e.r.A.r...V *.t.t.o.o.U l 5 G H H *.A.y.H.P.P.!.XX5XL...i.fXfXgXV.vXvXf.2.M h ) 9 q q L m O.) v.'.vXB._ '.4.C V $ t p c J V Z P V c z a p a a x p p p 6 6 p z v c N c c v v v v c v v V J Z Z V z 5 5 p 5 5 4 x F p 6 , 2 2 @ % , 4 6 6 = 2 5 4 6 2 2 2 , % % 5 u J X.} } P Y <.Y Z Y Z Z Z v v v Y Y ` 9.q.w.<.o...Z } P Z P Z N.nXfXb. .jXj.e C X.Q.7XV.a.s.,.N.f.0XHX{.,.) 0 0 8 z - $ * X X * X * * = l u z z v l l x v v V P V J U U P L o.U L v V U ..o.t.y.-...o.y.H.6...} O.q.y.!.E.y.9.O.9.O...",
"9.S.t.} O.R.E.q.9.e.t.t.A.H.A.o.0 K 9.e.o.o.e...p p R R I E A.A.Y.!./.!.!.oXk.;.).0XfXfXV.vXMXV.,.M g } q q e b B 9.^ W.:XxXm.] 3Xh._ V $ ; a v V V J P v c z a u u z x p s 6 6 u p a F v v c c v v V v V v J J Y V Z v u 5 p p l 5 6 p 4 4 4 2 4 4 2 2 : % % < 3 2 2 s D 4 < , 2 @ @ , = v Y Y Y Z Z Z Z Z Y Z Z Y Z v v Z Z <.<.9.y.q. .} Z Y ) Z P ) n.nXgXv.+.sXj.e Q O.Q.:X{.{.V.,.N.u.fXHX<X,.M q q 8 c = = * X X X X . $ = 4 u l u u u l z z J L Y P Y Y P v v *.*.l u V J L -.A.A.;...*.S.A.o.[ ..o.3.F.].L.6.} } o.P N ",
"<.6.6.o.6.y.e.o.-.t.t.t.S.A.e...z -.-.-.9.y.e.L t p R I F E 8.e.e.S.Y.L.T.E.r.H.I.0XqXxXV.vXSXV.,.( h ) q q i b | 9.) U.-XvXm._ M.#.) V $ t a c V V Z Z N c c p x x p 6 6 s s 6 u a c c c N N N v V V v v v Z J J Y Z l 3 p p 6 4 * 2 % % 2 2 < 2 D 4 4 4 , , 2 4 : , 2 < < , < 1 * , @ * - Z Y <.<.Y Z Y Z Z Y Y Z Z Z v v Z <.O.6.q.q.<.Z } Z Y Z Y ) b.nXxXN. .xXj.e Q h.>X9XfXV.V.,.N.5.<XHX<X,.( 0 u 8 c % = = % * * X . . = 3 p l l p u v J F K L J Y J c v v J V x x x c U e.-.8.-.-.-.9.9.-.-.o.J o.t.S.F.6.Y P ..J c J ",
"U U U U *.=.U U I U U *.*.-.*.U -.=.=.e.D.S.U l = p H H H R Z.e.A.-.9.e.A.A.-.A.0.:XfXgXV.vXSXV.2.( j | q q e b O.y.4.v.-XxXn._ 3Xh._ V $ 5 z v v V Z V N v z a u p 6 6 6 p 6 p p c c c c c v J v V Z v Z Z Z Z V V x 5 p D H F 5 2 4 6 6 6 6 4 3 H D p 2 , , , < 1 < , : , , 2 2 > > * * = l l v Z m v Z Y ` Y Z Y Z Z Z v v Y .. .q.u.3.<.} Y Y Z } } N.mXxXv.#.xXj.j Q b.jXxX<XV.V.,.f.a.fXHX<X,.) q q 8 z X = ; = % % * X X X X X = ; x v F G G K L J J v c v G J p 5 v x K R *.=.=.*.*.=.8.e.e.=.U v Y 6.o.....J V V c z c ",
"l x x l F v v F c x p p u p l x I K K I Y l - % = F I I H R *.E *.R U K J J v G N U.fXgXV.MXSXV.a.( b | e e h M %.| Q v.=XvXn.` W.1.| V $ 8 z v V V V N v v c p p u 5 6 p p p p c a z c c v z J v v v v v Z v v l l x x D D p 4 2 , 2 1 < , , 2 6 I K p % , 1 , 4 6 < % , , , 4 * > * > * * * = - v v l Z Y  .Z Z Z Y Z Z v Z Z o.o.3.q.q.<.} ) Z Z <.) b.nXgXQ.@.sXj.j ^ #.j.[.f.fX%X,.V.a.fXHX<X1.) 0 0 8 u X X X X X       X X     O @ = 2 = 3 3 = 4 5 5 5 = 2 3 = = = = 2 6 u 6 x c p c c D D a p p 5 5 p p u l u 8 3 5 ; u ",
"% * * * * * X @ X X X @ X X X X X @ = = = = = = x I H R R E 7.I 5 % 5 3 ; ; = 4 - c.qXgXV.ZXZXV.2._ n | q e j q b C _ {.%XvXM.` '.h.} C $ u c N J J N N N F a p p 6 5 6 p p p x z c c c v N J c V J V V V V p p 6 p c 6 2 < , 2 @ : , : , , , , 4 I F K p , < 2 < s s , , < , 4 4 , 2 1 < , , , % c c t c } P } P Z Z Y Z v Z Z o.<.<.9.q.3.X.} P <.<.( N.nXxXb.` jXn.w ' p.v.9X<XmX%Xs.V.f.fXHX<X,.) 0 0 8 x .                   O   O X O X O @ X @ @ X * * X @ X @ @ @ $ @ X * X X X X X X X . O . X X   X X X X X X X   X X ",
"2 2 4 2 2 2 2 2 * 2 = = = 2 4 = = 2 4 3 6 x 4 x I I I R C.E R G 6 D R H H x D F v b.qXxXm.MXSXm.2._ M  .e q j b ^ C 4.7X1XxXM.` U.2.) V # t c J J K F N N F a p p p 5 6 6 u u z c v c N J c V N V J J V c x p p p 4 6 , % , < , 6 s 2 , , , , , 4 I c F G 6 4 < 4 D F 2 , 2 < , 4 2 < 4 2 1 , , < p p 3 c Y  .Y Y  .Z Y Y Z v v Z o.<.3.q.q.<.} Z Z P <.N.mXxX{.#.jXM.j | j.b.f.gXGX%Xs.V.f.fXHX:X,.` 0 0 8 u .               O   . O O X @ @ * @ 2 2 2 2 = 2 2 4 2 = 4 6 4 4 4 2 2 * = 2 = = @ @ X @ X X X X X O X X * X X X X ",
"x v D D D H G D D x x x x G D D p p x x x F F I I R R R 7.R R R I =.=.Z.*.R R R U E.qXfXm.MXZXV.2.` M  .e e h M Q W f.0X<XcXM.( v.p.) V $ 3 c F K K J s s a p p 5 6 p 5 6 p p a c a J J v v N J J J J c x p 4 4 2 6 4 @ , , < A I 6 , @ < 2 < : < G 6 4 s 6 4 , 2 s H 6 < 4 2 O < < 1 < < , , , , 4 5 ; c X.X.o.<.Y o.` Z Z Z m Z O.<.9.q.q.<.o.<.Z <.` b.MXxXm._ jXn.j +.h.-XfXIXSX&Xf.V.f.2XPX1X1.` 8 t ; u                   O X   X * * * = 2 6 3 < 3 4 5 4 5 5 4 p D p p D x 5 4 4 4 5 2 2 2 2 2 2 2 2 2 = = * 2 * = * * 2 ",
"H I I R R Y R R R I I Y E R R U I I R R E E E E I R R R R I Z.7.=.=.A.A.G.G.S.S.y..XeXqXm.MXZXm.2._ j  .e q j ( M _ f.fX2XxXx.` 3X5.) B $ u z N K K s J F a a p p 3 5 p p x z c v J c c z V V V J F u 6 4 2 % < < 4 2 , : , 6 H s , , , , , 4 4 < 6 4 , 2 s s 4 2 6 6 6 4 4 < , , , , , , < , , , , < 3 P o.o.o.Y o.o.Y Y Y Y v V X.<.9.q.q.3.<.Z <.) ) V.MXfXV._ jXz.j ' j.>XZXUXHX&Xd.<Xf.fXPX1X,.) 8 0 t u . X X X X O   = = = 4 5 u 5 5 5 x s D s s x x v F x v x v F F G K v v v x x x x 4 4 6 4 4 6 6 4 4 4 3 6 6 6 D v x ",
"I 7.8.F.F.A.D.8.7.*.-.t.S.~.}.G.G.R.A.8.A.=.*.E E R R H I C.7.7.=.A.XXiXsXkXzXkXkXxXqXqXm.ZXZXV.2.` k ] q e h M ( +.n.0X%XxXn.` N.a._ V $ 5 z F J J F a a u p p 3 3 5 u p z c v v N c c v J J J J p 5 < , < < < , , 2 1 4 4 s s 4 < < 2 2 A p D F 3 , @ , 5 p 4 2 2 2 2 2 2 < 1 < , , , < 4 2 , < , < 3 z L o.o.<.<.Z <.Y Y Y Z V } <.9.y.q.q.3.` Y o.` N.MXfXb.| jXn.W ` f.1XZXUXHX&Xf.%Xf.gXPX<X` ) 9 0 8 u ; = = 5 4 ; 5 v G J K U K J Y U *.=.A.A.A.D.8.A.A.A.A.-.*...8.A.=.<.o.7.U K I I D 3 = % 4 4 p 6 5 x p p c x I Y R ",
"D.G.XXOXXXXXXXU.G.}.XXXXXXiXlXzXpXtX X^.E.A.A.A.7.I I x I E 7.7.~.pXsXsXzXbXzXjX8XxXgXqXm.vXZXn.2.` j ` h q k k ) ] n.fX2XxXV.] 3X4._ V # ; c J N N F a p u p p 6 2 5 p p z z c v c v v N N V v u u 3 < 4 4 1 4 , , < 4 4 < s G F 6 1 , , s s 2 D D 3 , % 2 4 6 2 2 % , < , 1 2 < @ , , 6 F 6 2 4 1 1 , = u v o.Y <.<.Y <.Z Y Z V Z <.9.w.q.w.<.<.o.<.` V.MXgXb.| xXM.W _ f.0XZXUXHX2Xd.%Xm.2XPX1X1.` 0 t 0 u ; = 5 - - 3 5 v P K L U U Z J K ..8.A.r.A.J.S.H.H.S.S.S.e.A.L.Y.L.F.y.S.i.6.-.o.K 6 3 4 p p F I I K U R o.8.t.F.y.",
"}.XXiXiXoX8XoX X@XuXlXkXpXzXzXzXbXkXpXpXyX XT.Y.o.l v 6 H R E 7.@XbXxXuXsXzX9XJ.N.jXfXfXm.mXZXV.,._ j  .h h k ) ) ` n.fX2XxXb.,.N.`  .V # 6 N F J F F a u u p x 5 3 5 p l z v v N v v v c v V l p 6 2 < 4 4 A 2 2 , < 4 4 4 s H D 4 < < 6 F G 4 @ < p 4 , , 2 < 2 < : , , , , 2 4 < , 6 D D D 6 4 , < , 2 3 u V <.<.<.<.Y Y Y Y V Z O.6.q.y.t.q. .o.<.Z V.MXxX{.] jXn.W _ j.0XZXUXPX2Xf.%Xm.gXPX1X,._ 0 t 0 z 3 5 - = % = ; l J J U U ..U J N J ..;.S.H.Y.Y.H.H.Y.Y.L.Y././.!.E.T.T.I.Y.F.y.e.E u x F p F I I -.U -.t.A.S.E.U.L.",
"L._.oX.X8XyX8XyXsXlXkXpXkXzXbXyXkXzX8X8XpX5X!.E.o.u H H R R E 8.@XzXsXaX X!.P.!.].0XfXfXm.vXZXV.2.` j | h h ( <.` ,.n.fX<XxXm.( [.5. .V % t N K F c c y p u p l 5 6 p t z v c J V V v N N N v u p 6 2 < 4 4 4 2 4 6 6 6 F 6 6 H x 4 , 6 s I D 6 , , , , @ : , , 1 : , , 1 , % 6 4 4 6 s D 6 6 4 2 < , 2 % ; a p Y <.E Y Y ` Y Z P V O.q.q.y.q.q.<.<.<.<.V.MXxXV.' aXn.W _ f.2XZXUXPX2Xf.%Xm.fXPX<X] ) 9 i 0 c - - ; $ % = - l Z V a v F v z J N K ..e.T.Y.H.Y.H.H.H.L.T././.E.!.!./.E.E.E.S.9.Y ; 2 x v L *.*.8.t.A.y.-.e.L.L.y.",
"q.F.].5X4X8X3XuXkXzXkX.X3XkXzX8X.X].v.L.E.!.rX8X6.l F H R E 7.S.8XsX5X.XT.L.!. Xb.fXfXfXm.MXMXV.2.] m ) h h ( ] ` ,.b.fX%XxXn.,.'.#.) Z $ u V L J a p p u p p 5 3 6 p p z v v v J v v v v v z 3 u p 4 2 < 2 < 6 6 F D F F 6 < x 6 , 4 F D G 4 < , , , , : O : , , , , , 1 @ , , , 4 6 s 6 4 4 < , 1 , , = 4 c u Y <.<.<.Y Y o.Z Z V } 6.q.q.q.q.<.Z <.` V.GXxX<X+.jXn.j _ s.,XZXUXPX2Xd.V.f.fXPX<X` ( 0 i 0 z ; = $ X $ * $ v V z a u u u z v u c V -./.I.H.T.Y.H.;.-.r.y.r.k.T. X X X(./.y...Y 3 3 a U *.A.L.Y.y.S.r.O.O.y.H.P.",
"S._.oX5XoXoX3X8XyXkXkX8XoX8XzX.X[.E.k.T.!.!.pXoXO.5 D F R E t.^.yXsX X5X!.E. X XV.fXfXfXm.MXMXf.,.` m _ h h ( ] ` <.f.fXfXxXN.( W.2. .Z = u F K v a a p u 6 6 5 5 5 6 c v c v v v v v v v N x 2 4 4 4 4 1 2 6 3 4 D p U R F 2 2 < 1 6 F F H 6 < , % , , O , , , @ @ % , 2 , , , < 6 4 6 < < , , , , * , @ = 5 p E <.<.Y <.<.Y Y J Z Y q.q.y.t.q.q.` <.` N.MXxXb.' xXn.W +.s.<XZXIXSX<Xf.<Xf.fXPX2X,._ q i 0 z ; = % $ % X $ u z N J z x c v c p v L e.^.F.S.Y.^.H.;.;.-.e.9.O.L.XX XXXXXE.y.6...t u J o.S.L.L.L.S.r.o.} r.H.P.L.",
"e.|.^.E.].]. X XL.b.`.oXkXoX{.}.|.E.H.Y.L.E.iXrXo.u G H R =.}.XXrX.XW.P.L. X X].N.fXfXfXm.MXSXV.2.` k ` h k ( ` ` ` f.<XV.xXf.,.3X5._ Z $ x V K F a c a p 6 6 3 3 5 p c v c c b v v v v V V 5 - 6 , , , < , < , @ x 6 I K F 4 % < , 4 D p F a p 4 , , , < , % % 2 u % < 2 , , , , < < 1 < , , , , , , , * = = a 7.<.<.<.Y Y Y Y P V Y 3.t.y.y.u.<. .<.<.V.GXmX{._ jXn.Q ] f.>XZXUXPX2Xm.%XV.fXHX<X,.` g z i c $ = $ % * X $ 5 u a z N P E P N a J o.r.F.O.6.-.-.=.L.Y.e.r.9.r.L.L.c.Y.Y.6. .J } ..e.e.r.E.(.|.^.S.r...V e.y.y.0.",
"-.T.E.L.I.]..X8X|.U.).oXkXXX_.|.E.L.y.U.T.].pXrX<.c v I E Z.XXoX X(.k.k.E. XU.E.I.fXfXfXm.vXMXm.5.,.k ` h k ( ` ` ,.f.fX%XxXV.` W.2._ V & u J J v p c p u p 5 6 4 u a c c c c c v v v V V V 3 4 s < , , , , , 1 , D D F F x 4 , , 1 < A 5 6 6 2 2 < = u t 3 < 3 F U J t % , , , , 1 , , , , , , , * , , , * % p <.7.<.Y <.<.<.Y Z V Z <.<.9.q.q.q.q.q.<.{.MXxXV.2.jXn.k ] a.2XZXUXSX%Xm.V.n.fXPX<X,.` g z t z % % * $ X * $ - l v v J U o.o.V J U *.6.6.O...L L ..-.S.-.-.e.r.r.r.y.y.q.6.Y Y 6.9.L.^.T.T./.XX^.S.r.o.J 6.8.6.O.",
"r.O.6.L.].oXoXkXlX].U.XXrX|.!.|.E.E.L.E.k.E.yX8XO.u c T E A.XXiX X!.E.!. X|.E.|.I.fXfXfXn.MXMXm.2. .k  .h j ( ,. .,.b.fX&XxXn.+.[.5._ C - a V L v a z a u 6 6 5 5 6 a z c c c c v v v V V J 5 2 4 , , , < < 1 < 2 H x p 4 2 % , , , 1 < < 2 % % % & u B X.b t s [ @.O.U p , , < , , , , : : , , , , , , * * * 5 Y q.q.E Y <.Y Y J Z P u.u.q.q.q.q.q.<.<.V.MXxX{.1.jXN.k ,.f.<XSXIXHX2Xm.<Xm.fXPX<X,.` g l 0 u $ % 5 $ * X $ ; l c a c J L U ..o.-.-.9.-.t.8.-.-.6...J -.9.L.E.y.e.r.r.;.o.o.6.;.r.9.0.9.9.H.H.H.y.t.6...L J O.9.",
"L.} O.XX4X8X.XkXbXoX{.yX8X`.E.T.T.E.E.E.P.|.tXoX} u p I R A.iXsX!.P.[.!.].|.].E.I.1XfXfXm.MXZXm.a.] j  .h j ( 1.` 1.f.fX<XxXM.| b.` ` P $ z J J F c x p p u 6 6 5 t z z c c c N v v v V V V v = 4 < , : , < A 4 , 6 p D 2 , , , , , , % 3 y y t t d B _ p.@.y f [ | [ B 8 ; a y t t t 3 < < , , 2 , , , * * * 5 Y <.q.<.<.o. .Y Y } 6.).i.3.3.q.<.<.<.` ).MXgXV.,.jXN.k ,.f.<XSXUXHX%Xd.V.m.fXHX%X,.` g l u z $ * 5 = $ $ $ = g z z z v P U Y ..U -.-.9.9.e.e.8.6.L J o...F.^.A.e.;.;.-.O.o.;.y.y.o.O.O.e.e.9.L.y.y.9.*.c z q.L.",
"r.9.T.rX9X8X8XuXzXuX@XkX5X.X!.U.U.!.U.!./.E.|.L.C 3 p R =.G.zXsX X!.[.[.|. X.X}.N.7XfXfXV.vXZXn.2.] k _ h j ( 1.` ,.x.2X%XxXn._ '.5. .V $ a G J v c z p u p 6 5 3 p c c c c v z c v v V V V x 4 < 4 , , 4 < A 6 2 4 6 D 6 , , , , , = t [ &.w.4.&.p.j.Q.=X=X:.B B B B 9 d | %.@.| } V b a t , , > , * * 1 * * 5 Y <.Z.<.<.Y Y E <.<.i.i.u.<.} <.Y <.Y ) V.MXfXf.` jXm.k ( f.2XSXIXSX%X%X%Xm.fXHX<X,.` 0 i t z = = 2 = * * $ - l c c c J J L } o.o.-.6.-.-.-.-.8.-.-.8.L J -.-.O.-.o.X.L L o...O.O.;.9.9.t.r.9.9.8.e.6.o.L U L.T.",
"U.L.U.oX9X7XOX8XkXkXkXkX8X X|.`.!.!.].|.!.P.L.q.P 0 D I R D.pXpX!.!.!.!.]..XrX_.c.1XfX1Xm.vXZXV.2.] k ` h j Z 1.,.,.x.fX&XgXn._ Q.#._ C - u v Y G z x u u p 4 3 4 p x c c v c v v v v V V v 0 = < 4 < 6 S < < 4 4 2 4 2 2 , @ , = ; i | M.=X=X=X=X>XwXqXeXeXaX4Xj.@.+.0.M.Q.K.s.p.&.+./ Q a 3 % , , , 1 = 1 * 4 v 7.q.<.<.Y <.Y <.q.q.u.1.Z Z Z Y Z Y Z V.MXgX{.,.fXm.k ,.f.2XSXIXSX%Xf.V.f.fXPX{.,.` g i u z = * - - * * $ - l c N N N J J ..e.9.e.e.-.*.-.A.;.-.9.8.L J o...*.-.U a N U J J ..-.r.S.F.S.r.e.-.6.6.6.6.o.-.t.L.",
"L.L.T.].3X X{.3X5XoX X.X X].].`.`. XXX|.E.!.T.S.o.u p H R A.pXsX X!.!.!.!. X Xy.w.qX0X0Xm.vXZXV.p.] k  .h j ( #.` 1.x.2X%XgXm._ N.2._ P & l V P v z z p p u 4 3 3 p z z v F F N v v v v J v 3 = 2 4 4 6 s 1 < < 1 4 2 , , < 2 2 a B %.4XeXdXhXeXeXcXcXNXNXvXNXcXcXdXeX6X6X6X*XB.M.z.p.@.| [ t % , , , , , , % 3 N 6.<.q.<.<.Y Y <.6.<.<.} 3.q.o.O.o.o. .V.MXfXf.) jXm.W ] s.1XVXIXHX<Xd.%Xf.fXSX-X,. .0 a t a % * * = - * X - 5 z z z c N J *.e.r.-.O.o.o.U [ =.8.9.;.I J ....L U U P U L L o.-.-.S.r.e.9.9.9.9.6.6.6.9.8.-.9.y.",
"|.T.P.E. X{.5X8X5X_.U..X X X XXX].|.`.]. X XL.H...y p H I G.sXzX X!. XQ.(. XW.r.U.xXeX0Xm.vXMXn.2.] k _ h h ( #.] ,.n.7X;XxXn._ [.1.) Z $ z V J F c z p p 6 u 6 u p z c v N N v v c v m Z c 3 2 2 2 6 6 6 4 , , < 4 , < < 6 t N } z.qXvXmXVXVXVXVXNXVXVXCXFXFXmXVXcXcXdXeX6X6X;X*Xz.z.p.@.| V ; % , , , , 2 2 z <.8.7.<.<.E o.Y Y <.Y } <.i.i.3.<.q.<.<.).MXfXN.,.jXm.Q ] s.1XvXIXSX<Xf.%Xf.2XHX-X,. .q i u a # = * * = $ $ $ = u i a c c J ..-.o...o...U a L 8.A.-.o.N a ..K U *...K J J U *.o.-.-.X.o.-.9.9.-.O.-.9.q.9.-.;.r.",
"rXP.L.L.P.]. X X.X.XXX.X]._.]. X].[. X].4X8XH.r.o.c 6 G H A.pXrX!.[. X(.oX5X3X3XuXnXqXqXm.mXZXn.2.] j _ e j ( #.` ,.f.1X-XxXn._ n.] ` V $ u v J N z p p u 5 6 6 5 u z c c v c z v v v m V V 3 2 2 6 p 4 2 4 , < , < < < u z } 0.4XnXmXVXFXFXVXVXCXCXFXFXJXKXFXFXFXCXVXcXcXdXeX6X,X*Xz.g.:.@.[ a % , , < , 2 ; Y 6.q.q.<.<.o.Y Y Z V Z Y q.i.u.<.<.<.<. .).MXfXV.` jXm.W ] a.1XvXIXSX&Xf.%Xm.2XPX<X,._ q i 0 a $ $ * = u 5 - - - t z a z N J [ ..L L B L J L =.;.*.....J K o.K J L v u J J ..o.o.o.o.;.-.;.;.O.-.o.9.y.L.e.O.o.O.",
"5XH.L.y.r.!.].(.]. X.X|._. X|.].].].].[.5X.XH.r.6.v 5 G R G.sXyX!.!.3X XaXkXaXyXaXcX0XqXV.vXMXn.2.] j _ h j ( ,.` ,.x.2X;XxXx.] {.5.` Z - u v V v a z p u 5 u 3 5 x z c c N z v v v v v V V 3 = 2 6 4 2 < 1 < , < 4 4 6 z &.4XnXDXFXFXFXGXFXFXDXxXaXaXsXbXDXDXFXFXDXVXVXcXcXcXeX6X,X$Xj.p.$.| C 5 2 , , , = p P 6.q.7.<.Y <.<.Y P Z Y <.q.<.o.O.o.X.o.} V.MXfXV.` jXN.Q ] s.2XZXIXSX%Xd.%Xm.fXHX<X,._ q i t a X X * = u u u 5 - 3 8 a c J J J } } J L J K -...o...L J J N K N a u u t c V U U L J *.A.-.-.-.-.*.o.6.y.Y.9.} ..} ",
"5X|. XL.S.}.!.W.U.!.!.E. X|.E.!.].].]..XyXoXL.L.A.N 4 F R A.pXpX[. X5X5X8X4X!.U.4XxX0X0Xf.vXMXf.2.] j ( e j _ ] ] ,.f.1X{.xXn._ b.] ` Z $ z v V z a z p u u 6 3 5 u c c v v l v g v v V Z v l = 2 2 2 % , , , < % 6 6 t %.aXVXCXAXFXFXGXJXJXDXW.;.[ } B B } O.k.6XaXnXVXVXNXcXdXwX,X=XM.p.:.+.^ a < , , < 3 p P q.q.q.<.<.E Y Y } Z o.<.o.} X.q.q.q.q.3.`.MXfX'.] jXd.j ] s.1XZXIXSX%Xm.%Xn.fXHX-X,._ 0 i 8 c $ X X - u u l u - - 8 z v J J J J J K ..o...-.*...[ J K c p G N a a L U U U o...K L ..*.o.-.*.....*.e.S.L.y.e.-.P ",
"8XsXyXL.S.T.L.!.U.|.]./.|.E.!.|.E.].]. X8X8XT.T.e.c 3 G I A.8XrX5X5X5X5X X!.].U.(.qX0X2Xf.vXMXn.2.] j ! j j _ ] ] 1.b.<X%XgXn.( N.a._ V - l N c c a c p p 6 5 6 6 l c V v m v v v v v V Z V z = 2 2 , , @ 2 < 4 5 x u d 3XmXFXCXAXFXGXJXDX3X%.B a y i t 8 & & 8 a [ l.aXcXVXmXcXeX6X*XM.j.@.+.^ N ; @ , , < ; L q.q.q.7.<.<.<.<.Y P Z Y Z <.w.c.I.i.w.<.`.MXfXf._ fXm.W ` a.2XmXIXSX%Xf.V.x.1XHX%X,.` g i t a X $ % u z u u 5 $ ; u u V J J L L K L U X...o...s p J U c a N a a a I o...o.*.U U U [ J J N J K L e.S.e.k.P.L.....",
"E. XoX9.-.e.J.!.[. X.X X XXX X]. X.X.X.X8XyXU.e.-.z 3 D I 7.|. X X X!.!.|.E.|.!.W.0X0X2Xx.vXMXf.p.] j _ e W ' 1.] 1.h.1X%XfXn.` {.2._ C $ u z v c a a D u u u 5 u l z v l v v l v v m V V Z c 5 2 , , @ , 2 3 p a K J } aXCXCXCXFXFXFXaXk._ +.r.P.P.z.k.%.[ b 0 t y B g.6XmXVXNXdX-XM.4.| [ ^ } L t X , , p N } 7.q.q.q.<.<.E Y Y P V P 6.u.w.w.w.u.q. .V.MXfX-X1.fXn.W ` s.%XMXIXZX%Xd.-Xn.fXSXV.] _ q i t z $ $ = 3 i t z 5 & 3 t p N J J J L K U U L K J J a J L N a a F J c d ....o.*...U J K I K J N L ....*.-.-.e.y.F.P N ",
"9.P.|.r.O.A.y.L. X3X4X5X X4X5X5X|.4XuXsXuX4Xc.L.-.z 4 D I A.}.|.y.;. X.X|.W.[.|.W.7X0X0Xn.vXMXn.s.] j _ h j _ 1.,.,.f.<X<XfXb.` b.1. .V $ 8 z c c z c a p u 6 6 6 l v N v v m v m v v V V P V l 3 , @ , 2 2 3 z V ..} +.dXFXCXFXZXFXdX*X=X0XnXbXdX4X*XK.l.g.g.;.[ n W &.4XdXVXmX0Xg.B y ; & - ; a a X O % p J -.q.q.q.<.<.<.<.<.Y Z Y <.w.q.3.w.U.b.w.<.`.MXfXb._ aXn.k ( f.%XvXIXZX%Xf.%Xn.1XHXV.,.` q 0 u v X $ = 3 8 u u u ; 8 u z v z v V U [ U K a t u a L U U K a a U ..G F o.=.o.J z v v a a t a ..*.=.o.L K J P 6.r...c ",
"T. XE.r.L./.L.|.5X5X4X8XyXyXoX.X!. XuXsXyX.XE.XX6.l 4 D R Z. X|./. XE.E./. X X[.U.4X0X0Xz.vXmXn.a.] j | h j ( 1.,.` f.:X%XgXn._ ].1.) C $ u v v c p p c p p u 6 5 l v v v v l l v v v m v Z Y v 3 % , , 3 t a V ^ o.O.M.vXFXAXFXAXAXZXVXmXvXwX*X4X*Xz.:.' ! ! :.M.K.v.=XxXmXNXdXW.d & # % & $ & 4 4 * 4 4 v E <.q.q.q.Z.<.<.Y <.Y Z Y <.3.3.q.k._.b.u.1.N.mX0XV.` qXv.j ( s.=XvXIXZX%Xs.%Xn.fXHX%X1.<.q q 5 z X $ - - - l v u 8 u a N c z z J J v J z 3 u J I U I K a z v U L F J L ..N c z L J U K J *.-.*.-.-.L [ o.;.r.9...o.",
"yX8X XE.^.T.L.|.5X8X5X3X5X5X!.E.E. XuXaX9X3X|.U.X.5 4 G I A.^.oXiXoXk.-.L. X[.!.W.>X0X0Xn.vXMXn.s.] j ( e j ( 1.` 1.a.-X'.fXn.( b.1._ B # u c K K c a c p p u 6 6 l v v v v v m m v Z v Z v Z Z x ; & & ; N L [ o.&.g.dXVXFXFXAXHXKXFXFXcX6X*X4XK.;.X.W W W ~ ~ >.;XxXcXVXFXmXeXl.y & t y z i t = * 4 v Y Y q.q.7.q.q.<.<.<.<.Y <.Y Z <.q.u.q.h.).b.u.<.N.vXfXx.+.jXn.W ( s.%XvXPXZX%Xd.%Xm.<XSX%X2.,.g g 5 z $ * $ - 5 z z u u u a c c c V J z u J v t c U L F c a u x K K v N J K L L J I *.J -.o.U ..L ..6.-.-.9.L.L.L.S.;.e.",
".X|.!.H.E.(.!.!.(.[. X3X8X.X!.E.P.`.yX8X3X5X X|.6.3 2 G R A.}.G.oX5XW.y.E.|.!. XU.4X0X2Xf.vXBXn.2.] j ) e j ( ,.1.` a.:XV.fXn.` `.a. .C $ 5 J L V J a a u p 6 6 l v G v v v v v v v Z v v Z v Z C B O.f d | o.O.0.h.;XvXAXAXFXFXKXKXAXcX,X$Xz.W y J 5 i %.f j ~ :.*XcXFXJXJXVX6X&.y t t d B [ ..m - 4 Y q.q.<.q.q.q.q.q.<.<.<.<.<.Z Z <.q.q.q.u.).I.u.3.`.MX0Xh._ aXn.j _ p.%XvXPXBX$Xd.V.f.fXSX<X,.1.g i u v $ * $ - u l z p u 3 a c N J J N J U U K t c -.*.U U K F v z L ..L L P U K L U P ..9.-.o.X...O.-.6.e.r.H.S.9.r.9.O.",
"T.r.r.y.L.5XoX!.!.(.3X.X3X5XrX!.X.c.kXyX8X8XyXrXq.5 2 D H A.G.6. XtX!.!.E.k.P. XL.>X2X2Xf.vXMXn.5.] k ) h W ( ,.] ] a.=XV.qXx.` n.,. .C $ t z V v a c p p u 6 u x v Y Z v v v l v m v v Z v Z Z ) 4XmXmX6X4X*Xv.M.Q.dXVXCXAXAXKXLXLXHXCXcXgXcXqX3Xl.[ | J.{ w ! s.,XvXJXUXIXVX4X[ & & 7 y d f B Z g 4 <.u.q.q.7.q.7.<.<.<.<.<.E Y <.Y <.q.u.w.h.E.U.u.<.`.vXfX`.| 0Xn.j _ 5.%XvXPXvXm.d.V.f.<XHXV.,.1.g t t c $ * = u l u u a t - t z N c J L ..U L J y F 9.t.-.*.L N 6 ; U e.o.U U ..*.L Y e.L.H.A.r.9.9.e.r.A.A.r.S.r.........",
"E.S.e.y.L. X.X3X.X|.]. X.X5X4X|.r.T.yXoX8XpX@X|.O.3 = v I Z.R.y././.!. X(.U.W.(.).<X2X<Xn.xXmXn.2.,.k _ k k ` 1.` ] 5.'.V.0Xx.) b.2. .Z # p v J J a N a p p p 6 D v H v v v v v v Z v m v Z Z Z p.*X#XNXFXFXNXeX=X,XhXBXCXAXAXLXLXLXLXAXVXBXcXmXdX6Xz.&.@.{ { :.,XwXNXLXUXLXNX*XQ & 3 < & t y d m g Z q.q.q.q.q.C.q.q.<.<.7.<.Y <.P Z <.w.q.w.y.`.U.c.3.V.MX0Xa./ aXn.j _ p.%XxXPXBX%Xf.%Xf.2XSX%X,.` q i 8 v $ $ - - - 5 l l 3 = 8 p c N U o.O.....K F z -.e.e.9.*...x u ..*.....P U ..o.*.9.y.H.L.A.e.S.H.S.y.y.k.y.e.-...P } ",
"_.|.H.H.0.!.3X5X8XE..XoX8X3X X|.E._. X_.oXuX}._.o.5 2 x I 8.F.A.S.y.!.3X X!.W.(.W.<X2XfXf.vXMXf.2.,.k ) h k ( 1.,.] 5.V.V.fXf._ `.5.#.) # u N J K J F J a p u 5 D v v v v v v v m v v Z Z v Z Z Q.*X,XdXCXAXFXCX2X&XBXCXAXAXAXLXLXIXIXAXVXcXdX6X;Xz.:.@.! ! ' #XwXhXFXLXUXLXVX*Xn & t ; t J & 9 v Z <.u.u.q.q.q.q.q.q.<.<.<.<.<.<.Y <.<.9.w.r.c._.U.c.q.`.mX2XV.| 0XM.W _ 2.=XxXHXvXd.d.%Xf.<XZXV.,. .q i 0 z $ * = - = - 5 8 - ; 5 u v K o.-.....o.....J ..9.r.y.S.9.c v F J 6.t.o.....o.8.9.r.!. X!.H.y.r.;.-.y.y.y.w.r.9...} ",
"E.!.E.L.k..X8X9X8X|. XoX3X X|.|..X]..X@X@X`.U.}.o.5 4 x I 7.G.XXT.J.3X5X3XW.]. X].>X2X<Xf.gXvXf.2.,.h ( h k ) 1.,.` a.{.V.fXx.( a.1. .C $ p c J V V F a D p 6 6 v v v v v v v m v Z v Z Z v Z Z 6XwXNXFXAXCXAXFXcX,XBXCXAXAXKXIXLXIXIXLXHXAXcXeX;Xz.z.d.z.M.wXdXNXCXFXLXIXLXDX*X^ i B J [ [ 9 7 q P q.w.q.q.q.q.q.q.<.q.q.<.<.<.<.P ..O.w.r.w.c.`.E.c.5.`.vX1Xh._ jXM.n _ 2.=XgXSXvX%Xf.m.d.<XSXV.,.` q i 8 c % = = * * ; 5 3 - ; 3 u c P o.-.........U U o.-.9.9.9.8.J z p v 7.8.U P P U O.9.T. X(.!.H.y.r.-.;.y.r.y.r.9.6...} ",
"T.E.|.L.k.yXyXaXzXkXyXyX XP.y.E.|.oXoXrXoXE.|.oX<.5 5 D I Z.R.E.XXyXuX5X XU.W. XW.7X<XfXf.vXvXf.2.` k ( h k ) ,.,.,.5.V.'.qXx.( ].v.#.C # 5 c K c c F F c p u 5 v v v v v v v l v v v Z m m Z Z 6XwXCXKXLXNXhXCXVXeXBXAXAXAXLXLXLXIXIXIXLXLXFXVXcXcXxXcXcXVXCXKXFXKXKXKXUXJXFX*X{ f f Q | / ^ W n } w.q.q.u.q.<.q.q.q.q.q.<.C.<.<.o...<.q.w.r.u.]._.I.w.`.vX2Xx.| 9Xx.j Q 2.B.gXHXvXm.f.V.f.2XSXV.]  .q i 3 v & = - $ = - u l 3 3 ; u u J ..O.*.*.....*.o.U ..6.e.L L J J z L *.U U J o.S.r.L.E.E.T.k.y.H.S.q.y.S.y.y.e.r.y.O.L ",
"E.T.T.T.E.5X4XsXzXuXrXuXXXc.U.E..X5X8XXX^.Y.E./.O.; 3 H H D.F.8.H.oX5XoXW.W. X XJ.1X2X>Xn.xXvXf.2.,.h ( h j ( 1.` ` 2.V.V.fXx.( h.2.+.C X 3 p z v v c F F p 5 6 c v F N v v v c v Z v m Z v Z ` 6X#XCXKXKX*XwXCXFXcXvXVXCXFXLXIXLXIXUXUXUXUXUXJXCXCXNXNXNXNXCXAXKXJXJXLXLXJXCX*X' ' ! W ! ! ' ! /  .w.w.u.q.q.q.8.q.q.q.q.<.q.<.<.Y Y <.q.u.y.u.].].I.u.[.vX1XV.| 0Xx.j ( 2.V.gXSXvXm.d.B.n.>XZXV.,.` q i 0 z & @ = = = = ; p u - - u z Z o.-.9.9.-.*.-.-.P o.e.e.L Y J F J ..J ..L J 9.L.y.T.!.(.E.y.k.S.y.e.q.y.H.y.9.O.e.-.O.",
" XE.E.!..X8XuXzXbXyX|.|.E._.XXoX X@X X!.(./.H.-.N = 4 F I D.}.G.e.O.S.5X(. X3X3X[.>X1X>Xn.gXvXf.,.` k ( h j ` 1.` ` a.V.V.fXh.( v.h. .C $ 4 p p 6 p p x c p p p x v N v v v v c v v v Z v Z Z ,.wXwXCXKXwX>.dXKXHXBXNXVXCXAXKXIXIXUXUXUXUXUXIXIXAXCXCXNXVXCXCXAXJXJXJXLXUXKXNXwX:.' :.s.:.$.' { _ %.w.u.q.q.q.q.q.q.q.8.7.<.7.<.<.<.<.` q.q.y.w.b.).c.q.`.vX1Xh.+.9Xv.j ( ,.f.fXSXhX$Xs.B.n.1XZXV.,.,.q i 0 c $ = = % $ $ = 3 5 - 5 l v P o.-.;.9.9.e.-.o.L P o.P J P L U -.e.e.-.L J e.y.y.r.L.^.T.H.y.;.O.e.r.y.y.y.r.9.r.9.q.",
"/.E.|.|..X3X9XkXzXrX/._. X.X8X].|. XT.XXoXE.y.;.V 5 3 H R D.R.Y.-.o.L.tX3X4X X[.[.7X2X;Xn.xXvXf.5.` k ( e k ` ,.` ` 5.`.V.1Xf.` M.1. .Z # 5 p p x l x 6 p p 6 6 c F N v b v N v m Z v v Z Z Z ` 6XwXKXNX>.#XCXKXFXBXNXVXAXAXLXLXIXUXUXUXUXUXUXJXAXCXNXNXNXNXNXAXKXKXJXLXLXJXNX6X:.' :.#X#Xd.z.s.#.3.u.u.u.q.q.8.<.q.q.q.q.q.<.q.<.Y P <.q.q.w.5.). XU.w.`.xX<XV. .0Xm.k ( 2.V.fXSXvXm.d.B.f.<XZXN.,.<.9 i t a X 2 = % @ = = 8 l ; ; z V P o.O.O.;.e.A.-.o.J L L L L L L } y.H.S.t.o.K 9.9.y.H.L.E.L.r.y.O.9.L.L.H.k.y.H.r.y.q.y.",
"5X|.!.|.oX8XyX3XE.9.y.F.|..X8XE.XXE.y.S.L.H.e.A.o.x 3 D R A.D.6.-.Y.R.^.XX X X X[.7X>X>Xf.gXvXf.2.,.h Z e j ( 1.` ` 2.V.V.fXh.( h.1. .C % p v p l x x 6 p p 6 6 D v v v v z v v v v Z Z Z v Z Z #XNXCXwX#XdXCXKXCXcXvXBXCXAXLXIXUXUXUXUXUXUXLXFXNXNXwXwX,XwXdXNXNXJXLXLXLXJXNX6X>.! :.d.#X$X$Xz.p.3.c.i.u.q.q.q.q.q.q.q.7.q.q.<.<.<.<.q.b.q.u.w.P.{.b.q.V.xX<Xh.Q uXN.k ` ,.f.fXSXgXm.s.B.d.;XZXV.,.,.9 i y F # X & = = = = ; 5 3 - u v U *.9.e.-.-...U ..E U U P J L -.9.S.H.r.9.9.9.q.w.y.k.k.L.y.L.r.9.L.^.E.y.r.L.T.r.r.e.r.",
"iX].E.E.].8X8X.XL.9.6.T.|. X5XoX5XL.9.S.T.H.S.e.U 6 = D I A.A.-.-.G.G.L.!.!.[.!.Q.0X>X;Xn.gXvXf.2._ j ^ e j ( ,.` ( 2.`.V.0Xj._ W.a.#.M # p V F p p x p x p 6 u x v V c c v v v v v Z Z Z v Z Z >.NXCXwX*XCXKXCXVXcXcXNXBXAXSXLXLXUXUXUXUXUXJXFXhXwX#X>.#XwXCXFXCXJXJXLXUXJXCXwXs.! ' >.z.&X$XM.p.2.b.i.u.u.q.q.q.q.q.q.q.<.<.<.<.<.Y q.i.w.u.w.).{.I.q.V.fX<Xx. .9XM.W ( ,.V.fXSXvXm.f.B.j.>XZXm.` ` 0 g 0 c % X % ; 6 - = = 3 - ; l z U -.e.e.-.-...P o.*.U P V L o.e.k.L.T.r.9.S.S.y.r.y.H.H.y.L.L.y.y.L.|.^.r.9.E.E.y.9.9.9.",
"8XE.T.^._.|.oXoX XY.L.E.^.T. X5X5X(.L.k./.^.;.=.U = 3 D I t.D.~.Y.Y.Y.E.Y.J.W.!.W.>X>X;Xf.gXvXf.1._ j Q e j ( ` ] ( 2.V.B.1Xj.Q h.1.` Z # t a J v p p p p p 6 6 c v v c v N v z v Z Z v v Z v Z { dXKXdXwXKXKXKXVXcXvXNXBXAXKXKXLXIXIXUXUXUXFXdX#X>.! #X*XNXJXJXJXJXLXUXLXKXJXdXd.:.! :.d.#X&X#X:.1.b.u.u.q.u.q.q.q.q.q.<.q.q.q.<.<.<.3.y.w.w.u.). XN.q.V.xX1Xb._ 0XM.j ` 2.f.fXSXxXm.,.N.j.>XZXm.,.( 0 l 0 c X % % % = ; 3 3 u 5 8 z z L -.-.-.-.-.-.*.O.o.o.L J o.9.r.L.L.L.H.t.y.r.y.r.k.L.H.y.r.y.y.H.H.L.L.;.O.y.H.y.r.9.q.",
"U.I.T.I.). X.X{.8X.XT.Y.L.L.T./.XX(.L.P.oX/.X...U u 6 F I Z.XXXXG.L.Y.^.Y.L./.|.U.:X>X:Xf.gXvXf.,.` h ( e j ( #.` ` 2.N.V.>Xa.Q `.a. .V # 8 u N v p p p p 6 6 6 x F v V V V v b v v v Z Z v v Z { 6XCXCXCXKXKXCXVXvXcXBXBXCXFXKXKXLXKXLXKXFXdX6X>.>.#X#XwXdXFXJXJXJXLXUXLXJXCXcX#X>.' ' s.#Xz.s.$.3.b.i.u.i.q.q.q.q.q.q.q.q.7.q.7.<. .9.w.q.w.c.E. XN.w.N.gX1Xa.Q 7XM.W ( ,.f.fXSXhXm.f.m.d.<XMXV.,.Z 0 g t v $ X & $ X 3 x l 6 3 3 z J L o...O.O.O.6.-.*.o.o.....-.9.y.J.L.L.y.r.y.y.y.y.H.H.c.k.y.9.y.H.H.H.r.O.O.r.r.e.-.6.9.",
"y.L.L.L.U.XX]. X5X.XE.T.J.!.E.E.S.r.y.|.yX X[ U U u 6 D I 7.}.oX^.^.}.oXXXoXL.;.P.>X>X-Xf.gXxXf.,.` h M h j ( 1.] ( 5.`.N.>Xa.( v.1. .C # 6 p c c p x p p p 6 6 p J v V v N v v v v Z v v Z Z Z K >.CXCXKXKXJXNXBXcXcXBXBXBXAXSXKXSXKXFXFXcX*X>.{ #X*XwXNXwX*XK.>.K.dXJXFXNXNX,Xs.! ! ! :.z.#X>.$.3.c.i.u.i.u.q.q.u.q.q.Z.q.q.<.<.<.<.q.y.w.k.y.U.{.I.u.`.fX2X`.| 7Xn.j ( ,.f.<XZXhXm.,.m.f.<XMXm.,.` 0 z 8 c $ X % % $ = ; 5 l 5 ; p J J L o.O.-.-.9.-.-.6.9.-.-.9.e.w.y.L.H.y.9.y.H.H.y.y.k.y.y.y.q.9.9.r.H.L.S.y.-.O.9.-.o.O.",
"-.9.y.L.T./.T.|.yX5X|.T.!.(./.L...0.y.!..XE...o.K a p H H *.}..X XoXXX@XyXtXG.o.A.:X>X=Xf.gXxXd.2.` j Q e j ( ] ] ( a.V.V.1Xa.Q c.`  .C $ 3 x z c p p x x 6 p p c F N v N V F V v N V V v v Z Z [ [ 6XJXJXLXLXJXdXcXcXcXBXBXAXAXAXAXAXAXBX&X:.:.d.,XwXcXNXNXdXK.>.{ { 6XdXdX6X#X! W W ~ $.d.#Xd.1.5.I.u.i.i.i.i.u.u.i.q.q.q.7.q.7.<.<.q.u.q.c.c.).{.b.u.V.gX1X5.Q 9Xj.j Q 1.x.2XZXgXd.s.m.f.-XBXm.] | q i t F . X X % = % = ; x q 5 0 l z v ..t.A.8.*.-.6.6.e.6.-.t.A.r.r.L.T.r.} y.^.E.Y.H.y.y.r.-.-.O.9.e.S.L.L.L.-.o.o.o.o.r.",
"E.c.L.T./.T.L. XyX|.H.L./.(./.L.k.E.E.(.P...L o.J u x H H R A.y. XrXXX.X^.-.*.o.O.W.;X=Xs.gXxXf.2.` b ^ w j ( ] ] ' 5.V.N.>Xa._ v. . .C $ 3 a z D c D p p p p 6 D J J c v v N V V V N V Z v Z Z K [ [ 5XGXIXLXcX6XcXcXcXBXBXVXAXAXCXBXBX#X' ' #X,XcXVXBXVXdXdX6XK.>.{ >.K.K.>.~ w W / w ! >.d.s.1.5.I.u.i.i.t.i.q.q.q.q.q.q.q.q.q.<.<.q.u.u.y.c.)._.).u.V.gX1XN.| 7Xj.j Q #.x.2XvXgXd.f.f.s.<XmXN.] | q d y a $ $ $ % $ X $ - 6 5 5 5 5 u z J P -.A.9.*.-.t.t.<.-.9.t.A.r.r.9.X.e.S.-.9.O.O.r.e.o.-.S.S.L.P.P.E.E.U.S.L.e.-.9.y.",
"yXP.H.!.T.T.L./.rXH.} 9.S.L.P.P.T.!.XXT.9.O...o.K u D I H =.=.*.^.rX@XoXY.b J *.C j.;X=Xa.qXxXf.2.+.b ^ e h _ 1.` ` 2.N.V.<Xa.Q 5. .` C # 3 p c c c p p p s p 6 a J c N v N v N V V V V v Z Z Z J P L [ W.dXeXz.n.eXcXcXBXBXBXCXBXBXBXeX:.' d.6XcXCXFXGXJXCXNXDXdXK.>.~ f ~ f r f B ^ W W >.s.,.<.w.u.u.I.i.q.i.i.q.i.q.u.u.q.q.8.6.<.q.u.i.i.u.I.].I.q.N.xX2Xf.( 5Xx.e M #.x.2XZXfXd.2.m.f.%XvXV.] _ q i t N & = = & * X X = ; 5 5 5 5 5 J v t L S.A.U *.A.y.7.-.-.-.-.-.....=.8.z 8 u b -.H.q.[ e.oX@X5XoX X.X X!. XXXy.;.y.y.",
"E.y.H.L.S.L.L.^.^.A...-.r.y.H.y.H.H.L.S.-.-.U J K p F I R 7.A.7.=.S.Y.Y.9.J U P z k.4X=Xf.fXgXf.2._ h Q e j _ %.` ( 3.N.N.-Xa.( v.5. .C $ 3 a c c c D p p D p p D F c J v V v c V V V V Z Z v Z Z J C L C | $.B.$XwXxXcXvXBXBXVXBXhXBXwX$.p.z.$X6X4X6X6X6XdX6XdXdX6X*X>.{ ~ ~ ~ f n n W w :.>.] 1.u.u.i.i.i.q.u.q.i.i.i.q.u.Z.7.q.q.6.q.u.i.c.c.U._.I.q.N.xX1X5.Q 3Xa.j Q #.x.2XBXgXd.,.f.f.<XmXm.] | q y i s % = ; = X = = = 4 = 4 5 5 l x 6 ; N I U U U U o.Y U U L L N a K J p ; x v ..*.O.O.} -.S.L.T.L.i.L.S.r.H.y.O.O.e.;.",
"6.t.G.A.-.e.8.-...U c P e.e.7.} L [ o.L *.*.V l 3 p D H R 7.R R H z L U K J U I z c.4X=Xj.eXxXf.1._ h Q q j / #.` ( 5.b.N.{.5.k q.`  .C $ 5 p z p z c p p D p p p F c J J z v c N V V V V m Z v V Z Z Z Z Z ] 2X6X2XeXcXcXBXBXBXBXhXBXwXd.d.$X$.f f ~ { >.>.>.>.>.K.*XK.>.{ ~ ~ / ! W W w $.:.' 3.I.c.i.i.u.i.i.u.u.u.i.i.u.q.q.7.q.<.q.i.c.c.i.)._.L.q.N.jX1XN._ 7Xj.e M +.x.0XvXgXd.s.m.f.<XMXm.` _ q d t J ; 2 ; * * * * = 4 2 4 5 5 4 = 2 6 p x l p 5 l 5 5 5 5 5 3 5 H K 3 * 5 J I R U U U *.U P O.o...Y Y V V Y J Y U o.Y ",
"v F K v p c c z t t u u J G c l p F v c J c ; * = x H R R R D D c u p c a t c x 0 y.3X=Xj.fXgXf.1.` h C e j _ 1.` ( 5.b.n.<Xa.M P.5. .Z $ 5 c z c x s p D p p 6 a F N V J F V V N V Z V v Z Z v V V Z H Z Z ] 2XeX,X0XhXcXvXBXBXhXwXBXhXd.$XeX$Xw 7 J.6X6X*X6XtX>.>.>.{ ~ ~ ~ f f f W [ j :.$.+.c.).b.c.I.i.i.i.q.D.i.G.i.D.u.7.q.q.6.q.i.i.I.c.i.c.q. .V.gX1X2.Q 3Xj.h Q ] x.2XvXfXm.2.M.j.;XmXV.`  .q z t c $ % *     X X X @ * * = = * X * * = 2 2 = = 2 * * - 2 = = 3 p 6 2 * 5 x v c v F v x p p J l l x p 3 p 5 5 5 p u p ",
"X % % % @ = % % @ % % @ @ = * * = = = 4 2 4 4 p G H I R E R H H H D D 6 = = = = # %.=X=Xf.qXgXs.2.` b ^ e j ( 1.` ) 5.b.b.:X5.( b.1. .C $ 5 u z c s p a a c p p a F J F V v v c v v V Z Z Z v Z V Z Z Z Y Z <.<XhX,X2XeXcXcXNXcXhXhXhXhX#X$XhXgXK.[ dXJXLXLXJXJXJXJXdXK.>.{ ~ f # # w W ~ :._ 1.).).).i.i.i.i.i.u.u.u.i.u.u.Z.q.q.8.<.q.i.F.F.L.i.q.q. .v.jX<XW._ 3Xx.j M ` f.:XvX0Xd.p.m.j.<XvXV.`  .g z 8 z X                   O               O O O       X   X O   O X X X O X X X X X X X X X O X X     O X O O X   X   X ",
"2 4 4 4 4 4 4 6 4 6 4 6 6 p p 6 x D x 6 v D H E I I R R R R R E E I I H F G x D a 9.=XQ.s.0XgXa.,.` h ^ e h ( 1.` ) 1.b.b.-X2.M u.1._ C $ t a z c p p p c p D p x F v v v v v c m v V V v v Z v V Z v Z Z Z ,.fXhX2X,X0XhXgXhXcXhXhXwXhX&X%XhXcXvX6X*XDXFXUXUXUXUXUXUXGXnX*X3X{ # & f W { $._ i.).).i.).I.I.i.i.q.q.u.i.i.D.u.u.q.<.<.q.t.q.i.i.q.q.6.| v.xX%X$.( >Xh.j ( ` h.%XgX2Xf.2.n.f.-XvXn.` _ e z 8 x                       O O   O O   O X   O O O X O O * @ @ * * * * = = = = 2 = * X @ = = X X * * X @ @ X * * * = = ",
"F F H H F F H H H G G H I R I I R R I R I R E 7.E Z.Z.E E =.=.Z.=.E E Z.=.R E E P 9.'.'.f.2XfXa.2. .b C q j _ 3.` (  .b.v.[.4.Q E.1. .C # 5 p N a p p a x z x x 6 v v v v v v c v V v Z V V J V v Z v Z P P #.eXcXhX%X&XwXgXwXhXhXhXwXhX&X&XhXBXCXdX6XK.K.dX*XVXDXUXJXJXDXzX6Xf & f ^ W +._ 3.W.).I.I.I.I.i.I.i.i.i.i.I.I.i.i.i.q.q.<.<.q.6.q.6.<.<.<.o.b.fX<Xx._ :Xj.e Q  .a.-XgX2Xf.2.n.f.-XvXx.] 1.0 z ; z O                   O O X @ O @ X X * * * * * = = 2 2 3 4 5 5 6 5 p 6 x 6 x x x 6 x x x 6 p 4 5 4 4 4 4 6 6 p p x ",
"J E *.7.7.E o.E 7.E E E 8.7.7.Z.E E E E E E E =.=.=.=.Z.Z.8.7.7.Z.7.A.A.7.*.o.R o.k.=XQ.a.1XfXs.2.` e ^ e j ( #._ Z 1.b.x.Q.1.M 3._ _ C $ 4 y c s p p a x x c p x v v v v c v v v V V V v v P V v v Z Y Y } 1.eXBXcX&X$X&XfXwXgXhXwXwXhXwXwXhXhXCXCXNXdX6X6X6X#X~.lXK.6XK.r.{ r d ^ ! { +./ L.`.).U.U.I.I.I.i.i.i.I.i.i.i.i.i.i.i.q.q.q.y.i.i.F.)._.F.u.).fX-Xx.( 3Xh.e Q +.a.-XgX2Xf.2.x.f.%XxXf.` 1.g l 8 c X . .       O O O O @ X X @ @ % = = = = = = 3 3 3 3 6 6 3 5 x v x v K K Y L Y K K I H G x 6 6 x 6 l 5 x F J v F J ",
"}.@X@X@X@X@X@XiX|.R.}.@X@XiXiXOXG.G.A.G.G.~.~.}.^.XX@XiXtXtXiXrX@X8XiXrXtX@XoXXX5X9X'.N.a.0XfX2.,.` e Q e j ( 3.` k 1.b.x.Q.1.Q b.1.| C $ 3 u a F a p D c c c p x G v c v z v v V v v v V V V J J v V Z Z ) p.eXBXBXgX$X%X2XfXfXwXhXwXhXhXwXhXNXNXJXJXNXdXdXwX6X6X6X6XK.{ { { f W / ! ' _ h.`._.).I.I.I.I.I.i.I.i.I.i.i.i.i.i.i.i.q.q.q.u.i.i.i.).|.i.q.).0X%X5.) :Xh.j M  .a.%X0X<Xd.2.x.s.=XxXf.` <.0 i ; z X O X     X * * * 2 3 3 5 u x x x x v Y I I U Y Y Y E U I P 7.7.t.A.G.Y.R.R.G.8.t.8.I 6 p 6 x H x 6 v R A.G.G.F.Y.",
"DXbXzXuXyXiXpXuXtX}.}.@X@XlXrX}.S.^.L.^.|.@XtX8XiXpXlXzXzXzXzXlXlXsXzXkXlXkXpXpXkXjX'.N.f.7X0X,.1.` h C g j ( 3.` Z +.v.v.=X&.Q w._ ) C $ ; p c a a p p p c D p x G c c v c c V V v J V J V J J G Z P Z Y } s.eXBXVXcX&XV.%X&X2XhX&XhXhXhXhXhXNXNXCXJXJXNX6X*X#XK.*XK.K.K.>.{ ~ +./ ' _ 4.E.).).).).I.).I.i.I.i.I.u.i.I.I.I.D.t.i.q.3.q.u.i.i.i.I.}.i.3.N.fXV.n.( [.a.h M  .f.'.gX<Xf.2.x.f.=XgXf.` ,.q u t z . X   X * X % 2 5 u u a c c J J J Y U *.o.*.U o.*.6.e.y.6.7.8.q.y.S.L.Y./.^.F.e.S.e.E x = 6 D H p v 6.9.^.XXOX^.^.",
"DXbXzXlXpX|. X@XOXL.F.|.|.|.}.XXsXpXpXpXpXsXsXpXDXlXsXsX5X(..X@X5XoX5X X(.|.P.(.!.{.=XB.h.1X0X5.1.` h C e j ( 1.` Z ] h.x.=X4.C w.w._ C $ & p c a a p c D a c p x v c c c c N v v v V V Z J J J Z V Y Z } ) j.gXBXCXBXwXd.m.&X&X&XhXhXwXNXBXBXhXdXNXCXCXCXdX#X>.>.>.>.>.>.{ ~ { ` _ _ <.V._.).).c.).I.~.I.I.I.G.I.I.i.I.i.i.G.i.y.y.q.q.u.i.i.q.G.}.i.<.N.0XV.5.Q =Xa.h Q _ 5.-XgX<Xd.2.x.j.'.xXx.` 3.g 0 5 x $ X X X X . X - u z J U U J J U -.*.o.6.6.6.6.8.e.A.G.Y.t.<.y.q.9.r.y.H.E./.T.T.Y.q.A.K * 4 D H H *.t.^.oX@XXXH.T.",
"zXzXzX@X8XT.E.}.XXy.S._.tX XT. XlXpXtXpXsXzXsXtXiXtXrXiX@X(. XoX|.^.H.H.H.L.S.H.g.'.=XQ.a.<X0X2.,.` h M h h ( 1.` M ` u.v.'.4.Q h. . .C $ 2 u z c a p x a F D a x v F F c z c v v v v Z J J J V G Z Z Y C W x.cXBXBXBXhX%Xd.V.%X2X2XhX2XhXBXCXBXdXNXNXNXNXNXdX,Xz.>.:.{ ~ { { { ( ) #.M._._.).).b.I.).I.I.I.I.i.u.i.I.i.i.i.i.i.u.i.<.u.u.i.i.q.F._.q.<.N.0X%X{._ [.h.h C ` a.'.fX<Xd.] j.f.'.gXf.1.1.9 g 8 a X X . X X $ % = u v P U *.K c U =.6.U o.6.-.o.-.e.S.L.L.q.<.9.O.9.9.r.y.H.^.(.oX^.Y.t.v = = D F I =.t.^.@XoX XH.L.",
"9XoXOXF.!.^.^.E.L.t.S.Y.tX5X|.(.T.L.S.S.!.E.L.r.E.E.E.8XoX5X8X^.Y.y.T. XT.0.O.y.k.Q.=XN.h.<X2X5.2. .h M q j ( ` ` M ( a.x.Q.1.M 5. . .C X ; p a z p a p D c D x p c J c c c c v v v J P J J J J V [ ^ B e 9 d.hXBXAXAXBXeX%X,.%X2X2X2XhXwXhXNXNXNXwXdXdXeXeX,X$Xz.l.:.&.&.$.{ { ( ` b.{._._._.).).I.I.I.I.I.I.i.I.i.u.I.I.i.i.i.u.u.3.q.u.i.i.i.i.F.6.<.c.9X-Xh.Q =Xh.j M ` 5.V.0X<Xf.$.j.x.=XgXx.` 3.0 u ; z $ & @ = = % & = ; u t a N N N J L P P P -.U c V P ..*.6.O.O.O.6.r.L.y.r.9.e.L. X(.Y.q.U = @ 4 D I =.A.XXoXL.L.r.-.",
"jX.X].i.E.XXE.y.-.q.A.T.tXpXtXY.-.=.A.S.D.L.L.T. X^./. X^.8XXX^.T.t.^./.9.X.9.A.k.W.-XQ.x.<X1X5.1.` q C q j ( <.` k ` u.h.Q.4.( U. . .C # 3 u a c u p z a F c x p a F F c c c v v v J J J J V V L | B w 9 e %XhXBXAXBXBXhX&X$Xd.%X&X2X2XwXhXCXCXNXNXNXdXwX,X$X:.~ W W W W W W / M u._._.{._.).).).).I.I.G.I.I.I.I.I.I.i.I.I.I.i.u.u.q.q.u.i.i.i.y.u.q.<.b.0X:XN._ :Xh.j M _ 5.'.1X-Xf.] j.h.'.fXf.` 3.g z 8 c - ; 3 3 3 @ % % ; 8 0 u a c z J L I J U 7.Y z J J K o.6.O.-.6.9.L.T.r.y.r.;.k./.T.H.e.P = O 2 6 K =.r.oX8XL.k.9.O.",
"9X].!.L.k.T.E.9.e.H.=.r.(.^.H...G U ......o.T.(./.T.E.!.!.(. X|.r.-.L.P.r.9.9.L %.W.=X'.j.-X<X2.#.` e C 9 j Q #.) k ` 5.h.N.&.M 3.1. .C $ 3 u a c p u p a F D c p a D c c c c N v J J J J V J V ^ &.{ r 7 ! 6XeXBXAXBXBXBXhX&X%Xd.f.%X%X0XgXBXAXAXVXBXNXcXeX2X*Xs.$.W W W Q / ^ _ P.`.`.{.).).).).I.).I.I.).).G.I.i.I.u.I.I.I.i.b.u.q.w.u.i.F.i.t.q.9. .v.7X:Xh.Q [.a.b M ) 5.'.1X%Xf.,.j.a.B.qXf.` 3.q a t c ; ; 3 = = $ @ = u u u i l z v J J K Y o.=.U v H L K o.-.-.;.8.9.r.k.y.y.r.9.y.y.y.L.q.V *   @ 5 H =.L.XX|.y.9.o.O.",
"E.I.L.T.Y.E.L.r.A.;.-.T.Y.;.A.K a F K *...o.J.E.T.L.H.H.T.r.^.oX9.O.L.XXy.O.P L X.h.=XQ.x.:X-X2.1._ e M q h Q #.` M ) w.h.N.3.M q.1. .C $ ; u z p p p p F c c p p c c c N c c c N c N J G v J J O.&.l.[ r { 6XeXBXBXSXAXBXhXhX&Xd.,.f.d.-X2XgXBXVXVXVXVXVXvXeX6X*Xm.s.:.4.@.+.Q 0.`._.`.).).).).).).I.I.~.I.I.I.I.I.u.b.b.I.u.u.i.u.5.q.u.i.F.i.t.t.<.X.U.0X=Xa./ [.j.w M _ 2.V.1X{.s.] h.f.B.eXx.] 3.q i t c ; 3 ; - = $ $ ; u z c z z a v N K L P *.*.K v z J U o.*.*.-.e.e.9.r.L.r.r.r.r.0.y.|.u.z * X @ 2 v =.H.E.L.%.9.X.9.",
"W.c.L.Y.T.E.L.e.....U ;.;.;.S.*.*.A.H.S.D.^.^.(.J.H.L./.L.k./.8X!.E.5XrXy.X.X.e.y.v.=X'.j.:X1X2.2. .e B q h Q #.` M ) 5.h.N.3.C w.3._ C # 3 u p c p p p a c c c c c c v c J N v c J J V v v V C &.@.:.>.! ~ $XdXBXBXAXSXSXhXhX&X%Xs.,.,.x.Q.0XgXcXNXcXNXVXcXcXdX6X;XK.M.p.$._ ) N.`.`._._.{._._.).).).I.).I.I.).I.I.u.I.I.u.I.u.b.u.5.5.i.i.F.i.i.u.<.X.b.9X'.v.Q [.j.j m _ 3.V.1X'.a.] h.j.V.eXn.] %.e q u z t 3 = = - ; = = 5 u u l c z c c J v c G o.L v F L *.o.X...-.-.-.;.9.y.9.r.r.r.e.S.|.S.l =   O , x U e.E.L.;.9.9.9.",
"P.L.P.H.T.T.H.t.=.I [ =.=.A.H.S.L.^.(./.(.(.^.^.H./.XX!.H.E. XyXyX5XpXyXH.r.S.E.L.[.:XQ.h.1X7X2.] _ q M 9 h Q #.` k ) 5.h.N.1.m  . . .Z $ 3 u z c p p p F c a c c c c a c N c c c v c v V v V Z l.@.w :.z.' >.hXBXAXBXBXAXBXhX&X&X%Xs.] _ 1.M.>XqXqXqXqXdXxXdXqX,X;XM.p.@._ n 0._.`._.`._._.{._.).~.I.I.).I.).).I.u.I.I.I.u.b.I.i.u.3.q.i.i.F.F.i.i.<.<.c.7XN.1.Q Q.h.j k ( 1.N.1X-Xf.] j.h.B.qXf.] 3.q i 8 z - = = - ; 3 ; - ; ; u l z v J z c v l v U U v v *.-.-...-.-...X.;.9.9.0.y.0.r.e.S.XXt.v *   O * 5 L e.!.T.9.;.e.-.",
"!.U.H.y.T.T.L.S.*.*.;.;.-.8.-.-.G.(.(.|././.E.L.Y.XX(.H.J.E.L.E.P.H. X5XT.J././.v.[.=XQ.j.1X7X2.#._ q n 9 e Q ] _ k ` 5.h.M.1.C k.1. .C $ 2 t z p p p a c x v F c c c c c c N c N c N N v J C | :.{ w w z.*X>.,XBXBXAXAXAXAXhXwX&X$Xf.s.' / #.h.Q.:X=X=X;X4X:XK.l.l.&.| ) B ) I._.`.).).{.)._._.)._.).I.I.I.).b.).).).b.b.I.b.u.u.u.5.3.i.i.F.F.S.q.6.3.v.:X'.x.( W.h.w n ( 1.V.1X<Xs.,.f.a.B.qXf.] 3.q 0 t z - ; - - 5 8 - $ 3 5 u u c v N v J L Y L U U J c ....;.-.A.S.S.H.H.k.H.y.L.E.E.E.E. XA.c & .   * x A.^./.L.e.-.-.-.",
"U.L.L.k.T.H.r.9.*.;.S.A.r.*.[ e.E.(.XX(.^.E.L.E. X(.H.y.T.!.y.9.y.L.oXpX X!.T.^.P.=X=XQ.j.1X7X,.] ] q B e e Q _ ) M ) q.h.v.%.M %.3. .C # ; x z c p p p c c z z c c z c c c N c c c F V N N [ l.>.{ ~ 7 j z.6X$X&XBXBXSXAXSXBXhXwX%X$Xm.z.2.W +.%.g.k.l.k.j.k.0.%.%.[ ^ B i e.]._.{.{.`.{.)._._.)._.).I.).b.i.).I.).i.u.u.u.u.u.u.u.w.q.i.I.i.F.y.8.6.<.c.{.M.` M W.h.e n _ 2.b.<XV.2.] a.a.B.qXf.` 1.h i 8 i & ; 5 - 5 u 3 - ; ; u l c v F N J K J K U U z u K U -.S.^.T.L.T./.E./.E.(.XX|.(.^.|.S.N X     * v G.^.T.H.-.O.;.O.",
"P.L.L.L.L.e.9.-.A.Y.J.H.H.A.Y.E.T.(.(.XXXX/.T.|.|.!.Y.J.T.T.H.H.L.T.T.(.E.H.E.(.!.[.'.Q.a.7X1X#.#.] e n q e Q _ ( k ) 4.h.x.1.C w.5. .C # 3 u z a p p p c c x z z v N N v N c c N v v J J J / j.:.z.:.~ w W $X2X&X&XBXBXAXBXAXBXhXgX&X%X$X$Xs.Q b Q | O.| %.X.| [ [ m d i ; O.`.{.`.`.`.V.).).).).).).).).F.I.).).I.b.I.I.u.I.b.u.5.q.3.q.i.i.F.t.3.6.<.h.=XN.1.Q U.a.h n ) 4.N.<X{.a.] 5.a.'.0Xa.] 3.q i u z - = ; - - - l ; ; u a u a N J J J L K J v z K J K o.*.-.S.;.A.;.A.y.y.H.L.^./. X|. XL.L = O O @ x G.Y.H.r.O.e.;.=.",
"P.P.P.L.r.;.e.r.S.H.S.H.r.S.T.A.Y.^./.oXpX8X(.!.E.T.!.E.E.E.H.S.L.T.L.T.k.T.!.T.!.'.=XB.a.:X:X] 2.` e n q e M ` ) k ) 4.h.M.1.m  . . .C $ 3 u z z z p p z p z a p c F N c c v F F c v J J Q :.z.>.d.l.>.l.+.W >.&X&X&XhXAXAXAXBXhXhXwX&X&X;X*Xs.W w w f N B B b d i i d t & 8 9._.{.{.).).).N.).).).).).).b.I.I.).I.I.u.I.I.b.u.u.u.3.q.q.y.i.y.t.q.9.%.c.[.n.0.M N.5.h j ( 2.m.<X'.a.] a.5.B.qXs.` 3.q i 8 a X * - = - = - - 5 p z c c c J J J J P J u z K U U ..*.;.;.;.8.;.-.O.;.r.y.H././.|.^.e.J = X @ @ v G.Y.9.e.;.r.;...",
"!./.T.L.H.;.A.S.Y.Y.Y.T.A.J.^.Y. X|.|.^.XXXXXX8X X/.XX(.|./.E.H./.E.J.Y.E. X X X XQ.'.B.h.:X:X$.2.` q C q e k ` ) M ) 5.h.N.1.M 9.1.` V $ ; u z z x x a z z z z c c c c v v c v c N V V V  .j.z.j.>.! 3X&.J.:.! { =X6X,XwXVXAXVXBXhXhX&X&X&X&X%Xm.] e e q y q d i d W f r # r y q.{.{.`.{._.).`.).).).).I.I.I.I.).I.u.u.b.I.b.u.u.u.,.<.q.u.i.u.q.q.7.<.h.'.N.1.M U.p.e m ( 2.n.-X%Xs.] 4.a.V.0Xf.] 1.g u 8 x X X - $ $ = - 3 u l c c v N J c J J J J u v K J U ....-.e.9.9.9.-.6.;.r.y.y.Y.E. X|.e.v = X O * v G.Y.e.y.r.y.;...",
"5XXXE.L.r.S.J.H.H.S./.L.y.T./.T.Y.(.@X(.T.H.XX8XXXE.oXXX XoX8X/.yXrXk.H.|.XXT.T.P.Q.Q.W.s.:X-X] 1.` e C q e M ` ( M ( 4.h.M.3.M 3._ _ V $ 5 u z z u u a z z x c c c c c c c c c v N G J o.u.p.$.l.! f { w &.l.K.r B Q.4X>X,XhXAXBXBXhXwX2X&X&X&Xm.d.$.Q f e d d f W ^ L t # < & z i._.`.`.).N._._.).).).I.I.I.).I.I.I.u.u.).).u.u.u.q.5.q.u.D.q.q.q.<.<.c.[.N.h.M M.5.b m ( 1.b.-XV.2.( a.a.`.0Xs.] 1.g u 8 z $ * = $ - ; 5 l l z l z V J v N J J L K d a J K U ..o.-.9.-.o.O.e.9.9.e.A.y.y.E.T.|.e.V = O X * v R.}.H.L.H.r.o.U ",
"5X|.L.r.H.A.-.Y.Y.Y.^.Y.L./.(.T./. XT.E././.XX/.|. XE.L.|.oX X(. X!.L.!.!. XE.P.P.[.Q.M.j.:X'.] 1.` h C 9 e Q  .Z k ) 5.h.v.1.m q.3._ Z $ 3 u a z c p u u z z z z z l v c v v N v G E Z.D.i.h.k { @.| @.[ $.K.@.7 7 w :.;X6X%X2XBXBXhXwX,X&X,X&X%Xd.s.$./ n f b n ^ ^ B t < & < - B )._.`.).).)._.).)._.I.).I.I.u.I.u.I.I.b.b.u.u.u.q.<.q.u.q.q.q.q.<.<.k.'.M.#.M M.a.e b ) 1.V.:XV.2.' 4.p.N.0Xf.,.,.9 i t p $ * - = - 3 u l l v z J V J U L U L U L J v a v ....-.-.8.-.6.9.-.o.-.e.-.r.y.L.!.|.8.c = X X X G G.E.T.L.H.r.X.o.",
".XP.r.e.-...*.S.L.S.A.H.E.^.T.^./.L.H./.sXtX5XXXoX.Xy.;.E.E.T.E.!.T.8XsX5XL.y.y.k.W.B.N.a.-X'.] ,._ e C q e k ` M k ) 3.5.v.#.M w. . .C $ 3 u u x z x u z a a p l z z z c v G G R Z.+X+XZ.E 3.<.y [ @.[ J.*XQ.4X*XQ.Q.M.g.l.;X,X,X2XgX0X,X&X&X&X&X$Xz.j.] W n n W / / f & < < < % ; q._.`.`.).).)._.)._.).).).I.).I.I.u.b.u.I.b.u.q.5.,.<.q.q.q.q.3.<.<.h.'.N.c.M U.p.h n ( 1.V.<XV.s.( a.2.V.0Xs.( <.0 i t a X * $ * * * - 0 l V U U U *.8.-.8.=.o.U J N u a 8.A.G.L.9.8.-.o.P L *.9.-.r.y.Y.(.).o.z =     * v G.^.E.L.;...L K ",
"|.L.y.t.o.-.*.H.Y.t.9.L.T.H.T.^.E.E.Y.E.XXXX@XXXoX|.y.E.|.T.E.E.T.T.(. XT.L.y.L.k.Q.N.M.a.>X1X1.` ` g C 9 e M ` ( k ) 3.5.b.1.b  .1. .V $ ; u l z x z u z p z z l v z l v H I 7.+XZ.Z.+XC.S Y q.o.r w { p.$.@.:.m.B.*XQ.Q.M.@.Q.4Xg.#X,X,X,X&X&X&X$X$Xn.s.+.Q Q Q ! Q b # < < < & & B E.{._.{.{.).).).OXV.).).I.).).b.u.I.u.).u.u.q.3.q.q.q.q.<.q.q.<.X.h.'.x.+.M U.p.e b _ 1.m.<XV.p.( 2.5.N.2Xa.`  .z i t z @ % % $ $ * - 5 l J P J V ..6.=.-.-.*.K V N a a o...A.H.A.8.o.o.U J *.*.-.9.y.T.^.i.J l = .   X G Y.E.T.Y.e...U L ",
" XL.S.-...=.=.-.y.Y.L.}.T.E.E.Y.L.L.Y.T.T. XpX|.9.O.E.|.|.oXoX X(.(. X XT.r.r.^.8X4XM.M.a.7X1X1.,._ g M 9 g m  .Z k ) 3.a.b.3.m w. . .V X ; u z c c a x c c z F v v v v H E Z.+XZ.C.T S T S D Y e.&.r B [ :.Q.:.=Xz.g.J.[ H.H.W @.j.z.z.d.$X$X#X$X$X#Xd.s.$.! W / / B y # < < & 7 7 y ;.{._._.`.)._.).).).).).).u.).u.I.I.b.).u.u.u.q.q.q.u.u.q.u.q.6. .w.`.N.w.n N.g.j n ( 2.x.-X'.2.' 2.5.N.1Xa.,. .q u 8 p $ = * * X $ * - - p z 0 u J J J z N L K V J F N a L =.S.;.e.6.=.U v ..-.-.-.9.L.Y.U z u @     X G Y.H.y.T.e.*.U F ",
".XT.9.*.*.;.A.Y.E.Y.^.|.E.T.T.L.S.H.H.T.T.E.oX XS.y.T.E.^. X XE.!./.T.L.L.%.r.H.yX4XB.x.a.:X:X1.,._ g C e q k ` ( k ) 5.u.b.1.m 1.#. .C $ 3 u z a a a z z c c v v V Z R t.Z.C.T S A A 1 A S A 6 U y.0.f O.&.l.&.;XM.l.z...[ J.W 7 f &.l.s.z.z.m.#X#Xd.s.:.' Q j Q [ B - # < & r r r f { ].{.{.`._._.).N.)._._.).).I.u.).).b.b.u.u.q.q.q.q.u.u.u.i.i.q.X.5.W.M.h.n v.p.h b ( 1.m.-XV.2.] 2.5.N.1Xa.]  .g i t p $ = 2 % X * * $ - ; 8 8 l v z z z z J P U Y L U c N U =.*.*.*.=.L L -.-.6.e.;.T.A.J t p &     X G ~.Y.T.T.9.o.K c ",
"!.L.t.U =.G.L.E.Y.T.U.Y.L.L.L.L.T.H.E.Y.L.T.T.L.5XyXE.I.L.P.H.r.y.k.H.L.E.!.T.y.c.W.N.M.4.'.-X2.] ` e M 9 h m ) Z k ) 1.5.f.1.m w. ._ C $ ; u l z z x v z z *.@X}.1._._.i.C.H A A A 1 1 1 A 1 1 6 L L.W.{ ;.o.B 4Xl.&.@.[ ..@.@.# # r ^ :.M.Q.g.s.s.d.s.] W W W / ^ d & < < r r r y f / ].`.{.]._._.{.).).).).).).I.).u.b.b.).u.u.q.q.q.u.q.u.q.u.q.<.X.h.`.x.+.n W.p.e j ( 1.m.<X%X2.` 2.5.N.<X5.] #.g 0 t p X * $ X % % - - 5 ; 5 p 6 u p v x v U -.*.U *.*.K F a a a v J Y Y =.*.-.7.;.e.H.-.z ; 5 X     * H G.Y.L.S.-.O.K N ",
"/.S.6.8.A.=.G.Y.L.L.H.Y.H.H.H.Y.S.L.L.S.H.J.H.T.8XXXY.J.H.S.H.L.l.H.T.L.L.!.T.y.9.M.N.n.4.[.-X,.` _ g Z 9 e m ` Z k Z 1.h.j.#.M O._ ` C $ 3 l z x z l z g Z ).bX{.5.N.].OX}.A 1 1 1 1 > 1 1 A 1 A x U 3X!.&.%.r.(.>.&.;.y y J.l.w y B f ~ W { l.l.@.$.$./ W W W [ ^ y & # r r r r [ f ;.5X(.{.[._.V.).V.N.).).).).u.).I.I.).u.u.u.q.q.q.q.u.u.u.q.3.<.O.b.`.v.b.Q v.p.e b _ ] n.<X'.2.] 2.4.N.<X5.` ,.g i u u $ X X % % = = 5 5 u u 5 - p p u u Y E o.P U =.=.J J N K J J J J Y U *.o.-.A.k.H.-.z - = X   O = H S.L.L.y.-.-.U ..",
"sXrX.XoXXXS.H./.XXT.H.L.L.T.T.Y.Y.S.A./.@X(.T.E.H.y.e.e.y.H.J.H.T.!.E.H.L.L.X.} o.P.Q.x.a.-X{.] ` ` e C 9 9 k ` Z j ( 3.w.h. .C 1.#.` C $ ; l z z z v v <.).b.u.b.n.V.u.}.OXv 4 1 , + + + > 1 1 1 A x 7..X.Xk.y f H.&.| r y [ :.g.K.6X!.K.@.w f &.:.W ' / W ^ ^ / ^ y & & r r f [ [ f =.J.(.`.].{.{.`.`.).).).).N.).u.I.I.b.b.u.u.q.q.w.q.3.q.u.3.3.3.O.h.Q.x.+.j W.a.w b Q ] n.-XV.2._ 1.2.m.{.2.,.` g q u a $ $ X % % $ = ; = ; p u ; c J v u c P *.o.*.A.e...*.=.-.U U U v c J ..-.-.S.H.L.-.8 % = *   O 2 I t.e.L.E.E.S.S.F.",
"sXkXoX XT.L.G.XX XT.L.L.S.H.S.S.S.;.r.tXoXE.T.Y.S.H.H.H.H.H.k.r.H./.H.y.H.y.X.L O.v.W.v.a.'.:X,.] _ h C e q k ( ( k M 3.a.h. .C 9.` +.C # 0 x v c z c I t.I.I.I.].x.v.) Y o.}.~.2   + > > > 1 1 1 1 A A x E.yXY.[ -.y.T.T.Q.l.:.s.z./ f @.&.;.y W | n W / ^ / { / B 9 & r r { { f r 7 & f -.| h.N._.{.).).`._.).).).I.u.I.b.u.u.q.q.q.q.3.5.q.5.3.3.3. .h.W.M.c.n v.h.j h Q #.x.%XV.p.( 4.4.N.:X2.` <.g t t u $ X % % % % % $ = t z u u J K K K K U -.-.=.;.A.-.*.-.*.*.*.*.L v N *.e.e.Y.Y.r...3 $ = X X X = H =.O.Y./.E.T.S.e.",
"oXoXE.L.Y./.oX(.E.L.S.L.A.e.=.-.-.e.@XpXrX^.T.T.e.;.H.H.y.k.H.H.k.L.k.k.k.k.e.t.X.4.W.M.h.:X:X1.] _ e C 9 q h ( k k ) #.4.h. .b _ 3.| M - u z v c G E G.+X+XZ.7.6.q.v.X.t.F.).G.Y G 5 + 1 > > 1 : > > S 1 4 t. X|.-.r 9 W @.+.:.d.' 7 ..T.W { [ r [ { f / W / / W f 7 r f { { f r o , o < p [ | <.N.{.{.{._._.).).).I.I.b.I.I.u.u.q.q.q.q.q.q.u.3.3.3. .w.V.x.5.n v.p.e j Z ,.n.%XV.a.] 4.2.M.>X2.( <.q i t z $ $ $ X $ % = 5 l z c V J N J *.S.9.*.-.9.=.;.*.*.U *.*.*.*.U J c K A.H.T.(.H.*.J 3 - 2 X   , % F -.6.L./.T.r.-.e.",
"oXE.T.E.A.E.XXH.e.S.H.A.r.e.;.=.-.^.pX8X!.T./.^.S.A.y.r.S.H.y.y.H.y.r.H.H.y.H.T.-.4.B.v.h.'.:X1.] ` e C q q k ) k k ( 1.4.a. .M 3. ._ C - 5 z v E Z.+X+X+XC.T T p x }.u.iX.X#.U.L.S.A.= , > > 1 1 > : : S 1 : G 9.!.P.W 7 B t B l.@.r f J.f r [ f f [ W ~ W / / ~ s r r { { s r @ o o , : % t L <.,.I.{.{.{._.{.).b.I.I.u.b.u.u.q.q.q.q.3.q.q.5.3.<.1.<.h.N.x.5.n v.4.j h Z ] x.%XB.2._ 1.4.N.:X5.] 1.q u t a $ @ $ . X @ & l c v V J J v J -.G.-.U =.;.8.8.;.=.*.o.*.*.E U v v L S.^.^. XS...N 8 - = X   2 4 K =.t.L.T.r.6.9.-.",
" X/. XL.J.^.(.G.H.H.S.A.A.=.A.;.L.T.H.S.T.^. X|.J.Y.S.H.Y.Y.H.e.H.S.r.k.y.L.(. XL.v.M.v.p.'.>X1.#.` e B 9 0 m ) Z k Z 1.4.a. .n X._ ) m = 5 G 7.+X+X+XC.T S A A 1 4 7.*.<.k.Q.z.0.W y.-.= > > > 1 : : : : A A : 2 ..E.!.g.f 7 7 ;.J.B # r f B K f y { [ f W [ ^ f r r K { f r 1 o o , o @ : # t u.q.u.q.).`.{.{.{.N.I.).I.u.b.u.u.q.q.q.q.<.3.q.<.3.1. .u.M.b.h.M v.p.w h M ` f.V.B.2.' 4.1.N.=X2.] 3.g q u x & @ $ % = X = - 3 z J L U U L U o.U ..;.e.;.=.=.e.-.I *...U U F L U Y.(.(. XS.L z u 5 =     % 4 F J o.Y.E.T.L.6.6.",
"pXrX|.G.Y.^.^.T.J.A.S.r.=.-.=.L./.L.r.T.XXXX(.E.L.A.r.S.H.H.A.-.9.-.9.9.A.H.E. X!.W.M.v.p.'.:X#.#.` e M 9 9 m ) M k ( 1.1.p. .b 3.3.` V * G C.Z.C.C.C.T S A A 1 1 , , @ l ].z.K.*XJ.p.3X*.@ , + : , > : : 1 S 1 1 4 x 9.!.v.^ e y [ ;.=...;.{ B f y [ { f / [ W f r r { f < < : o o , o o : O % v | <.g v <.i.).N.N.N.b.b.I.u.u.3.u.q.q.q.3.3.u.3.1.<.1.b.N.h. .b v.p.e b M ` a.V.B.s.' &.1.N.:Xa.] 1.g i t z $ % & % = = % = 8 z V P Y U U U ..o.*.S.Y.-.-.*.=.A...o.*...U N ..-.H.T./. XS.B u 8 5 6 X   , 6 D D J F.^.E.F.*.7.",
"oXXX@XL.A.A.H.Y.H.=.*.=.;.=.H.^.E.H.r.H.y.S.!.L.E.H.9.-.*.S.-...=.-.e.t.S.T. X|.U.W.M.M.4.Q.=X$.#.` q Z 9 q h ` M k Z  .1.4.| C O. ._ C 0 E q.7.I D A A 4 A 1 1 1 + > , 4 @X3Xz.(.@.&.+.c.l O > o > > > : : A S 1 A 1 @ v y.r.&.{ f f L ;.~ f y ~ f B @.W W Q B 0 r f ~ r r < < o o < o o o : X 3 C v m - = l Y <.q.<.q.u.u.I.u.u.q.q.q.q.<.3.q.q.<.3.<.w.M.x.h.n c.h.d h M ` a.=XB.,.( &.1.M.'.,.,.1.g i y z % % % % @ * = - u c N L U P Y U o.*.o.;.^.H.-.*.;.L.=.*...*.K v *.-.Y.(.(./.9.N z 3 3 3 X   % 6 D G o.L.T.S.S.6.-.",
"T.(.@XS.e.t.-.e.A.*.U *.e.S.(.^.(.^.S.A.y.T.E.E./.E.A.-.-.=.-.U -.e.H.Y.E.!.!.E.E.W.v.j.p.'.:X$.#._ e B q 9 j ) Z k Z ` 2.a. .m ) ` _ Z g } y.F.I.*.p , 1 1 1 1 1 1 > > 1 l q.kXb.+.@.@.&.P p @ O > > > 1 + > S S 1 > 1 > 2 K 9.h.4.| w w y B [ { [ f { ! f B d r y { r & < < @ , o o o o , o o 3 L f a a % # < y y y a N X.9.y.k.w.q.q.3.q.3.w.3.3.3.O.w.N.a. .h v.4.d e B  .a.V.V.2._ &.1.x.B.,.` %.b i t z = % = X X * $ - u a F L [ L K [ *.;.-.;.T.H.A.;.S.A.-.....*.G K *.e.L./. X^.-.a z t ; 3 X   * 6 D I U S.S.L.Y.-...",
"(.XX8XY.9.=.*.e.L.-.L =.8.^.pXiXoX(.H.H.H.Y./.T.E.E.y.8.-.*.U *.t.Y.Y.T.E.!.E.T.E.N.x.k.4.B.=X#.#.` q B y q b ) k k ( ,.2.u.#.M 9.4._ C 8 h ) c.E.).).Y 2 2 + 1 1 1 1 1 1 > 5 i.].[.W. .B |.@XE O > > > > + + > S T > 1 1 : 2 4 L 0.p.$.@.| f w w y r ~ { f d y 7 f f r & # < < o o , o o @ o o o p f p N < O , < y t t r t d } 9.y.r.r.q.3.q.u.3.3.<.1.u.v.M.h.b v.4.e h C _ a.V.N.2.] 1.#.x.B.2.` 3.q i t p % * % $ $ = 3 u z a K U K L K K =.=...*.O.=.;.Y.Y.L.-...*.*.U o.;.H.P.!. Xe.i a u u 5 = O X * 6 H Y Y L.Y.L.Y.=.U ",
"E. X@XY.e.U K o.A.*.o.=.-.^.pXsXiX(.Y.^.Y.L.L.T.T.P.y.8.=.*.K -.^.^.T.L././.E.Y.L.v.v.j.4.N.'.] ] ` e [ 9 9 j ) Z k Z 1.5.h.#.m _ ( ` C 9 O.XX9.Z 3.{.3Xb.v * > + > 1 1 1 1 * X l ..3.1. Xi.lXOX2 O + > 1 + O + > T S : > A 1 1 u L.:Xz.$.@.{ { W w 9 f B d i 8 r K r < r < t < O o o o o o o , @ t t t a < O O < < < t r 3 y y d [ 9.r.9.q.q.w.q.<.3.<.w.b.h.5.b v.4.q q C _ 5.n.m.p.( %.1.x.'.2.] 1.e i y z & = * * $ 0 x v v N J [ K L L K K U J J ..;.Y.L.L.Y.*...*.o.;.-.H.!.!.!.9.y t z p 5 3 = O X * x G Y E L.T.L.H.e.o.",
" XXX/.H.A.8.-.H.^.J.^.^.^.XXiXiXoXE.(.^.T.L.H.L.L.Y.y.-.*.U ..e.9.e.L.P.T.E.H.L.E.W.v.j.4.N.'.$.#._ q B 9 9 k Z M k k  .3.5.+.M 3.3.) C b 9.o.l = X c E.3X XY @ + + > > 1 1 1 1 O E zX`.{.c.w.t.J 5 + : + >   + + > T A : 1 A A 4 8.aXQ.~ l.$.' @.[ W d f B 7 & r f & r < & < t # o o o o O O o O < 9 & a t , : : < < < < t p y y q C -.9.9.q.w.3.3.q.<.w.v.b.3.n v.&.w d C _ 2.n.n.5.' #.#.x.'.2.` 3.q i 0 p % $ % X * ; 5 5 0 a N K I ..[ [ K a L *.e.H./.Y.L.Y.A.*.*.8.e.r.T..XL...a u v J z l = = X O * 4 F R *.F.Y.L.Y.S.A.",
"XXtX^.Y.A.-.A.(.iXpXsXpX@XtXyXpXtXpXpXL.A.S.A.L.E.T.S.8.K [ 8.t.-.A.r.9.Y.(.L.L.T.!.v.h.&.M.'.] ] _ q C 9 9 h M M k M  .1.4. .M 3._ ) C u u X   O o X u c.3X.XP * + + > > 1 1 1 1 x OX_.b.b. .X.i.G.H @ + > + o o + 1 T 1 : > A 4 G [.4X! (.*Xg.:./ / [ f B q & f r r < < r & p # O O o o o O o O p a a y a , o , : < 3 & y y a N i 0 d O.9.w.w.9.3.3.<.w.b.h.h.n v.4.e q C | 2.x.n.2._ #.+.b.'.2.( 2.h q t p $ * X $ X % % $ $ t N L U U ..U K J ..A.S.T. XL.y.G.y.8.y.S.Y.L. X!...z z c c v v u = = X   * 6 H K *.L.Y.Y.Y.A.*.",
"^.^.^.S.A.=.A.A.=.^.@X^.Y.|..XoX X5X8XH.A.A.;.r.!.T.e.P J -.9.S.S.A.e.r.Y./.Y.L.L.W.j.h.4.n.V.] ] ` 9 C 9 8 k Z M k Z ` 1.4._ b }  .( B $ .   O @ F 8.I.W.`.[.].Y * + + > + 1 1 > > = D.tX<.{.<.0 Y t.K 2 o : +   o + A S 1 : > 1 4 L.4X&.w { j.4Xg.:.[ W +.[ r f r & < < & r f 3 O o o o O o o X a f d a y & , , < o & < 6 % r y d y r b 9.w.w.5.3.3.<.w.b.h.1.b v.4.w q C +.4.f.f.2.) #. .a.N.,.` 1.q i 8 a $ X * % $ = = 5 0 N V J U ....L L o...-.S.T.T.t.A.F.e.6.L.Y.T./.E.q.Y u t i z l u 5 = *     * 6 H H =.^.Y.S.;.-.*.",
"^.L K A.A.S.H.-.-.L.Y.S.e.A.L.L.T.J.Y.Y.S.*.*.e.F.y.6.J *.t.S.R.F.Y.~.Y.H.T.T./.T.M.c.h.2.v.M.,.] _ q k 9 - h Z m m Z _ 3.4. .h O. ._ V O   @ v t.L.h.v.h.j.N.:X`.V o + + + > > 1 > > 4 7.).{.E I 6 J y.x   > + +   + : S S : > A 1 8.W.g.f h.Q.&.{ { g.g.g.@.w K y # & # # r a a @ o o o o o o @ c B f f a y , , , o @ 4 < 3 & & ; t t N O.;.y.q.3.3. .5.c.5.0.n P.1.e h C  .1.h.f.1.( #. .5.N.] ( 1.z i u l $ % $ = - u l c v L L J L U ....[ o.*.L [ L -.-.G.E.*.V A.Y././.r.N 8 8 u c l 0 - ; = X     * p H I -.Y.Y.K y [ *.",
"A.a K A.A.A.e.;.A.L.A.S.e.r.r.e.H.r.e.-.-.[ *.;.H.e.-.P e.t.S.S.e.A.L.A.S.H.T.Y.r.k.x.h.$.n.M.,.,._ q Z 9 - q m g h M  .3.1.| i | _ _ C X @ 6.L.y.4.x.M.j.'.) x.'.L.x + X + + > 1 > +   4 ).i.<.+XS - 9.o.@   + o o o + : S A : 1 1 z (.M.s.Q.j.r.(.H.k.v.$.:.f { N # < < # t s [ & O o o o o o o L P a f N a o , , , o < 3 p a p t 7 3 y N [ y.w.3.<. .w.x.4. .n U.4.q q m ) #.b.a.,.)  . .a.N.,.`  .g 0 0 l % % * % = u c v v K L L J ..=...J L o.R U J L o.t.A.J U =.-.t.-.c - - u p z 8 5 = = = X O O * 6 H U *.A.8.t p ..*.",
"N a K *.J J ..9.L.L.r.t.*.o.6.;.-.O...o.-.-.*.o.r.-.O.9.S.r.e.9.6.9.o.N O.y.y.e...9.k.a.1.x.n.] ] _ q M 8 - 8 l V g M } #.3.) b  . . .C # P b.%.9XkX{.v.s.W.].|.v.U.q.=   + + + > 1 > + , H q.q.G 3 J h.y.i.R   + + : : + 1 A 1 1 1 1 A.M.p.n.0.%.} -.N [ [ l.| L N & & a s y y F a , O o o o o O K t.t t z 3 o o : , o @ 5 t c N z y y & 7 y ;.w.9.3.<.3.b.h.w.n U.4.e i B ) w.4.4.3.(  . .h.`.,.( ` g q 8 x X X X $ $ 3 l l l V J J J ..o.J ; 5 z v V Z c z c c l V L v v v z l c l v c 5 = $ * X   X * 2 x G I U U c ; x L J ",
"p p K H Y Y *.A.L.F.t.*.Y <.=.-.-.-.o.6.8.=.t.i.e.r.e.6.6.6.-.-.6...N K U ..U *.} %.x.a.2.n.x.] ] ` q m 9 - 8 u i b v )  .#.) b O.M ) C B 0.N.1.8X3Xw.O.9X{.|.t.b 3.u.Y O + : o X 1 > + +   I I.<.6.c.y.9.L.@Xx o : : o o : : 1 1 1 1 J Q.&.W g.r [ a 7 ;.k.&.&.W { 7 & r y y y f L & O o , o o X R 7.y ; N 3 O o , , o @ < 3 < 5 p z a a d i | w.3.3. .4.h.x.w.n P.p.e q B O.P._  .#.)  .1.h.V.1.( <.q 0 5 z .   X = = = - - p a c G v K G l 5 = 5 5 5 5 5 u 5 6 5 6 x x x l 5 p 6 5 3 = * X X X X X * * 4 D x p s G p ; x G G ",
"= = 4 6 l l Y I Y Y v x x x v x v c x G v F I J L U L x p c c c v 5 x J D a c J u ..c.a.1.n.M.,.` _ q m 9 - 8 L z z Z Z  . .^ g P  ._ B V 3.x.s.n.h.3.w.yXY % @ @ v 9.9.x O o o O > 1 + : + + 8.6.3.3.<.L @XE.U @ O : o + + + : > 1 1 4 b.v.f g.O.f f -./.O.^ J.[ %.y y y 7 f a r J y X o o O o 2 ..J N a U 6 o O , o , o O < # O X < a J J B O.w.3.3. .4.k.h.1.n v.4.q q C y.5.M.w._ (  . .h.V.,.( 1.q i t x X         X X X $ $ % = % * % X X X X X X * * * * X @ X @ * X X X X X X   X   O X * * * * * 2 4 = < = - = * = = 3 ",
"2 3 4 2 4 4 5 5 = % @ @ * = * X X X X X X   X X $ X X X X X . X X X X X . . O X . J h.5.1.b.x.] ] _ q m 9 - - J i C P M  .X.) g o.) ` C 9 9.[.M.a..XkXX.c = @ + > @ Y 9.Y @ o + + > A 1 + + > 4 5 <.c.G.} iXw.w.6.Y F o : + : : > + > , L.J.| ..!.k.{ [ f B f v.&.+.B d W [ W f 7 B C % o @ O o 4 ..B d N z X o o o o o , O < , : @ : # < y a -.y.q.<. .4.h.j.4.d v.4.e q } P.2.P.( | (  . .5.V.,.` <.g i u a .   o                   O . . O X X     X X   X   X X X X X   X X   X X O X X * = * * = = = 4 2 4 3 4 2 = = 2 = % ",
"H H D p D D G x 5 4 4 4 4 = 2 = = = = 2 = * 2 2 * * X X X X @ @ * @ X @ @ @ * * . V h.h.1.j.x.] ] ( q b 8 $ 8 z i V b b |  .) z ) ) ) V # t r.!._.bX6.= @ o o + o + 3 Y <.c   + + + A A + + + > , 6 }.bXO.| W.W.b.k.H.x @ : : + + + +   *.`.4.7 7 +.h.&...f 7 p.M./ W f { [ f B [ y K < o o o o 3 X.B t a a # o o o o o o @ < O @ o o , , < r [ w.0.<.1.5.h.a._ j c.#.9 q | 9.4.3.Z _ _  . .h.N.] Q  .h i i a .                         . O   X X X X * @ X @ $ * * = @ X * * X * * % * * * = 4 4 5 5 5 4 6 6 4 6 p x 6 6 4 6 5 ",
"R I R H R E R H I H H G D G D G D F G D G x D G x 6 4 1 2 3 4 5 5 3 5 5 4 5 p x 3 Z w.h.1.h.x.]  .) 9 B - - ; z i } i b  . .) b <. .) m   # # K }.@Xc @ o > > + + + @ u ....2   + : : S 1 + + + > * *.G.c.P.W.l.:.{ :.o.= o + + + + + o x E.W.d # [ J.:.;.| W @.Q.@.[ w f f [ %.y r f y @ @ O O p -.d y B t O o o O o o o , < p p % O o @ , % c 6.q.3. .w.h.h.1.b h.3.q 0 C 0.3.w. ._ _  . .h.m.] ( 3.q i t c .                     O O   O X * * = * = = % 2 = 3 2 = = 2 = = = 4 = 2 4 5 5 4 5 x x D x p 6 x x x p p 4 v 6 5 4 ",
"R E E K I E E Y Y I I v Z Y R I Y Y Y Y U J K Y J H D D D x x G x x l x x v G G c } h.w.1.h.a.( _ Q 9 b - $ - t d B B P )  .} b ) m Z v # # # . 5 v % : > o : + + + o @ z L x o o + : A S > > > + > * 6 z y.J.:.>.{ [ | v * +     + + o @ y.W./ y  Xl.v.z.&.l.@.Q.&.W w w [ [ W 7 r N y @ O . # A.J i B N 5 . o , o O o o : < t s a a t < : X u O.w.9.#.4.b.a.#.n c.#.y 0 Z X.3.q.3.<.(  . .f.N.2.( 3.g y y a .                     O X X * * = 4 = 4 3 4 3 4 5 6 p 6 6 6 l 5 6 l 6 x 6 l p p x x x x x x x x v D x p p v l p p ",
"Y.G.A.A.A.F.F.F.F.A.A.A.G.G._.~.G.y.7.t.G.Y.7.*.E H x D x 5 D 5 l E *.Y 7.<.6.6.-.9.w.4.1.f.p.( _ C 8 i 7 - 0 V i V P C )  .) z Z 1._ v # r & # X X O , > : o + O @ 4 F u N v @   + 1 1 S 1 > + : + 1 1 * F.3X>.~ ~ f W q.I @ +   + o o   P N.0.y d { g.K.{ J.+.J.:./ [ f %.B B r r y a & O % a 9.B 9 f K < O o o o o o o o , y L f N N y t & y } 0.3.O.4.x.h.3.h c.%.q q C 9.3.1.u.1.( ` ` h.m.,.! %.b i p a #   .   O O @ * 2 = = = ; 5 6 l l l x c G G Y U I Y Y U E E U J I Y I Y P Y U R U Y Y E I *.7.E o.E R E E E 7.E R ",
"OXXX}.(.^.^.@XoXtXrX@X@XtX@XiXiXiXXX_.|.iXiXA.A.=.G v D * 4 x z *.^.XXXX}.|.(.Y.L.L.4.4.#.x.h.( Q C 9 i - ; y N 9 } b C _  .^ d ..| | B 7 r # # & o O o > > +   , F K y t t z 3 o + : : S S : : + + > > 1 I E.h.:.{ ~ O.i...F.D.%   o o O 3 U.l.r # y @.@.@.z.f @.g.{ ;.y [ @.[ a r r d t O K t.B t } } 5 X O o o , o o o o @ & L K L f f f f y B ;.9.%.5.h.a. .b b.%.q i V 3.3.w.U.+.`  . .x.V.] ( ] e i i a X O   X % = 5 u z F F z p J U L L L K K U ..=.-.8.e.=.=.A.G.L.S.D.S.A.-.-.;.=.A.A.D.S.G.S.F.Y.Y.S.Y.L.A.t.A.A.A.8.",
"^.|.XXoXXXXX@X X(. XXXXXXX(.(.@XyXrXyXoXtX/.-.;.=.s F 4 @ p x *.y.^.XXoX|.|.oXE.^.P.4.4.#.h.n.` M M 8 y & ; u t y i N }  .+.} q M | ) B & 7 # # a r . o o o o D *.N b i y 8 u u O o : : 1 T 1 : o + + > > * -.r.l...[ k.<.J }.}.U =.& O o @ k.M.f & y [ / p.p.e n l./ +.w w %.f [ d # a a $ =.o.q y B K % O o o o o < o o O o o # & 7 J [ K f t w O.&.O.3.h.4. .b c.%.0 y m X.3.1. ._ _  .` h.B.,.( #.e i t a # .   X $ - u c v K U K z U *.*.U U U U [ o.o.-.-.-.-.e.Y.Y.T.T.Y.G.S.;.A.-.;.S.H.H.S.S.A.Y.T.T.H.E.T.y.y.L.E.^.L.",
"(./.XX X X/././.(.^.(.^.e.-.;.Y.@XrXrXXX^.r.A.=.K t 5 , @ p J y.F.|.XXL.T._.XXXX8XQ.g.4.#.f.h.( Q B 9 i - & ; 0 u B m M _ 1.) b  . .^ f # & # # f f #   @ O U iX9.B B B y & % y % o 1 : : T S : o o + : > > , 6 F Y.w.0.` XX}.) } k.r.p @ @ -.W./ y @.[ z.Q.@.{ f z.@./ n 7 [ [ B B 7 & a N =...& & z J % O o o o , < o o o @ < o O < < t K a y y L ;.| 1.h.h.w.b k.%.8 9 C X.3.4.w.5. . . .x.n.,.`  .g i y a O   . # $ ; u a a J L U U o.e.A.e.9.y.t.e.9.-.;.r.;.;.;.^.^.A.r.9.;.A.A.;.*.;.S.e.....U -.L.Y.T.L.Y.T.L.L.y.F.S.e.",
"XX/.E.T.L.T.H.H.Y.T./.-.U *.=.G.@XoX/.~.r.e.H.S.K a % % 3 x U T.E.oX Xr.T.|..XXX^.U.4.4.$.{.1X2.M b 9 i & 3 8 0 t U P m  . .) b ) Z ^ a # # # . s f # .   # e.yXc.^ B t # & 7 t 3 o : 1 : S C.: + o + + + > > @ O J 6.-.o.9.w.w.-.t J -.a X f P.&.9 y @.Q.[ w [ f $.4.W [ r [ f 7 y t & a o.T.} z & i a # o o o o o < o o o , o @ y a & # & y & r d | +.1.u.5.` b h.#.9 8 L w.w.3.v.yX3.X. .h.x.B.[.| q t t a O     . X ; ; u z J L ..U *.-.A.G.S.A.y.e.t.9.;.-.-.-.e.J.T.r.9.e.A.;.;.*.-.=.A.-.J K K =.A.Y.Y.S.H.Y.H.S.c.r.-.-.",
"Y.L.S.L.^.Y.S.T.Y.H.L.A.A.A.=.;.A.A.;.8.8.T./.(.y.Y * 2 G v 8. X XrX X|.(.tX5XO.L ;.4.p.2.[.x.1.( b 8 y - - t - u o.L C )  .| h |  .m z #   . # f [ r : < # y 9.3.O.y & a U S.t p @ : , : > C.1 + o + + + + + + O O * 5 iXoX .9.a 3 p O.O.L N 0.g.y 7 j.@.[ [ B d { g.W [ r f i i 9 y 9 B B B ..U a B N , o o o o @ < < O o , o 3 a & 3 y & 3 # & r J O.%.c.5.%.m h. .9 0 L y.w.b.h.0.M |  .h.[.qXW.%.9 8 u a X X X $ X % $ ; u z c V V J K ..-.9.9.9.-.;.;.*.o.-.-.O.;.;.-.O.;.S.-.A.r.S.A.A.-.K ..U U U U *.-.y.H.;.;.-.O.;.r.",
"r.S.L.|.|.(.^.Y.^.A...A.Y.G.=.=.o.o.=...8.H.T.oXL.Z $ 4 G G R.oX.XrX(.T.oXpXT.J ..&.0.4.$.$.W n } i 8 q - $ - & 0 V i q ) X.} z P ) M z # . . # f { r < # & # r L q & ; G.-.^.V t % o : : : S S : + o   + + : + + + + @ Z.t._ | < < t [ r.zXy.Q 4.f 9 j.^ l.@.L | n 0.^ W f d y y y C -.L.9.8 z L [ L K < o , @ @ o < , o o , o s G # a K r < O # r y | %.h.5. .d w.%.9 0 b ) 4.w.5.M M )  .4.W.&.Q b 8 8 u s X X $ X X X % - 3 t a N V N K L o.-.-.-.e.e.-.-.[ ......-.[ -.;.9.;.-.e.e.;.A.e...U K F a N K J O.r.e.-.O.o.-.A.S.",
"r.D.Y.Y.H.L.S.-.;...L ..*.;.-.-.*.*...U =.e.Y.~.r.L = 5 D J }.XXP.!./.^./.Y.K [ ;.r.4.p.#.#. .b m q 8 y & & & - - - q C | | Z q | | b i . . . O r { r # # r r # # # -.y.B } -.i t < O o : : S S : : + o + + + + + o + + , x I.q.d & J ;.k.{.9.( j.&.@.j.W ^ n f [ f %.l.W.| } y 7 B L.| %. .d y ..a & , , o o o o o < , o o o # s ..& d K y < # # & 7 B %.h.4.O.b h.#.q q m } | 3.#.) Z ) ) 3.+.) X.- & t t c X X X X X $ = 3 u a N f J J L J [ U L ..;.-.....K L J [ =.-.-.9.t.9.-.;.-.........K a U ....*.O.o.;.e.o.*.-.-.e.-.",
"S.S.9.-.O.=.;.K F s K K U A.R.-.....*.U ..;.A.J.q.P $ 4 x I R.E.H.H.L.Y.J.S.o.*.-.%.4.4.#.3.| C d q 7 i - $ - - - t q V Z _ Z g ..) b i # . # , r { f # @ & y f 7 # Y.E.b B i # & % O : : : A T > + + o + o + : + + : + > 2 R q.t.o.| &.r.w.X.|.:Xj.M.g.+./ | ^ B d 0.Q.P.^ } C B L.c.B C ^ b N ..a @ o , , o < o o < < o o , @ y J r J f y # o % 7 r d %.h.3. .b c.#.9 i C O.%.1.` )  .Z ` 1. .) b q 0 t t c X X X = = = = 2 l a N F J K L K [ ..K U o.L L ..L U K K ..U -.e.-.-.-.9.-...L ..U F J ..*.*.-.6.o.-.-.o.o.-.-.U K ",
"H.S.9.-.A.G.L.U c K K K ..=.A...U -.A.-.6.8.}..XT.o.- = 6 Y R..X/.T.E.T.L.*.U =.k.y.4.4. .1.` j C C 9 t ; $ - & - 0 u m Z ` ) q Z m h l . # . # r ~ f r o # r f y # [ 9.d B 8 ; & $ O : : , A S 1 + + + + + + + > + + > > > @ l K y.%.k.w.O.C yXU.4.@.! :.g.p.0.^ @.W.%.[ B C } ;.0.;.O.y ..b f t , O , : , : : , o , < @ o o # p a y f y & , < # 7 r r | k.&._ n h. .9 q B  .w.#.1.h.| ) X.3.` Q h b 0 t t s $ $ = % % = - ; 6 a c c K J L L L [ K ....[ L U o...[ ......-.e.-.-.;.9.-.......*.Y P Y Y o.-.-.-.o.U o.-.o.[ ..*.",
"r.-.X.y.(.~.R.U J K J L L ;.e.e.y.A.y.t.e.y.R.XX|.6.- * 5 J }.pX8XXX X|.y.J ..A.L.c.1.3.#.3.` M C C 8 0 - & 8 - 5 0 g l m <.Z q } C z 8 . . O # 7 ~ f r # # # r f # & [ B b y 3 & % X o @ : 1 S 1 + + + + + + + + + + > > + > , % F a }.iXO.O.9.g.+.^ f W @._ y.O.v.P.;.;.a p f } O.B | w y L a O @ , o @ @ @ o O , < , O O o o # & r y t & # , < & r r [ k.4.O.B b. .y i m X.4.w.v.c.(  . .1.` ( h z 0 t p s X = = = $ = = ; 5 u u a K J J J L L ..-.} o.*.U ..*.*.*.-.9.e.e.9.e.e.8.-.....o...o.o.......*.*.o.P U o.o.U a U A.",
"e.-.e.S.e.*.*.F y J I ..-.;.S.L.S.y.y.y.t.9.L. X6.c $ * 6 G }.8XXX X^.S.;.-.-.Y.E.P.4.1.` 1.` M n b 9 0 - - ; $ 0 0 0 v m <.Z g Z C g 8 .   # # 7 r ~ r # # # r f # # # C q q 7 t & # O O X , A > X   O     O O O O + + X X O O . . # y ..B L.3.4.^ f w f / h. .%.[.4.&.^.3 & & } h./ [ f B B ; # O O O @ O O O O X # o . O X . & 7 r 9 # # $ % & & 7 7 ^ c.w. .m w. .9 i C | 4.h.k.U.'  .1.5.` ( h b u i u s $ & = = = = = = u u a v V N N N L U ....L o.o...U ..U ..-.-.-.O.;.-.-.-.o.o.X.X.-.6.6...Y [ -.*.o.o.*...*...o.-.*.",
"-.A.H.t.L a d a a K -.e.A.y.H.S.9.y.y.y.y.q.}.|.} 5 * * 4 x }.8X8X XS...o.A.(./. X!.3.1.`  . .) | i - - 8 u = - - 0 0 z m ` Z q ..Z g V [ X.-.;.g.J.z.!.J.L.J.J.E.J.L.H.E.[.W.U.E.!.Y.L.L.F.F.T.F.F.F.F.F.y.i.A.y.t.t.q.q.q.t.8.-.e.-.-.-.O.h.a.M.h.&.&.&.j.M.w.h.v.4.g.w.L L } | h.$.&.%.+.} C N J N N N c N v N N f a N N a b B J ^ B B N b N f N W B #.].b.) b q.` 8 q V | 3.1.1.v.b. .1.a.5.( h b q i y a $ X % @ % $ = = 5 u p v c N J J K K U ....K ....G K ..-.-.-.o...-.-.-.o.O.*.-.-.t.t.t.....L ..[ U ....L [ -.-.-.K ",
"e.A.e.A.-.K J K K ..-.9.y.q.y.S.F.F.i.L.y.L.oX|.P z % * = v ).OXoX(.Y.e.A.R.XX/..X].4.1. .N.h.1.X.9 9 0 a u $ = l l 0 z m } Z g Z Z } b.W.[.3X9X9XaXqXaXjXjXjXjXsXsXaXdXjXjXjXjXjXbXxXjXjXjXjXjXjXjXjXxXjXjXjXjXjXfXkX7X7X9X9X0X9X9X9X7X7X7X:X:X:X'.{.'.[.`.'.'.'.Q.Q.Q.W.W.W.W.N.N.N.M.v.v.b.h.k.k.w.w.h.k.w.w.r.0.r.3.0.q.3.w.9.4.w.4.0.w.4.0.r.0.3.4.g.[.`.} q 0.) - i ^ w.k.w.&.5.N.1. .1.h.1.M C i i a z $ X X X $ % $ * 5 0 u l z a c V J U L L L V P Y v N =.-.*...o.o.-.o.-.-.O.O.6.e.6.6...Y Y L o.*.-.-...L L -.-.U o.",
"9.r.H.Y.A...L K U *.-.t.O.9.S.r.r.S.H.y.r.H.XXY.} u X * 6 v G.XXtXXX/.A.A.~.(.T.!.U.4.3. .N.{.1.M b a i z & $ $ - u z g v  .Z 0 P <.c.].[.{.{.[.[.:X:X[.'.:X{.{.Q.=X3X7X'.`.:X7X:X7X:X7X-X'.:X-X7X7X:X:X:X:X{.:X{.7X{.{.1X-X-X:X'.:X-X-X:X:X'.`.-XN.V.`.V.V.N.N.N.W.W.N.W.W.b.N.N.N.W.v.v.v.b.v.h.c.b.c.h.v.h.w.w.w.u.4.w.h.w.b.w.h.w.0.4.b.0.w.0.4.b.w.5.w.b.X.h w.) 8 z c.r.) 1.5.5.u.q.3.'.M.2.5.| q q u x X . $ X X X $ $ - 3 u 3 0 a N V J K } L ..J v v v J *.-.o...o.o.o.o.-.-.O.O.-.-.o.P V P } } O.;.-.=.-.....9.-.O.-.",
"y.S.Y.S.;.U J ..U -.6.t.9.F.y.r.r.k.H.y.y.y.E.S.P l X * 6 H i._.oXoX^.A.L.~.Y.H.U.P.4.3.| #.`.Q C O.i z u $ - - 8 l 0 V C X.Z 9 m X. .O.#.O. ._  .X.3._ #. .` 1._ #.0. . . . .1.` 4._ 4.#.1.2.1.1.1.+.1.` 5.#.1. .1.2.` 1._ 4.#.] ] 4.#.] #.#.#.#.` 1. .1. .1._  .` #. .#.+._  .| #. . .| | X.X.} X.} X.} } C C X.P ) } } } Z C ^ } m ^ ^ L Q ^ } ) | ) ( Z ) m b w.X.8 ..c.O.3.<.3.1.1.5.1.[.-X2.b.j 0 q a c . X X X . * $ = - 3 0 u u a c N K K U [ U J z v J J *.*.....-.o.-.O.o.O.6.O.6.6.O.*.O.....o.-.e.9.;.o...o.6.9.-.U ",
"r.y.;.o.*.L U [ -.e.9.y.L.F.y.y.y.S.L.c.k.H.L.q.} l X = 6 J 7.F.^.(.T.A.S.H.H.y.L.P.4.#.#.v.h.Q 0.C 0 i - - = - ; z q C ) <.) V X.} _  . .1.#.1.#.1.#.#.2.+.1.$.#.1.1. .1. .` #.] ] ] #.#.4.1.1.1.3.2.1.1.4.2.1.1.1.5.2.#.4.4.$.1.2.1.] 2.1.] +.] #.1.1.] #.`  .] 1.`  ._  .` 1._ _ _ +.| _ ) ) ( ) ) Q Z Q ) } C ) Z ) ) Z ) C C C Z ( ^ ) [ } | | ) ) | ) ) ) 3.v. .9 L X.X.O.3.3. .) 1.w.x.M.f.5.M g q a z . X X X X $ = = ; u u z c N V B J L L U U J l u a a U o...o.-.*.o.o...O.O.o.6.9.-.-.9.y.r.y.A.9.-.=.[ ..-.-...} J ",
"y.t.9.-.X.L X.o.-.A.r.L.L.F.i.H.H.L.k.k.L./.^.H.-.u X = 6 I 8.e.E. XY.S.L.E.Y.t.S.k.4.3.` h.#.3. .m 8 - & - - ; ; 0 b } } O.L y.L.T.U.P.U.W.W.[.[. X=X(.[.[.[.[.[.[.[.=X[.=X[.=X[.:X[.[.=X3X:X:X:X:X[.=X<X{.{.'.[.'.'.[.[.'.'.'.V.'.'.'.'.'.W.'.W.Q.W.B.N.N.N.N.N.W.N.M.M.v.N.M.v.v.x.v.v.x.c.f.a.u.h.a.w.4.q.w.q.4.3.%.3.%.3.#.3.3.O.1.3.#.#.3.%.3.3.3.9.3.3.4.w.c.O.9 L C X.I.].v.3. .w.4.x.%Xf.] C q q a z $ . $ $ $ = = ; 5 u u a a N V L B K K ..*.K L N s L ..U U o.*.-.o.o.O.-.-.O.| O.-.O.;.e.e.y.r.-.*.-.*...-.;.o.U J ",
"-.-.6...J -.9.9.9.r.e.u.L.L.L.y.L.H.S.y./. X XT.o.a X * x U G.E.|.XXE.^.XXXXT.A.k.k.4.3.| 4.w.%.X.y & 8 = & ; 8 i V z C O.C - 0 q q i 0 0 i i q d d B n m n B M n C C M M n B Q Q Q W Q W Q Q Q ^ ^ _ [ ( ) _ _ ) _ ( Q ( Q / Q ( Z ) ( Q Q Q ( Q Q ^ Q Q ) ^ ^ ^ ^ ( Q Q Q ^ Q Q Q ^ Q C M M M M M C M n m j m M n b m m n b b b b b b z d i q e i b g h d b d e z q 0 } ) O. . .w.3. .c.%.h.x.x.] M 9 q t p . . X @ & = ; u u a u u i z N J ..[ U U ......U K U [ U [ o...-.O.o.O.O.O.O.o.O.-.9.r.r.y.S.9.O.-.r.-.L ..-...J u ",
"6.9.6.X...e.q.9.r.y.r.L.L.P.L.y.H.E.E.L./.E. XL.-.z X = 6 F ^.@X^.Y.L..X@XoXS.H.L.y.3.#._ w.w. .} B 9 ; & ; ; - 0 m B C X.N 0 i t 8 - - - ; 0 8 9 9 y q q h h d e d d d b q e b b g h h i i h h g h i e m g g h h g h g g h h h h g g h e g g h q q q q q 0 9 q 0 q q q i q q q q y 9 0 q 9 8 9 0 q 0 0 9 0 8 9 9 9 9 9 9 8 y q 9 9 8 7 9 8 8 7 - 8 - 7 - 8 8 8 9 8 i ....O.1.w.U.M.3.O.3.1.'.7Xa.` m 9 0 u u X $ % = % = & u u u u u z V K ....L U L U ..K I [ ....[ ....O.-.o.-.-.-.-.-.-.-.-.0.;.y.y.9.O.-.t.e.-.L U ....J a ",
"q.F.y.t.e.e.e.y.E.S.y.r.y.!.XX|.oX8X5X|./.(.XXL.6.c @ = 4 H ^.iX^.9.S.E./.XX|.oX!.9.3.3. .5.4._ %.i - 8 - & ; u C O.C C } 9.*.-...b b B B C C B m C <.r.} ) | #.| Q _ 3.) ) ) _ _ _ ) ) ) ( ) ) ` _ ) ) ) ( ( ( ) ( M ( Z M ( ) ( Z k k M C M M M M M M k M m M m M n V M M M M m j m j h m m j m m m m k m m b b m b C } n C ^ ^ C b b O.L i a q i i q i b m L P C B } B #.h.'.:X`.v.v. .4.5.'.h._ k 0 9 t a & 3 % ; 2 % % 6 a z u u a J ....L ..L K L L L L ....*.-.o.[ o.....O.r.k.e.o.[ [ ..-.-.e.;.O.O.O.9.;.o.o.o.-.o.U ..",
"y.y.e.t.e.y.S.F.T.y.r.L.L.(.oXXXoX X|.|.(.5XXXH.6.z % = 6 K ^.rX^.S.L.T././.XXtX].r.3.#.| 3.| _ C y 8 t & & - B %.w.3.0.O.m b L } C } O.%.9.0.%.O.c.|.0._ w.v.(.!.v.W.3X3.#.| +.] ,.$.2.,.,.,.,.1.,.,.,.,.,.,.,.,.,.] ,.] ] #.] ,.] ] ,.( _ _ ` ` _ ( ` ` ( ( ( ( _ ( _ ( ( ) Q ( ( ( ( ( M M Z M Z Q M M M M M C ) } 3.%.|  . .O.r.) ^ r.O.C C B V C V C ) 3.O.O.9.Q O.3.{.qX0X7X'.x.w._ %.#.a.5.( M 8 8 8 u = ; ; = = = - 5 c v u z z J ..U [ U K J B J L U K K -.=.[ ......o.-.r.L.O.L O...;.9.r.A.-.O.9.y.r.-...o.O.-...P ..",
"y.r.S.L.y.y.y.r.c.L.L.E.E. X(.!. X(.E.|.XX XoXH.-.u @ , p L Y.oXY.S.Y.XXE.S.T.^.E.P.#.3._ #._ Q q 9 t ; $ $ 0 } w.r._ ^ / ^ %.v.0.w.%.w.P.v.h.h.N.[.l.h.l.W.3X[.4Xv.[.c.c.U.2.4.n.%X%XB.V.m.V.m.m.m.m.V.m.m.m.m.f.n.n.n.n.n.M.m.f.d.f.f.f.f.a.f.a.a.s.p.s.a.p.s.4.2.4.2.2.2.1.1.#.#.#.#.#.] #.] ` ] ` ] ] ` _ _ 9.w.k.v.4.&.w.h.v.#.Q O.| }  .^ X.} X. .O.<.r.X.y.r.4.1.b.nXGXGXgX<Xa.$._ 9.%.w.,.Z b 9 8 u p & 2 ; % * X % - l z z v K J J K L L K J J L L [ K ..-.*...*.o...O.O.-.-.9.L.e.-.e.-.;.-.[ o.e.L.r.o.O.o.O.o.X...O.",
"q.y.L.L.L.S.L.L.L.L.T. X|. XE.P.^.T.T. X(.XXXXT.O.u % = 6 v F.8XE.L.XXXX^.S.H.H.E.!.3.1._ #._ n h i 9 t - & q ..O. .) C 3.].v.sXW.v.4.a.Q.[.v.W.W.M.M.[.'.:XQ.[.W.W.[.[.k.4.#.B.gXvXvXvXhXhXhXvXvXxXcXxXhXgXgXgXgXgXgXgXgXgXgXgXfXfXfXfX2X0X2X2X<X>X<X<X%X<X-X-X-XV.=X'.'.B.N.Q.N.N.B.W.M.M.n.x.x.x.x.x.j.j.a.j.k.k.&.h.0.g.w.0.4.k.0.%.3.#.r.O.%.3.%.3.9.h.q.3.P.%.k.w.c.1XGXHXSX7XM.v.h.4.4.h.( ( z - 8 8 p & ; = $ X X $ = - u z a J J V J K K K J } L L L U ..-.*.-.-.*.O...O.O.;.y.T.y.r.r.9.e.o.O.-.9.y.9.O.o.....-.-.6.9.",
"L.|.E. XXXXX.XE.E.L.J.P.L.E.E.H.9.-.Y.E.(./.T.L.9.z @ = 6 G ^.oX/.XX(.A.H.J.A.H./.E.3.3.| _ _ Q M B 8 - $ 8 N ^ ^ ) ^ ) U..Xh.3Xv.U.0.l.h.W.N.4X4XaX3Xv.v.[.%.%.^ +.p.4.+.1.=XxXZXZXZXZXZXZXZXZXZXZXZXSXZXZXZXBXMXvXvXMXvXvXvXvXvXvXxXhXxXgXgXgXgX0X0XwXfX2X0X2X7X2X1X2X2X7X2X2X>X>X>X>X>X:X:X-X;X:X:X;X-X-XQ.Q.Q.g._ _ 4.k.Q Q 4.k.%.0.%.3.%.3.3.9. .O.3.M.b.w.k.| P.x.b.b.fXmXGXxX7Xx.c.h.].k. . .g 9 t u u # ; 3 X $ X = $ - ; y N F J L B J B L L K L L [ ..[ ....[ ..[ ..O.-.-.;.9.r.9.S.9.X.-.O.r.-.;.;.O.X.U X.6.q.9.9.e.",
"^. X/.oXoXoXXXT.L.L.L.E.T.E.E.;.U ..^.oX(.Y.E./.9.c * 2 6 I ^..X|.8X^.t.H.H.H.J.T.H.&.3.] #._ | C B 8 - - u L b b C Z <.4. .1.`.c.k.a.k.1.j.x.v.W.'.W.h.g.h.0.g.&.&.4.4.x.v.'.>X0X0X2X2X2X2X2X2X2X2X2X2X&X2X<X2X&X&X1X2X2X2X2X&X&X<X%X%X<X&X%X%X%X%X$X%X$X%X%XV.%XB.V.V.V.%Xm.V.m.m.m.M.m.n.m.n.n.m.n.n.n.m.x.M.n.h.4.1.4. . .3.0.%.3.0.w.3.X.O.O.3.%.h.W.x.b.h.w.| k.4.x.W.W.N.1XnX:Xa.c.4.].h.h._ g g 0 8 g $ ; 4 X % % @ & = ; u z J J K K V L K L L K U ....*...[ L [ ......-.9.-.e.9.0.H.9.} O.r.r.O.O.O.O...X.-.9.F.S.i.y.",
"L.H.H.H.H.H.E.c.L.E.oXXX!.!./.S.*.A.A.T.(./.XXXX6.l = 2 x I }.@X^.Y.y.S.S.S.H.E.T.r.4.1.#.J.1.n m 9 8 i i q m V } | 1.3._ ) h.w.#.4. . .3.1.1.a.p.#.5.@.#.4.4.h.k.h.h.g.p.4.s.s.f.d.d.d.f.f.d.d.m.d.d.n.f.d.s.s.f.f.a.f.f.s.s.s.p.s.s.a.a.s.s.p.s.2.s.p.2.2.2.:.2.s.2.s.2.,.2.2.2.2.2.2.2.,.2.,.,.2.2.1.2.] ] 2.,.1.$.#.+.#.+. .3.#.#.%.[.%.} #.;.h.[.W.V.v.h.3.%.#. . .3.v.v.x.h.!.x.x.{.h._ #.1.) ) g 8 0 5 $ ; 3 $ X $ $ $ = 5 ; z J K } L J L N N U [ [ ..[ [ ......o...*.;.;.r.r.r.y.L.P.y.X.9.y.9.O.O.-.O.....e.9.-.9.9.-.",
"T.S.r.y.H.H.L.L.T. X8X/.L.(.@X^.-.A.-.L.^. XoX|.6.u = = x H G.|.L.;.0.H.e.;.E.T.!.L.0.%.#.'.v.^ q y i L | M C  .#.3.4.4.#.3.h.w.#.#. .3.#.#.4.p.p.a.4.4.4.4.#.] #.$.$.#.+.#.2.2.4.2.p.s.2.s.p.s.s.f.a.a.s.a.5.2.,.1.2.2.2.2.,.2.1.$.2.] ,.,.,.,.] ] ] ] ] ] ] ] ] ] ] ] ] ] ] ] ' ] ] #.] ] ] ' ] ] ] ` ] ( ] ' ` ` ` | _ _ _ ) _ _  .#.%.(  . . . .1.v.x.h.h.3.3.0.3.3.h.v.h.c.l.1.h.jXbXh.w.5.5.w.} 8 0 0 0 $ 3 3 % X % X & = ; = a K L U U K N N L ..R ........[ =...o.*.-.-.r.y.H.S.H.L.S.y.O.y.L.w.O.9.e.6.U ..9.9.-.} P ..",
"L.S.H.H.T.y.F.L.T./. X^.L./.(.A.K U o.A.^.(. XE.O.c * * p K S.y.y.r.H.S.e.r.Y.r.k.k.3.#.+.1.^ d q q M X. .) 1.v.b.x.E.v.5.x.b.h.4.[.{.M.w.W.N.M.N.W.N.Q.Q.N.N.M.N.M.W.W.N.W.Q.Q.Q.'.N.V.'.'.V.`.V.V.'.V.`.V.N.W.V.V.V.V.N.N.N.V.N.N.M.n.N.b.m.N.n.x.M.v.x.j.x.x.f.h.j.j.x.j.a.f.h.a.p.a.a.a.a.w.a.5.p.a.a.a.5.4.4.4.4.4.3.%.3.#.%.3.3.1.3.3.#.#.1.+.&.1.h.[.N.3.#. . . .U.8X[.h.w.#.v.jXN.4.Q.W.4. . .z 8 3 0 - & @ % = % $ = = - 3 8 N L [ ..U K K L ........O.*.*.*.*.o.-.-.9.e.y.H.9.-.O.O.9.e.H.y.9.6.6.-.-.-.-.-.-.9.O.-.9.",
"S.y.L.L.L.9.9.S.I.T.T._.(.!.E.8.J U *.t.L.E.E.y.<.V = = p I y.9.;.;.r.r.9.q.r.y.y.y.1. .) 0._ i d C  .1.` 1.b.N.b.b.w.5.h.5.h.4.h.'.W.%.&.h.j.f.x.v.M.M.n.x.x.n.j.f.f.f.f.f.f.f.f.f.f.f.f.f.f.f.f.f.f.f.f.f.a.f.a.a.a.a.a.a.a.s.a.s.a.s.s.s.a.p.p.p.a.2.5.2.2.2.2.2.2.,.2.2.2.2.2.2.2.$.$.2.2.#.1.$.#.#.$.#.#.] 1.#.] #.] ] ] #.] #.#.1.%.1.1.#.3.1.4.4.4.4.#. .1.1.w.w.4.0.4.1.0.1.#.#.2.v.:X`.` ) C 0 - 0 u * $ X X * $ % = = & p u a L =...U [ U U U L [ *.o.[ *.-.-.e.9.9.e.y.L.L.9.-.O.o.9.S.F.9.9.9.9.-.O.-.-.-.9.6.9.9.6.",
"L.L.L.y.y.y.L.y.9.S.L.|.rXrX@XF.U 6.A.-.-.6.S.q.Y z * * p I D.I.L.L.L.Y.L.r.y.L.L.0.<. . .h.B b C %.v.v.f.`.7X{.x.x.n.`.fXN.:XM.Q.M.h.v.W.=X7X9X:XB.V.>XqXfXqX0X0X0X0XfXqX0XfXfXgXgXfXfXqXqXfXfXfX0X0XfXfX0X0X0X0X2X0X1X2X0X2X1X2X1X<X<X<X<X<X2X<X;X<X<X:X<X<X%X-X-X-X'.'.%X'.'.Q.'.B.'.'.'.B.'.V.'.V.B.B.V.B.V.V.'.N.V.V.N.N.N.M.M.N.b.x.h.h.c.v.c.W.Q.M.p.w.h.[.W.W.b.x.h.g.v.N.W.v.4.W.9X:X5.` ) m l 3 0 5 $ $ X * = * = = $ p a K K [ ..L K U U U [ ..-.=.*.-.=.-.-.o.o.o.6.r.y.r.9.O.-...6.q.9.6.%.-.9.9.O.-.O.-.e.-.9.-.-.",
"y.i.F.y.y.y.i.r.e.H.I.XXiXpX@XY.7.8.G.=.U U G.L...u X * 6 I 8.H.E./.T. XL.y.L.S.H.w.%.1.) <.m L | c.`.v.M.7X{.1.h.'.V.fXjX{.jX7XbXW.'.aXyX7X7XbX7X=XB.B.xXGXHXSXGXSXGXSXSXSXGXZXZXSXZXZXZXZXZXZXZXMXMXZXmXMXMXMXmXmXmXmXmXnXvXvXvXnXxXvXxXcXxXxXxXxXhXxXxXfXfXfXfXqXfXfX0XfX0X0X2X0X0X7X7X1X1X7X>X>X:X:X{.-X'.{.'.'.'.-X'.-X%XV.V.`.M.f.n.`.v.P.P.h.k.k.v.v.b.v.[.`.b.N.a.W.`.'.W.[.v.k.[.'.2.( ( ( m 0 - - u $ = = = X X % = = a R *.=.*...U U ....K ..-.S.A.-.-.;.=...L L J o.y.r.q.9.e.O...O.9.9.O.O.9.3.9.-.O...O.O.-.-.-.O.",
"y.y.y.F.i.y.r.y.y.T._. XoX}.F.7.U =.A.*.U U G.T.-.p X = p I *.t.E.E.|.P.L.U.y.L.L.9.3. .( | n C X.3.1.x.x.x.`.b.V.7XkXfX<X3X3X3Xh.O.w.w.| |  .| Q k.v._ ,.V.V.V.%XV.V.V.V.V.m.V.m.m.N.n.x.n.f.f.f.f.f.f.f.f.f.s.s.s.s.p.p.a.a.5.p.p.2.2.2.2.2.s.2.2.2.2.2.2.2.,.,.,.,.2.,.,.,.1.2.,.#.] ] #.+.] ] ] ] ` ] ` ] ] ] ] 1.,.1.1.] ] ] ] ] ` .XoX3. .) C ^ C ) | 1.w.h.5.1.4.#.+.1.a.b.v.Q %.X. .( m M Z P 0 - ; u - = $ % % * = = - p F s K [ *.U U ......U o.A.-.-.[ *.;.o...U L P *.o.o.-.6.6.O.<.9.9.O.O.9.9.9.-.o.6.-.-.-.o.-.O.",
"y.r.9.c.L.L.L.T.T. XoX XXXi.o.Y Y Y o.U L L A.Y.*.5 X @ 3 x P 9.L.T.L.r.E.rXE.H.L.r.3.1._ O.n } 0.0.3.k.%.) 4.W..X9X[.h.b.U.h. ._ ^ C b m C C M C ..O.g q k ( ( ( _ ( ( ( _ ( ( ( ( ( ( ( Q ( ( ( ( ( ( Q Q ( ( Q ( ( ( ( ( ( ( M ( ( ( Q ( Q Q Q k Q k Q Q M Q Q k k Q k k k k k k k M k M k M n Q j M Q k Q j Q k M k k k k k Q k k Q w.9.C 0 q z g g h b y.k.O.( | | _ Q (  . .^ C O.C  .| m b o.o.q - ; u - ; % % % X % = = 3 u u t N ....U o.*.o...U t.;.-.....O.-.-.} P V P P J U 8.-.-.;.9.r.r.e.e.r.e.;.-.e.e.-...} O.O.",
"y.L.L.L.T.Y.L.L.U.T.T.T.oXU.t.8.Y U U ..-.A.8.8.J 5 . X = x =.t.L.P.U.E.XX.XY.-.L.U.w.4. .) ) w.k.%.O.C m h m Q ) _ _ | _ ) b d i d i q m n m v h q 0 9 b m M M ( Q ( C ) Q ) ( ( ) C ) M ) Q ) ) M ^ ) ( ( ( Q ( ^ ) ) ) ) ) | ) ) ) ) ( } ) ) ) ) ) ) Q ( ) ) ( ) ) ( ) ) ) Z ( M ) Z Z ^ ) ( } ^ ( ) ) ( ) } ( ) ) ( ( Z Z ( ( ) ) Q h g 9 9 z h g m q V L 9 q i m n C C M M h m z B N C V C m ..z - ; 3 5 & % ; % @ @ % = - - u u a c P P J Z E o...o.A.A.-.X...O.-.-.Y E J J E P ..-.9.-.9.9.9.e.y.;.o.-.O.9.y.6.e.-.O.6.e.",
"L.H.H.k.H.L.y.k.H.S.6.9.Y.F.G.G.U U E 6.S.Y.A.*.v 3 X * 3 c 6.y.E.L.E. X|. XT.9.L.P.w.4.) q q q i q q 0 0 0 0 9 q q z q q q q 8 9 t 0 8 0 y 9 9 9 0 9 8 0 9 y 9 q 9 q q q q q q 9 q q i q q i q i q i q e q q q q q q g i q q q q e q q q q q q q q i q q q q q q g 9 0 q 0 q q q q 9 q q 0 0 0 9 q 9 q 0 0 0 9 0 9 9 0 9 9 q 9 q 9 q 0 0 0 8 9 9 8 8 0 8 & - 8 8 0 9 y q q 0 9 0 0 9 ; 8 ; ; 8 8 0 - $ 8 3 8 = = % % X @ = ; 5 8 0 x v F z u 8 l P P <...-.=.-.....*.-.6.*.*.J c J U -.-.;.;.-.;.;.e.9...K P O.e.e.-.q.9.-.6.6.",
"F.q.e.e.S.S.t.q.t.-.....7.o.<.Y G Y o.E o.A.8...V p @ = 6 J 8.R.(.E.P.E. X XT.e.y.k.0.X.q 8 8 8 8 - ; - ; - - ; ; 8 8 8 ; 8 8 - ; 8 8 8 8 8 8 8 8 t 8 - 8 8 8 8 8 8 8 u 8 8 u t 8 u 8 8 8 u 0 0 8 u 0 i t t 0 y q 0 u 0 t i u q u u u i i i u 0 t 0 0 0 8 t 0 8 8 8 8 8 8 u 8 9 8 8 8 8 8 8 8 8 8 0 ; - 8 8 8 ; 8 3 8 8 8 8 8 8 8 t 8 8 8 8 3 - - 8 8 - 8 - 8 - - - - - 8 8 8 8 8 8 - - & ; = & $ $ $ - 0 - u 3 ; 2 % % X = = 5 u 5 l u z z z u l J Y Y L U *...U o.o.6.8...*.L L ..U -.-.-.-.9.8.;.e.o.L J V U 9.9.-.;.O.-.-.O.",
"8.P J P *.-.-.*.L J c N N v z l a F F N U *...K V l = 2 3 x 7.y.U.!.!.U.U.!.L.O.y.y.0.C d i q 0 8 & & & & % & & & & & & & ; & ; ; ; ; ; ; - - ; ; 3 ; ; 3 3 ; 3 3 ; 3 ; ; ; ; ; ; - 8 - - 8 ; - ; 8 3 8 8 8 3 8 0 3 8 u 8 8 8 8 8 ; 8 u 3 8 u ; 8 t ; 8 ; 8 8 ; ; 3 ; ; 8 5 ; ; ; ; - - ; ; - ; - & - - ; ; ; - - ; ; = ; & - - - ; - - ; ; - & - - - - - - & - - $ - & - - = $ - & - = & % % % $ = $ $ - - l 3 3 2 % % X * * = - x l 0 x c z u l l l l ; g v z N Y =.6.-.U U o.6.<.O.o.o.O.9.;.9.e.e.*.z a y c ..6.*.Y L N c L ",
"..J J V P *...U v N J K K K J G z a L } U ..L U J u * = 3 u o.6.L.|.].E.E.E.r.} -.r.O.9.;.O...L a - ; ; ; - & & ; % ; & ; = & < % & = 3 ; = = & ; 3 = = ; ; ; ; ; ; 3 ; ; - 3 ; ; 3 u 8 5 8 8 3 5 8 3 t u ; ; 3 8 8 5 8 5 3 3 ; 3 u ; ; ; ; ; ; ; 3 3 ; ; ; ; - 3 ; ; ; ; ; ; ; ; ; ; - ; ; = & = - - = = % & % = = & % = = = - ; = = = % & - = & = = ; = - = & - = - = = $ = = = = = = % @ X O X = = = = = 5 = 3 = % X X * * * 2 5 5 5 x x 5 ; 5 - - 0 - - 5 c N L ..o.*.[ J ..6.6.t.O.O.9.9.9.e.-.;.o.z a N F U P V L J z z V ",
"V J L L ..o.....U U L U o.U L v a c K J J V J K v 3 * 2 6 v 6.t.F.T.P.E.^.T.r.-.e.y.y.E.H.H.t...8 $ $ # X X # X O . $ X     .             O     . . . .       . . X . . . X X . $ $ $ $ $ $ $ & $ $ $ . . $ . . . . $ X $ X X $ $ $ X $ $ $ $ X $ . X X X $ X $ $ $ = & # & X $ $ $ $ = & . X X X X X X X .             .   . X X X . X . . O . . . X X % .   X X   X   . X . . X X             . .   X X X . X = % X X X * * * * * % $ = l 3 8 0 5 l l v l z v V V J P U L V U -.y.q.9.O.9.9.9.e.-.*.L u c N J J a u z N J N v ",
"..7.6.=.o.o.E o.*.-.-.-...U J z v J N a J J K J 5 X * 4 x F U t.S.y.y.w.S.L.e.-.-.A.t.y.S.D.9.J ; X X . X X O X # X . .                           .           .   X . X   .   . O X % % % % = % % = $ X X X X X X X X X X = = = = = = = X @ % @ X X $ % @ @ * @ = = ; = = % & @ % % $ % @ $ X X O X X @ X .                 . X X @ X       O O   . X X * X X   X       . .                             . . X X X X X X X % * X X X X * * - 5 5 0 5 l c l l v J J V v l u a u v L L J P ......7...K J a x F D c v K L V U U I L ",
"U U K K c v G v v V I J z p p u u u 3 u 6 ; 2 = X   * 6 x F H c u a v z c N u - 3 y v v v c u ; X . O                                                                               .   @ @ O O @ X X O X     X X X X   X * * * = % @ @ * * * X X * X X X X X X X @ * @ * * * * = % @ X @ X @ X   X O X                         .   .                   . .                                                             X X X X X X X O X * * * = = ; 3 ; = 5 l 5 ; 5 5 $ = 3 5 5 5 u 5 l l c v l = - 4 5 3 5 5 6 u l x J v l x ",
"  . . O X X O X O * X X X X . X O . . O O O X @ @ X = 6 x H H G p 6 6 3 ; = @ = 4 p x p = & $ X X O                                                             .                               O   . . X     X O   X       . .   X X       .       . X . X   . .   .         X   @ X O O     . O           .                                                                                                                         X X X X . X   * * * * = * X * * * * X X X     X X X X X X   X * O X X X O X X X X X   X   ",
"O X O X @ O X @ X X X * X @ @ X X , @ @ 2 * 2 4 = 4 6 x D H H K I H I E I I J I E R I U K F p 5 = % X X . .                                                                                             X         X     .           .                 .     X                 O     O     O         X     X   X                                                                                               O                   X X O * $ = = = 2 2 2 2 2 3 3 = 5 = 5 5 = * X * X X X * X X X X   X     X .   .   O   X     X ",
"* = 2 4 5 3 4 4 4 4 4 2 3 4 4 4 6 x x x 6 p x x p p x 6 D I I I I I 7.6.7.8.8.8.7.*.6.=.7.-.U Y l l 3 ; % X $ . . . . . . . .   . .             .             O                   .                                                                         .     .   .   .     O       O   O   O                             .                             .         .                   o   .                   . .     X X X X X * = = = 3 6 l l c l x v H K G v v x F l 6 l 6 6 5 4 4 4 * = * * X X X X X O   X * X * X X * ",
"x x x x x F F x x G F F v x v D H H I J H H I I H x p D D H I I E =.8.Y.I.}.@XXX6.*.t.G.~.R.Y.F.t.*.U Y K v c p z u p p u p 3 - - & % & % % = % = = 3 2 & = = 3 3 3 3 3 - 8 3 3 = = = = = % % X             .             X X . X   .                   X           O   X   X X     X       .           O                           X ; 3 = ; % = = $ % = = = ; 2 = = = % $ = = % = = & & = X X .   X X = = = 3 = 3 = - 4 5 4 5 5 l v J J G K Y Y o.*.=.U I *.=.*.R R K v x v x v F v G x p 5 6 5 4 = 2 % % % = = = = 4 5 5 - 4 ",
"I Y U E I *.7.*.E <.R U U R 8.7.7.6.7.8.8.t.G.G.t.Y 6 D v H G I 7.8.I.@XOX8X@XF.-.....e.Y.R.XX XI.t.t.6...U U J K v N V J N z N a u ; 5 6 5 u u u u u u u u x z N c N z i c N p u 3 u z z l p ; % * X X X X X X X X X   X   X X X X X   X X X         X O X X X   X X X X X X X X X X X O O     X X X X X X               .     X # p p z u p u x l u 3 ; 5 u l c c c p 5 5 x l u 3 3 5 5 3 = - = = = = 2 5 u l u 6 u 5 5 l v v v v J U ..E o.*.6.t.t.t.-...*.=.*.L G K v F U I Y E U U P L J K G v x x p 6 x x x x x v J H c v ",
"t.t.A.A.6.e.A.F.i.q.t.A.F.^..XXXI.}.|.oXoXoXOXOXA.H 5 G D F Y 8.E.|.rX8XoX5X}.y.6...o.-.U r.E.!.I.t.F.y.t.-.U L J z a V U U P U J N c z a a p p z p u 3 6 u y V J J J B V L J t ; 5 a u V P J z z c z 0 3 3 l x l l l l l l u p 5 3 = = * % % = = * = = 2 = 3 3 = = = 4 = = = * = = 2 5 5 5 = = 5 5 5 = 2 = X         . X * % = ; l c z z u l u u u u - u u z v v J K z u z u 8 ; p z N v z 3 ; 5 ; ; 3 u 3 8 5 3 ; = - l v v V P Y Y ....P ..*.t.y.S.S.y.q.e.8.=.-.*.e.A.A.G.D.G.G.G.A.t.A.t.=.U v F D D c K R I K Y R *.6.Y Y ",
"F.T.L.S.r.r.r.y.y.G.^.E.H.T.oXoXE..X.XoXOX].R.XX6.l = x D H 6.OXiXuXkX8X.X@X.XI.L.6.-.6.O.y.9.e.y.9.t.y.Y.8...L U N l J ..U *.o.L J L z u N K z c z p u ; ; x K U ..U } } P J u ; z z - N ..X.L V V V c g z L P Y C V J V J V c u 0 3 - X % $ % 3 3 = = - 5 z v l ; 3 g 5 - 0 5 u 5 ; 0 l 5 ; 0 z c z l x l *     . . . = 5 z G v c c z c c c v z z u 8 a J V V J U L z z z u 8 8 z J L L V z l a u u t u u ; u 3 ; * - 0 v V Y U o.X.6.Z z U e.y.t.e.F.t.r.r.q.A.-.-.r.H.L.L.L.I.T.T.L.9.-.7.U v 6 3 3 x K U U z I <.8.8.6.U E ",
"T.!.L.H.S.H.^./.XXrXrX.XE.].XX_.XX|.T.|.E.U.}.|.<.u = 4 H Y F.rXoX9XuX_.y.|.XX.X|.E.L.y.H.r.9...O.P L 6.A.6.6.*.U L Z J Y P P P C J J c v U Y v G J x u u z L *...=.-.-.U J v u ; c J B ..O.O.X.} X.X.^ ^ O.0.r.r.l.r.r.;.S.-.;.-.*...[ U [ K U U ..} L } } ....} } [ X.} [ X.[ [ } B B L C B L } } B z c 0 =   X   X = l l Z Y J v V J Y Y G c c g 5 0 c c c v v Y P V c z u u u l z c c c z c z p z z t 5 u u l l = - ; v U ....*.o.J N c o.9.9.} U t.H.Y.y.e.e.-.o.r.Y.L.y.k.L.T.E.Y.y.9.-.L x 5 6 u I *.-.9.....o.e.y.9.o.-.",
"S.T.E.S.H.@X8XiXpXpX@XoXoXXXXX|.XX X].U.P.T.|.}.o.x = 6 H I }.lXoXyXoXL.Y.P.|. X!.k.y.S.T.y.L.9.-.O.O.9.L.A.8.-.*.U Y Y ..Y P C P Y U Y P U J K K U Y c L R U *.=.e.-.o...J z t 8 U -.^ W [ [ [ ^ ^ [ _ +.p.&.p.&.&.l.l.J.&.H.&.&.@.;.;.%.-.@.%.-.@.| O.@.O.@.O. . .| O.| ..[ | } [ } ^ ^ [ ^ [ ^ [ } J c - %     X X 5 x v o.7.J N J P Y J V v c z l c V v v v V o.E L J v z z l z z z z i c c c c U N u z N z l l u l z v U o.=.*.Y z c N ..-.o.J P t.A.S.q.9.-.o...q.Y.e.O.L.^.|./.}.Y.-.U L p 5 6 L A.S.r.A.S.8...-.r.e.-.e.",
"-.T.^.T.T.!.XXXX XE.r.E.8XXXT.S.q.L.E.U.|.|.E.^.q.v * 6 x H }.rX.X.XE.y.y.E..X!.L.r.k.E.E.y.L.y.q.e.e.F.^.Y.t.-.U U ..Y Y U Y P V P o.U U *.U o.U U *.U *.-.=.-.-.*.U L J J K J N -.| f [ ^ W ! / / / @.+.$.&.@.@.@.@.&.&.@.@.;.@.{ | | [ { | / { ^ ^ | [ ) _ | ^ ^ ^ / / ^ ^ ^ W Q Q Q W W n n Q n C B u l = X X X * 5 J I P Y V c z V V v L J V v v V J J v V V o.-.o.L c z v z c c N u l 0 c J L *.J z z z u l l c J J J J V P L V J Z Y U o.P V P t.9.o.J } } L o.6.-.-.-.r.S.L.Y.Y.A.o.o.U K K U t.G.Y.S.;.S.*.J J 9.S.y.y.",
"o.H.|. XE.H.L.L.L.9.X.T.yX@XL.9.L 9.L.L.|.|._.XXG.v * 4 v P F.I.i.L.c.O.9.|.5X].E.y.T.E.E.L.y.r.y.q.L.T.|.R.S.6.P ..o.Y Y Y ....Y Y U ..*.6.=.*.U U *.*.*.8.=.*.U U U K J J J Y C | n / l.@.W { $.+.@.:.:.@.&.&.+.+.@.@.@.@.@.%.@.O.+.+.[ | [ [ [ [ / / ^ / ^ / / ( / Q Q ^ / ^ ^ ^ W W Q W n | r.C B b g V 5 X X O * x E <.J z u u l v V V J Y Y Y V v J J v C U 6.8.o.} c a J v c z c N z u z G L *.U z x a p l c U K L P J J G z U o.O.o...P J v P 9...P C L L O.9.-.} K U X.-.-.e.o.U E U E =.8.D.Y.E.E.E.Y.=.K c c -.S.L.S.",
"9.-.H.|.XX/.^.L.k.L.y.|..XE.F.y.e.y.L.L.|.U./.XXq.c * 4 x J G.R.Y.E.i.y.].oX X X.XL.U.!.|.T.9.y.y.L.|.^.T.L.S.9.6.6.o.o.X...q.6.o.6.o.O.8.8.-.=.A.=.U *.*.o.J N K L U U Y J J J L &.{ ^ / f W :.:.:.g.p.l.>.g.:.&.&.@.@.@.&.@.&.@.| @.O.| | [ [ [ [ [ _ [ / [ ^ [ Q / / / / / Q Q / / / W Q W W B d B B a J 5 X   * * x 7.<.Y V c c v v v v J ..Y Y P V V V J o.-.9.6.o...U L L P J c L Y J z z c J 6.Y i z z v c V J V N J c J N V Y J U ..P P J P -.y.9.X.o.o...6.-.o.o.J v L ....o.o.*...U ..=.-.7.t.e.q.k.-.*.U U U U o.H.H.",
"-.L ..^.rXoX8XXXL.Y.P.U.E.U.L.F.F.L.L.y.y.L. XXXi.c * = x J )._.E.E.T.rX.Xc.8XoXT.y.L.E.|.r.w._.|.XX|.U.L.L.y.q.t.y.9.6.o.O.L.y.6.6.7.Y t.G.8.A.t.*.U U U U J U U Y U P P v P Y [ k.0.+.W W @.g.l.g.l.l.l.l.g.0.&.&.&.&.&.@.;.@.%.+.+.{ { | | { / / [ ^ ^ / / | / | / / / / / / / / / Q / / Q ^ f j ^ B b Y 5 X X X * v <.E Y V J L J J J K P ..Y Y P z J P ..8.6.-.-.o.*...U U Y Y J U *.U L J c V 6.Y N a v v V P L c z J N N V V c c } ..Y C L -.S.S.y.9.-.-.O.;.O.9.-.v u L o.U R -.=.o.....6.=.o.U U -.*.=.*.U *.U G J S.T.",
"S.L J Y./.E.@XrX_.T.L.T.!.T.L.y.k.y.I.L.L.L.|.8Xc.z * * 5 v R.}.L.L.T.oXoXoXkXoXL.P.|.oX!.y.U.8XyX].T.T.S.e.S.e.t.F.9.9.6.9.L.y.9.q.*.U R t.=.t.8...o.*.Y L I -.o.*.o.E Y ......} k.l.g.p.g.l.z.l.z.z.l.l.l.l.l.&.:.&.&.;.O.-.@.@.@.%.@.+.| | ) / [ / [ / [ ^ { | { | ' / / ' _ ! _ ! ! / ' / ! ' / ' C N ..u     X = F <.Y P V P Y L L L P U U P L P L o.6.e.8.8.o.........*.Y U o.o...*.-.6.L N N Y L V J N V U L V c N L J N b v V P ..o.....-.6.9.9.O.-.-.-.%.-.-...v c L ..o.K U [ L K U ..8.8.O.o.-.-.=.-.U ..*.o.K J e.H.",
"q.P L e.A.L.|.8XoXE.L.T.E.L.L.y.y.L.L.L.L.L.P.E.q.c X * 4 v F.L.r.y.U._.8XpXrXU.F.F.|.].c.].9XkXyXE.U.S.e.6.O.e.F.F.S.y.y.r.y.w.L.F.o.U U U U 6.*.E *.U L U U *.-.-.o...<.9.o.Y [ J.M.z.l.l.l.z.l.l.l.l.l.l.&.&.&.;.&.;.@.@.@.@.@.| { O.+.| [ { | _ [ / / [ | | | _ | +.+.+._ ' / _ _ _ _ ! _ _ ' _ +.C V *.p X O X = v o.Y Y Y Y Y U P U P L J P ..-.S.F.Y.Y.t.*.o.O.P P *.o.o.U 6.-.-.8.9.9.*.P J J L U U U J J V V V J ......V P P } } o.X.8.9.o.} X.O.O.O.X...P P N ; J U -.o.J F a f J ....o.O.o.6.t.e.-.-.8.e.*.*.L K o.;.",
"S.e.-.9.A.H.P./. XL.k.T.P.L.H.L.L.L.L.P.T.E.T.T.r.c X * 3 v y.q.9.y.E.].oX5X|.L.r.y.L.L.E.9X9X X|.P.S.y.L.t.6.t.y.F.H.H.L.y.O.9.H.S.;.-.R ....6.-.=.=...o.=.=.K U =.*.O.e.e.9.-.} l.l.l.l.l.l.g.>.g.l.l.s.g.&.&.&.&.@.;.@.@.O.+.-.{ @.O.{ | [ { _ [ [ | [ | [ +.| +.+.+.' ' ' ' ' / _ ' / ! ' ' ' ' +.} N ..v X O X = v *.Y X...Y P } P P } ..L o.-.y.Y.L.y.e.-.o.-.o.o...o.*.6.o.-.O.U O.9.A.t.-.U U o...o...K U I L L N L ....P } <.} P ..o.O.o.....o.-...C P O.L J z 8 Y U U U J t V [ U U U [ U ..9.t.e.-.o.9.-.-.9.*.U U ..",
"S.y.e...o.r.H.L.L.L.L.L.c.L.H.c.c.y.L.E././.E.|.r.u X % 4 J t.<.9.9.k.L.!.!.E.F.r.c.`.jXkX].U.I.L.H.y.H.S.t.i.F.i.L.H.H..XY.C } H.S.t.e.U o.U ..-.=.*.o.*.e.*.L U -.-.;.-.o.-.O.} l.l.g.g.g.:.g.g.g.l.g.>.0.&.&.&.@.@.@.-.@.@.+.| %.@.@.%.| | [ [ ) _ { { +.+.[ +.+.@.+.@.+.@.' ' ' ' ' ' ' _ ' / ' | ^ a U L %   * = J 7.P o.} ....o.6.-.} U ..8.E.L.w.9.9.-.o.o.-.o.-.6.-.6.O.*.t.T...z -.y.9.t.*.o...U ..U [ ....-...L s ..-.X.} .. .o.P } L ..O.O.O...c z o...J z 3 - N N N N a t V K J J N F U -.9.t.-.;.-.L ..9.A.-...L V ",
"S.H.-.-.6.r.L.E.P.H.L.H.y.k.H.L.y.L.c.S.H.y.Y.T.9.- X = 5 V t.q.9.e.L.y.H.H.H.r.e.|.kXzX XU.L.L.r.k.S.H.S.Y.L.L.L.L.L.k.E.P.C L S.y.q.t.o.*.U J 8.=.*.*.=.-.*.U L ..o.o.X...X...} | $.:.:.g.:.g.g.g.j.l.J.&.&.&.@.;.@.@.{ O.@.O.+.| @.%.%.+.+.[ | { { | | +.+.O.+.+.@.$.' $.$.' +.' / / ! / ' ' ' / / B B o.J % X * = J 6.*.o.o.-.-.9.e.-.K } 9.Y.L.q.r.q.O.6.9.6.-.-.t.t.e.6.-.6.6.y.*.B } -.o.-.-.....L o...U ......U L L L o.o.} Z } ..L ....O.o.....L U L o...N u ; 3 a d K L a a L ..[ [ K K L ..o...[ o...o.e.t.y.6.-.o.o.",
"y.y.r.r.k.L.L.H.H.L.H.k.9.y.y.r.r.r.r.r.9.0.H.L.o.- X @ 2 V <.o.O.9.S.y.L.T.H.o.P.kXkX{.c.L.y.9.9.S.H.L.E.^.|.|.I.L.S.y.y.y.O.9.y.y.S.Y.t.t.=.U -.8.=.*.-.-...U U o.-.-.o.o.o.X.} %.{ :.0.g.g.g.g.g.g.g.:.l.&.&.&.%.%.%.%.@.@.@.%.+.@.%.+.+.+.| ^ { | O.+.%.@.@.%.@.$.@.$.@.' @.+.+.' ! ! ! / ' ' ! / B N ..c $ X O = J o.L } 6.9.q.t.e...C r./.L.O.6.y.9.-.-.8.9.9.D.E.R.t.6.e.e.O.O.O...} O.q.F.A.6.-...........o.[ L L L [ [ O.X.} ..X.........U L z V U J L U p ; 3 x J N U L J N V V L K X.X.J a F c c J U -.-.-.-.O.*.-.-.",
"e.9.9.r.y.L.y.y.H.L.J.y.r.r.r.0.y.k.y.9.%.9.L.L.O.8 X @ 4 V Y C O.9.r.t.S.H.y.;.T.|.P.k.y.L.L.H.H.;.9.H.P.|.oX XL.T.L.H.y.q.9.9.r.y.I.L.q.6.6.8.t.*.-.*.-.-.-.-.=.o.o.-.=.-.-.*...;.&.&.&.:.:.g.:.g.g.g.J.J.;.&.&.%.&.@.%.@.&.%.O.@.@.%.%.@.+.[ { | +.@.%.+.%.+.+.$.$.:.' ' @.' +.' ' ' ! ' ' ! / W / C V ..c %     = V P Y O.e.y.-.-.6.} X.y.L.9.O.<.r.e.9.9.O.-.9.A.Y.L.y.e.e.6.6.-.O.X...-.y.L.S.e.O...U L ..-.-...K [ } L } Y o.} o.O.o...} } U L J L J K P i ; t c L U N J N J a i L } } -.*.K J N z K U ......o.-.-.....-.",
"r.%...y.L.k.L./.XXL.H.S.S.;.X.-.H.y.r.-.-.r.H.k...8 X @ 6 V 6.I.^.L.G.9.e.y.H.!.E.9.9.;.9.H.L.r.L.9.9.L.Y.|.|.!.|.(.H.y.%.9.O.o.r.y.S.e.6.9.A.t.=.=.*.-.A.S.A.9.o.K B *.-.;.-.-.[ J.J.:.&.&.&.:.0.g.:.l.&.&.;.&.@.%.&.%.%.%.%.%.%.%.%.@.@.%.@.+.| | +.+.%.%.@.#.@.@.$.{ { ' ' @.' @.{ $.! ! W W W / / B V o.c . X X X G t.F.e.9.-.-.-.;.t.G.q...o.P o.q.t.-.e.o.-.9.9.t.y.A.y.t.6.6.o.[ O.-.-.9.r.9.9.y.-.X...o.-.e.e.;.-.*.N a Z <.} o.o.X.....U L L L L K L B t J K J G c c v z a c ..-.;.9.9.o.[ U N c J K L K ..*.o.o.L ..-.",
"e.;.O.y.y.y.L.T.T.T.L.H.H.r.*.-.;.e.9.;.;.r.k.y.P - X @ 3 v F.@X|.S.S.9.e.e.y.T.L.y.r.t.S.H.H.e.L.y.k.Y.L.U.|..X.X/.L.y.9.<.6.6.F.L.y.L.L.y.e.L.8.t.*.t.y.F.A.6...f L -.-.-.;.-...J.l.&.K.&.@.:.:.:.l.&.J.&.:.&.&.&.%.%.@.%.%.%.%.@.%.%.@.+.O.+.+.+.O.%.@.%.%.@.#.$.@.$.@.$.{ ' ' $.{ ' ' ! W _ J.| _ B N P g X   X = Y G.L.F.t.t.9.O.X.q.S.<.X...o.9.y.e.q.F.O.-.9.t.t.A.S.S.S.t.-...-.-.O.6.e.e.9.y.E.A.-...-.-.e.9.t.=...V d X.<.o. .O.<.<.} J J J U U K N a V U K a a y J v y t J ....X.-.e.O...U K N c U U J X.-.-...U o.o.",
"L -.y.o.X.S.L.y.E.T.L.H.y.y.9.;.} -.r.9.9.y.k.y.P ; X @ = v i.L.y.P o.9.S.-.-.y.r.r.r.y.S.H.S.k.E.E.E.E.Y.U.T.T.L.L.P.L.L.9.<.O.r.S._.|.}.R.S.}.9.U 8.t.e.;.9.-...J *.y.A.;.-.6.O.g.:.&.&.[ ! :.0.:.:.&.:.&.&.&.0.&.&.&.&.@.+.%.@.%.@.%.&.+.+.+.+.+.+.@.@.+.@.&.$.@.' ' ' $.' ' ' ' ' ! ! ! W ! &.W / L c Y x %   * 4 Y y.t.-.} 9.e...J o.-.X.O.O.-.9.t.e.F.y.F.S.t.t.t.y.e.r.y.9.-.-.-.O.o.9.r.L.E.L.L.e.-.} [ -.-.-.9.-...V P q.9.X.X.} P Y J L L J K L u t K ..K K y a N c 3 u K o.O.o.X.} } O.O.L J K K U ......[ J U o.[ K ",
"} r.r.X.} S.L.H.H.T.Y.T.L.y.9.9.} -.;.;.r.k.L.k.P ; X @ 3 v t.y.-...S.L.9.X.9.e.;.r.H.y.y.L.H.e.y.y.P./.E.P.U.y.y.T.E.T.y.o.} ..6.9.P.L.L.y.q.F.O...t.y.9.-.O.o.P P O.r.L.w.O.<.X.g.&.+.W / @.g.g.:.g.g.:.&.l.;.&.&.;.&.&.&.@.@.{ @.@.&.&.@.{ @.@.&.@.@.@.+.+.@.&.&.$.' ! _ ' ' ' _ ' ! / W Q f e e ^ B c U l % X X 5 Y q.8.P <.y.6.P } o.O.-.O.9.e.q.t.e.e.9.y.S.A.t.e.e.e.A.y.e.;.o.P ......e.T.E.H.9.X.O.} O.9.9.9.o.6.P L L <.3.6.o.C V V L J P L K a ; K *.-.U J u a J a 8 J ..*.9.;.-.O.O.-.*.L v J L J U -...z N -.o.J J ",
"r.S.e.-.y.y.k.T. X(.^.E.L.S.e.r.-.;.V J 6.y.L.y.L 8 . @ 3 G t.r.r.S.E.S.9.r.y.A.y.y.y.-.o.A.H.9.o.-.-.q.F.L.L.i.L.U.k.r.O.C P <.y.L.L.L.9.9.9.r.r.9.t.O.9.y.k.e.O.} ..9.L.y.9.9.^ | { @.&.&.l.g.l.l.l.l.J.&.r.l.g.J.&.;.;.;.;.;.;.;.;.;.;.;.;.@.;.;.&.;.-.&.-.@.@.@.@./ +.{ / [ +./ { / / ^ W B d B L d N P 5 X * * = Y q.<.q.y.F.6.X.O.;.6.9.-.<.O.6.y.t.} ..o.o.9.t.9.9.r.y.9.-.-.L L ..9.L.T.E.L.9.;.O.O.O.6.-.6.y.F.q.o.X.L ....O.6.X.L c l z J G v u J ..8.8.o.z a c U 8...L L L P ..o.O.O.o.U a - 0 a c U K u f o.-...[ o.",
";.O.O.;.H.y.r.|.XX|.oX}.L.y.r.9.9.-.L ..6.y.L.e.V ; . O 3 v y.L. XE.^.L.A.L.H.H.S.y.e.} ;.S.L.e...*.-.q.i.F.F.L.T.c.r.r.X.3.9.q.E.^.L.L.y.L.L.y.y.y.9.<.r.L.^.L.6.} o.9.9.L.y.r.} L o.[ L [ } [ [ [ } [ L L J L [ K K K B K L B L B J J B K N J B L B N N N N b i d d i i w y q d d f e f e 0 9 0 0 y 8 V P $ * X * = Y t.i.L.I.i.9.o.O.-.6.-.-...L q.L.S.o.o...-.e.y.t.e.y.9.9.r.9.O.-.6.y.L.y.H.k.y.S.9.9.q.<.O.O.y.i.y.6.O.} 7.O.6.9.6...z - l V z t v *.=.-.t.o.N a a -.-.U L C L } L ..} ....N 8 z a K K K a N L *.[ L o.-.",
"L -.e.S.H.T.H.Y.L.L.E.L.L.L.S.k.y.e.8.-.9.q.L.S.Y 5 X @ 4 J y.}.|.F.T.A.e.y.H.y.r.e.O.9.L.S.H.y.9.t.9.y.F.y.y.i.L.9.y.S.F.E.E.P.U.L.L.L.L.L.y.9.r.9.9.9.9.6.9.3.o.} ..O.9.P.y.q.O.*.-.[ N N N J U L K K N y & 5 s r r y s s s y p t & & < y y 3 & < t t ; & & - ; t y F J J J J L K K J V N v z u 8 a V <.Y 0 * X * 4 Y R.].G.Y.9.o.9.9.6.6.-.O.O.q.F.F.y.9.9.O.9.9.9.8.9.9.6.6.;.A.S.r.L.L.k.y.L.L.H.r.9.6.<.O.o.O.<.6.<.X.P P O.6.6.9.6.O.P z J U U V ..8.9.9.e.-...F F -.o.V Y -.O.O.X.-.<.Y Y J L *.o...[ L L L L K U -.-.-.",
"*.;.e.r.r.T.E.L.y.L.L.L.E.E.L.F.e.-.o.O.9.q.F.t.Y - X * 5 v G. XY.y.L.o.O.;.r.S.y.-.9.Y.S.e.S.O...e.F.y.i.y.t.q.q.O.9.L.E.E.E.E.c.y.r.L.L.L.9.O.6.9.6.<.O.O.O.O.O.X...o.O.r.y.6.;.;.y.Y.y.t.9.t.L.Y.F.A.6...c U A.-.*.-.e.;.=.*.*.*.U F J *.Y R I U U U I L J J L P U 8.t.e.A.A.A.D.S.t.e.-.U U L J o.7.-.P 5 * X = 6 *.}.E.L.L.6.o.X.O.O.9.O.O.L.F.i.t.6...O.6.e.y.y.6.9.O.O.O.e.S.A.S.T.F.q.r.y.y.9.q.O.<.o.O.<.<.O.O.} } } P P } 6.9.%.O.L V P o.o.U o.;.-.q.t.t.A...c 6.6.C ..O.<.O.O.9.6...P J U U [ U [ U [ J U ..*.-.o...",
"S.;.e.-.;.S.H.k.U.L.F.L.E.T.L.q.a V } -.9.r.r.6.V - X * 6 v F.|.y.r.y.L.e...-.A.9...O.L.L.y.r.9.t.e.<.q.A.y.9.6.O.O.y.L.L.r.y.y.9.9.w.9.O.9.O.9.6.3.O.O.<.O.<.<...Z Z P X.9.q.9.e.9.y.H.y.r.q.q.9.9.w.9.F.A.c U ~.H.A.t.A.*...*.8.S.t.*.U J Y t.A.-.8.8.=.o.O.7.o.o...t.A.H.H.S.F.F.A.9.A.U ; a L ..e.8.*.Y - * * = l 7.}.T.L.L.F.t.P Y O.-.-.o.e.y.u.t.y.9.6.O.-.A.t.;.9.o.P 9.F.q.9.y.i.8.6.9.9.9.9.<.} O.O.<.O.X...} ....P V C P 6.9.O.O.} } ..O.o.P ..U ..O...A.Y.U l 7.t...9.-.o.X.O.O.6.-.U P v z U U *.*.....U ......L X.",
"S.e.9.;.e.y.y.Y.U.F.L.T.E.E.E.t.u V O.9.9.r.L.e.V 3 X * 5 c F._.r.r.L._.r.-.-.o.-.-.O.L.L.y.y.r.y.<.P q.q.q.t...V -.Y.y.9.q.u.y.9.9.9.9.O.3.9.9.9.9.9.9.O.o.<.<.X...} o.O.9.q.9.q.r.r.9.9.e.y.y.q.r.y.e.^.Y.v *.Y.L.F.S.9.P X.o.y.Y.S.t...N *.t.G.t.8.-.o.o.t.8.-.-.6.r.H.E.Y.A.L.Y.T.S.G.U ; v ..8.F.t.6.Y 3 % * = x 6.}.L.y.L.T.y.P P ..} ..O.9.F.t.t.y.t.*.P o.e.-.e.-.Z P q.q.9.q.q.y.t.9.9.6.9.O.o.o.O.<.%.O.o.X.} o.X.Z C P L o.O.O.O.O.O.O.6.O.....L } L L t.S.K c 6.y.9.9.6.X.} ..O.9.e.6.o.J P ..*.=.=.*.U U -.-.o.[ ..",
"*.-.-.-.r.U.E.|.E.E.E.T.E.L.y.8.} 8.6.9.<.9.O.V c l   * 6 J F.|.L.Y.^._.S.-.*...9.r.H.L.q.q.y.9.6.6.<.t.8.u.I.L.Y.E.y.q.q.y.y.q.X.| O.6.-.9.9.9.q.9.6.O.O.O.O.9.u.q.<.6.q.6.t.F.L.q.9.9.6.9.L.e.q.t.9.r.E.Y.-.9.A.-.S.L.y.e.;.;.L.S.r.A.o.6.6.<.L.D.-.*.*.7.*.O...*.S.L.L.L.P.^.E.^.G.t.t.J u U o.o.7.-.P u 5 = * 4 v *.E.U.P.L.U.L.o.} ....-.e.y.F.9.9.y.y.6.6.6.6.9.L.L.L.P.y.-.O.6.8.q.9.o...O.o.O.o.O.<.<.O.O.X.} P O.O.O.O.} X.O.O.X.O.O.O.o.X...o.-.X.P J o.y.9.-.o.*.o.9.y.9.-.9.9.r.e.9.9.o.Y o...-.-.-...I U *...U L *.",
"o.O...9.r.L.E.E.T.T.Y.L.P.y.e.-...e.e.q.9.-.V u V x X * 6 V G. XE.}.XXoXL.<...o.A.S.L.S.6.e.y.y.t.t.i.L.i. X.XXXXXT.9.9.w.y.r.9.O.X.;.6.o.O.-.9.9.9.9.6.O.o.3.y.F.t.6.<.q.q.y.Y.L.y.y.6.o.F.^.y.r.9.9.L.L.L.A.A.U L S.H.H.H.k.H.L.L.y.t.q.6.9.y.I.y.6.o.o.*.o...o.7.y.L.P.E.|. X/.Y.S.*.=.U U *.6.6.7.Y 0 u v = * 6 D 7.).U._.E.}.}.t.o.6.6.q.S.t.q.6.q.t.9.6.e.e.9.y.^.XX|.T.6.O.O.9.6.6.O.} -.O.o.o.o.-.6.O.O.o. .....-.S.q.O...O.X.X.O.O.O.O.} } L o...X.....e.q.6.q.e...c 6.y.t.6.q.e.S.q.9.t.e.-.U ..=.;.-...U I L U K L -.",
"-.e.y.y.q.y.E.T.L.F.H.S.r.y.y.9.U e.6.9.t.t.o.*.t.G @ 2 6 V G..XL.F.}.oXL.6.-.-.9.9.;.O.-.r.S.H.c.y.y.L.].@X|.E.y.6.-.9.6.-.-.} X.;.-.o.o.O.-.r.9.9.e.9.9.t.e.9.9.<.<.o.o.<.t.i.y.q.y.t.q.6.r.e.q.e.y.L.E./.L.S.A.e.S.A.e.O.S.H.L.q.9.y.q.6.9.-.e.9.-.9.8.o.o.9.q.9.9.L._..X XR.S.A.A.A.A...U 8.7.-.6.7.Y E Y = 2 5 v 6.}._.L.Y.oX_.<.<.9.<.9.9.o.O.O.q.y.y.q.9.y.L.L.|.E.r.<.O.o.O.o.} L L } O.o...o...O.3.9.6.6.<.-.O.O.O.O...O...B P o.X.O.O.o.o...o.P Y } o.8.y.F.i.q.e.6.7.6.-.U -.9.y.e.9.e.9.o.U K [ =...-.-.U [ o...O.r.",
"y.y.L.y.y.L.E./.T.L.q.9.e.t.A.8.*.8.9.e.t.e.-.t.8.x * = 6 V F.|.F.O.L. XE.F.y.q.e.-.o.o...A.y.H.T.T.L.E.E.XX|.y.6.;.O...o.} B ..o.-.o.P O.6.9.r.9.9.q.e.t.8.-.-.9.9.q.t.6.6.t.q.q.t.t.S.e.-...-.F.Y.T.T.E.L.I.L.S.;.-.9.e.;.y.H.L.y.q.F.y.9.3.X.9.6.t.D.S.6.F.L.L.L.S.E. X^.F.6.o.[ *.=.A.-.*.e.6.=.7.o.<.8.Y * * x D 8.|.].9.9.|.R.6.6.9.6.9.O.O.X.O.y.i.F.L.S.t.F.E.|.|.9.o.o.o.Y P L V ..o...P } -.O.O.9.9.-.*.o.o.......X.o...L } P X.X.} -.-.-.o.o.o.o.6.y.L.i.y.t.t.y.F.6.o...L O.9.9.9.-.-.-.-.[ J ..o.o.S.A.=.-.6.;.e.S.",
"e.y.r.H.T.P.T.Y.e.9.-.r.Y.F.Y.A.8.t.t.F.8.U ..o.Y 5 * = 6 J F.XXE.6.F.T.L.L.y.q.6.-.6.-.-.H.H.k.T.q.w.y.r.L.P.e.-.O.O.-.-.U V U ....} -.O...9.y.0.9.9.6.-.o.V C 9.y.q.q.e.q.y.q.y.S.t.q.8.o.o.r.t.S.P.L.y.y.r.y.L.T.E.^.S.y.H.L.L.L.y.Y.9.y.q.y.y.9.q.F.y.e.y.r.w.I.T.E.Y.t.o.*.U *.S.A.e.=.-.=.t.*.Y Y Y *.v * = x H 8._.E.r.O.F.F.i.t.q.y.<.O.9.O.9.L.r.y.S.-.9.q.e.y.F.9.X.o.....P V J P } Y o.*.L P -.6.-.O.......J P <.6.O.-.o.6.e.O.P O.6.r.y.-.....o.6.y.y.t.6.8.6.t.F.9.e.9.9.9.-.y.H.t.6.O.-.....*.o.*.A.;.o.-.-.-.9.y.",
"S.L.L.L.L.T.L.9.-.-.J 9.R.S.A.t.7.t.~.A.o.6.t.o.Y 5 * 2 x K F. XL.X.9.T.T.T.T.F.9.-.-.-.A.E.Y.U.R.9.O.<.;.6.9.;.O.O.O.O.L N F J J o.9.6.J L t.y.;.9.6.O.o.v N P q.t.9.-.q.q.r.9.y.L.t.S.A.*.L -.t.A.T.L.c.y.9.L.U.T.|.}.E.E.|.}.].U.L.I.L.L.H.H.r.9.9.e.y.y.y.y.L.P.L.L.y.-.U J K A.^.A.-.*.*.G.~.8.U o.Y P x * * x G *.E.U.-.o.F.L.y.y.L.L.r.9.O.O.r.L.L.T.r.O.;.O.O.X.o.o...} } J z v V B V o.t.*.u ..e.-...O.o.L V V ..-.O.6.<.o.<.q.6.C q.L.T.T.e.V J -.6.F.y.O.Y ..o.t.t.S.y.y.H.L.L.!.E.H.9.9.F.9.-.-.-.-.;.-.-.-.6.;.9.e.",
"9.e.;.9.e.r.y.9.*.-.t.G.D.;.U U -.-.9.8.8.=.U U v ; * 5 p I L.|.P.y.L.}.U.F.t.6.O.t.y.9.r.T.E.L.i.9.O.9.9.9.;.O...O.O.V N c a V U e.e.-.V N -.-.;.6.-.6...J o.6.e.r.e.3.9.9.O.r.L.L.L.y.y.X.} o.t.S.H.y.F.y.y.L.L.F.E.E.T.}..X.X|.].|.|.E.H.k.J.L.I.y.r.y.y.9.;.O.9.9.9.-.O.-...A.Y.Y.A.J U *.6.6.o.7.U V G 5 * 2 x v 7.F.L.y.y.L.F.6.6.9.9.9.S.9.<.y.U.P.y.3.O.X.O.%.O.| } O.-.P z u N J J o.e.t.L z L O.o.o.o.o...L V Y O.6.O...} o.9.<.6.t.L.E.H.9.L P o.9.y.6.O.O.6.6.q.6.t.y.w.y.k.L.H.S.H.y.P.L.-.-.e.;.-.-.=.-.-.O.*...-.",
"-.o...L V U 8.-.*.A.~.S.A.-.J U 6.U N U t.A.V v l ; * = x U H.E.|.].|.E.y.O.<.U 6.^.|.E.!.|.E.y.q.9.9.%.;.9.%.;.-.O.N z z a N *.S.S.t.6.V B -.;.9.-.-.9.9.o.<.9.y.L.y.9.O.O.9.L.Y.|.XXL.k.e.e.9.O.O.9.e.y.r.q.9.6.r.L.S.F.E.XX}.E.E.].].P.y.y.H.L.y.q.y.y.A.6...} P P o.e.-.-.G.^.G.A.*.v U o.v N ..8...u 0 3 = 4 H J 8.k.L.E.`.T.y.-.} L } 9.E.Y.F.i.T.H.;.%.O.O.o.O.X...O.o.} z i c z L -.8.e.e.L z K o.o...o.-.-.-.o.o.%.3.-.} ..X...9.E.E.F.r.9.r.8.P P } o.O.O.9.9.t.i.9.q.y.r.r.r.k.y.y.r.k.k.y.-.-.9.-.%.-.-.-.;.*.U V N ",
"-...J K L L L L J ..*...-...N J N c L -.y.A.V 0 - - * 4 F U S.y.P.E.E. XS...P c J e.S.y.F.y.k.y.9.3.r.9.-.9.;.-.} L -.o.c K *.t.-.o.9.t.} L 9.y.9.9.9.-.9.9.<.r.U.E.L.9.%.O.O.9.y.P.^.H.H.S.9...L 9.y.y.y.r.9.6.9.F.E.E.^.E.E.E.L.9.y.y.9.9.0.o.o.o.o.-.e.7.o.Y J z v J L K J U ..-.-.K a J N v ..6.6.E ; - 4 * 6 D I *.k.L.c.P.P.k...P z z o.q.y.q.c.y.H.9.X.O.e.O.-.O.X.L } ..-.J v L o.o.-...6.L i ..O.X.O.O.O...-.e.6.O.L.y.o.X.<.o.q.F.L.r.9.e.y.-.P J V ..9.9.O.9.q.r.6.9.X.O.9.y.Y.y...X.r.y.-.o.o.[ O.-.o.o.O.o.L c p J "
};
