/* XPM */
static char *out[] = {
/* columns rows colors chars-per-pixel */
"256 256 256 2 ",
"   c #040402",
".  c #0A0603",
"X  c #0B0B05",
"o  c #040809",
"O  c #0D0D09",
"+  c #190403",
"@  c #120D05",
"#  c #1B0D05",
"$  c #120E09",
"%  c #0D110B",
"&  c #141107",
"*  c #1B1207",
"=  c #14130B",
"-  c #1B150C",
";  c #1D190E",
":  c #030A15",
">  c #0A1417",
",  c #151611",
"<  c #1C1B13",
"1  c #181914",
"2  c #270605",
"3  c #370808",
"4  c #281507",
"5  c #23150B",
"6  c #23190E",
"7  c #2C1B0C",
"8  c #361809",
"9  c #331D0B",
"0  c #3A0C11",
"q  c #241C13",
"w  c #251D17",
"e  c #2A1D13",
"r  c #371C13",
"t  c #1C2119",
"y  c #34220D",
"u  c #3C260A",
"i  c #3C240C",
"p  c #252116",
"a  c #2B2115",
"s  c #24231B",
"d  c #2C241A",
"f  c #27291B",
"g  c #2D291D",
"h  c #332313",
"j  c #3B2513",
"k  c #3D2A13",
"l  c #32261B",
"z  c #39261A",
"x  c #362B18",
"c  c #332A1D",
"v  c #3B2C1C",
"b  c #091726",
"n  c #121C28",
"m  c #142732",
"M  c #2C2B22",
"N  c #282824",
"B  c #342C22",
"V  c #352B25",
"C  c #3A2E22",
"Z  c #3C3125",
"A  c #35332A",
"S  c #393428",
"D  c #3D3429",
"F  c #293232",
"G  c #3A3933",
"H  c #440909",
"J  c #4D1510",
"K  c #471914",
"L  c #68161B",
"P  c #42250C",
"I  c #432A0D",
"U  c #48280B",
"Y  c #50330E",
"T  c #432C14",
"R  c #4A2D14",
"E  c #432D1B",
"W  c #482818",
"Q  c #552A18",
"!  c #4C3314",
"~  c #45321B",
"^  c #4A3519",
"/  c #4C341B",
"(  c #533414",
")  c #5A3817",
"_  c #52351B",
"`  c #543B1C",
"'  c #5B3C1C",
"]  c #692B1B",
"[  c #63391B",
"{  c #452D22",
"}  c #582B23",
"|  c #423425",
" . c #4B3523",
".. c #4C3A24",
"X. c #43362A",
"o. c #483728",
"O. c #45392C",
"+. c #4B3C2C",
"@. c #543C23",
"#. c #5B3D23",
"$. c #583826",
"%. c #523D2C",
"&. c #443C32",
"*. c #4B3E31",
"=. c #433E39",
"-. c #523E31",
";. c #663A27",
":. c #71362A",
">. c #3B423C",
",. c #5C411D",
"<. c #64431C",
"1. c #68471D",
"2. c #704D1F",
"3. c #584326",
"4. c #5C4224",
"5. c #53412D",
"6. c #5C432B",
"7. c #4D4133",
"8. c #4A4439",
"9. c #534633",
"0. c #534334",
"q. c #5A4634",
"w. c #5B4936",
"e. c #544639",
"r. c #584738",
"t. c #55493B",
"y. c #5B4B3B",
"u. c #634524",
"i. c #654924",
"p. c #6B4C24",
"a. c #63452B",
"s. c #6B4429",
"d. c #644A2C",
"f. c #6B4C2B",
"g. c #75482B",
"h. c #6D512B",
"j. c #73532C",
"k. c #785629",
"l. c #674734",
"z. c #644C33",
"x. c #6B4C32",
"c. c #614E3C",
"v. c #764A35",
"b. c #6D5234",
"n. c #64513D",
"m. c #695438",
"M. c #6B543D",
"N. c #735433",
"B. c #7B5B34",
"V. c #765539",
"C. c #755A3C",
"Z. c #7B5D3B",
"A. c #7D613B",
"S. c #1C3747",
"D. c #2C4956",
"F. c #4C4F4B",
"G. c #5A4E41",
"H. c #5D5243",
"J. c #585349",
"K. c #645343",
"L. c #6A5643",
"P. c #6D5944",
"I. c #685549",
"U. c #655849",
"Y. c #6C5C4A",
"T. c #735C44",
"R. c #795C43",
"E. c #735E4A",
"W. c #7D6144",
"Q. c #75614C",
"!. c #796549",
"~. c #7B644C",
"^. c #6D6354",
"/. c #756452",
"(. c #7A6855",
"). c #7D6954",
"_. c #756E65",
"`. c #84312F",
"'. c #8C5337",
"]. c #865838",
"[. c #83643C",
"{. c #886639",
"}. c #946A3D",
"|. c #A2673E",
" X c #875A44",
".X c #935846",
"XX c #A8584A",
"oX c #836444",
"OX c #896645",
"+X c #8B6B44",
"@X c #82664B",
"#X c #84694D",
"$X c #8B6C4C",
"%X c #976846",
"&X c #926E4F",
"*X c #977549",
"=X c #836B53",
"-X c #846C57",
";X c #8B6E52",
":X c #8C7154",
">X c #85725B",
",X c #8C745B",
"<X c #937354",
"1X c #9C7B53",
"2X c #957759",
"3X c #9B7B5B",
"4X c #A46B49",
"5X c #A6764B",
"6X c #AC7052",
"7X c #A77A56",
"8X c #B57B59",
"9X c #897865",
"0X c #8B776D",
"qX c #967C63",
"wX c #A97C65",
"eX c #BF7060",
"rX c #A88558",
"tX c #B18B57",
"yX c #B6885A",
"uX c #9A8368",
"iX c #988875",
"pX c #A78766",
"aX c #AB8F64",
"sX c #B78866",
"dX c #B79668",
"fX c #AB9075",
"gX c #B89776",
"hX c #C58B67",
"jX c #C6986A",
"kX c #D3976D",
"lX c #D0956F",
"zX c #C99876",
"xX c #D69B76",
"cX c #CFAB73",
"vX c #CBA975",
"bX c #D7A678",
"nX c #AE9A87",
"mX c #B7A78F",
"MX c #ADA394",
"NX c #D29F88",
"BX c #CBAF8E",
"VX c #DAA784",
"CX c #D7B886",
"ZX c #E4AA86",
"AX c #E8B58D",
"SX c #E9B996",
"DX c #CAB9A6",
"FX c #DCC196",
"GX c #ECC894",
"HX c #D5C8AF",
"JX c #D7CBB6",
"KX c #E8CEB0",
"LX c #DDD5C3",
"PX c #E6DCC9",
"IX c #E9DECD",
"UX c #ECE3D0",
/* pixels */
"M g l B V d a M l p ; w g l e q d g B d B V X.&.&.X.D S D D V C O.*.8.*.&.*.&.&.X.&.&.*.0.7.9.D = 1 t A D D X.&.*.e.*.O.*.7.O.O.O.O.O.*.X.X.X.&.e.K.Y.^.E./.(.@X-X-X-X(.(.K.q   O N e.K.n.t.r.y.r.r.9.0.e.q.0.e.-.*.y.y.y.y.K.y.H.K.K.K.c.H.I.K.r.y.y.H.K.l.-.l.K.G.y.0.O.Z h l Y./.n.y.y.w.n.m.M.P.7.=   = S ).>Xw.5.5.D  .7.w.t.0.0.r.q.0.r.w.w.w.n.M.m.P.M.m.m.c.w.w.w.9.w.9.*.*.g O o = w G./.5.v O.C C O.X.V B B B l B M e 6 q l M r M M e l M d M g c d s d d g a w w a p s w - - $ X @ M B q q q < q p s s 6 X       = = ",
"B B V B d a l B d - , < w d q w B l l d M C D S B C V X.&.D C V &.*.*.*.*.*.*.O.&.O.&.*.*.7.7.D = = p A &.D X.&.7.0.7.O.O.O.O.O.X.O.*.7.&.&.Z &.e.y.K.H.K.K.K.K.I./.-X=X).L.w . = M t.I.K.r.r.y.y.r.r.9.0.0.0.X.v +.y.y.n.K.K.H.H.K.L.L.L.Y.E.K.r.q.y.c.K.c.G.G.K.c.K. .Z c a v L.T.m.M.n.M.n.n.P.U.5.& X % S ).P.3.5.7.Z 7.0.7.-.%.5.q.0.0.r.M.z.9.9.n.n.m.U.z.y.c.w.t.t.w.9.w.e.X.d @   $ p H.(.e. .D Z X.O.O.V B g B M e l w 6 q d B B d d d M r r B M c s w w e a s a p s d s w = & & X @ M M e q w w p p p s < .       , 1 ",
"A D B d p g B M w = w p d B d d l s B V B l e e w B D X.X.D S X.*.*.*.*.*.&.X.*.&.*.&.O.| O.7.c $ = t A &.X.&.*.e.7.*.O.X.O.+.O.X.O.7.t.O.X.D &.e.e.q.r.r.e.-.l.K.Y.-X-X-XH.q . % N G.I.n.y.r.r.0.r.q.0.e.0.| l l 0.K.H.K.y.y.K.K.K.P.K.I.K.K.c.q.c.y.y.K.K.c.c.c.L.L.C c c a O.y.L.P.M.L.L.n.n.P.P.O.= X , B Y.U.n.7.x O.7.+.| q.e.q.0.0.0.c.P.z...o.0.c.n.n.n.n.w.w.w.w.9.w.P.q.D l $   O s H.(.c.+.Z X.X.| S c c c g M l M e q q l V B r N d M r M d s a p w w t p d g p w w s s & $ $ X - p d w q w w a w d d - X       = < ",
"V D B s d d s p < w f M M g g w s g B C V g s w s V V V D C D &.&.&.*.*.*.*.X.D X.*.+.X.| +.8.c @ , p B { X.*.7.7.0.*.O.O.O.O.O.O.O.7.e.*.X.&.&.*.q.y.e.r.y.G.G.K.I./.-X>X9.7 X = M H.L.y.y.r.y.r.r.r.r.q.*.X.| v t.U.n.y.H.n.n.n.M.K.n.K.L.c.n.G.y.q.y.K.Y.y.w.c.Y.L.| l S +.0.w.c.M.P.n.P.n.n.M.P.+.- X 1 C P.C.t.x | w.0.+.+.*.-.+.*.%.0.c.T.L.0.o.0.w.w.w.n.w.w.w.w.w.w.w.K.y.X.V ,   O s K.E.t...D Z S C Z c V c B B l M w e s V c B M d l d M l M d p f p w q p g g w w s d g O $ & < < w e d d w s w w w s ; X       % = ",
"g V B d g d p q s g g d d e q d B S D D C C l f g l l B D V C X.*.=.t.8.*.&.X.V C &.X.D | +.O.d @ , N A e.H.y.*.7.7.7.O.O.O.O.*.7.+.e.t.*.X.&.t.c.y.c.q.r.r.G.K.y.U./.).).y.6 . = N H.K.y.y.y.y.y.y.y.c.K.y.e.-.+.e.y.c.K.c.K.K.K.L.L.K.L.L.P.T.L.c.c.L.K.c.H.K.P.Q.Q.+.l t.K.n.T.E.M.m.n.K.P.Q.~.Q.9.; X t S M.q.0.0.y.c.7.O.o.| | C | O.9.t.n.Y.y.C o.0.q.q.w.w.w.w.r.w.n.y.P.K.O.Z -   O p K.Q.e.| X.B B C C C B V V V l r w s d B V V B C V V M B g g g l g e s d d d s d M V f O & w w w M B w e e w d e V g p X       = s ",
"g A g d f q ; s V g s p s q e V C S C S D S g d g V S S B C D D &.*.*.*.*.*.X.X.C D &.X.O.7.8.c & = w S G.t.X.*.7.*.+.O.O.X.O.+.7.7.e.9.*.X.D Y././.K.G.G.-.r.y.y.P./.>X).8.; X $ N G.K.K.c.q.-.r.c.c.H.K.H.e.0.0.9.9.y.n.K.c.K.c.M.L.L.M.M.T.L.c.K.I.E.T.M.Y.~.P.M.y.o.| M.L.c.L.E.E.L.M.M.P.~.).Q.w.q O = S n.3.n.9.t.+.c Z c c v X.0.9.X.5.X.0.e.x c 5.5.n.n.n.n.n.M.c.n.P.Q.K.O.Z ;   O p H.E.+.o.O.v c D D C C B B l B B d l c V Z O.O.B V B l c l l V g e s M V d p d l M p p & , s w w w V g w w w d l V M < X       = g ",
"M S g s < ; d S C l a d g w l A S B c C B V l g g V Z B a C D l X.*.*.e.8.e.=.*.D S X.D *.8.e.B % 1 f S e.X.| 7.e.O.| O.7.O.D +.7.5.0.*.*.X.D *.I.E.H.H.K.-.*.y.n.K.Q.).w.c < X $ V H./.K.y.y.y.y.y.c.K.L.H.q.y.0.y.K.K.K.n.K.P.P.P.M.P.M.M.!.P.n.R./.E.E.M.R.~.P.K.y.r.-.L.P.M.T.M.!.R.M.T.~.~.~.Q. .; @ , S M.c.P.5.5.v c v o.| +.9.t.w.5.7.5.y.0.| +.| 5.M.n.m.P.P.w.0.M.T.P.n.0.D -   X g n.U...+.7.Z Z D | Z S C B C V V V c B V B O.8.X.B B B V B C V a d V V V l e V V e w q , ; p w w d X.D N w w s l M s - X     . 1 p ",
"M B l p - p B S S g q V X.B c c c g c S A p q s g d l c S D D &.&.*.e.G.t.t.*.&.O.X.S B O.e.7.g @ 1 f S e.-.y.H.t.+.7.7.7.O.Z O.+.7.7.t.e.e.*.X.*.G.t.I.I.-.*.y.c.n.Q.(.+.f q X , V ^.).c.c.y.c.y.y.H.c.c.c.q.q.5.n.P.P.M.K.P.T.~.).=X!.T.E.=XP.n.~.~.~.E.R.E.!.T.P.n.y.%.P.R.!.~.T.T.T.T.#X~.!.~.Q.O.; X < S M.P.U.9.5.o.+.5.0.r.0.5.6.w.w.n.U.P.n.r.y.+.9.K.n.m.Q.L.y.0.K.P.P.M.r.D =   O s G.P.9.+.| 9.| | | | Z C S C B C V C B c V V B Z C B l c B S V d c C C C V e V B M l s q ; d g w d C D B e V B l M s = .     o , p ",
"g V B w q g A D D d a S X.C C B V V V V V g d l c V V V V V D &.*.&.8.e.G.e.*.&.&.&.X.D X.e.e.M $ ; N S G.H.c.G.0.0.9.+.O.| | +.*.-.q.K.t.K.G.*.O.*.+.0.e.*.e.c.K.U.).Q.| 7 w % = A U.T.L.c.c.H.c.n.H.n.n.y.r.c.9.L.E.E.P.T.P.T.=X~.-X~.L.L.T.C.P.E.=XR.T.P.T.~.~.!.M.M.c.T.~.(.@X#X~.@X=X~.oX!.M.y.O.; X 1 C L.m.n.0.6.0.0.y.n.z.9.w.z.n.m.C.P.K.q.0.H.M.w.z.n.M.M.n.9.+.c.M.P.K.r.X.&   % d G.E.K.9.o.+.7.| O.X.| Z Z C C C C C B B A V B V c B C V C C B c c Z C V c c B B l l g w q d B w e M B B d d B d d w - O     o = s ",
"d s B B g V D &.X.C g B D B X.D V D X.D V B Z S B C C V V D X.&.-.G.*.*.8.-.e.e.*.&.D X.&.e.G.B & , N D I.K.q.0.+.7.0.7.+.7.7.9.r.r.H.K.r.K.I.-.+.*.7.0.O.O.0.G.P.T.).(.Z a p O t A G.Y.L.L.P.L.K.K.P.P.P.P.P.E.E.Q.E.~.!.E.T.T.M.c.!.~.T.T.L.L.P.E.R.E.T.T.T.!.~.=X!.!.!.T.R.=X-X-X=X-X,X=XW.T.z.o.Z 6 X 1 D /.n.w.5.r.0.9.n.M.P.P.P.P.C.Q.P.T.y.%...M./.P.c.z.n.n.L.0.C 0.K.L.c.0.D = . % f G.E.P.n.y.5.+.| o.O.X.X.X.X.C C S Z C C B V B c V B D D C B B g c V V l c B c B B B c c l d B w w q l V B M g w q = $ .       ; V ",
"d B B V l V B B D G a c X.D D C V X.X.X.C V V S D S V C &.&.X.D *.=.e.-.=.-.e.e.X.l V X.*.7.8.l & w N &.Y.H.r.H.r.7.t.9.0.0.9.c.H.c.y.K.K.K.Y.y.t.y.r.y.O.X.e.n.Q.).>X!.Z a w = < D Q.).L.P.T.P.M.M.M.P.M.P.P.E.E.T.P.T.R.R.E.E.P.M.C.C.T.T.m.T.=X~.~.E.T.L.~.-X,X2X2X,X#X@XR.T.~.E.L.M.n.~.~.#XM.O.*.a X = D 9X).z.9.w.r.o.y.T.~.!.M.M.w.M.P.P.P.y.o.5.E.!.M.q.n.L.M.0.-.5.y.y.y.X.C =   , d e.t.c.Y.y.+.| | +.*.X.| | X.X.X.X.O.D C C v V C S D D &.Z C C Z B V c B l V B S X.Z Z B g d e w w w w w w l d d q , , @     . 1 B ",
"S &.D B B l l M D &.c B D X.X.S V { =.o.D V C X.&.X.D D X.X.D D *.e.t.e.G.-.G.G.X.l V &.*.*.O.d = t M &.I.c.r.I.K.+.e.y.H.r.9.y.y.K.c.l./.E.K.K.y.y.y.K.e.0.y.K.!.,X9XK.v e w = N D /.>XE.L.T.P.P.P.M.T.P.P.!.!.T.T.T.!.~.@X=XR.R.R.L.L.@XT.P.E.2X-X~.R.R.R.~.-X;X<XqX2X2X;X;X;X@X~. XT.%.m.~.#XP.c.H.Z X = D -XQ.d.n.n.w.5.P.~.~.P.P.M.n.C.T.M.L.M.0.c.~.=XQ.M.P.M.0.q.L.y.c.q.o.X.D =   $ d 8.e.9.P.y.o.O.+.0.-.X.X.X.| X.0.e.8.X.D Z V C B C C S X.Z | S B Z C B V V V B D O.+.*.B a w d g d d e - - w V M e - < ,     . , M ",
"&.*.D V B B B C X.&.D C B &.*.&.O.=.-.&.X.D C &.&.D D D D C D X.*.G.e.e.t.t.e.*.D V &.O.O.{ d e < s A D I.K.P.E.P.8.+.e.y.9.r.r.l.I.K.K.P.T.c.K.K.n.K.U.0.0.y.P.~.9X-X0.a q s - N G I.=X(.T.E.T.Q.Q.T.T.!.~.R.T.T.E.@XE.~.=X(.R.=X,X-X=XE.T.!.=X-X).R.E.T.T.E. X@X#XwX2XpXpX<X#X#X,XqXL...M.=X~.!.).K.c X = S Y.T.!.T.M.T.M.!.).P.M.T.P.M.!.T.M.z.n.w.M.~.;X:X).T.r.%.y.Y.y.y.q.+.*.C $ . O f 8.7.0.L.K.0.+.%.0.0.+.o.*.O.O.*.X.C | D D D C C C C A V X.7.Z Z Z Z Z B B B V V C D D g w g l l l B w $ = s V l s ; w , o   . , M ",
"&.=.X.D B C C D &.=.&.D C &.&.C X.=.=.o.&.&.S C D C D X.C D &.&.*.e.t.t.G.-.e.-.Z S =.*.=.&.V &.p g A &.I.K.L./.E.c.7.o.0.0.0.9.K.E.L.P.L.L.n.Y.Q.Y.K.Q.K.y.P.!.=X,XQ.| e e V < M &.^.;X-X;X;XE.W.!.!.~.@X=X~.~.~.@X~.E.E.@X=X;X,XpX;X~.T.C.#X<X;X@X!.~.~.R.@X(.=X#X2X2X;X=X@X$X;X<X2XT.| +.M.T.E.n.o.d . , D >XuX-XR.P.T.!.!.~.M.M.n.m.Q.T.P.m.c.c.n.P.!.,X,X!.M.w.c.P.M.y.q.0.-.| g X   , s 8.e.y.L.P.r.o.+.0.%.+.O.O.*.0.o.C c Z Z Z X.&.*.S C C C X.7.o.| v C B C c B c v V B O.l 6 w g V V C N $ q g C l w w e ,       ; d ",
"D *.&.C V D O.*.=.*.&.X.X.D V l V &.X.X.X.X.S V C D =.*.&.*.8.7.*.G.e.-.*.*.*.=.O.&.*.-.*.*.8.*.< N M O.Y.I.y.E./.K.0.*.+.o.+.9.K.P.R.R.E.E.P.~.-X/.E.P.P./.).>X,XqXP.v v Z g , V 8./.qX:X@X,X:X=X~.Q.!.~.W.=X=X@X#X=XR.@XR.#X2XpXqX@XM.T.T.:X-X#X-X;X;X=X=X@X=X@XR.;X$XR.R.;XqX2X3XqX~.| 5.0.c.%.o.e.B X , D qXgX3X!.M.T.R.!.!.T.P.m.Q.!.W.T.T.L.c.n.M.T.#X~.z.q.M.Q.P.q.0.%.y.*.Z d $ . = s 8.H.y.c.K.0.X.| o.O.| C C O.+.O.| v C D Z X.X.O.{ C C D | +.+.| Z Z B C Z C c V c B X.l - q g C D X.l q M A Z V s w - $ o   . < M ",
"V V &.D V V O.=.*.&.X.&.&.&.&.X.&.*.e.*.G X.X.&.D X.=.*.*.*.*.e.G.t.-.*.X.7.G.e.*.&.G.=.O.X.=.V < A A &.^.Y.q.I./.U.0.0.7.+.+.t.K.c.K.L.(.R.T.~.,X~.Q.Y.P.P.>XuXpXiXn.+.X.B g - M 8.).uX9X;XfXfX,X~.~.@X-X;X~.~.@X=X~.~.E.c.E.qXqX:X,X=X~.R.:X-XR.=XqXqX,X2X;X-XR.T.R.;X;XpXfXpXpXfXqXW.5.r.7.o.| n.r.Z O < X.qXgXfX<XT.T.!.~.R.!.!.M.).,XT.P.).T.z.m.M.!.T.w.+.0.y.Y.L.y.-.O.O.X.C B &   = s G.U.L.K.y.-.Z l C | V l Z O.O.0.+.| V X.X.*.*.X.D D D X.*.+.| Z Z Z Z D B B C D S V B g q d V O.*.D l w M l V d a w , O     . - V ",
"A X.-.&.V D X.&.&.X.D &.*.*.e.*.e.t.G.e.*.=.e.*.X.D *.*.*.*.e.7.t.q.*.&.X.e.G.*.D X.e.t.&.X.O.c < M D 8.Y.U.n.Q.).I.y.K.K.y.y.n.L.n.M.P.P.L.T.~.-XT.Q.~.Q.~.qXfXfX=X..0.O.c d = A 8.(.uX2X,X,X#X@X,X,X#X-X:X$X=X=X=X@X=X~.q.z.T.!.T.;X).~.~.>X:X#X:X,X;X:X;X2X2X2X,X2XpXqXwXrX3X3XpX:Xm.5.7.D Z +.c.X.e O t +.~.3XpXuX@X~.~.~.!.!.T.~.=X;XM.M.=XE.M.n.M.!.~.c.%.q.z.M.Q.L.0.O.7.O.l g = o , s t.K.Y.K.r.-.D l w l l B D X.-.y.0.| D V C X.O.*.*.X.X.D O.7.| | C Z D Z Z Z Z D C V D D B V V { D D C V D V a q w w < $     X , g ",
"C =.*.&.D D D &.&.&.&.*.=.-.*.-.t.t.e.-.-.e.-.*.*.O.&.*.*.=.X.D &.e.7.0.H.G.e.X.D &.X.O.7.S g f < A G 8.U.Q.Q.!.Q.y.0.n.T.P.Q.-X).T.P.P.L.T.E.=X>X/.E.T.(.uXfXfX9XL.-.%.X.Z d - M 8.>XfXuX2X=X~.=X=X-X#X=X:X-X-X,X;X~.=X=XP.c.M.M.M.!.;X,X$X#X:X2X2X,X2X:X;X2XwX2X2X7XpXpXqX2X3XuX2X!.w.y.~ 7 v y.H.| q @ f 7.(.$XfXpX:X#X#X#XW.R.T.~.=X~.m.M.P.P.n.m.L.T.).P.c.c.c.c.P.Y.y.5.U.0.a g = . , < O.0.K.K.q.*.X.C V D D X.O.*.*.0.+.X.| X.X.| X.X.X.X.Z C X.X.X.Z Z | Z D | Z Z Z D S D D C B D D D O.D V D V 6 $ ; q < $     o , B ",
"A &.*.X.D C D X.*.*.*.7.*.*.*.0.t.t.-.*.*.e.*.&.X.&.7.&.*.&.C C D X.| &.e.8.7.Z D D S +.t.X.p p 1 M G t.U.Q.~.~.!.K.c.P.Q.=X=X>X~.E.!.T.T.R.~.).;X-X~.~.-XpXfX=XL.n.y.0.o.Z a < M 8.).qX-X~.!.:X-X=X(.Q.!.>X#X~.-X,X,X:XR.=X-X).E.M.P.~.~.~.#X=X2X=XC.!.@X2XfXpXwXqXpXpXrX2X:X@X@X=XW.9.7.c h y.L.y.| ; = M t.>X=XpXfXuX=X#X#X!.T.M.T.!.@X!.P.z.M.l.l.P.T.R.!.T.E.P.c.c.-.%.9.E.e.h g ; . , < B X.G./.K.t.O.{ V X.O.e.G.c.y.e.*.o.O.+.&.O.X.X.X.Z D X.X.X.O.Z Z D | X.X.| O.X.D C D C V S D C D *.X.C B q $ , w w , O     O ; M ",
"B &.*.=.D V D *.8.-.8.7.*.D D =.t.e.D &.*.=.D X.O.7.8.7.X.C C D C w l c V S Z B C V &.y.G.O.q < 1 A D 8.c.Q.-X>X>XE.M.T.~.@X-X-XR.=X>X~.R.T.R.=XqX=X,X2XpXfX,XT.T.P.y.5.0.O.f 1 A 8.Y.2X-X=X-X>X@X~.T.T.~.!.T.n.T.=X>XQ.M.).=X).T.M.P.).~.!.~.:X=XC.w.C.#XpXpXqX3X2X;X2XpX-XT.T.R.T.P.t.v l &.Y.n.0.B - t S 7.).2XpXwX:X~.T.!.T.P.M.T.=X;X;X=XP.K.c.P.E.M.!./.T.T.T.P.n...+.y.c.| g f = X t < B e.H.Y.y.q.G.*.D v *.y.n.y.q.0.*.*.X.X.0.*.X.X.X.X.X.X.D Z Z S C S X.X.X.O.X.Z B V c V V C D V l D C V w q , w M N - X     O , w ",
"M D *.&.l B D *.8.e.D S g p d g c c c D C &.&.V D O.&.O.&.X.&.8.D B D D O.A g g B B X.7.7.D p p t A G 7.U.).>X,X,X/.Q.=X=X~.=X~.Q.>X>X-X>X).>XuXqXL.=XqXfX,XT.P.Y.c.-.0.c.7.p = A &.^.iXfX>X).=X,X(.T.E.~.Q.M.n.m.n.5.y.P.9.5.M.P.Q.=X>X~.M.#X-XQ.n.P.~.3XfXpX~.=X=XM.#XuX!.T.Q.!.T.E.q.e C y.n.0.7.g & p A 7.U.,XqX@X%.z.~.).w.-XuXuXqXuXpXuXuX).P.!.P.m.Q.(.r.0.c.n.y.w.9.t.5.l g w & = N t M 8.H.U.9.G.H.*.C a e.K.P.r.7.Z v O.o.G.H.-.*.*.O.*.O.&.*.D C B C &.D V *.+.V c c q q l D C D w w &.V g g g w N d d = o     o < B ",
"f V &.B w B B D 7.7.D B - = = - = < M B V D S B c g B S D &.*.8.D X.*.&.D c q a p p d B C f ; ; t S S &.(.>X>X).-XL.Y.).).=X).-X!.T.M.Q.).!.T.P.w.w.y.c.y.0.0.+. .o.y.q.0.O.q = A &.I.2XuX,X=X=X,X@X(.(.~.Q.Q.Q.n.y.+.9.7.9.y.Y.).>X,X>X~.).,X2X!.n.n.,XuXuX=XQ.Q.P.n.~.!.n.n.P./.!.E.0.l 7.0.w.n.O.p = f A G y.>X>XT.5.K.Q.M.c.P.,X>X).-X:X~.~.T.P.E.n.K.n.n.Z C -.0.0.7.5.9.| Z l q X < F G A D H.y.| X.l q w c H.U.L.t.X.l c *.e.H.O.D X.*.O.X.X.C X.C g p c C a a O.D C B c a g C &.S B 6 B D C c B g < ; , $ X .     O 1 V ",
"f t p s g p w g g f f t ; 1 < < f f p < < p q - ; ; < < w M A B p d g f f q ; ; - = < p < = % 1 M G G 7.J.U.U.c.e.| 7.7.r.9.0.y.9.9.7.X.| Z v Z v v c C v C Z Z Z X.*.+.+.c - s D &.G.U.!.(./.).>X(./.P.L.L.n.t.e.8.t.9.O.7.7.U.Y.Y.Y.Q.(././.Q.P.y.9.n.n.c.w.w.t.w.n.Q.n.5.+.r.K.r.e.O.O.8.O.r.t.c = = M G 8.8.y.U.y.7.K.L.y.e.e.n.y.0.t.e.+.+.7.7.7.+.+.5.D a g D O.D B c c c c p ; X < A G G D &.A l e < q S D 8.&.D B d p B X.D D B B B V V B g s g s d w p g p d B B M g w q B A V g & < g V g g d < = < = X o     o O 1 M ",
"s , o X X X X X X & & X X X X % = & O X O & X X O & X @ X O & X & = & - 1 = = 1 t s f f f f M A G =.G S g g a p q q ; 6 q 7 q q 6 6 ; 6 6 ; 6 p q q ; ; ; ; 6 q a a a g f p p A G 8.8.7.Z x c x C V l a g f p p q p p p p 6 6 p q p e a l l a p 6 q 6 6 q p a p g v c v j 6 a a a e q q 6 w q q q - = p A G 7.8.D | j a g a q q p a q e a e q q 7 6 6 6 e w q q ; q q q 7 q p p q ; = = f S G A G M f w w w w M p q ; - = & ; 1 < $ = $ $ $ $ $ $ & $ $ X @ O O X O O & $ X O O . $ O X . . X O O X X O X O % X . .   . O O , - ",
"N 1 % % % O O O % O = , 1 , , 1 , , , = % , 1 1 1 t t s w 1 1 < s N N M A M M A A A A A A A G G G G G G M s 1 ; < < < < & = = - - = ; t ; ; t ; t < < < s p s p p d g M A S S G G 8.G O.S p t p 6 ; , ; - = = % = - < t ; t p s p ; ; t , & - ; , , - = , = & ; ; ; ; p ; < < t < ; < 6 t ; < w t f M A S 8.8.>.&.S f t ; p p t < w w w d N p p p < ; t ; t < t 1 w t t p p p t t < p f M A A A A M M M M M t N t t < , , 1 1 1 , , , , 1 , , % , , , O % % % , O O O O O O O O O o O O O o O O O O X O O O o O o X O % = % , % ",
"N N s s t < < N s N s s s N s f N f s N N N N N N A F A M N M M A D G A G 8.G S D G G A A G &.G 8.D 8.G S S B M N g M g g g g g B B S S S S S G D D D D D &.&.&.O.&.&.8.8.8.7.7.G 8.G D 8.G &.&.&.&.&.D S G S B S S 7.D S 8.D 8.8.G O.7.O.B S S A A A A A A A S S S S &.&.&.O.S 8.D 8.G 8.D S S O.>.8.8.8.8.8.8.8.8.7.G S S S A A D S S D D D A B S B M B B B B B M g M g S S g g A S A S A A V M M M M M M M M M N f t s M f f d s N N N N t s t s N t < 1 1 1 < 1 1 1 1 1 1 1 < < < t 1 1 , 1 1 , , , 1 1 = , , = , , , , , , ",
"s N N M M M M A M N A A A D G &.&.G A M M A N N f F G A M A =.8.G.J.G.G.8.t.y.H.G.t.t.y.G.J.8.t.y.H.t.&.G 7.G D D A G G 8.9.y.y.H.K.K.K.n.n.n.y.c.n.c.y.y.y.y.y.y.H.K.K.U.n.y.y.t.7.=.&.8.t.t.t.t.t.t.t.y.U.E.P.U.K.K.H.H.H.y.c.K.U.Y.^./.K.r.8.&.8.8.t.8.8.F.8.t.H.U./.(._.(.^.K.^.Y.Y.U.P.n.n.n.n.n.K.Y.Y.c.y.t.t.t.8.8.8.7.O.G.G.H.U.Y.K.n.y.t.y.t.w.t.9.9.8.9.7.8.9.8.9.9.7.7.8.8.D A N M B A S G A A M M M M B S S G O.&.D G D D S S D 8.D S A A M f s t 1 t 1 s < < N V M S A A M f s N g s s f N g s s s f s < 1 < 1 1 1 ",
"N A &.8.=.8.7.8.8.8.8.8.8.G.Y././.Y.G.&.B A s N N A V A 8.Y.(.-X9X(.9X(.K.^.)./.E./././.(./.w.E.).).Y.9.7.O.&.O.7.7.8.7.t./.>XuXuXqX9X,X).~.Q.!.Q.Q.T.!.Q.Q.R.E.!.!.=X=X).P.P.U.0.O.D *.w.K.M.n.P.P.y.n.P.).uXiXuXuXfXuX2XuXqX-X,XuXfXmXmXfXuXE.t.e.8.8.t.t.t.^.9X9XfXnXfXgXnXaX-XqXpXqXuXuXuXqXuX>XW.:XuXuX-XP.c.t.t.t.y.t.9.e./.qXqXwXfXuX,X-X).!.!.P.P.T.T.P.P.M.P.P.M.K.P.P.K.7.O.O.B g q g S 7.S 7.O.D A B S 8.J.U.H.K.Y.I.K.K.r.e.7.G.Y.Y.^.K.t.D g p = = < N N S &.*.F.G.t.t.t.7.A &.*.D D D D O.&.S B D &.D A w < 1 < < ",
"O.8.8.8.&.X.&.7.t.t.8.e.e.e.G.K././.^.U.7.S p < N N &.J.(.9X9X(./.!.(.Y.w.P.(.P.P.E.E.T.T.T.L.).).Q.Q.Q.K.K.H.y.y.H.t.t.U.>XuXuXqXqX-XE.E.=X-X-X;X:X:X:X=X$X;X,X2X,X:X;X!.W.).!.c.X.Z e.y.E.Q.@X,X,X;X-X2XuXuXqX2XuX3XpXpXpXwX2X2XuXpXfXNXgXgXpX-Xy.Z S 8.G./.fXgXgXBXfXfXaXfXqX#X2XpX2X<X3X7XqXuX2X#XpXpXuXpX2X~.).P.n.c.P.c.n.;XfXfXgXgXqX;XR.!.=X#X~.=X#X-X=X~.!.=X-X=X).T.E.M.q.r.0.Z p ; c S 9.y.y.K.H.0.y.n.U.L.K.y.y.H.I.P.K.K.r.y.r.G.I./.Q.Y.G.C p X & < p 8.G.G.I.K.t.7.9.9.O.B O.7.| D Z O.| X.D B O.O.S S V g p s w ",
"t.7.X.D D C D *.e.*.*.7.0.7.0.r.L.(.-X-XY.X., , < N e./.9XqX,XE.T.P.M.M.5.y.Q.n.M.P.P.M.P.Q.!.).).!.T.(.(.~.Y.K.c.U.Y.E.!.,X2X>X,X=XT.T.P.=X2X2XuXfXfXrX<X;X;X3XuXpX#XR.!.#X$X:XP...o.K.c.E.qXpXfXpXpXfXfX2X$X#XW.A.@X2XpXqX<X<X<X<X2X3XpXnXBXmXfXM.a g 8.U.qXBXBXBXgX7XrXuXuX<XC.&X3X3X2X<X;X$X*XuXrXfXpXpXqXqXpXqX#XP.c.Q.=X-XqXpXpXpXqX2XR.L.C.#X#X$XqXpXpX:X@X@X-XqX2X>XM.M.n.n.n.P.O.7 p S D w./.).>X).Q.(.(.n.0.+.+.*.-.c.U.y.y.q.y.q.q.q.L.(.(./.y.M o X 1 g G.^././.H.-.o.o.O.O.l Z X.Z O.S Z B C Z X.&.X.Z C D C V M f ",
"&.&.X.X.X.| X.O.*.*.*.0.y.K.y.y.K./.~.(./.*., % t V 8._.qX9XE.L.K.n.y.9.| 9.P.n.K.U.n.c.P.~.!.E.n.w.P.!./.Q.P.L.Y.t.0.P.T.!.!.P.R.T.P.@X@XT.R.2X,X3XqX<XoXW.W.@X@XOXW.oX#X#X:X<X~.+. .q.y.L.@X;X<X2X7XqX<X:X@X~.#X$X:X<X2X&X<X3XpXsXpXpXpXzXBXvXgXQ.a q D U.uXBXCXNXpX<X&X;X<XoXa.$X2X3X2X&X@XW.,X3XrXqX<XOX$X3X3X:XV.T.T.n.n.#X=X:X:X@X@XR.C.#X=XC.!.;X<X2X<X;XT.C.R.R.T.C.M.M.M.M.T.P.5.a 4 l X.9.c.n.P.P.Q.P.n.y.0.5.-.-.0.y.y.q.q.q.K.L.K.y.y.Q.~./.I.C X . , V H.(.(.L.-.o.Z C C c 7 c | Z C C B c B C Z S V l c C B B g w ",
"D D X.X.D Z D O.O.*.O.e.y.K.K.y.H.Y.E././.t.q . , N e.(.qX=XL.c.c.r.5.+.+.0.y.y.r.e.7.0.G.L.Q.P.0.5.P.Q.T.E.E.Y.Q.5.| y.w.n.n.z.n.L.L.@X,Xc.L.:X<X;X&X#XR.R.OXoXR.R.C.W.#X$X:X<XR.5.X.0.z.V.R.@XOX:XpX<X@X$X$X$X$X:X2X:X<X<X2X3XpXdXpXwXrXdXgXNXgX).7 & S U.pXBXBXpX$XOX#X@XC.x.l.@X;X;X~.T.M.P.@X:X3X:XT.C.;X;X:X<XR.!.=X6.5.n.M.R.R.C.T.V.C.$X-Xx.W.,X=X$X-X@XR.L.R.L.M.M.x.M.C.T.T.P.5.h a l ..7.5.0.r.z.M.n.y.w.r.0.O.0.0.q.q.r.y.K.P.E.L.c.r.K.K./.Y.D O   & M K.(.).q.| C v g a a s c V V B g a a B B C c w e B B B B l a ",
"D D X.8.X.Z O.+.*.+.-.G.L.K.K.K.G.y.K./.).H.< . > A t.(.>XQ.n.n.n.n.0.7.y.y.r.r.0.{ S | X.0.K.K.q.Y.E.L.E.E.~.E.R.y.Z +.0.c.P.P.R.T.L.E.@XR.!.#X#X@XoX@XOX:XqX@X X@XoX@X@XOX2X-XR.q.+.E.2X,X X-X3XpXpX@X@XOX;X2X X$X;X2X:X&X3XsXdXdXsXpX3X3XpXzXvX-Xa @ S Y.uXBXBXpX@X$X2X XL.R.:X#X;X@XM.@. .0.a.T.:X;XR.2X2X#X;X2X<X$X,Xn.~ 5.z.M.@X~.@XR.T.~.@XC.~.;X@XR.W.R.R.~.:XT.C.P.C.C.T.R.R.M.%.v v q.L.K.-.c.K.R.T.q.y.-.c.K.O.+.%.r.q.0.y.Y.E.T.P.c.y.0.r.Q.Q.7.O   O g t.(.P.5.c B | Z f x c S B l d q 6 ; q a B B a A D c V B c B ",
"D S D &.D S D 7.*.*.-.y.K.G.c.H.y.y.c.Q.(.y.6 o = M 8.(.>XM.0.y.K.K.9.+.7.+.*.8.*.&.X.X.O.c.K.L.l.P.L.c.E.R.).).E.y.7.r.r.z.P.M.E.T.M.V.E.;X@XR. X#X@X;X:X:X2X2X;X@X#X$X;X2XpX$XL.%.z.pXfXpX3XqXwXpXwX&X XR.@X:XM.V.$X2X&X&X3XpXpXfXsX7X7X3XpXjXgX=Xh & B L.uXNXgX*XoX:X2X;XM.l.L.M.R.R.T.z.n.6.m.@X;X&X@X:X#X X;X<XqX;X@XM.q.n.c.M.!.R.!.R.M.C.@X;X@X!.R.!.W.~.W.~.~.@XR.T.T.R.R.~.=XL.0.v +.#X#XR.M.P.T.E.T.c.q.-.r.K.o.o.*.e.0.-.q.K.I.T.L.K.c.q.0.U.Q.+.@   O w e.(.P.+.v Z o.| a e a d d w w e q q q g C c l B l f B C A Z ",
"C B O.O.Z D *.7.7.0.q.r.r.K.L.H.r.y.y.Q.(.K.6 . , g 7.Q.!.z.q.n.n.K.y.5.| C X.O.*.*.*.X.t.Y.E.(.E.c.w.L.E.T.(.R.T.M.c.y.M.P.P.M.C.M.L.M.R.wX-XV.@X#X@X$X3X2X2XpXpX;X#X:X;X7XfX~.M. .R.nXsXpXgXgXpXpXpX2XR.x.@X#Xb.R.qX<X:X3XqX<XwXgXgXpX7XuXpXgXNX).h $ c P.uXvXsXoXOX<X:X&XT.a.$.@.z.n.C.!.C.z.~.3XwXwX2XV.V.@X$X$X2X&X@XR.T.n.M.T.R.T.T.C.M.T.=XpX=XM.~.@XR.#X,XW.@X,X#XT.T.~.!.$X:Xn.+.y z.qX@X@X-X=XT.R.R.l.-. .y.K...o.e.q.0.q.l.-.K.~.E.K.y.0.e.Y./.7.X . X w 7./.n.Z B Z | Z c p q q q q w l d e c Z o.D B a g a c c c Z ",
"X.S D O.D D 7.t.r.K.I.K.K.I.U.L.K.K.Y.(.(.y.q X , M y.Q.Q.y.y.n.n.H.0.+.O.0.e.0.-.G.e.-.Y./.E.=X~.T.P.L.c.c.M.E.>X).P.T.Q.T.M.T.L.T.R.M.l.,XqX<X;X;X@X@XqXqX2XwXwX2X3XwX2X3XqXV.#.%.OXgXgXpX3X3X3XpX3X2X$XoX$X&XV.@XwX7XpXgXgXsXgXgXgXgXpXdXfXzXgXT.6 @ S T.fXBXpXoXOX;X$X$XV.z.a.M.@XR.T.@X~.R.qXpX3XwX3X$X#X~. XR.;X3XpX;X@X@X@XT.R.R.R.R.C.z.V.;X;X;X#X=XZ.~.2X;X#X#X#X X~.-X!.#X=Xq.v E T.uX:XE.T.v.L.L.L.M.z.-.c.K...-.c.c.L.K.L.L.E.~.E.L.L.K.U././.7.& . & g G./.n...v Z v Z l w q d l g e l l V X.| Z Z Z g l g g f d l ",
"&.&.X.&.O.O.8.y.K.Y.E.Y.Y.Y.Y.U.E.Q.(.).).t.w . 1 S E.).n.y.r.y.K.H.y.e.0.y.H.q.r.c.y.y.K.P.T.Q.).~.E.P.c.L.c.E.qX,X#X).~.!.T.M.T.C.L.z.b.:XuX3X:X:X~.;X2XqXqXqXwX3XpXpX3X3X3XR.a.R.qXsXpXwX7X2X3X3X3X2X2X&X:X&XR.@X3XpXgXzXmXgXzXgXzXvXgXNXBXvXdXC.q X c =XBXvXrX#XoX$XOX$XR.W.L. X:X@XoX#X;X;XqX3X2X1XwX3X2X XT.L. XuXgXpX<X<X:XW.T.R.W.T.T.z.M.$X:X;X<X=XC.R.=X;X#X#X#X#X,X:X#X~.;Xw.^ n.~.;X;XE.R.L.M.M.v.M.c.n.m.c.5.0.c.T.T.T.E.Q.E.E./.R.E.E.(./.Y.O.@   % S n.^.w.Z Z Z | Z c l g B D v V C v V X.| Z | D v c g q e a B ",
"*.X.&.*.O.+.+.r.I.y.r.y.r.q.K.I.P.Y.-X-X(.y.q X 1 D ).).M.n.w.y.L.I.Y.K.0.-.r.c.G.c.G.c.n.n.M.T.~.~.).E.M.y.c.n.).,X,X=X#X,X~.M.~.~.M.C.=X$X$X:X#X#X#X;X$X$X&XpX2X#X;X3XpXwX3X&X@X:X3X3X2X3X2X2X3X7X3X3X3X2X2X<X&X;X&XfXgX7XrXpXuX3XsXfXgXgXBXvXgXQ.6 . g =XBXzX1X2X$X@X;X2X2X<Xx.R.;X$XOX#X;X;X$X@X&X<X2X3X2X;XR.x.V.OXqXpXpX;X2XqXR.Z.:X#Xa.!.;X#X$X$X=XW.W.~.R.R.W.:X#XM.T.#X2X#X~.M.m.M.R.R.T.R.R.R.T.M.n.M.M.n.M.l.z.0.0.T.E.c.y.c.c.y.L.L.Y./.-X/.Y.&.X   X S !.Y.9.5.5.k X.+.O.C a c v v { C C C C C Z | Z C S c a q e s ",
"O.O.X.O.O.O.X.0.y.r.0.e.0.e.y.c.K.Y.(./.E.*.; X 1 O.(.!.M.c.M.K.K.K.K.q.0.c.H.K.K.K.K.y.q.K.L.T.E.E.R.R.L.P.T.T.@X;X;X-X;X,X=X~.~.@XM.~.;X#X:X$X@X@X@X@X;X;X<XqXqX;X X-XpXwX3X2X2X:X&X1X3X3X1X1X2X7X1X<X&X&X<X;X;X$XoX7XpX2X1X2X2X3XpXpXpXNXCXnXpXz.5 . g =XBXgXpX2X&X$X3X2X&XR.T.R.$X;X:X;X;X@XR.oX;X2X2X<X&X;X XR.;X&X3XwX7X1X2X3X;X@X2X$XC.=X$X;X;X@XR.!.R.R.R.R.@X;X@XM.T.~.uX,X>X!.M.C.C.T.T.T.T.L.C.M.l.m.c.y.y.w.z.0.+.M.T.c.0.5.-.-.c.G.K.E.-XY.9.c .   X S Q.A.5.7.Z Z o.+.X.c l C Z Z { Z C C l c Z v v Z C c d g l V ",
"+.o.X.V D Z +.*.0.0.r.0.e.e.y.y.K.Y.).Q.9.f & X 1 G ).).T.K.y.H.c.y.q.-.K.H.c.K.K.K.I.G.q.c.P.Q.E.E.E.~.=X:X,XqX;X=X;X;X-X-X#X#X@X@X:X#X$X$X$X!.#X#X=X$X#X2X2X2X<X;X@X:XsXfXfX7X&X&X<X3X2X2X<X2X2X2X1X<X<X&X@XM. X@X:X:X3X3X3X2X2X,X2XpXpXzXVXvX@XE - X g !.gXzXdX&X<X;X&X@X XR.2X$X&X<X2X:X2X XR.$X2X2X2X&X2X<X2XsXgXfX<X*XqXwX3X3X2X<X&X$X;X$X;X;X@XW.Z.oXW.R.T.W.#X@XR.C.T.=XpXqX2X~.T.T.T.T.R.T.T.v.T.M.L.M.z.c.-. .0.+.q.c.z.c.y.q.r.-.-.c.K./.(.I.Z - .   X D ^.Q.w...3.Z | C v z | | ~ Z Z Z C v h c Z | Z v C C C O.7.O.",
"7.O.X.A g l 7.t.H.t.0.e.0.O.0.K.K.E./.K.O.a = X < &.).;XP.n.n.r.q.r.y.H.K.n.n.K.U.U.M.w.U.Q.P.P.T.Q.T.!.@X;X~.-X,X-X!.E.M.n.R.:X3XuXpX1X$X:X<X:X#X#X:X:XoX2XuX3XqXuXqX3XpXqX3X3X<X<X2X<X2X3X3X3XsXwXpXwXqX;X;XR.x.R.qXfXwXwX2X$X;XR.2XpXpXgXzXfXm.l 6 @ g !.vXgX7X*X:X@XoXoX@X:X<X&X<X<X2X<X;X X2X2X<X2X&X<X2X<X3XpX3X7XrX2X$X=XC.M.@X3XpXfXpX2X2X:X&X#XR.@X@XR.C.@X:X:X=X;X~.;X2X;X@XR.T.R.T.L.T.T.T.T.#X~.T.L.n.n.7.| v o.y.T.E.c.y.r.+.| -.y.K.E./.r.l * X   = D T.A.w.7.~ Z v Z Z | ^ | Z Z Z D Z c D v v Z v Z Z v | o.B Z ",
"e.7.+.D l v | 8.H.G.r.7.O.X.t.y.c.L.E.y.B ; = X < D _.=XM.K.K.q.q.H.K.L.K.K.K.K.M.P.n.n.!.!.P.T.T.T.!.~.=X;XT.T.-X=Xc.w.0.c.#X3XpXaXfXuX$X2X<X:X#X#X$X@X#X2XpXwX7XpXpX3X1X2X<X1X7X<X<X<X2X2X$X<XpXfXsXpXpXpX:XR.b.T.@XpXpX3X<X~.C.M.2X2XrXpXdX2X,.x 6 = v ~.nXaX<X<X;X]. X<X1X2X<X<X<X*X<X<X$XOX7XpX<X<X2X<X2X7XsXpXOX$XuX:XC.m.6.6.$XpXsXjXgX3X2X&X2X$XoX@X@XZ.Z.;X2X:X:X2X$X#X~.(.R.@XR.R.T.T.T.L.z.M.).).~.~.T.m.0.| v O.0.E.~.L.c.+.| C 0.r.y.P.Y.+.q &     X D Y.P.3.7.D v v | X.o.O.X.| | | | v v 7.| Z B v c v | D Z h c ",
"Z +.7.o.7.D l v *.y.t.O.C X.e.r.r.M.U.*.6 ; = % t &.).Q.n.P.L.q.y.K.K.M.M.M.M.M.M.P.P.P.Y.P.M.n.w.T.).:X-X#XT.T.T.T.w.0.0.m.;XuXpXpXpX$XW.$X2X<X<X:XW.#X2X3X3X3X3X3X2X3X3X1X1XrXgX2X<X2XW.b.C.T.N.$X<XZ.;XwX3X@X=XR.z.C.3XrX#Xm.z.M.$X<X3XrXpXb.u x 6 ; O.-XvXrX+X3X<XZ.;X2X1X2X<X<X<X&X&X<X$X<X2X1X:XoXoX3XpXgXgXrX<X$X$XW.m.3.z.P.&XpXgXdXdX#X@X;X2X;XOX@XC.R.:X:X<X:X:X#X!.#X@XR.T.,X,XR.T.C.6.%...5.@.c.M.%.q.n.9.5.0.5.~ +.y.M.n.o.C { 0.0.9.K.U.x & & .   % O.Y.n.3.7...x D O.o.| o.| D | | | D v Z v v c c Z | +...Z Z g ",
"D &.7.7.9.9.| D +.e.+.c D X.7.y.K.Y./.0.p p 1 = t 8.).Q.n.T.L.H.K.L.K.L.U.M.U.U.P.M.U.P.Y.P.m.n.m.T.~.#X;X@X@XE.T.T.E.M.n.!.~.2X3X3X<X!.#X#X<X:X2X2XoX#X2X2X2XrX2XR.@X#X$X2X:XuXwXOX@X&XC.b.Q.C.M.@X#XR.;XqX7X2X3X;XC.C.@X:X~.6.M.V.:X7XpXpXpXb.x x 6 f &.,XNX2X$X7X<X<X<X<X<X3X1X<X<X<X<X<X<X2X2X&X$XOX&XwXrXpXpXqX3X:X$X$X!.m.L.T.=X3XpXsX2XOX;X2X2X;X<X$XR.oX-X#X$X#X!.m.n.M.R.E.T.@X=Xz.M.m.$...5.o. .M.w.5.w.n.n.c.n.9.+.+.0.r.0.| o.| 0.y.c.P.P.c * & X   = O.Y.w.5.5.7.7.| o.+.o.o...| | D  . .| Z Z v k v Z | O.| | D c ",
"X.7.7.0.w.y.w.8.X.Z Z Z | O.e.K.E.Q./.9.f p t 1 N G ).=XQ.M.n.P.M.M.M.M.M.C.m.m.m.m.M.P.T.C.m.C.!.C.T.W.~.#X#X~.!.!.!.n.m.Q.W.W.#XoXm.A.#X$X:X+X2X2X$X!.@X$X<X=XC.d.a.C.<X2X*X$X#XC.W.$XW.C.#X$XC.A.$XW.2XpX3X3XaXtX:X$Xb.N.C.h.W.W.*XrXpXgXsXC.u k 7 f 5.uXcXdX1X+X$XrX<X*X2X7X1X<X<X*X*X<X*X2X}.*X+X<X1X1XrXrXpXpXrX1X*X*X{.h.N.T.oX$X1X:XV.W.$X<X$XOX<X;X@XC.C.W.W.T.6.5.5.w.R.R.R.T.M.6.n.M.m.w.M.w.+.q.z.w.n.E.M.M.T.P.c.9. .o.| | o.o.0.y.U.P.E.Z * %   X < O.Q.M.w.5.| 9.o.o.o.o.o.+.O.| ....D ..Z Z v Z v C Z | D O.O.Z ",
"*.9.y.y.t.y.w.0.5.e.*.D O.8.0.c.Y.Y.n.5.a p 1 < s 8.).,X$X#X~.2X;X$X$X$X:X:X:X:X1X,X2X2XuXuXuXuXuXrX1XuXrXpXrXrXpXpXrXrXrXpXrXuXaXrXrXuXaXpXpXpXaXaXaXaXpXrXrXrX1X2X<XrXpXtXaXaXpX7XrXrXrXrXrXtXrXaXrXrXrXsXsXdXjXdXaXrXrXrXrXrXrXrXrXdXdXdXdX*XB.{.A.A.#XaXcXjXsXrXrXrXrX5XrXrXrXrXrXtXrXrX7XrXrXrX1XrXrX1X*XrXrX7X7X<X*X*XrXA.OX+X$X+X$X$XoXoX#X$X+X#X$X$XoXoXW.A.C.m.6.6.6.M.!.T.C.C.M.d.x.M.m.z.m.z.6.m.z.d.M.A.m.m.m.n.z.6.3.5.@.| +.-.0.K.P.n.y.v * = X X ; 7.Y.Y.M.w.5.5.o.o.*.5.o.+.+.+.| X.Z S +.5.Z v Z v v Z x v Z Z ",
"O.e.c.H.t.c.K.y.0.0.0.| O.t.y.P.Q./.y.S p 6 p t F &.^.!.2X,X2XrX<X1X1XuXrXrX1XrXrXuXrXrXrXrXaXaXaXtXaXaXtXaXdXaXdXdXgXvXdXdXdXdXdXdXdXdXdXjXdXdXdXdXjXdXyXjXdXdXdXdXdXdXdXdXjXjXdXjXjXvXdXjXdXjXdXjXcXjXjXjXjXvXcXjXcXjXjXvXjXjXjXjXjXjXjXjXjXdXjXjXdXjXdXdXjXjXhXdXdXyXtXtXyXtXyXyXtXtXtXtXrXrXtXtXrXrX1X*XrX*XrXrX*X*X*X*X*X}.*X*X+X+X+X{.}.[.{.+X{.{.[.[.[.[.{.A.A.A.A.A.Z.B.N.C.V.V.V.b.b.b.N.d.6.z.z.d.z.d.m.d.z.d.6.6.6.z.6.q.~ x +.0.0.c.Y.Y.y.x ; = @ % t S n.m.Q.M.t.7.o.| 0.%.o.o.+.o...X.^ X.7.o.Z Z v c c x c B c v ",
"9.0.r.K.K.K.K.y.r.y.c.e.O.+.t.K.Q.!.w.B p < p s M G t.Y.2XuX3XpX*XoXW.[.!.A.A.oX#X+X*X1XrXrXrXrXrXrXrXrXrXrXrXrXrXrXrXrXtXrXrXrXrXrXrXtXrXrXtXrXtXtXtXtXtXtXtXrXtXtXtXtXtXtXtXtXtXdXtXtXtXtXtXtXtXtXtXtXtXdXtXtXtXtXtXdXdXtXtXdXtXdXtXdXtXyXtXyXtXtXtXtXtXtXtXtXtXtXtXtXtXtXtXtXrXtX5XtX5XrXrX5X5X5X|.rX|.5X}.}.}.}.|.*X*X}.}.}.}.{.}.}.{.{.[.{.[.{.].{.B.{.[.].B.B.B.B.N.j.N.j.j.j.N.b.j.h.h.f.h.h.h.d.h.d.h.6.i.6.d.i.d.6.6.i.3.k y a { O.0.y.T.^.9.a & ; O % t S 5.9.Y.Y.w.5.+.5.0.+.+.o.o.+.5.9.t.9.| Z ~ v C v c c c B c B ",
"U.H.U.P.K.K.G.K.c.y.G.0.*.7.q.K.Q.Y.| a 6 q < t A S *.P.qX2X3XrX1XA.[.b.d.N.Z.#XA.+XtXaXrXrXrX*XA.+X1XrXpXaXyXdXtXOX*XdXjXjXdXjXdXjXjXvXdXvXjXvXdXvXjXvXvXcXvXvXcXcXcXcXlXcXcXcXcXbXcXvXcXcXcXcXcXcXcXcXcXcXcXcXcXkXcXcXcXbXcXcXcXcXcXkXcXcXcXcXkXcXcXkXcXjXcXjXjXcXjXcXjXjXjXtXdXjXjXjXjXjXjXtXcXtXtXtXtXtXtXtXtX5XtX5XtX5X5X*X*X|.}.5X}.}.{.}.}.{.}.{.}.{.{.{.{.B.B.B.B.B.k.k.A.+XA.4.x.j.k.j.A.$XA.A.B.d.6.3.` ,.@.3.4.i.d.#X..7 6 a v 7.t.P.P.n.D ; & ; O = p S o.0.P.P.q...5.0.9.5.5.5.+.5.7.w.y.7.| ~ D Z v Z c c C C c c ",
"y.Y./.Q.P.G.c.H.y.q.r.-.0.c.L.~.(.E.l p a f w N F A 8.I.>X2XuXrX1XA.A.` 6.z.6.3.6.1X3XN.b.N.oXA.Z.Z.+X[.*X1XrX{.1X+X*XvXvXvXvXvXcXvXvXcXvXcXvXvXcXcXcXcXcXcXvXvXvXvXvXcXcXcXcXcXcXcXcXbXcXcXcXcXcXcXcXcXcXcXcXcXcXcXcXcXcXcXcXcXcXcXcXcXcXcXcXcXcXcXcXcXjXcXjXcXjXcXjXcXcXjXcXcXjXjXjXtXjXtXdXtXjXtXtXtXjXtXtXtXtXrX5XtXtX5X5X|.}.*X}.}.*X}.{.}.{.{.{.{.{.{.{.{.{.B.B.k.k.k.k.h.A.W.@.T 4.i.u.p.j.1X1XA.b.#.~ k ~ x y u T 3.M.C. .4 6 r O.5.c.Y.Q.t.a ; ; ; = % s B O.r.L.U.K.+.X.5.0.9.+.+.+.e.9.7.| Z Z O...D | v c c B c g c ",
"7.K./.(.(.E./.K.y.y.y.0.0.K./.>X>XK.v c c h < < A G 8.K.).:X2XpX*XC.6.3.T.W.6.^ 6.W.E 7 y T ` ` 4.d.f.N.[.+X&X+XC.! u.f.h.h.j.j.j.j.j.j.k.k.k.k.p.j.h.k.k.k.h.j.p.k.k.j.k.k.j.j.k.k.k.k.j.k.k.k.h.j.k.k.p.k.k.k.k.k.2.k.k.k.{.2.k.k.k.k.2.2.k.k.k.2.2.k.k.k.k.k.k.2.2.k.k.2.2.2.k.2.2.k.2.2.2.2.2.2.2.2.2.1.2.1.1.<.<.<.<.<.<.<.<.) <.,.,.,.,.,.Y ,.Y Y ,.,.Y Y Y ,.Y Y Y Y ! I Y T k ^ ,.,.3.3.i.:Xm.3.^ v 7 7 y j 4 y ~ d.C.C.@.7 6 e Z +.c.Q.U.5.6 p p < O , p S 0.r.y.L.c.O.Z | O...Z Z | 5.9.+.Z Z Z | o.X.O.Z C Z c a g c ",
"O.9.U.(.).Q./.K.q.e.e.*.0.K.=X>X(.y.+.D f f p t A =.8.K.(.;X,XrX*XA.h.m.W.b.,.k k ..j e h a y 9 y k ^ ` 3.C.W.d.k y j T I ! T ! ^ ! ( ( ^ ( ,.^ ,.` ( ,.) ) <.[ <.[ u.,.<.4.u.<.<.u.<.<.u.[ <.s.1.1.i.2.p.2.p.p.2.2.2.h.2.k.2.2.p.p.2.p.2.2.2.2.2.2.2.2.p.2.1.1.2.2.2.2.2.2.2.2.1.1.1.1.2.2.2.2.2.2.2.1.1.1.1.1.<.<.<.<.<.,.,.Y <.,.) ,.Y ,.,.,.` ! ,.! Y Y ! I Y I u Y k I k ! k y i ~ 5.` k ~ ^ ^ x x a 7 6 h h a 6 z @.z.A.f.#.e # 6 l o.w.H.n.D a x ; < X % s S 7.y.c.y.0.X.l c Z Z c c D o.5.9.5.v v v o.o.O.| Z c a f c l ",
"7.+.+.n.n.M.E.L.0.-.*.*.y./.,X=Xy.5.7.C p s 1 < A G 8.U.=X-X2X7X*XA.j.m.C.` u 4 4 4 6 5 5 5 5 * 4 4 7 7 7 9 7 7 7 9 y 9 u u k u u I P I I T I U I Y U ! ! R R ( ! ( ! ( ( ( Y ( ( ( Q ( ) ( ) ) ) ( ) ) ) ) ) ) ) ) [ [ <.) ) ) ) ) ) ) ) ) ) [ <.,.) [ ) [ ' [ ) ) ) ) <.,.,.,.) Y ) ) Y ) ) ( ) ( ( Y Y Y Y Y R Y U R U R U U U U I I u u u u u u u y y y y u y 9 9 y u 9 9 7 7 7 4 4 7 4 4 y 6 5 4 * 5 5 4 * * * 4 z @.V.C.f.@.7 - - p Z +.5.O.a d w - = X % s A 0.K.L.y.*.| a e a g d B Z +.9.y.7.| Z | o.X.o.O.c l g A c h ",
"9.0.q.y.K.P.Q.P.y.+.0.K.E.-X-XE.r.e.D g < < = t F G 8.K.).~.;XrX*XA.C.h.4.k 7 h h h 5 5 q * # * 6 6 6 7 e 7 h h v E ~ / ^ ....@.@.` @.#.#.3.4.4.3.4.4.4.4.u.u.u.d.s.d.d.d.i.a.s.a.f.s.f.s.p.s.p.f.p.p.p.f.g.s.p.g.s.p.s.2.p.s.p.i.s.s.s.s.i.s.[ 1.<.u.u.s.u.<.<.;.u.<.<.<.,.Y ,.;.<.' ' ,.[ ' ,.' #.) ) Y ) ) ) ( ! _ / _ / / R / T T I u k T I u u u z u u y y y y y y y a y y y y 7 7 6 5 * ; 5 * * & 6 6 5 * e 7 z ~ 6.C.C.x.3.4 - - q c c c x 6 < - & O X , t A *.K.L.0.+.Z l g l V v | O.+.9.w.5.| | | O.+.O.| l g a c c V ",
"y.y.n.K.~.Q.T.K.y.0.0.~.,X).L.K.r.+.l a q ; = s A G 8.H.-XE.<XrX*X[.[.h.( y 4 a x 5 * # * # # & - * 5 * * # * * 6 4 4 7 7 4 7 9 4 y y y y y u u y u u u P u P P I U I U U U U U U U R R U Y U U R U U U R U ( Y ( ( U Y Y Y ( R Y Y Y U Y Q Y Y Y Y U U U Y U Y Y U Y U U Y Y I U U U U R U U U U T P U U P T P I I P I P P I u i u y y y y u y y y 7 y 7 7 4 7 7 7 4 4 4 4 5 6 4 6 4 4 ; * * 5 5 * * * 5 6 5 5 9 y ~ @.b.oXZ.l. .6 - 6 p q ; ; < - & O % X X , s M O.r.L.r.0.| c V C X.*.0.w.r.y.r.5.| | Z O.O.| v a w e a C S ",
"H.K.K.L./.E.E.c.+.0.c./.Q.w.r.y.+.v f f p 1 = N G 8.8.G.(.E.;XrXrXA.*XA.h.T 7 4 5 4 4 # @ + @ + # # # # # # # 5 l 6 # 4 4 * 4 4 4 4 4 4 4 4 4 4 9 8 8 y 8 u 8 u u 8 u 8 u 8 u u u 8 P 8 8 P P P P P U P P U P P P P U P P U U P P J U P P P U U U U U U U U U P I P P u P P u P u u P P u u u U P u u u P P P 8 8 u u 8 u y 8 y 9 9 y 9 y 7 7 7 7 7 7 4 4 4 4 4 4 * # 4 * 4 * * * * & * * 6 p * & # @ # * * 5 9 T / ` ` x.<XOX_ y 5 - 5 - & & O & X $ = & % O , < M X.9.Q.y.0.O.X.B a v r.c.c.y.r.5.Z C c v Z X.C q q g B Z Z Z ",
"K.U.n.y.E.(./.M.| w.Y.(.c.0.+.X.l l B S d = O N G >.8.8.w.9.C.rX+XB.rX*X,.~ a ; 5 4 * * * # # * @ * # # @ * q h r 4 5 7 7 h 7 y 9 7 4 7 y y y u u I I I I I I Y U ! T R ! ! ! ! ! ( ( ( ( ) ) ) ) ) ) ) ) <.) <.) [ ) <.) ) [ ) ) ) ) ) [ ) ) [ <.) ) ) <.) Y <.) ) ) ) Y Y <.Y Y Y Y Y Y Y Y Y Y Y Y ) ) Y Y Y Y Y ( Y Y T Y T I T I T I I u u u u u u y y 9 6 4 7 7 6 7 a 7 6 - * * 6 a a # # + $ @ * * 5 h ~ #.f.f.j.Z.gXOX6.j 5 - ; & X X X X X % % = X % 1 N M O.y.U.r.c.H.7.D a c y.P.c.0.0.+.{ d e g g V g 5 p c X.+.O.S ",
"t.8.+.7.t.G.y.7.O.0.t.O.S B x f g c c B f & & F G &.G 8.t.8.P.rX*X{.dXA.7 7 * * 4 # * 5 6 4 6 - 5 5 * # - 5 * 4 h y j ~ ..v | ..| ~ i y u u k I I I I T T Y T T I Y Y Y U ! Y ( Y Y ( Y Y ) ) ) Y Y ) ) ) ) ) ) <.) ) [ <.<.<.1.<.1.2.1.1.2.1.2.1.1.1.1.<.<.1.1.<.) ) <.<.) ) <.<.<.) <.,.,.<.) ) ) ) ) Y ) ) ) ) Y Y ( Y Y Y T Y I ! U I I I ! I I k u u y y y u | j x 7 a x 7 5 - a e * # * ; - - # q q a ^ i.V.N.u.k.d.b.4.b.E * * - X X .   X X X % % . % 1 s N S 8.G.7.5.O.x p 6 X.G.c.0.+.| v V l c V l B l a V C X.o.O.D ",
"f q p d f p q p d w q - ; - = - t f p w ; = 1 A G &.7.8.G 7.m.rX*X{.dXj.u * * 6 5 # * 5 7 x l 7 h h l 5 h j l x z ~ ^ 6.6...@.6.6.6.@.@.I ^ ! ! ( ` ) ` _ Y Y ( ( ( Y ! U R Y R Y Y Y Y Y Y Y Y Y Y Y Y Y Y Y Y Y Y Y Y Y Y Y Y Y Y Y Y Y ) ) Y Y Y Y Y Y ) Y Y Y Y Y Y Y Y Y ,.Y Y Y Y Y Y Y ,.Y Y Y Y Y Y U Y Y U U U I I I I I I I u u I u u u u u u u u k 5.~ +.v h y j v x l l l 6 ; ; 6 q d 5 6 e a / 6.V.f.#.d.:Xf.b.b.W. .4 * - .           X   . X % 1 s N M O.O.B p - & = f D D S c g a p d g M l p g g g g B A B c g ",
"X X O X X o o X X X X O % & O % = < t t w s M G G >.>.G S f w.uXrXA.dXk.~ 7 ; y * + * 5 h k E | v O.z v  .| ..@...! @.b.6.@.@.#.z.4. .#.u.f.f.p.h.p.h.j.h.p.p.j.j.f.i.i.i.u.p.u.i.<.1.1.p.i.1.<.1.2.1.1.1.1.<.<.<.<.1.<.2.1.[ 1.<.<.<.<.) <.<.<.<.1.<.<.<.1.<.<.<.<.) <.,.,.<.<.<.) <.<.,.Y ,.,.) ) Y Y Y Y Y ! Y ! Y ! ! ! ! Y Y T T I I I u k u u u k k u u k T @.E v x k Z 5.l e 6 e p y a x l e 7 V  .^ i.a.` i.N.N.B.*X2XoX/ 5 - , .             . X % 1 1 < N A M M N f 1 < s t = = $ X X X X X $ X X X O X X X X @ $ X O ",
"X % % % % = , , = = = = 1 < t s f N A G G G G G G G 8.G G S n.aX1X{.rXh.! y 4 6 # # # 5 7 | 3.5.@.~ ..M.m.M.C.C.b.C.C.C.` d.V.b.z.d.N.[.#X{.+X}.+X}.*X+X}.+X*X+X*X}.}.*X*X}.*X*X}.*X*X}.*X}.+X}.}.}.}.}.}.+X}.}.}.}.}.}.}.}.}.}.{.}.}.{.{.{.{.{.{.}.{.{.{.{.{.{.{.{.{.{.{.k.{.k.{.].k.k.B.k.k.k.].2.k.k.k.k.j.j.j.h.h.f.p.p.i.4.,.,.4.4.,.@.,.,.,...` ^ ^ ^ ~ k ^ ~ k k k y Z v 7 a B v v v k x h x h k 5.~ ~ E 3.x.b.p.B.<X*X#X` 4 * -         X o % % % 1 1 , t s N N g M F N s N s 1 , 1 % , = = = = = O O O X o . o .       ",
"< < t < 1 < < t f < t t f f N M M A G =.8.G &.8.8.8.8.8.8.O.m.rXrXB.A.i.~ y 6 7 # - 5 5 h v 6.;XC.` C.~.OX#X$X$X+X+XOXW.Z.+X&X*X*X&X1X1X1X1XrXrXrXrXrXrXrXrX5XrXrXrXrXrXrXrXtXrXrXtXrXtXtXrXtXtXtXrXtXtXtXrXrXtXtXrXtXtXtX5XrXtXtXrXrXrXtX5XtX5X5X5X5X5X5X5XrX5X5X|.5X|.5X}.5X}.|.}.}.}.}.*X}.{.{.}.{.{.{.}.{.{.{.{.[.B.B.B.k.j.j.h.h.h.f.p.i.i.4.4.3.,.,.3.3.,.` ` ..` ^ ....~ ~ ~ ^  .~  .Z Z ~ ..m.3.w.~ v  .z.x.i.A.A.OX1X*X/ 5 * = .     . X o X % % = 1 1 < N s s f t < t N N f s t < < t s t s t < < < 1 1 = % % O X o % ",
"f N V A S D &.&.D S &.8.e.e.t.e.7.8.8.t.t.t.G.J.t.H.H.J.H.t.A.uX*Xk.B.i./ y 7 v * * * 5 j | b.$Xb.M.$X<X2X1X3X1X3XrX1X1X1X1X1XrX1XrXrXrXrXrXrXpXpXtXrXtXyXpXaXtXrXaXsXsXaXtXtXtXdXaXdXtXaXdXdXtXdXaXaXtXyXyXdXyXtXyXtXdXyXtXtXtXtXtXtXtXtXtXtXtXtXtXtXtXrXtXtXrXtXtXtXtXtX5XtX5X5X5XrX5XtX*X*X}.5X}.5X}.*X*X*X}.{.}.{.{.[.[.[.].B.B.N.j.j.j.x.h.h.i.f.6.6.4.6.4.3.4.@.@.@...^ ^ ^ ^ ..^ ^ ^ ^ 3.^ 3.C. .~ a | ..T.4.4.oXN.A.rXW.v # - ; & O % & % % ; < < s f g A A V M A B g V S &.8.8.&.D B V d s s g M f s t 1 , 1 1 1 % = = ",
"A D t.H.H.K.Y.^.K.H.K./.).).).).U.H.y.H.H.U./.^./._.).).^.n.Q.rX*Xk.A.V.` z 7 z 4 * 5 6 v | ~ z._ T E / ! ` ` ` ` / ` ) ` _ _ _ ' ' ' ' ,.,.,.,.,.<.,.,.,.,.<.,.<.<.<.i.u.1.1.1.1.<.1.1.1.1.1.1.1.1.1.1.1.2.1.1.1.p.1.1.2.1.1.1.1.1.1.1.1.1.1.<.<.1.<.1.[ <.<.<.<.<.<.) <.<.,.,.1.<.,.,.,.,.<.,.,.,.,.,.) ) ( ) ( ) _ ( ( R ! R ! ! Y ! ! R T T T T I T I T I k k u u i u i u y y y y 7 a y y y h I x.T a a ~ 6.m.4.4.A.[.rXaXb.7 * - 6 ; ; ; ; ; = ; < s V D &.&.8.*.8.&.B B D -.I.E.E.H.t.X.S V B B B X.B s s = % 1 < < 1 w f ",
"G H.Y.^.E.^.Y.Y.I.K.Y.).=X>X-X)./.E.Y.G.y.).9X>X9X>XuX_.>Xn.A.rX*XA.rXA.` x 4 7 5 * 5 7 v ..E W.^ ..z.L.M.T.C.T.T.T.C.R.T.C.oXW.W.W.W.oXoXoXW.oXA.W.OXA.W.W.A.Z.[.oX[.oXA.{.OX[.OXoX[.oXZ.[.].oXA.Z.oX].oX[.[.OXZ.[.Z.].A.B.A.Z.Z.B.B.B.B.B.[.j.B.k.A.N.j.B.h.j.j.V.B.N.B.j.B.j.V.j.B.f.N.p.i.d.p.N.f.f.d.f.d.d.d.u.d.4.3.,.d.4.4.@.4.4.3.4./ 3.` @.^ ` 3...^ 3...~ ^ ~ ^ ~ ~ ~ ~ ~ ~ v v k x k ^ ` ;X~ 5 h ..z.b.b.d.h.i.$XrX3.7 * * ; q - q ; q q w q w C &.7.8.y.t.H.t.Z c 8.n.K.L.Y.L.H.e.e.X.C { &.+.D d g $ . , 1 s g c B ",
"8.U.U.K.Y.Y.K.K.K.E.(.Y.L.E.L.H.r.H.(.K.y.P.Q.E.Y.Y.Y.!.uXm.A.uX}.B.rXh.,.~ 5 4 # # 5 a v ~ 6.<X@.z.M.z.z.z.z.z.z.b.b.b.b.b.M.C.b.N.V.Z.N.Z.C.N.b.h.C.N.V.A.V.V.V.B.B.B.A.A.A.B.A.B.B.N.A.B.Z.B.].Z.Z.B.[.Z.B.B.B.B.Z.A.].Z.B.B.].B.A.B.A.B.].B.A.A.k.B.N.B.k.j.].B.B.B.B.j.N.j.B.j.B.N.h.h.p.j.p.N.f.j.s.N.j.f.f.f.h.i.a.i.h.i.d.i.4.4.4.d.` 3.4.` 3.3.3.,.6.,.@.` ` ` ^ ^ ^ ^ ^ ..^ k k ^ v ! M.d.;X/ 4 v ..z.M.C.h.6.i.1XrX^ y - - ; = & = & $ ; w 6 ; d B B S D | O.t.+.Z 5.0.0.0.0.-.0.%.G.K.y.t.y.0.D S B = . , < N S C c ",
"8.K.K.K.H.c.K.L.c./.E.y.y.q.0.0.-.y.I.K.y.0.q.r.c.w.w.^.).P.!.rX*X{.1Xh.B...6 6 * * * 6 x 5.d.<X#.z.5.y 9 x k z v k T ~ ^ / ^ ^ ..` ` @.3.....` ,.3.3.,.,.4.4.4.4.6.6.4.6.6.3.d.6.6.a.i.d.d.f.i.d.f.d.d.d.d.d.f.f.f.h.f.h.f.h.i.d.x.h.x.i.f.i.x.h.i.i.p.i.h.d.h.i.i.f.f.d.p.i.p.p.s.p.i.i.i.i.i.u.u.u.a.u.u.u.u.u.u.4.4.4.6.3.,.4.4.` 3.@.` ` ` ^ ^ ` ` ^ ! ,.v ~ T T ~ k k k k k j x u y a u 3.R.#.#XW 7 +.q.i.z.6.,.d.V.1XrXk e 5 5 ; $ X X X & & w 6 6 p a a l l c O.y.7.7.+.0.0.7.+.....+.y.Y.K.y.t.o.v 7.B =   O 1 g S D C ",
"8.H.H.K.K.y.K.K.y.H.0.0.r.e.y.y.y.y.r.I.P.9.w.y.t.t.c.c.n.w.!.rX*X{.rXB.OX^ - e * * * a o.c.b.1X4.d.3.y - * - - ; 7 r a h e a e a a f a e e a a a x x k k ~ v z v v k v x x x x g x v ~ ! /  .^ ^ ~ v v v ~ ~ / ~ / / / ^ ..^ ^ ^ ^ ~ ~ ~ ~ ~ ~ k x 3.Z v ^ ^ Z ~ v v ^ ` ^ ^ ^ ^ / / / R R ! ~ E T ! E j E P j k z k x x j y x h k x j h h p y h a a 7 a y y y y y h a 7 7 6 5 6 5 6 6 ; ; Z !.V./ #X .h +.M.~.,Xb.T x.N.+XrXT r 5 - - @ X X & & - ; w p p a p a a v Z D v O.5.y.y.0.5.*.*.y.H.q.o.v V B | 9.D =     = M V B B ",
"e.I.K.K.y.y.K.K.r.y.q.c.n.y.G.K.K.c.q.L.Y.K.y.r.H.n.n.U.U.n.!.rX*X{.rX{.*X..5 a # # * y ..n.M.3Xu.m.6.h @         X # # ; @   X X     X .       X 6 7 y y y 4 # X X @ & & @ X     . X - 6 9 y 9 6 * X . . @ 4 4 4 4 4 * y 4 4 4 7 * * * * * * * & & ; & & ; p ; & @ & 7 u 7 7 y y y y 4 4 4 4 7 7 4 y 4 + # # # # + * & @ X X & & # * * ; @ . . . .   . X = = * # * 7 7 # # . X X = ; X X   5.#XV./ =X/ e +.M.@X@Xd./ b.j.*XrX~ h 6 - - @ X X $ & * - e g a a a B c V C D | +.5.0.r.o.Z D O.y.K.e.| B v O.7.8.| ,     = d l c B ",
"I./.Y.K.K.c.K.y.0.I.U.Y.U.L.K.P.I.K.K.P./.(.L.Y.).!.P.Q.!.Y.:XrX*X{.*X].+X..2 a # # * 6 ..n.m.rXu.b.3.k @         & * 5 a X X X   % , % O o o o & 7 y y y y y 6 & = , = ; ; , % O o X X 6 j k u y 5 X . . * 7 7 4 * 4 a ~ u 4 7 7 4 4 * ; * ; ; % & t & ; ; f ; % % & f v y h x v z k y 9 7 y k j h v h # # 4 2 # # & = ; O = ; & 6 6 y f ; & X & = % o % % & ; - 5 x h 5 * & O o = ; % X X 3.rXC./ @X .7 %.T.$X:Xf.` b.N.#X$X~ 7 5 - 5 $ $ $ = * - 6 a l S V v 7.7.X.X.7.+.7.+.0.K.| l a O.H.c.r.+.X.~ O.9.5.o.;     = s V O.o.",
"I.U.G.K.K.G.y.q.y.K.K.P.K.L.K.P.E.P.K.L.c.K.L.L.T.Q.Q.(.!.Q.:XrX*X{.1XZ.N.~ * a * ; 6 7  .m.C.rXi.M.6.z @         = 6 4 x & = ; % % , t = o o & a k k k x u x f ; 1 1 % , f t 1 > % % o & v ..~ k x - X X p v j y 7 7 y 5.k y y 7 7 7 ; 6 6 p < ; t f t t ; f t t < ; x ^ k k Z Z ~ ~ k u u k k v k ~ j * 5 5 4 5 4 * & t p ; p ; p a y x x a 6 a f w % % % = = & 6 v k 6 6 , % % t t = % & w.rXZ.T @X^ y +.R.$X1XV.` V.V.N.u.E h - - 6 $ $ $ & - - 6 q a l c C O.o.O.*.7.5.8.o.7.r.v g a +.K.9.5.+.| D o.+.9.8.q     % d X.0.r.",
"U.L.y.y.q.y.e.-.r.K.H.L.K.K.K.P.Y.P.K.K.n.K.L.E.Y.T.Q.Q.Q.!.<XrX*X{.rXi.^ k 5 x * y u a ~ Q.A.rXf.C.a.E $ o X o . * y y x * ; p t = % % % O X q x k k k k u y y ; % > % % % t 1 t > > : X e ..^ T z e - X & y j y 7 7 k 3.~ i h y 7 a 7 6 6 a < < t f ; t f f t t < t x 5.v ^ ~ ^ ^ ^ ~ k k k T ~ T / k 2 # 2 2 8 7 * . - f x c x y f y y k k k k f p 1 % % % % X ; ~ T y 7 % % t f x t & & m.tXZ.T (. .h 5.W.<X1X+X,.h.Z.B.x.@. .7 - 6 & @ = & - * ; q a g B Z X.O.O.X.O.7.0.+.5.o.B f 6 | I.0.| | D | X.5.0.O.6     $ B *.c.w.",
"K.H.q.e.0.0.+.+.K.K.H.K.K.K.K.P.Y.E.E./.~.K.K.K.U.P.U.L.n.L.;XrXrXi.i.,.u u 4 x 4 v h h ^ M.A.rXd.C.d.~ $ . $ @ . 6 z j x & 6 x a ; & % % ; f * y k ! ^ ^ ! u a < % % > > > t > % > t >   * ~ ` T y 6 @ . @ z _ E 9 9 k 4./ y j x 7 6 6 5 p f ; t f f t f f f ; 1 = 6 Z 3.~ k ^ ~ ^ ..~ u i T ~ ^ ( / T # # + z  .z # . - < 7 y 7 7 7 7 u k k x 7 5 t t , t , % X ; Z T 9 p & % % t x f & ; A.aXA.W ~._ 7 3.R.*X*XpXB.f.N.1X$XT 7 * - ; & & & = - - q a c l l v Z | | V Z | X.o.O.l f 6 - | K.%.o.o.| O.O.+.0.O.;     $ S e.-.| ",
"K.r.q.0.0.| l o.K.K.K.K.P.K.P.P.E.Y.E.E.I.K.K.K.K.K.P.K.c.K.=XrXrXk.*Xh.,.k y x 7 7 7 j / b.W.pXf.V.b.~ - . $ $ @ # h 9 x X ; f x p % X % x f & x x v ^ T k j h f % % > > > > t % > > % % h ~ ~ i y 5 X   6 ..@./ y 9 ! a.~ j h x y p 7 7 p a < = p x ; t t t t f ; x v ` ^ v ^ ..^ ..~ P k T T ~ ` @.j # + 2  .W 8 2 @ $ , f Z 7 ; a k x u y u y 6 ; = , t > % X 6 ^ ~ 7 7 < > % t t p & ; A.dXZ.R @X .h 3.V.+X*X+Xj.h.k.yXdX! 9 # ; 5 & & & - - 6 q g g g g c C | | | | | O.*.B a a ; 5 O.G.0.+.+.+.+.+.-.-.o.;   o $ D e.+.+.",
"K.t.e.0.O.Z C *.Y.K.c.K.K.P.U.P.I.T.Y.L.K.K.I.K.c.K.Y.Y.n.c.!.rX}.k.vX{.,.k y Z 6 4 y k @.C.A.rXf.b.x.^ , . + - @ @ 6 7 h @ & p a t % % p x f ; c 7 * 5 7 y y 4 f & % > > > > > > > % o g T P i u 7 h @ @ C @. .T h y ~ 3.T j x x y 7 j r.7 7 p t f S t f t ; t f x ~ 3.3.` ~ ^ ..` ../ T T j j ~ ~ T j # + r { 8 4 e # @ O < A ; X 6 y y 7 x x 7 a ; = > % % % X ; Z k 4 6 = % % t f p ; ; A.dX[.T ~. .j z.b.OX*Xp.( j.B.aXvX,.y ; - ; & & & & - 5 q e e g l c V | +.X.C { +.*.B 6 6 6 l o.o.+.0.+.+.+.+.+.-.X.-     $ Z e.c.0.",
"I.q.y.y.+.O.| 5.K.K.K.K.K.K.P.P.Y.Y.R.L.L.L.L.K.K.P.P.L.P.P.#XrXrXB.vX}.,.k 7 k 4 4 h E @./ p.pXi.b.b.@.5 . - q X $ e 9 h & . & p t ; & f x x p a & # # 7 k 9 # 6 & % % % > t > % o % % j u 8 8 i j v 5 7 @.` _ / h y k 5.z 7 y h a j 3.T.l 7 q t x x ; f f M f f x x 5.3.T ~ ..@.@.^ T j j j j y i i k 5 4 E r 2 2 r 5 # + $ q & 6 x k y 6 6 p a a p ; % > % % o - v k 4 ; % % 1 S ~ f ; ; A.dX[._ =X@.9 @.V.OX1Xj.u.N.k.aXvX,.u 4 - q $ @ & = - - 6 e s l C l v | O.o.| X.-.e.B * p Z X.O.0.O.+.+.+.+.%.0.0.X.q     $ S 0.q.0.",
"K.y.y.H.c.e.+.7.e.c.K.K.M.K.P.P.P.I.R.I.~.E.L.L.Y.T.L.P.K.P.#XrX*X{.cX*X<./ 9 ~ 4 4 y ~ 5.^ B.rXf.b.x.3.6 . w d X @ q 7 v - X . ; f ; t x f ; ; ; 5 h 4 y k k 4 x f & o % > > > : o O $ x P T / / ^ T 7 k @.5.^ k y h a x a y x a ~ T.,XW.3.v e 6 a x ; t f S ; ; ; a O.3.T j z E W / i 8 r 8 7 4 7 j v 4 E r 8 4 2 K 3 5 # @ 6 x k x t ; t & = = p g ; % % & % X 6 ~ E 9 ; & % t f x t & & A.vXA._ ;X@.9 @.d.+XrXA.h.k.B.dXvXi.u 6 ; 6 & O $ = - - q e d V v l |  .| o. .+.0.t.D 5 D O.o.+.y.0.+.o.+.+.q.y.y.-.p .   = C 0.-.O.",
"e.e.y.c.q.+.7.0.y.y.c.K.P.P.P.P.T.T.P.R.E.P.T.E.~.E.E.~.Q.M.W.1XrX{.cXrX1./ y E 4 4 v k ,.3.A.rXi.C.N.@.7 - l 6 . X e 9 v 7 t 1 & p ; p f t < % e ~ ^ / ~ _ _ I (  .a o : o o > o o X q E I ! @._ / k / C.3.~ h e e q 6 ; p g f q h T.1X[.6.%.e 7 a B p < B M & t t p ^ 4.T k y 9 z E 9 8 7 e r 9 9 T E T K 3 r 2 5 { 8 2 2 r E k f ; % t A t , % & p & ; c B Z ~ E ~ T 7 4 % 1 > 1 t t % % A.dX+X_ ;X6.i 6.C.rX{.h.h.h.B.dXCXi.u 5 5 6 $ & $ * * - q w B l l | +.*.o.O.0.7.| Z c a O.+.o.o.-.t.0.+...0.y.H.y.O.< o   & S X.C l ",
"7.e.y.y.e.-.7.e.K.K.c.K.P.T.Q.T.E.R.R./.=XK.E.-X#X~.T.E.).M.W.1X*X{.cXrXi.( y ~ 7 7 y E 3.3.A.uXu.R.b.@.e e e * O X r r T 6 - q a a p t p f ; X 7 / _ / U ( #._ / R | @ o : o O < $ - E  .P R @.^ T j #XBX~.h q q w ; ; < q f y.+.z W.&X+Xb.| 5 * = ; 1 < S x % t t t ~ 6.W j j j T / j r r 4 r E T j T r 8 8 r 4 0 { 8 5 2 r C y X % t t f t t > X * g ^ ^ ~ R E / T T 4 ; = > % % % 1 1 ; A.vXOX) <Xa.k 6.{.1XB.h.i.h.B.dXvXh.I 4 - q & & * = - - 6 s C l C X.+.*. .+.0.+.O.| B a | o.+.0.-.0.q.*.0.q.w.y.0.Z - .   O B | v | ",
"y.G.y.y.0.0.5.0.I.P.K.M.P.E.,X,X-X-XE.@X@XL.T.-X@XE.E.~.!.C.#XrXrX{.CXrXp./ u ^ 4 4 h  .3.h.{.rXi.V.f.@.r q $ < , @ h 9 ~ q X g x f x p p f % & | ` / R P ! #.R R / @.e X : X q | j E / / u T @.z y k uXHXgXo.p w < w w t ; 3.uXC.b.OXOXs.x.j z 7.; & % ; O.S ; t t p  .6.R / ^ /  .~ j h r 8 r j T z 3 4 7 K W 3 8 W r 3 3 2 - X % t t m t % > > = h k ~ ~ i j E W / T 7 * % , > % < = = & !.vX*X' 2Xd.T 3.[.rX*X{.h.h.k.aXCXh.T 5 6 q = & , , 6 6 6 l l l C O.+.-.*.-.0.+.5.*.O.l +.0.0.r.0...-.%.t.y.y.r.r.Z *   . = D 0.-.0.",
"y.G.c.y.y.c.y.G.P.E.L.L.P.P.Q.~.-X~.R.Y.R.L.E.-X XP.T.E.~.@X$X7XrXA.FXtXi.,.i | 7 y y ~ 3.i.{.rXs.V.b.#.7 - $ @ X @ 7 8 ~ a @ t q 6 a f p < X a ~ T I i i R _ R P ! _ ~ 6 $ X e / 6.R._ / I T  .a 7 ~ wXsXnX,XuXD 1 < < ; ; m.aXoX].<X'.J ] M.#.M.p @ % ; X.B 1 t f a ^ a./ _ .. .@.R E r r r h h r 3 2 0 9 W W 2 0 { K 8 4 2 + X > 1 > > t % % , f x ! u k k k u x k k y p = X o p f t ; X A.vX+X' 2Xd.R a.2XdX{.{.2.h.k.dXvXm.f f 7 p & % & ; 6 < 6 e g l | ..o.+.+.+.5.e.0.+.+.| +.0.y.w.y.r.y.c.G.q.q.0.o.c -     % D -.X.| ",
"G.c.y.c.c.K.K.K.U.Y.E.L.P.P.z.M.-X@XY.R.L.L.R.E.T.P.T.T.R.=X$XrXrX{.CXaXi.^ i ~ 7 4 y ^ ,.h.rXrXp.V.N.4.e ; $ @ X . e 9 ^ y g g ; p l Z a @ - x T R P r i R ! R P T R / ..h # v / u.3X` T i T v h 0.,X'.:.sXgXBX^.1 ; - p ; 9.uXOXR.&X:.H Q v._ T.v X X ; g g p t 5.x ^ 6.R / / / T j T 8 r 7 r e 3 4 4 r j $.r 0 4 { W 3 0 8 # < f f > % t > t f y 7 u k u u k u u f ; ; f M t ; t t p t X C.CX<X' &Xd.T u.%X*X{.rXk.h.A.dXCXh.I t ; ; & & X % < < 6 q a l C | o.o.+.%.+.9.0.9.0.0.0.0.w.y.y.r.t.K.I.-.-.+.l l - .   O S O.z v ",
"I.K.c.y.G.L.K.L.M.K.L.T.T.P.L.c.L.L.E.L.L.@X;XE.T.T.P.R.=X>X3XrXrX{.FXrX,.! u ~ 9 4 y i u A.rXrXp.V.N.#.r $ @ s , . e 8 ~ E 0.x & & a ..~ & 7 h /  . ./ T T R ! W i P R #.@.k ^ R u.*X' ~ y h a Z qXdX1X|.gX,XiXy.q c ^.S ; f m.c.E z.;.J ] #.#.).c X X X < w ; Z o.T ..4.R E W @.i 9 r r 4 2 r r 2 4 r P / } 8 e 0 W } 3 8 0 - t m F t % > % f k y x x 7 6 a l x f t 1 % X < f B f q ; t @ C.vX%X_ $Xa.R u.j.*X*XaXk.2.k.dXCXh.^ ; ; p & & & & = = 7 p p B | | o.o.o.0.y.U.P.n.K.c.y.0.%.0.0.o.X.C -.q.q.+.v c < .   X D 0.o.7.",
"Y.K.c.c.c.K.H.M.L.P.P.T.E.P.T.P.M.T.R.L.T.-X,X!.T.T.L.~.-X=X<XrXrX}.CXrXi.,.u ^ 9 9 y i ,.+X*XtXi.A.V.#.h 5 @ c - @ e 4 T  .o.; f f * v +.h z u I T P k r h E P P T P R _ 4.` / T s.&Xf.~ r 6 q B 9X;XuXsX-Xr c e 6 C mXm.; ; f 6 # q.Z.V.` 7 | c.q . X O - d | 5.@./ ` #.! E / ..T u j W r r W } r 8 W T @.{ 8 0 8 W $.0 0 r + , > t t > % ; x u 3.x ; f a ; ; t % % > t > % o = f M f t % C.vX1X' &Xa.R f.[.[.vXdXk.h.k.aXvXh.I t ; p & & = & = ; q q a | X.| ~ O.o.0.c.L.M.P.L.M.M.0.q.q.0.7.-.z V -.y.%.| X.d .   O &.t.0.o.",
"K.c.c.P.L.c.M.P.L.L.R.T.!.T.=X,X@X@XM.T.T.#X@X!.Q.T.E.~.R.R.<X7X1X{.CXaX4.` u ..y 7 u u ,.rXrXrXs.Z.h.4.h 7 q l - . r r k ~ 7 d Z x - - | @.! 8 I ` @...r * 7 E / T T ! ! ! ~ I P _ u.2Xw.9 V s ; B x C.aXuXx ; - l !.gXiX9.f ; # X.L.[.oX@.- # < X . w w * *. ._ W K $.#._ / R @./ T R E r W W r 8 W R T @.E 3 7 0 W $.K 8 0 - , % > > t ; x u T X.; p 8.9.| f t f f f f , > : > o % % % % m.vX+X_ :Xs.R f.*XdXGXcXk.k.A.dXvXh.k 4 ; q ; & ; ; ; < - q h C O.| | | ..5.0.w.z.T.P.Q.T.P.w.w.w.w.0.l Z 7.0.0.0.e.g .   = D *.{ | ",
"e.y.K.P.P.P.L.P.T.L.T.!.Q.#X2XqXT.E.M.T.=X;X@X~.T.Q.T.T.~.!.:XrXrX{.CXaX1.` u ^ y y u k ,.rX*XrXi.V.N.4.i 6 6 7 @ . e h ~ j ; x k 7.; = q @.` I R ;._ T h @ # ~ _ _ _ / ! T i T _ s.N.@X@.5 Y.*.X X ; m.rXgXuXU.U.uXBXHXBXaX!.t.L.T.V.$XZ._ v 5 @ X @ e.*.* V { P K Q _ @.6.@./ @.@.@.T W j P r 8 r W R R $. .W E o.$.;.W 3 r 2 % > % % t f k u ^ B , M 5.Z | 5.S 3.3.3.&.t % > % > > > % X m.vX%X) ;Xf.R f.1XCXGXdXA.k.h.dXmXh.! 4 6 q ; & ; ; - 6 5 a c Z | | +.+.+.7.q.w.w.!.T.M.m.q.q.q.z.M.c.x a c +.0.+.B q o   & S O.| X.",
"t.M.L.M.P.T.P.T.P.L.P.E.Q.>X3X:XM.P.P.~.,X-X=X~.@X=X~.~.=X#X<XrXrXA.CXaX1.,.u ^ u y u Y ,.rXrXrXi.Z.k.4.y 4 7 h 6 @ r 9 ~ h & f x Z ; ; ; k _ ! U [ u.4./ 6 # z / R ` } T T k ! a. XOXz.h 6 z.n.S ^ !.uXaXgXvXmXmXBXBXBXmXvXaXrX$XOX[.k.f.$.z...v h z %.C + * 7 v R / _ _ $./ / @.#.4.@./ W r r r } / } ;XT.2XqX-XfXl.M./.E o.l % % % t x p y u 3.f % g v 6 ; 7 x x k x 3.O.x f t , % % > X m.vX{._ &Xf.R h.rXCXGXcXA.k.A.aXvXh.k 6 6 q - - ; ; - - 6 l Z | | o.0.q.0.0.0.y.r.L.L.w.5.6.y.n.n.n.r.a 5 a S C e a q . o , X.7.%.+.",
"K.I.E.E.L.P.P.T.P.L.n.c.P.-X:X>X@XE.M.~.(.R.T.,X2X>X-X~.=XT.@X1XrX{.cXrX,.,.u ^ u u I ,.i.rXrXrXi.Z.h.4.z r P / E 7 z y ~ a X p x f t f p v 7 ^ T ( u.f. .r @ e E ! _ R T T E T ;.h.[...4 j W.$XrX).uXaXdXvXGXPXPXKXKXBXFXHXBXaXrX1X].u.$._ a.a.m.l.6.6...7 $ # ~ E W  .#.a.R / / @.6.#.@.$._  ._ T.2X~.fXpXpXuXqXqX>X9XqXQ.fXY.x O.p x a 7 k k ..< % t x 6 x y y k k 3.,.3.3.q.7.7.S t % X m.vX<X' &Xh.R p.rXFXGXdX{.k.{.aXCXh.! 7 6 q X & ; * - 6 q l Z v Z 0.y.c.w.w.r.5...5.5.y.n.Q.~.!.Q.P.r.x g g a - e B s X X < O.r.y.y.",
"U.U.Y.Q.^.P.P.Y.P.Y.L.0.y.Q.P.~.).!.C.!.=X!.~.,X>X=X=X#X>X~.<X7X}.{.CXtX,.,.u 3.u u k ! ,.rXrXrXu.N.f.3.i 9 P W W r E T { h X ; f t f S f x ; x ^ ! ` d.' j - @ h / _ ~ k ~ T / x.u.[.C.E l.Z.N.k.*XdX7X.X%XCXUXUXUXnX6X;XCXFXgXrX%X] J 8 Q Q P / _ ' #.#. .v |  ./ E ` 4.a./ T T #.a.6.@.6.P.qX>X>X9XuX#XA. X9XF.F.^.^.^.uXuX!.>XiX5.O.7 y k ~ O.; X , - l E k ~ ~ j ^ @.` ` 4.3.3.5.S x 6 C.cX*X) <Xj.,.i.rXCXGXdX{.k.A.dXCXh.k 6 ; ; & @ & - ; 6 q h v v +.7.q.y.y.q.q.5.5.5.n.n.!.).!.P.!.n.| c g w ; ; g d < . o p O.8.0.0.",
"t.K.K.Y.Q.T.Q.Q.I.Y.I.0.0.9.0.M.!.).).!.=X:X2X,X=X=X=X,X2X=X1X1XrX{.CXrX,.,.u Z u u Y ,.h.rXrXrXu.N.h.6.h 4 4 8 r 0 P P / ~ p f & t f f f S t & Z ^ u ! T i r + 4 R ` ^ T ~ T @.R.' +XOXv.g.[ '.+XrXpX'.:.] dXKXUXUXsX%X XBXFXdXrX].J 3 H ] `.P R ' g.;.( @.#. ./ ! @./ 4.a. .R R #.a.6.4.C.nXpX>X^.9.A.m.).l.^.>.m m m F >.J.9X>X$X>XiX3.| / ` v @ O X @ h y 4 T @.y y ~ 5.6.` ,.k ,.,.5.x A.cX*X' <Xf.I h.rXcXKXcX{.k.k.dXCXh.,.; 6 ; X X X & ; ; p f v | 7.5.0.r.9.0.w.n.n.P.P.T.C.M.m.T.P.7.v g ; & @ q B q &   O f D S ~ +.",
"t.9.w.U.U.n.^.Q.Y.E.K.I.K.y.y.r.P.E.Y.!.#X2X,X!.!.!.#X2XuX<X2XrXrXB.CXrX,.,.y 3.u u ! ,.i.rXrXrXp.C.h.4.e 2 2 8 8 5 r i E ~ a f f p f t % x f % 6 3.! u I R W 5 r W @.` u T i I b.V.].f.] `.] |.rXtXtX].] ].NXUXUXUXKXdXNXKXFXdXrX7X[ J H L Q P I d..XQ J Q _ ` ' _ ` 4.4./ ` @.@.6.#.6.uX,X).U.D.F J.m.W. XM.^.m m m S.m m F >.U.).9XqX!.iXQ.^ ~ 7 d 7 * e y i T ^ T k 7 a ..3.3.3.~ k x u A.cX*X[ 1Xf.u 2.tXcXGXdXk.k.A.aXCXh.^ 6 6 t O % O & - 6 6 f c | O.| %.5.5.M.P.c.n.n.P.M.m.n.P.n.w.5.v g ; . 1 B c q X . , M D Z Z +.",
"t.7.t.y.r.7.c.Y./.K.y.Y./.Y.y.q.K.P.M.Q.).).C.w.n.T.>XuXuX,X<X1XrXA.CXaX,.,.u ,.u k k ,.i.rXrXrXi.V.N.6.r # 7 T W 7 z 8 E v f a x S x & ; S x & ; a v k T R T 4 4 r @.^ u T ~ R V.$X].k.'.] ] '.rXrXrXrXrXdXBXHXKXFXmXmXgXdXuXrX*X[.V.f.4._ R W T 4.g.J P Y ) u._ Q  .@.` T  .#.@.#.z.b.uXY.S.F S.S.^.A.V.C./.A m m S.S.m S.F.F.J.8.^.).>XuXw.5.^ h v h 7 9 E ^ ` I T ~ y # & a S 5.3.,.~ y {.CXrX<.2Xj.Y 2.*XCXGXtX{.k.A.aXCXh.! 7 5 q = = O O - - - a v Z | x X.%.n.P.P.M.w.z.P.m.w.0.5.9.0.O.B p = $ V S g < X o 1 g S B B Z ",
"t.t.H.y.0.7.5.+.o.7.0.| O.t.9.t.E.T.n.P.!.P.n.5.P.~.qX2XC.M.#XrXrX{.cXtX<.` k ` u u ,.,.p.rXrXrXi.V.N.6.9 4 9 T  .7 h r ^ y p x f S ^ f x ~ S S G f ; f ^ #.#.k 2 9  ./ ! ^ @. .4.s.j.dX{.2.`.{.+XrXuXuXaXuXuXuXuX!.m.9.%.6.5.3.3.@.6.6.3.6.3.5.^ ^ R R R ` @.s.Q 8 R @.k T @.#.3.i.uX!.w.G m S.S.m >.9XuX>X>.t m m m m m D.iXT.^.F F >.U.Y.n.>X..h E i I i R @.` ~ T y 4 # . o & p | 5.3.k {.cX*X<.1Xb.I p.*XcXGXcXk.k.{.tXvXm.~ 7 6 < X X O & - ; - a c v v c +.z.P.c.5.%...X.5.n.5.| O.+.o.Z x ; & p B c p , . o , N B c Z O.",
"J.U.n.r.r.t.7.O.D O.O.c | 9.K.P.Y.Y.n.!.).Y.U.K.Y.9X9X~.w.w.T.rX*X{.CXaX1.' u 3.u Y k ,.i.rXrXrXp.Z.j.d.h 6 h ~ ~ 5 j T ^ a X a ^ ^ x f ..x ^ x S f ; & j ` #._ z 7 / ` ` ` ` ` _ ) d.<X].].*X}.+Xm.3.3.^ v a r 6 6 & X # # 5 4 y 7 7 7 4 7 6 a j ~ | @.@.^ Q _ J 3 _  .T ~ @.@.3.9.9.w.m.J.F S.>.F.J.>X>X!.P.^.F.>.S.m m F._.#.^.F.m m F >.^.!.n.qXw.i @.R ! @.^ ` ` k l 5 O $ X X = p x ,.{.CXtXg.1XN.T p.rXCXGXtX{.k.{.dXCXh.! 7 6 q X X X = = - ; s Z l g v 5.K.P.0.| o.| v D 7.Z C | O.O.O.B ; < c g g p O   % 1 N M S O.O.",
"D 7.7.e.9.7.O.D O.D l A O.G.U.U.U.T.^.^././.G.y.H.U.U.r.O.Z w.rX1X{.cXaXi.,.I 3.u u I ,.p.1XrXpXf.Z.j.s.j 7 a a q $ e y ~ f ; 7.^ f x f S x S f M f t O e / ' a.#.8 R 6.#.' #._ a.b.( j.A.A.d...h 5 5 ; - # - e h 6 & * V z 4 7 { v e 5 - # @ # + # * 6 z  .@./ W P / / k ^ 3.,.9.S S m.m.8.8._.>X9X>X>X>XuX>X9X>X9X_.J.F.>.H.t.>.m S.m m m =.Y.!.iXc.P #.! !  ./ @.4.T E 7 # w < % % X ; k {.CX1X<.1XB.U p.rXCXGXdX{.k.{.dXcXh.T 7 6 < X X % = = - ; a c V g l O.t.0.| C C V g B c e g B D D B g 6 g g c B 1 X   % 1 N N V G D ",
"p p d d f w q p w < < < w w g B x S X.S D S B d g g g d p ; +.rXrX{.CXaX4.,.u 3.u u ! ,.2.*XrXrXf.Z.j.d.z 7 & . . X r y v a p Z f f ..x 3.^ x ; t t > % 7 / #.u.;.T _ u.u.u.4./ x. Xf.M.O.p 6 g g 5 * ; 7 5 $.T.q.j 9 @. XqXl.j W { r 5 5 # - * 5 5 # # # 5 h {  .~ T z 7 ~ 3.3.Z , f t.H.^.>X).).^.m.9.H.H.U.>X>X9XuX>X(.U.8.M n m m S.m m n 8.~.T.T.).d._ T T T 3.6.R E 7 # e M 1 > > f ~ A.cXrX1.1XN.! j.rXcXGXcX{.k.k.dXcXh.^ 6 6 ; X o . X % @ % & , q ; - p g a q < q < q p w - - < < w q < t q 1 p t X   X 1 < s f f g g ",
"s < 1 = = = % & % % X X = & O O - & & O & X o X X o X O X . Z rX*XA.cXaXi.,.I %.i I ! ,.i.*XrXrXp.Z.f.a.r * X     O v 9 k a a 5.f f x x ..t ; % % % % % f ^ ) ' #.R _ u.u.s.u.' R l.-.e @ , q w N w e e { l.v.R.l.;.v.2XzXNXgX$X;.K 9 4 7 7 r r h j 7 # $ # $ 5 6 5 e l 5 { -.+.w o 1 8.t.D X.D B e a p < g M M S 8.Y.9X>X).).J.F n m m m m F G t.E.qXnX6.T i 9 i T  ._ T 9 # l A t % t S x A.cXA.,.rXh.^ h.tXCXGXdX{.k.A.aXvXh.T 7 q <                         . . X .   X   X           X .   o X O X X X X O % t t s 1 1 , $ ",
"M M M M f f f N M N f N N M M M M M f t s t t s t < < < 1 ; 5.1X<X{.CXaXi.' I @.i I ^ ,.i.*X1XrXs.W.j.a.7 - 6 o   O C i k p a 5.y % f ^ 9.x t % X %   X v T ! _ #./ _ u.u.p.u.4.@.q.6 . $ < < w ; 6 r / $XpX7X$X$X7XgXzXVXVXzXhX7X X;.@.} Q R _ ` @.W 9 $ $ X X $ $ * q e W X.6 , > A V ; < < * - S S ; - w M f t s N D y.).).C.U.>.n m m F.K.y.&.K.P.5.~ ~ E T T i i T / 9 4 l f = t | x 6 C.cXrX,.uXh.^ 2.tXcXGXtXk.{.A.aXvXi.~ 7 5 q .               . o o O X X X X o % o X X X X X % O O $ = = = > = , , , 1 1 < t t < 1 < ",
"D D 8.8.8.8.7.t.8.*.7.7.8.8.8.8.8.8.D A A A G A G A A G A M y.3XrX{.CXaXi.` P @.u k ! ) 1.*X*XrXs.B.h.a.r e l - O $ z P ~ x B 7.x f 3.3.^ f t t % o o X E / U Y _ R ^ f.p.u.,.4.@.r . $ , , q 6 ; r #.@XjXVXbXzXhXNXBXBXAXVXVXxXhX8X6X.XV.g.g.v.g.g.;. .7 + X X - , X $ 5 V l . % 1 = $ < w w * | G.v a g M V N p w 1 , t S t.^.).U.8.N F U.w.l.y.D n.5.uX>Xj i T T 8 8 / 9 2 d t < 7.S x & N.cX{.,.rXh.x 2.tXcXGXtXk.k.A.aXvXm.~ 4 6 q X   . . X o X X X O % = % 1 1 1 ; < t p t p p < t s s f f f f p f w s < 1 1 t s s t N N ",
"K.^.(./.(.(.(.>X).Q././.(././.Y.H.H.8.O.G G G A G A G A S &.P.rXrX{.CXdXp.` i @.i P ! ` h.*X1XrXp.R.h.a.r 7 a 5 C e j i ^ a = < f f S x f f % f % > o p +._ ! T P 8 @.a.4.u.,.4.v # , w q w q 7 l a.OXsXxXbXVXVXVXSXAXAXAXZXbXxXlXhXsX8X6X%X.X'.].v.g.;.W 5 + , - O X . $ B ; . o . X , f g - d q.o.d l V A A V f s w 1 , > f >.U.^.^.J.>.^.d.x.G.t G H.uXE.j 8 8 j r i  .j # s ; x 3.,.~ p N.cXrX1.*Xh.^ h.tXcXGXtXk.k.{.aXcXh.^ 7 6 q & O & & = = = % X o = = 1 t t p f f S D O.D c g c B A D X.D S D B g g s 1 1 1 s s s M D ",
"!.>X>X,X,X,X2X9X,X>X2XuXuX,X>X>XQ.E.U.8.A V A A A G &.*.t.I.-XrX*XB.CXdXi.,.I @.I I ! ^ i.*X*XrXu.B.j.6.7 * 7 l S d E i  .f > o ; x f < % t % A < O @ v 6.u.( R K 8 %.d.4.3.4.4.~ * w w w w q e  . XhXkXkXbXbXVXCXAXSXSXSXCXVXbXxXhXhXhXsX8X4X%X].].g.s.#.8 # @ X X O . @ w = O o   . p C l 9 w.c.z h v X.S V N t ; - t t % , t F ^./.Y.K.+.y.y.A b n t.e.x j r i _ _ ! / h 5 q f 5.y k  .k V.cX{.,.*Xh.^ i.1XCXGXtX{.k.A.aXcXi.! 7 6 a ; ; ; ; ; 6 w = O = 1 t N M c A O.8.y.n.K.K.0.5.t.y.r.y.K.K.n.t.e.O.X.B = = 1 t t p 8.U.",
"P.P.~.,X,X2XqX3XuXuXuXuXuXuXuXuXqX>X(.8.q d A &.t.H.G./.E.^.-XrXrX{.CXdX1.,.u ..k T ! ,.p.rXrXrXu.V.h.a.e - s q $ # { P  .7 o o % f t X % % % S M @ 7 #.f.u.Q I W 7  .o...3.3.3.v - w w w e e $.<XhXxXkXxXbXVXVXNXNXDXSXSXDXCXZXxXlXhXhXhX8X8X6X4X%X].g.;.R 4 # @ O X . . ; $ o     * l v T @.@XW.;. . . .z e w O % o o X X o > t A U.uXT.O.N s n b > s 8.>X9XE R d.4.R / 9 # e 5.S a v v v A.cXrX,.rXh.^ h.1XcXGXtXk.k.k.aXvX,.~ 6 6 a q 7 p a a g d p & - 1 p g S O.0.y.n.P.K.n.P.P.Q.E.Q.Q.E.P.P.Y.U.U.t.*.S = O , s s B G.Y.",
"n.w.~.uXqX2X,X=X!.:X,X;X<XuXpXpXuX2X).O.6 V G.U./.(.(.(.L.y.$XrX}.{.cXtX1.,.y ^ u I ^ ,.p.*X*XrXu.Z.x.6.e q w e q 5 E P  .l $ . % % % % > > t A c 4 _ u.g.i.( P / 8 6 6 ; a a v e ; w M B z  .<XkXkXxXbXbXbXgX2X!.E.~.-XqXfXNXNXVXNXzXhXhX8X8X7X4X%X'.g.s.( W 7 # . . o X $ $ o . + z 6.f.V.%XyX7X&X%X].V.u.R 7 * .       X     o > F _.P.9.A n b b b > *.9X/./ _ f.a.R T 4 # l 5.x p ..^ y A.cX+X_ $Xh.^ 2.*XcXGXtXk.{.k.aXvXi.~ 7 6 a q q q a l g p ; @ < g D +.0.0.0.5.5.c.n.M.M.T.T.Q.M.T.~.Y.n.5.5.0.0.H.C O . 1 N N S G.I.",
"P.Q.:X2X,X>X=X~.!.!.!.~.=XuXpXuXqX,XE.-.o.y.Y.-X>X(.(.Y.0.M.;X1X*XB.CXaX1.,.u ^ P I ! ,.i.*X1XrXu.x.u.#.7 $ - l V 4 W r ` / / h f ; X % % % % t 6 ~ [ ) p.g.) 8 _ 9 B g < = X f 6 6 d V { ..V.jXxXxXbXxXhX].#.T k z r 7 r h %.R.wXzXzXlXhXhX8X7X*X&X XV.s.) Q j 4 .     . $ . . # $.<X7XyXsXkXxXzXlXhXyX7X6X%Xb./ 5 X         X o o , F t.U.8.t > b b > G *.j Q @.s.u.R y 5 # v k 7 y ~ ^ 9 N.cX{.` *Xb.^ 2.*XcXGXtXk.k.A.aXdXi.^ 7 7 7 ; 6 p a a a e ; - g X.t.y.y.0.+.v 9.n.M.P.M.P.Q.!.T.M.!.P.w.%.v o.n.U.| . o , s V &.q.c.",
"P.(.>X-X!.M.m.Q.uX!.!.!.).2X,X>X@XP.z.c.(.,X9XfXuX,X9XQ.+.y.$X1XrXB.cXtX1.4.P / I T ! ,.i.+X1XrX,.b.p.6.q . * q 7 5 E i / ` #.!  ...v d ; < 1 & #  .[ Y s.g.Q 8 $.r X.D t N % 1 < 6 l D 5.,.5XkXbXxXxXsXV.;.q.;.M.M.-.{ j 4 2 r s.<XhXzXsX8X7X%X@X XV.g.x.;.' W r . .   O @   . $.wXlXlXbXbXbXAXAXbXbXbXkXhXyX5X]. .4 .       .     o 1 F t.y.8.1 b b > N e./ W _ d.#.R 8 5 l q.` T j ^ ^ y B.vX*X_ <Xb.U p.*XcXGXtXk.k.k.tXdXi.^ 7 7 p * ; ; q 6 6 6 q c +.y.P.Y.Y.y.+.x 0.n.q.w.n.m.n.w.z.P.n.w.q...Z o.y.U.O.@   % g G *.0.*.",
"Q.~.#X~.~.m.n.P.!.U.!.).>X).~.!.E.L.L.E.-X,X,X,X9X,X-X~.w.5.C.1X}.{.CXaX1.,.I / I I ^ ,.p.*X*XrXu.b.f.6.e 5 d j 5 - E P ^ #.4.#.T T ^ ......5.l e R ;.Q ) ;.U Y ;.8 o.D t A 1 & p a c o.~ 2.5XkXkXbXlXrXwXwXwX2X;X%X Xv.l.l.@._ ;. XsXzXsX7X].a.E r r W / #.;._ r @   . 1 X   5 ;XhXxXxXbXZXAXAXAXbXAXbXkXhXhX|.|.]./ 5 @ o .       o o t A 8.t.N > : F d -.E.9Xa.a.#._ T e o.x.d.4.k ^ ` u C.vX*X,.*XN.! i.}.cXGXtXk.{.{.tXvXi.,.7 7 p * - ; ; ; ; 6 g Z 0.y.y.n.K.c.-.v D +.5.w.m.P.n.5.w.M.q.9.5.7.+.o.+.K.O.$   O N 7.t.0.o.",
",X2X).~./.~.).T.3.w.Y.).>XT.n.n.c.L.E.@X=XR.T./.~.!.~.Q.n.^ i.1XrXk.cXdXp.,.I _ I U _ ,.p.+X*XrXi.V.d.#.r 6 h | V 5 E P ! ` 4.4./ T I ` ` ` ` z.l.W #.Q J U J ;.;.3 +.S f A p e E j l o.5.h.tXkXkXbXxXbXzXsXXX&X&X-X:.$.[ s. XOX%XwXzXhX8X X_ 9 # . . . + 7 {  .r @   $ d . . %.8XxXVXZXAXSXSXSXSXAXbXbXkXkXeX8X4X|.]. .6 X .         o : t 8.U.&., V Y.r.+.E.,X#._ @.` T 4 e q.z.6.` ,.` u j.vX}.,.<Xh.T i.*XcXGXtXk.k.k.aXvXi.^ 7 ; p ; * & ; - ; e l C { O.+.5.r.0.0.O.h v 9.n.M.T.P.w.c.m.q.q.5.5.7.o.| c.O.$   X p t.K.+. .",
",X,X~.Q.Q.Q.!.T.P.w.w.T.M.n.r.+.0.c.c.P.T.~.~.=X!.~.!.T.n.%.b.1XrXB.cXaXp.<.I ` I I / ' p.{.*XrX4.V.f.6.a 5 * 7 e # T T / ' ) u._ _ T / ` ` s.s.W 4 W l.;.) s.s.W 8 0.O.g S v ;XsX&X6.` 3.C.tXkXkXkXxXkXyX XL.:.;.{ w K W Q v.6XhXVXbXhX%Xs.i 4 4 7 e e e 4 3 W r @ . d d . #  XhXbXbXAXSXSXSXSXGXSXAXbXkXkXyX8X|.4X%XV.E 6 @ .     o o o > N G *.D G.-.l.+.-. ./ ! T R i e + w X.^ ..3.^ u j.jX*X,.&Xx.I ,.*XcXGXtXk.k.{.tXvXi.^ 4 p p & X @ & & ; 6 a c | +.0.+.+.0.0.+.Z  .n.P.M.T.!.T.E.E.n.w.9.9.5.7.o.0.B @   X g H.K.7.o.",
">X>X).Q.Y.T.!.~.!.y.0.r.w.K.5.+.q.q.0.L.~.=X@X-X~.~.~.T.m.w.!.1X}.k.cXdX2.,.k / I I ! ^ i.}.rXrX<.N.d.a.h h 5 . . @ z r / #.' ' ` ` / R ` #.f.#.{ K 0 $.f.l.$.8 r 0 y.+.f D ;.'.6XbXlX].`.|.tXkXkXbXkXkX8X7X&X&X~.;.} -.;.Q ].6XlXAXZXhX].Q 4 e r }  .$.;.#.W 4 e $ 6 | e + z 6XhXbXZXAXSXGXSXSXSXSXSXSXVXkXhXyX5X4X|.}.v.E 7 @ .     o . o 1 A *.*.*.+.*.B e.qXC.@._ i y 7 @ . # v i.6.@.I C.vX{.,.rXh.I 4.}.vXGXtXk.k.k.aXvXd.( 7 6 w & & @ X % * - e Z 5.0.0.0.+.5.0.5.+.5.n.n.M.Q.!.(.!.T.w.w.q.q.9.+...X.c =   X g H.I.e.+.",
").!.Y.K.r.0.P.~.Q.y.5.0.9.y.y.y.y.K.P.E.E.L.T.!.E.T.T.P.M.n.W.1X}.{.cXtXp.<.I ` I I ^ ,.i.+XA.rXu.f.f.f.T h h q + @ j i / 4.' _ ' ' ` R ` ) u.a.W r 5 8 W 0 3 3 H 8 c.5.k ..v.XXeXxXxXyX|.|.kXkXkXbXbXbXlXhXwXhXwX%X Xv.:.v.4XsXxXAXZXhX].j 2 r o.-.$.$.;.l.$.9 e # C  .a + $.sXkXbXAXAXSXSXKXSXSXGXSXSXVXzXhXyX8X4X%X'.V.s.$.5 .       o o > A G.-.w w 1 w -.y...@.#.T u h - O ; 3.z.4.4.~ N.vX+X,.#Xh.I <.{.dXCXtXk.k.B.rXgXi.^ 7 q q & % & % & ; q g Z Z | o.+.5.+.0.0.0.0.r.w.n.M.m.n.z.w.w.6.9.5.5.0.0.X.B =   O B H.U.0.0.",
"P.n.w.r.%.K.Q.T.n.9.0.q.q.0.0...q.c.K.L.M.c.z.P.L.M.c.Q.,X!.W.1XrXB.cXaXp.,.I ` I I ^ ,.h.{.{.rXu.b.h.d.z 7 v | e @ v i / _ ` ` ) #.6.R / ` ' x.K 3 2 3 3 3 3 0 K 0 5.7.x 5.4X6XkXAXxXkX|.8XkXkXbXbXbXbXZXlX8X6XXX.X X'. X4XsXlXVXAXZXhX].r 2 5 r 7 r W W _ ;.T 2 w  .@.a @ b.hXkXZXAXAXSXSXSXSXSXSXSXAXVXbXlXhX8X5X%X'.'.g.$.E *       o   o 1 *.r.V : : w O.{ j _ @.R r h - $ v 4.x.4.6.! N.jX{.,.:Xh.k i.{.dXCXrXk.k.B.rXvXi.^ 7 q w O X O @ & ; q s l v | X.O...o.e.r.5.o.5.6.w.w.n.r.w.w.q.q.9.0.5.9.y.X.V ,   X B H.y.%.+.",
"5.6.w.w.L.E.P.c.0.+.O.O.O.v x | %.y.y.%.c.P.K.K.M.n.z.R.,X!.Z.*X*XA.cXtX2.,.u ` I I ^ ,.i.!.{.rXu.b.f.6.h 2 r { q # E 8 ! / ( ,.` u.a.I ! ' 4.g.;.0 K 0 0 3 3 3 H 2 5 f x 3.8XeXbXAXkXkX8X8XkXkXbXbXAXGXSXAXxX8X8X8X8XhXzXxXVXZXZXSXAXhX].P 4 { o.{ W r 7 r $.W 5 r @. .h 2 .XzXxXAXAXSXGXKXKXKXKXKXSXAXVXzXsX7X*X}.%X}.].v.s. .e .     o     , V t.A O o w G.iXz.@.' T y 9 5 l 5.6.f.` 4.! B.jX#X( +Xd.Y 1.{.dXCXrXk.h.k.rXdXi.~ 7 7 p X X   X X - 6 6 a O.| | X.X.o.0.n.0.o.| 5.9.w.w.z.y.0.5.5.q.q.0.K.K.| c ,   o B K.K.-.O.",
"w.n.n.P./.P.y.+.*.O.O.O.X.| t.K.y.Y.K.c.c.q.0.0.q.0.P.).-X:X$X1X}.k.cXrX1.,.u ,.u I ,.! ,.A.{.rXi.m.h.3.h 6 4 7 = + C P _ _ _ ' u.d.` ! ` 4.,.s.[ } ;.H K 0 3 3 J 3 2 5 d  .3XhXZXbXeXkXeXhXkXkXbXbXSXSXKXSXAXxXlXlXxXZXZXZXZXZXAXSXAXhX`.Q K _ s.v.;._ r 8 W W 4 v %.3.z r 2XNXZXSXSXSXSXSXKXKXSXSXDXfX,XR.;.$.( _ #.v.].v.g.#.j #   .       O N J.D 1 o w O.e.| 6.#.T u u 7 5.` u.6.` @.! B.jX[.( $Xz.,.,.A.dXCXtXk.k.k.tXdX,.v 7 7 p X X X = = ; p p g c c V c v 7.r.r.c.q.| 5.0.5.9.q.q.5.5.9.5.q.5.H.U.o.Z <   . g G.K.0.O.",
"^.n.y.c.n.9.x | 5.O.v | +.O.r.U.K.Y.y.y.e.*.+.+.%.q.T.~.@X-X:X1X*XB.cXrX1.,.u ,.u u ,.! 1.A.A.rXi.h.p.6.T z l -   . l r _ ! ( u.) _ R ` R ' <.u.v.v.J K :.K 3 H H 0 3 2 2 K %XlXxXeXhXxXhXhXkXkXbXGXSXSXGXKXSXAXZXxXNXbXZXbXZXZXSXSXSXhX'.Q [ :.s.s.;.;.$._ _ W 2 5 ..3.E h l.&XfXBXSXSXSXSXSXSXBXgX-X} z z W -.v.v.a._ _ g.g.u. .q .         o t A S 1 o N X.{ 5 %.#./ I ~ 3.3.` a.4._ @.! k.dX{.4.$Xf.u ,.A.cXGX*X2.k.k.tXdX1.^ 7 p q X   X = ; 1 ; 6 w a d a B S D +.0.c.y.v Z 5.5.3.w.9.9.9.w.w.w.w.c.P.+.D <   o g y.r.*.X.",
"!.n.5.o.Z v Z 9.t.+.| e.y.5.t.K.r.-.o.O. .v | c.Y.K.w.%.6.M.@X1X*Xk.cXrX1.,.u ,.u ,.k ,.1.A.{.rXi.N.h.i.~ k v C . X l P  .! ! ' ` I ! _ T ,.i.u.;.s.Q ;.-.0 3 0 H 0 2 2 0 K v.NXxXkXxXZXhXkXkXkXAXAXGXGXKXKXSXSXZXxXxXxXxXxXZXAXAXSXAXhXg.] [ '..X X].].'.v.f./ # *  .3./ 9 i T $.@XsXZXSXSXSXZXhX&X;.r P $.@XwXpXwX2XR.' Q a.;.;.W #         o 1 A B = o V I.^.- { q.( / 4.5.I ~ 4.#.` 3._ B.jX[.) #Xf.,.,.{.cXCX*Xk.k.k.rXdXi.~ 7 7 q O . X & = - & ; - 6 a A D X.c | ~ +.+.l c | 5.9.n.n.w.w.n.9.y.m.n.K.o.D <     d *.o.| h ",
"n.9.| a Z w.y.w.+.{ X.q.r.0.y.y.-.o.q.e.0.0.K.E.P.c.-.c.M.~.$X1XrXk.cXrXi.,.u ~ u u ^ ,.i.A.{.rXi.h.p.i.^ k a D - . C T ` ( ( ` _ U #.R ` i.<.4.R W a.} } K 0 H 0 0 2 3 3 H ] lXxXxXbXxXhX8XkXkXbXAXGXGXSXKXSXZXxX8X6X8XkXxXbXAXSXSXZXeX'.Q [ '.%X4X7X6X5X Xg.Q # 6 ~ ` T c.#Xl./ Q V.NXNXSXSXVXsX X;.;.:.R. X.X&X6X%X.Xv.$.;.s.;. .7 .         > N B , , V X.D X q 3.@.4.^ ^ ^ 3.i.6.#...T B.jX{.,.#Xf.u ,.{.cXCXtX2.k.k.rXdXi.~ 7 7 p & X % & & & = 6 f a Z | X.X.| X.O.0.O.| X.{ 5.t.n.z.n.c.w.5.w.U.w.y.5.O.;     q D X...+.",
"n.P.9.j 5.c.0.0.o.*.+.0.0.0.t.0.e.q.c.c.E.L.P.c.c.M.P.@X2X,X:X*XrXB.vXtX1.,.! ,.I I ,.,.p.[.{.1Xp.N.j.u.| a # f 1 . r j / / Y ' ! ! ` ` ,.' <.i.R W Q K W $.l.K 0 0 2 3 0 3 L hXZXZXxXkXhX8XkXbXAXSXSXGXSXSXNXeX.X'.|.lXZXZXZXZXSXSXZX8X'.] Y '.4X6X8X8X7X%Xg.Q 4 z @./ R @XwX&XV.a.g.7XVXGXSXNX<Xg.g.v.'. X;X'.l.V. Xv.v.s.;.s.;.#.j @         o 1 < , q V I.X.. $  .@.^ ! ^ ,.d.d.a.4.r 2 j.dX{.3.+Xf.u ,.{.dXcXtX2.h.A.rXaXi.^ 7 7 p & X X & = - 6 d S C Z Z | o.5.t.K.y.y.e.0.O.0.c.n.n.M.n.w.9.w.M.y.c.0.o.=   . 1 C +.y.U.",
"P.P.0.l 0.P.n.K.0.+.| y.L.0.9.r.y.c.L.-X-X!.E.!.E.E.~.=X,XT.#X1X}.k.dXrX1.,.u 3.k ! Y ,.i.A.[.1Xu.f.s.a.k a * X O X l r / ! ` d.( ! T ( 4.,.,.4.R @.P W $.;.$.0 3 7 0 0 0 K K wXZXZXZXxXyXyXhXxXZXSXSXSXSXZX6X'.:.XXsXxXZXSXSXSXSXSXNX8X'.[ ] ] '.6X8XsX6X'.s.W 4 ..#._ T x.].s.R. Xv. XVXSXSXsXg.] g.]..X=XI.-.} } ;.g.s.s.:.s.;.$.P #         o % , - w l _.&.. . c @.! T ^ 3.d.z.a. .4 r ].dX+X,.#Xx.! ,.{.tXCX*Xk.k.k.rXaX,.^ 6 q p & O & & = ; q C | | | O.+.7.9.y.c.5.+.-.c.c.-.w.w.z.n.n.9.~ +.y.K.P.y.+.;   . 1 B O.G.Y.",
"n.n.q.0.y.Q.!.T.K.0.| U.Q.y.9.r.y.K.-X-X-X<X-X=X=X=X=X-X~.M.W.*X*Xk.dXrX1.,.u ,.I I k ,.i.A.[.1Xi.j.d.6.r c O.q . X l T / _ 4.u.` ( u ` ` 4.u.4.R 6.( _ _ ;.8 r h z { { $.}  .R.ZXAXbXbXhXyXhXbXbXZXAXZXzX6X:.] 6XzXZXNXlXxXZXZXSXSXbX8X'.2.) Y '..X6X7X6X X;.W 7 ..4.a.T W } Q K.r.o.;.gXSXxX6X] Q v.v.uXwX*.2 # 5 W [ ;.j.v.g.s.#.T 5 .       o O M g g D V X   o q ..~ ~ @.6.a.s.i.E y ! {.jXA.( OXd.I ,.A.dXcXtX2.k.k.rXdXi.^ 7 7 p & O & = ; ; a C o.0.%.5.0.w.M.K.w.+.| | 0.L.c.q.9.w.q.r.e.l +.y.n.K.0.X.-   . 1 l S e.q.",
"+.n.P.n.0.n.P.~.).K.5.e.c.Q.K.e.-.w.T.@X2XqXqX-X=X~.~.).R.T.~.<XrXB.vXrX1.,.u 3.u u ,.,.i.A.[.1Xs.V.f.6.9 h %.%.* . v T / ` ` ^ T ` T @.i.u.i.a.R a./ 4.a.$.P  ./ %.e w w V e l 8XAXAXkX8XhXkXbXbXbXVXxX8Xv.}  XwXNXNXNXwX`.'.wXeXNXeX|.:.[ ] J ;. X4X6X4X'.;.P r ~ #.a.E i i -.0X-.e $.NXSXhX'.g.'.'. XnXnXI.C r 4 I ;.V..X'.V.g.;.W 7 .         t iX^.X.9X8.o o o , C ^ ~ T 4.d.d.6.T T Y ].dX{.4.oXd.! ,.A.tXcX*Xk.h.k.rXdX,.~ 7 q p - & = - - 6 a v 0.y.r.0.5.%.r.r.y.0.5.v | q.L.c.3.q.w.r.5.+.+.5.0.G.| C -     < B X.o.v ",
"6.P.P.n.r.n.T.!.P.0.O.+.I.Q.G.0.w.P.E.2XqXqX:X;X-X@X).).Q.P.oX*X+Xk.dXtX1.4.I ( I T _ ,.i.A.A.*Xu.f.f.6.E v z q.c @ h y / @.y y ^ ,.T j ..' 4.` ! 3.! 4.i.#. .a.@.0.p N % 1 N f | <X7X X%XsXkXkXxXkXkXkX].;..XwXzXzXVXNXnXXX'.:.XXXX X} W W J U ] v..X6X%X'.Q 8 r z T 6._ R $.;. X:.-.&XZXNX6X'.'..X8X6X&X-X~.:.$.;. X%X4X6X%XV.s.;._ 9 @       . s P.%.W w ,   o : $ w  .@.3.i.a.d.#.R @.` {.dXA.,.A.h.x ,.k.tXcXtXk.2.k.rXdXi.^ 6 7 p & & = = 6 q a X.y.q.0.0.7.+.q.w.q.0.0.| %.P.P.M.w.c.r.5.-.q.0.-.0.+.| X.,   o < g O.+.5.",
"T.).!.E.c.y.Q.Y.y.7.+.5.y.r.r.0.Q.~.-X,X2X,X,X-X-X;X#X(.T.M.W.&X*Xk.dXrX1.u.I _ T I ~ ,.1.B.A.rX,.b.d.4.T v 4  .o.@ h k / @.4 l n.4.T 7 y I ! 4.` ~ k 3.d.4.@.d.4.5.p F > t A G B | / Y %XyXjXkXxXkXkX|.;. XwXzXNXNXZXBXNXwXwX'.:.] W 3 2 2 8 U _ ) g..X'.g.Q 9 v k u ` @.d. X]. X.X6XzXZXhX|.4X4X6X8XlX8XwXXXXX&XwXsXhXsX8X%X'.g.;._ 9 # .       c ~.M.-.$ . o : : : , z @.z.d.a.a./ _ 4.' A.dXA.,.!.9.^ ,.A.rXcX*X2.2.k.rXdXi.! 7 q p & & & & q s v O.0.+.7.0.0.9.r.w.6.+.0.+.r.T.Q.Q.L.n.e.| *.H.t.q.q.| +.+.=   . , f B 7.y.",
"!.,X,X(.K.y.M.y.r.0.9.P.~.Y.c.w.~.~.-X,X,X;X-X~.E.(.-X@X~.P.!.*X{.k.dXrX1.' I ^ I I ! ( ,.A.A.:X4.i.u.4.E z # l +.# v T / 4.j 5 ~ @.@.E k ,.,.6.3.y 4 ^ a.` #.d.3.5.; N > > A 7.S Z / s.6XsXhXlXkXkXkX'.:. X.X3X6X3XwXNXNXNXnXwX X'.;.r 8 7 P W / Q [ ].'.:.W 9 | ~ ~ T _ V.wX8XeXhXlXZXZXeXXXXX8X8XhXxXNXNXNXNXVXbXxXlXhX8X4X].;.[ Q 8 # X . X + 7 l.L.-.=   o o b : $ p 3.b.i.a.#.T j j R ].yXA.,.{.h.x ,.k.tXcX{.2.k.h.rXdXi.~ 7 7 w & & & & 6 a z o.0.O.%.+.0.0.r.6.5.5.%.r.n.n.E.).K.0.0.5.y.y.0.-.-.O.o.c $     = f g B Z ",
"~.,X>XT.c.9.q.q.r.y.P.~.,X,XP.c.!.#X-X;X,X-X=XT.@X@X@X-X#XT.~.&X*Xk.dXrX1.#.I / I ! ! ^ ,.B.A.*X,.V.u.d./ h * j 5.5 v u / 6.^ v ~ ^ / y k 6.,.i.3.y j i ! T _ ` ( Z ; t O % g G B v _ %XyXyXjXjXhXhXhX|.'.2X:.J K } :.`.XX6XXXXX.Xv.:.} } W Q } _ } Q g.g.[ T 6 v ..5.` Q  XlXxXxXNXZXAXZXeX'.'.6X8XlXxXZXZXZXZXZXZXxXxXsX6X.Xg.;._ T 7 + & 5 2 5 e r j z $     o : n : p z.z.a.;.T P 8 4 2 N.dXA.,.A.i.x ,.h.tXcX*X2.2.h.rXaX,.~ 6 q e * & & & 6 q l | *.%.-.%.y.c.y.w.w.0.6.w.y.w.n.U.%.o.0.y.I.-.0.%.-.e.| g $     , M B g l ",
"(.~.P.c.c.n.c.0.w.!.=X:X,X@XR.~.=X=X:X:X>X,X=XR.,XqX-X@X:X(.#X*X+Xk.dXrX,.,.I / I T ! ,.,.j.A.*X4.d.u.d.E h 6 z +.4 E T _ / T 3.@.v 4 k T 4.3.3./ i a.#.@.` ' ' ` ^ | C h p e c a k #.5XhXyXjXjXhXyXkX|.|.hX6X:.E.wXeXnXeXwXXX`.L Q J Q K K W { W _ Q g.g.Q 7 = p | @.6.) %XxXxXxXZXZXSXbX6X'.`.|.eXkXZXZXZXSXSXZXZXNXhX8X4X'.:.) Q W 4 + 5 j 8 8  . .h s .   o o : b > , 5.d.6.R _ #.` R 3 b.dXA.,.A.w.^ ^ 2.1XcX*X2.2.k.1XaX,.~ 7 6 q - = - - 6 q l | *.0.y.0.K.Y.y.c.L.w.5.5.w.n.0.o.v | 0.r.q.-.$.{ X.+.C l =     t A g c D ",
"Q.M.M.P.P.K.c.c.P.#X,X2X2X).~.=X=X-X:X>X=X).!.=X:X-XE.@X,X~.W.$X{.B.tXrX,.,.P / T I ! ! ,.j.A.*X[ f.i.#.9 e - j ~ 4 { / / E h ^ ^ 7 5 v k T ^ ^ i ` f.f.u.u.<.[ ,.4._ W T  .E r y k ;.7XhXyXsXhXkXyXyX8X|.kXNXhXwXDXKXLXLXDXNXfX.X].:.Q j 3 2 e r Q ) '.[ W 6 t % g | #.;.&XlXZXZXxXZXSXbX8X'.'.'.4XbXAXSXAXSXZXZXxXlX8X4X'.g.;.Q U P 8 4 4 W r K ;.l.+.U.d .   : : > b O C 6._ ' u.;.,.@.P N.yXA.,.!.d.^ ^ k.rXdX*X2.h.k.*XaXi.~ 6 6 p - $ - ; q w l | ..0.0.q.c.K.%.0.K.0.5.0.r.y.y.*.Z | o.0.G.r.*.C o.*.v s =   . < c c v Z ",
"Q.M.L.P.P.L.c.P.T.:X-X,X,X,X-X=X:X,X-X-X~.Q.!.=X@X Xc.Y.R.P.T.+X+XB.vXrX<.,.u / i T ! ,.,.B.A.$X' z.i.@.7 2 * o.| # T /  .E h h y 7 h h y 7 x y i #.p.p.p.[ Y Y ( ( R I I I R / 5.#.[ yXlX8XyXhXhXhXyXyX|.hXxXxXhXeXNXDXDXJXIXJXHXNXwX;Xl.3 + 2 W Q s.v.Q j g f , , Z  .$.XXxXZXZXxXVXZXhXXX'.'.'.4XZXSXSXSXAXZXNXxXhX8X.X'.s.Q U U P 8 4 r r K ;.;. .(.DXe..   : o : b : w ~ ! s.u.4.' #.W B.dXB._ A.h.^ ,.2.*XdX*X2.h.k.1XaX3.~ 4 6 q - - - ; q e v E o.+.-.q.y.q.O.-.q.0.5.0.9.c.y.0.+.+.o.+.y.y.e.| 0.q.h s 1     < S 7.| D ",
"P.Q.~.Q.E.Q.T.!.).=X~.:X>X-X-X,XqX,X-X-X~.P.P.T.E.E.~.E.q.c.C.oX[.B.jXrX<.,.u ! P I _ ,.,.k.k.+X' d.4.3.e e ~ z.~ 5 j T _ | # j y y 7 k k 7 * 4 j ! ' 1.) ( Y Y R ( Y ( ( Q @.,XmXfX7XdXkXtXyXsXyXyXyXyX|.hXxXbXNXNXnXeXeXwXNXNXBXnXfXqX-.r 7 } $.:.].} ( z M A f 1 B ..} XXlXZXZXxXhX6X'.] U `.] XXZXSXSXZXZXxXxXhX8X6X'.s.;.( K P P P 8 T W a.l.W { -XiXt.,   : : o b > $ v ^ u.u.<.u.;.U B.dX+X3.W.d.x ,.k.*XcX*X2.2.h.*XaX3.E 4 q w 6 = * 6 q a l | o.o.O.-.-.y.q.-.o.*.o...r.w.n.y.y.n.q.O.+.X.| o.G.y.e s =   X p 8.w.7.0.",
"P.Q.~.Q.Q.(.!.Q.~.!.~.#X).T.>X,X9X,X~.E.L.c.n.E.!.).>X(.y.w.m.W.{.k.dXrX1.4.T W I k ^ ,.,.j.B.+X,.b.u.#.k v @...| Z v E _ | @ a y j 4 i k k 7 * k _ u.' R ( ( R ( Q Y ( ) ;.,XKXgX%X{.hXkXyX5X8X8XyX8XhX8XkXbXZXNXeXeXNXnXNXNXwXqXE.-.{ r K W ;.s.v.u.u x F f F F f f 3.,.A.jXbXbXAXxXXX] J J ] '.8XbXSXAXZXZXxXhXeX4X'.g.[ ) W W P P K 8 U ;.v.$.{ { (.9XH.w   O : o : b : a @.;.' ' s.;.U B.dX[.` Z.d.I ,.i.*XcX{.2.h.h.rXrX,.~ 7 6 q ; & ; q p a l v v | | o.0.n.n.r.+.o.o.0.y.5.y.K.c.G.y.0.*.z C -.e.X.e w ;   % f &.9.0.r.",
"n.(.Q.w.Q.(.Q.T.Q.Q.Y.L.K.(.H...%.c.Q.M.c.9X2X2X2X9X2X2X>X!.!.{.{.k.tX*X<.' T / I u ! ,.,.j.B.+X4.d.i.@.e 5 v 7 5 a j R _ ~ X 4 E T T ` ,.3.y 5.^ i ! ! _ R W T _ ` ( Y Y Q qXKXBX{.{.kXxXjX4X4X8X8X8XyXhXkXxXbXZXNXNXNXeXeXgXnXwX.X:.;.} Q } ;.g.f.I y ; f f f M F f S 3.h.hXbXAXbXxXeX'.|.XXeX8XkXbXZXZXxXlXhXeX6X'.'.s.[ Q Q R U U P P R l.M.$.e - { E.O.V O o : : : n b < ..) ( _ ' ( u N.sX[._ C.a.u ^ h.rXcX+X2.i.h.*XaX3.^ 6 7 < = & & O = 6 l l l 7.r.K.P.P.Q.Y.P.y.5.y.q.0.c.L.+.X.O.O.*.O.o.*.| l w s & . = s B +.r.K.",
"7.P.w.9.t.y.5.t.0.7.+.Z 7.O.x k %.n.L.H.c.(.>X).!.(.).).(.Y.C.W.].k.tX*X' ' u R u I ^ ,.,.j.B.+X' i.d. .5 5 | v @ . 9 T / | X ; 6.4.` ! ~ k ^ d./ k T / i 9 8 i 8 U Q ) ] ;.&XKXHX1X|.kXbXkXyX}.%X5X5XyXkXkXkXbXNXNXzXeXeXXXXXXXXX.Xv.} K Q _ [ g.Q u 6 ; % t t f t f f ^ s.wXbXbXbXkXkXkXkXeXkXxXxXxXxXlXhXhX8X6X%X'.s.;.[ ) ) Q Q P P 8 W $.$.{ . V G.4 e B % o : : : n > O | ' ;.) ( R 8 j.rXB.R C.d.u ,.i.*XdX+X2.2.h.*XrX,.~ 4 7 < O o . . & 6 a a h X.e.t.9.y.c.r.r.0.0.r.0.0.0.e.l e C | X.D S D B s a < X . , s N B &.7.",
"D O.S Z c d p p p d f B g ; f S 7.9.t.t.e.t.y.t.9.7.9.t.t.9.m.+X].h.pX*X<.` i ! k I ^ ,.,.h.N.+X4.b.u. .5 e ^ ^ 5 @ a T / | & & @.a.( I y ~ 6.( T ^ T 8 j W / W W W K U ].g.wXPXKXBX5XkXkXbXhX5X].*XtXtXtXkXxXxXxXNXNXfXwX.X X'.:.:.] J W W ( ;.Y i x x f f f t t t f f l  .6XxXxXkXkXkXkXeXeXkXxXxXkXeXhXeX6X4X.X'.g.:.g.:.;.;.) U U P 8 r  .{ 5   N 8.V S B = o : : : b m : l #.<.;._ T 4 g.sX[.@.C.d.u ,.i.rXtX{.2.h.h.+XaX,.~ 6 q q .   . X = , q p s g B B B B B c B Z O.O.Z Z c V q q c V d w q q w p < %   o 1 N g f d g ",
"1 < = = = % O X = = = 1 , = 1 t d p w s p t w < < < < < p ; ^ W.[.k.rX*X<.` u T u I ( ,.,.h.N.+X4.f.i.^ 7 k y | c * h T v ~ % &  .#.R i i 6.` k ~ j 7 T ;.l.} K Q Q Q g.wX'.wXIXPXKXjXjXkXbXkXhX}.].1X7X8XzXbXbXxXlXhX8X4X Xv.:.:.;.} } Q R ( W P 9 | +.8.S S S A f M x v T Z.hXkXkXeXXXXX|.XX6XhXkX8X4X4X4X4X%X].'.'.'.V.'.v.;.) Q P 8 + - { l .     X V 0X_.g : > : : > m b 1 @.#.#._ P 8 j.sXV.! A.d.T ` i.+XdX+Xi.h.h.*XrX,.k 7 p < .       X O X O $ & & = O $ $ = & = - , & = = = X X = = $ $ % X % X o   o % t M s s t t ",
"X . o X .   X X X X X % 1 t ; 1 < & X O % O O o X X X . X X x !.[.h.rX*X,.' u ~ u u ! 3.,.h.N.+Xu.b.d.@.v v * v l # h E ,.^ ; & ^ ` R T ` ! T ~ h # r a.M.$.i i R Q ] '.8X%X XDXIXKXSXtXkXbXbXkX8X].Z.&X1XjXbXVXZXNXNX8X&X].;.$.$.} _ ( R Q R P 7 5 g v x x x A f A S S ..~ ;.yXeXXX`.'.`.`.`.'.XXXX|.'.4X5X4XXX'.'.'.|.'.].v.s._ U 8 8 2 5 V w         < 0X/.g t > : : : m b > | 4._ R 8 8 b.pXA._ W.z.k ` h.}.tX{.2.2.h.*XrX,.^ 7 6 <                                     .             . o   . o   X o . X O = 1 s M N N N s ",
"; t t t t t f p f f M A S S S S G D A S A M N t N f s t f M 5.W.].j.rX*X,.` u ~ u u ^ ,.,.h.N.+X,.x.f.@.v 6 + e { # e E ,.S f & ^ ` R  .` ! ~ E - 4 W b.;.W V 0 Q } ] L `.6X%XOXDXKXKXgXjXbXbXbXhX4Xv.V.OX7XzXVXVXbXxXlXwX4X Xv.g.;.;._ ' _ P j v ; p c f ; % % t t t x 5.` ( 6X|.XXXXeX`.'.XX`.:.:.'.'.6X5X4X%X%X}.%X.X%X].v.s._ K 8 2 w &.*.*.w       = X.c g t > > : : b m : d @.#.T 8 8 g.yXN.! R.d.! ^ p.{.tX{.i.i.h.+XrX3.^ 7 p ; X   X   o . X X % , % % % % X & = 1 1 1 = 1 = , = 1 < < < 1 t t t t t s f N g N M N A N ",
"S D O.G G S 8.8.8.8.8.t.t.y.J.H.U.U.G.8.=.S M M M A A A S 8.m.oX[.j.rX*X<.,.u ^ u I ^ ^ ,.h.j.oX,.d.4.@.5 # - v 0.e 7 T ,.3.f ; ~ T T #.3.~ ~ ..C v %.x.} { } L Q :.:.L L v.XX'..XHXKXFXGXZXbXbXhXyX%Xk.v.oXqXsXzXzXzXzXsX7X7X$X].V.g.;.$.R r ..5.t % f 7.D t % % % , ; 5.` U  XeXXXeXeXeXeX6XXX`.'.2.'.4X4X%X%X|..X'.%X].].g.[ R 8 4 2 { o.{ &.=.w   O G.^.e.S F > > : : b m b $ | _ u 8 8 N.rX[.` R.d.u ,.h.rXdX{.1.i.h.A.rX3.~ 6 6 ; @ % % - ; < 1 t s < t t 1 s t s N S S D D S S M B A A S A M B B B B M B A B Z A A B B A ",
"K.U.Y.U.J.U.Y.Y./.(.^./._.>X9XuXuX9XY.t.&.S g A A S S O.n.9X:XoX].j.rX*X' 4.u ~ u I ` ` ) h.j.A.,.f.d.` 7 d B v .. .7 u ^ 5.f & v k ~ 3.n.(.iXiX0X0X0X0XI.`.`.G.:.:.L H H L `.XX.X&XDXIXLXZXVXVXkXhX8X|.k.s. X7XwXsXsXsX7X<X6X%X XV.l.#.R 8 / 6.q.c % % f 5.7., > t t t 5.! ! N.6X4X'.XXXXXX'.`.[ '.'.'.%X%X|.}.'..X.X].].v.s.) U 8 2 4 o.z l l C B   , ^./.0.S 8.t : > > : m b : d T 7 r 8 j.rXB.^ A.9.^ ^ h.*XaX{.1.i.h.{.*X,.^ 6 ; q ; ; p p f M f f g p 1 1 s p w A 8.K.U.U.U.U.U.J.G.G.G.G.H.&.O.O.&.&.7.8.t.t.U.K.H.H.H.U.",
"U.Q.Q.Y.^.Q./.).).(.^.).(.!.).).>X9X).E.y.8.B t N S 7.H.uXiXuX{.].p.rX*X<.,.I T u I ! ` ,.h.j.A.,.4.` @.z a q @ q ..~ k ~ 3.f & x 5.K._.MXHXJXHXJXJXDXDXMXMXnXiX2XL L H H H J :.&X X&XKXIXDXDXAXbXjXyX8X5Xj.#.x. X&X<X&X XR.V.v.v.#./ T 8 T 6.@.w.O., % p a 7.S t t t t ..! _ s.%X6X|.`.] ] ] `.'.'.'.'.|.}.'.'.}.'.'.'.g.g.[ U P 8 + 7 o.e l M 0.d o . w e S S >.A > o : b b m : 1 7 8 9 8 g.rXA.^ A.h.x ^ i.+XtXA.,.i.h.{.*X3.^ 6 p q - - ; 6 f x C M S g % 1 s f D 8.U./.Y.P.K.G.y.H.*.0.&.8.0.t.y.y.K.y.K.I.U.U.K.y.y.r.y.y.",
"c.P.U.P.Y.K.Y.(.>XQ.P.Y.!.(.Q.!.>XuXuX9X>XY.x = N S H.>XfXuX:XA.B.h.rX*X,.u.i ~ u P ^ ` ^ i.h.[.u.b.i.` ~ v a - & a Z ~ ~ ..; & 8.^.MXJXLXLXLXLXJXJXJXJXDXDXDXnX`.`.L L H H H H :..X.X&XNXKXHXHXCXjXjXhX8X*Xv._ ` l.v.b.;.$.$.-.$.T j 7 4 P 6.#.w.5.a ; Z x x 9.f t f t k ! @.` ].8X6X|.'.g.'..X5X4X|.|.'.'.'.'.'.'.'.g.:.[ Q U 8 2 2 7 0.l - e e.p . o . d 7.X.S A : : : : b b b . # r W r f.7XB.^ m.i.^ ^ i.+XrXk.1.1.h.+X*X,.^ 7 e q & = - ; a x D 5.O.B & = t g O.U.).(.E.y.5.o.8.7.S O.e.0.e.U.I.U.U.K.H.K.P.y.y.t.0.*.X.O.",
"8.w.n.K.9...9.t.P.K.n.K.T.).Q.T.C.).uXiX9X(.c < N A U.>XuXuXW.A.B.j.rX+X' 4.I T k u ( ( ( h.j.W.,.u.3.` k v B f % X y x T ~ f 8.iXHXLXPXUXLXLXLXLXDXDXMXMXnXeXXXL L L H H H H 3 3 :.&X4X.XNXKXJXBXVXvXyX8X7X4X].s.` } _ { W E z z y 9 8 4 4 T _ 3.@.~ v ^ 3.B x >.f f t x ` @.~ s.6XhXhXhXhXhXhXhXhX8X4X%X'.g.'.'.].g.g.[ Y K P 8 4 4 4 { *.&.O.C , o o   8._.Z g A t o : : b m b : q X.r 4 N.rXA.^ A.i.^ ^ i.{.*XA.1.i.h.A.*X^ ..7 7 q = - - ; p g D D 5.B X O 1 g O.K.-XP.9.+.+.7.O.O.B S G.K.0.7.+.+.0.-.o.7.7.5.0.0.0.X.| | ",
"0.H.Y.P.5.D 5.5.c.K.K.L.P.-XQ.T.P.P.~.-X9XP.g = N A H.>X2X-X~.Z.B.p.rX+X[ 4.I ~ i P ! _ _ f.h.A.,.4.4.5.x x p = % % ; ~ 5.U._.MXLXUXUXLXPXPXPXLXLXDXDXMXwX`.`.`.`.J H H 3 H H H H H ] '..X XwXNXSXKXBX7X8XyX8X5X%XV.[ R 8 7 3 4 9 8 j r 2 2 7 ~ 3.%.4.@.3.6.x ; 9.S t t y 3.,.k ( .XhXZXZXZXZXZXxXlX8X4X'.].'.'.g.g.[ ] Y U P 8 4 4 8 8 z r V V B O       $ V g B S A > > : > m b : < e...4 V.rXh.^ m.h.x ,.,.{.1XA.1.,.k.{.*X,.` 7 q w - = ; 6 6 p x Z +.B &   = s O.P.(.n.9.o.5.7.Z c c B G.K.7.A h Z o.o.7.5.5.7.+.7.0.+.C v ",
"-.r.Y.K.7.x O.7.H.H.K.Y.Y.Q.Q.T.M.T.Q.=X,X9.6 & N A H.).,XT.T.B.B.p.rX+X) 4.k T i u ( ` ) d.h.A.,.3.,.^ y t ; = f % f w.^._._.9XDXLXUXUXUXUXUXLXLXLXDXMXeX`.`.`.`.L H 3 3 H H H H 3 3 J :..Xv. XnXKXHXzX5X8XyX8X6X'.v.;.R P 8 P 8 i K 4 + 4 7 k ..6.d.b.z...t % S S t ; x i.,.k T p.hXZXAXZXZXZXxXhX6X|.'.'.1.s.;.[ [ Y U K P 8 3 8 8 8 -Xo.V I.U.o         w C J.y.S > o > > b n : % O.-.3 x.rXA.,.A.w.^ ^ ,.A.1X{.,.1.h.{.+X^ ..7 q q = & ; ; p a x v 7.B O . % t D U.Q.5.+.o.+.o.C g q c O.X.v 6 ; a a x +.9.X.| Z o.O.e.v c ",
"0.%.-.G.O.D O.y.y.c.M.n.n.T.T.T.!.Q.E.-X9X+.; & s A t.~.-XM.T.Z.B.p.1X}.' ' u T u i ^ ` ,.4.h.A.,.6.6.` x f ; f >.F.^.^.^.U._.fXJXLXPXUXUXUXUXPXLXLXLXDXMXXX`.L `.`.:.H 3 H H H H H 3 3 J :..X X:.&XmXBXgXyXsXyX4X}.V.g.;.( U U U P 8 + # 5 y h k ~ ^ 5.v - % , f >.t ; 9.3.,.x ^ _ &XzXNXNXxXxXsX6X}.g.2.[ [ ] Q ( U U P H H 8 J P P W r.-.0XI.A o       N 0Xy.n.t.t.M o : > b m > o g  .4 j.7XB.^ C.h.I ^ ,.A.1Xk.,.,.h.{.A.,.^ y e w - = - ; 6 a a Z 0.l X   . 1 D H.P.5.o.+.0.+.D a p l V Z v a g Z Z | 5.7.| O.*.| +.r.X.+.",
"0.0.0.y.e.*.t.y.c.K.n.w.c.T.R.Q.Q.~.!.-X>Xe.q , t S H.-X-XP.!.Z.B.s.*X{.' 4.i E i i ! ^ ,.4.h.A.,.6.,.` h t A y.9XDXHXMXMXDXHXJXLXLXUXUXUXUXUXUXIXLXLXLXDX0X`.L L `.`.`.H H H 3 H 3 3 3 3 3 K v.R.] ;.qXNXDXKXsX%X}.'.].g.[ Y Q R P 4 + 7 v E 9 a j x j p = 1 t f 9.% f h.3.k ,./ / V.8X8XwXhXeX6X'.g.Q Q Q ) Q U U H P 8 8 P U U Y Q W 8 { (.w .         = F.C 9.!.U.t.> o : b b b : 1 V 2 f.7Xm.,.C.w.x ^ i.A.rXk.,.,.h.A.A.3...7 q e = - ; 6 w f l | *.V X   . = Z P.Y.0.o.5.5.e.O.p s a c X.O.Z D o.e.0.+.+.5.5.5.o.+.t.0.t.",
"0.0.t.e.O.X.*.q.U.Q.).=X>X>X>X,X9XqX,X,X>X*.< $ t S /.qX>XQ.P.B.k.p.*X{.' 4.u v i i R ^ ` 4.f.A.,.u.4.@.a A _.DXLXLXIXPXPXPXPXPXUXLXUXLXUXUXUXUXUXUXPXLXHXmXuX$.L H L `.`.L 3 3 H 3 3 3 3 3 2 H } v.:.:.@XnXKXfX.X'.'.v.g.[ Q Y W 7 + 6 E %.E 4 4 7 r v v c B f q O.p Z 3./ ^ ../ W @X@X X$X&X%Xv.;._ Q U U U P P P P 8 P H U ) ] ) [ Y U 8 4 2 @         o . @ 9.!.Y.H.M : : > m b : , V 7 x.1Xk.,.A.d.k ^ ,.A.rXN.,.,.i.[.+X4...7 e w 6 q q w a c D +.8.c .   . < e.^.U.5.+.+.+.*.| a c V C C C Z o.0.-.-.o.*.r.o.| +.O.| | | ",
"0.e.q.O.C Z O.r.U./.)./.).).-X;X,XuXuXqX-X&.- O s D 9X,X!.P.M.A.B.p.*X+X<.,.y T u i ! ` ` 4.f.V.,.6.,.3.(.MXLXIXPXIXUXUXIXIXPXPXUXUXPXPXLXPXUXUXUXUXPXPXLXHXMX-X:.J H L `.`.J 3 3 3 3 2 2 3 3 2 2 K :.R.:.;.&XwXgX2Xk.g.[ ) Q Y j # + z $.w.z 5 5 7 7 h v ~ X.x p | k @.^ I ~ ~ T / V.@.r W W R W T W P P H P H 8 P H U U U [ :.2.<.[ ] U P 8 4 # .     o o X q U.P.!.U.t.1 : : b m > o w r f.1Xh.^ m.w.u k 4.A.1Xj.,.,.p.[.$X3.^ a e e 5 ; 5 q g v | +.0.g .     < t.K.y.5.%...o.X.C V B Z X.v v Z 5.0.%.O.o.-.r.o.o.*.o.| | Z ",
"e.y.0.D O.O.*.t.K.U.P.L.P.c.L.E.(.qXuXqX(.O.q $ 1 O.9X(.M.M.m.A.B.2.*X+X[ 4.u v 8 i ! ` ,.6.i.V.` 4.6.6.MXLXIXUXUXUXUXUXUXUXIXIXPXLXPXLXKXKXPXUXUXUXUXPXLXJXDX0X:.;.] ] `.`.`.L 3 3 2 2 2 3 0 3 2 2 3 K :.l.} s.wXNX;X;.[ Q ) U r $ V y.L.K.{ # * 4 7 j z v Z v x | 5.3.~ u k j k @.6.j 4 7 - 6 * 5 j W U P P P P J U U ) [ g.g.'.2.2.] ] Y U K r +     o o o w w.w.U.n.H.S O : b m b : - e x.rXC.^ m.d.u ^ ,.A.1Xj.,.,.p.+X$X,...7 a e * * - 6 a v O.*.*.l X   . p y.c.q.0.0.+.| C D X.X.O.| | o.o.7.0.y.r.*.-.-.-.O...o.| | v ",
"y.r.*.| X.O.-.0.y.K.L.L.K.L.Y.E.Q.-X,X2X/.X.- X = A 9X>XQ.Q.W.C.B.s.*X[.' #.i T i u R ` ( 4.d.V.` ,.,.m.mXLXIXUXIXUXUXLXLXDXnX0XnXHXJXLXPXKXUXUXUXPXPXPXLXJXDXmX-X:.'.:.'.:.]  X] H 2 2 2 2 3 H H 3 2 3 0 K ;.[ } 2X:X$.( ) Q W 3 z E./.c.X.# $ * 5 6 7 a h j x c ~ 5.%.u v j z T 6.6.9 4 l 6 ; - # e _ Q Q U U U Q ) ] 2.g.'.'.].`.'.[ [ [ ;.' E 7 @   o : O 1 /.y.y.t.y.H.t : b m m : O 2 x.7Xh.^ m.i.u k ,.A.*Xk.,.,.p.+X$X,.@.7 e q $ $ - - q c Z O.*.g X   . g H.n.y.w.9.o.Z | { O.O.| C | 5.0.r.0.e.q.q.0.-.-.-.O.O.O.5.y.",
"0.y.0.O.X.&.+.0.y.y.K.K.L.U.K.P.P.Q.).>XT.Z ; X = D (.>X=X).Q.B.N.p.1X{.[ 4.i E u u ~ ( ^ 4.6.A.4.6.4.d.MXLXUXUXUXPXLXDX_.>.; $ f _.DXKXKXPXPXPXKXJXPXPXLXJXJXDX0X:.:..X'.:.H J :.v.K 2 2 2 3 3 H H 3 2 2 2 H } ;._ R.l.Q ) Q r r (.0X{ # +   + # 5 6 7 y h h a 6 x v ~ v z 7 y k @. .7 h v f < , = * ~ $.[ [ ) ) ] [ g.'.'.}.'.{.'.'.2.g.[ g.g.f.#.j * . O O O &.y.H.5.9.H.G O : m m b o & M.1Xh.^ m.w.x ! ,.k.+XB.,.,.h.[.$X,...h a e * $ - < q a B X.+.g X   o d K.K.K.c.0.o.| Z X.*.*.+.| +.+.*.e.q.0.o.q.q.r.0.+.0.0.0.e.0.",
"o.e.0.+.D C H.Y.(.E.P.K.K.0.t.y.z.^.>X,X^.D ; X < S (.:X,XQ.C.Z.k.p.<X{.,.4.i E 8 i T ! ^ ,.i.N.,.6.4.d.MXLXUXUXUXUXJX^.t , O 1 J.fXHXJXKXLXPXPXJXJXPXPXPXJXDXDXiX-.J L .X X:.H H :.`.} 3 2 3 2 3 H 3 3 2 2 2 3 } } W l.) Q j 9 ^.0X/.0 # .   . @ * 5 r a h z l p * a v ~ | ~ v T E u 4 v v e w , % & j a.;.:.;.[ 1.'.].'.'.|.|.|.'.'.'.'.'.'.|.'.g.s.~ 7 @ X o X p t.t.5.9.H.s : b m b > O m.1Xh.v h.i.u k ,.B.$XN.,.,.h.A.+X,.^ 7 e w $ X $ - 7 s C *.*.g @   . s U.Y.K.0.o.| C c O.O.*.+.+.0.0.0.5.+.r.y.y.0.q.+.Z +.+.+.| | ",
"-.y.0.O.S B t.Y.(.Y.K.n.r.+.y.H.K.P.~.>Xw.v -   = S /.>X#XM.z.N.N.p.*X[.<.4.i T i u ! ~ ^ ,.i.C.' 4.a.K.MXIXIXUXUXPXMXD.U.^._.iXDXJXKXJXHXPXPXLXHXHXPXPXLXJXHXDXnX(.;.J '.%X Xr 3 H L `.:.K 3 2 2 3 0 0 2 2 2 2 W { W l.$.W 9 Y._.{ r w +       X * 5 7 j v v | v 6 @ q C | ....@.5.j 7 o.x ; f < , , q a.g.v.g.'.g.'.].}.|.|.4X|.|.'.'.'.|.5X|.4X}.].V.6.E - o o . g y.t.8.H.&.: b m m : O t.2Xz.^ h.3.u k 3.B.*Xj.' ,.i.A.+X,.@.7 q a & X @ - ; a C O.B q X   o w G.L.M.*.X.Z V V Z X.X.o.-.*.+.0.0.o.0.y.y.-.o.| x +.o.| | | ",
"0.e.0.O.X.X.D +.H.H.K.K.y.O.t.y.n.P.).P.| a - X % M /.).=XT.M.b.N.p.*X[.' u.k T y 8 ^ ! ! 4.i.m.@.#.#.J.MXLXIXUXUXPXJXJXJXJXHXHXJXKXJXKXHXKXKXHXmXmXDXBXmXmXmXMXnX_.l.] Q  X:.r 2 H L L L v.:.0 2 3 3 3 H 3 2 2 r W r l._ K G._.w 2 e 2 . .   o . & 6 a c v | X.o.| a 6 j | | | o.@.v r | u ; ; N , > ; %.].'.g.].'.{.|.|.|.5X|.|.|.{.|.5XyXyX8XtXsXNXgX2X9XiX_.M , $ 7.H.n.U.J.< : m m >   9.*Xi.~ m.,.x k ,.C.*Xj.' ' i.[.W.3...7 7 w @ X X & 6 w C c p ; X   . s G.y.c.0.X.B c C C O.*.-.-.%.+.*.+.-.0.0.c.e.j v +.+.+.5.+.o.",
"q.y.H.0.t.t.| D +.+.7.t.e.e.y.H.n.U.!.w.x p ;   % S /.>X>XM.m.V.V.p.*X{.' 4.i T u u ! ! ! ,.3.b.` 4.4.z.mXPXIXUXUXUXUXIXIXIXLXLXLXKXLXHXHXJXJXHXuX#X<XA.f.V.2XfXnX>X+.} } v.v.H 3 H J L ] :.'..X} 0 2 3 0 H 0 3 { { { c.K -.0Xw + 5 2 + o + . .   + e M M r V X.%.%.o.| v | X.| Z Z k ~  .h ; ; w t , * / V.'.{.'.|.|.|.5X5X5X8X4X|.}.yXhXyXhXjXCXDXMXmXfXuX9XiXiXnXU.A e.t.U.U.G % n m > o +.:Xb.~ j.3.k k ,.h.*Xj.,.,.i.A.+X,.^ y a p @ X & = q e B d ; ; X   . w G.K.K.o.D g c D O.O.0.-.-.O.o.o.o.+.7.5.0.9.7.O. .7. .O...D ",
"y.K.c.0.y.c.O.O.D S B S O.7.H.K.Y.!.).t.a ; - X - S ^.=X=Xn.6.N.N.i.*X[.,.4.j E y 8 ! ! ! ,.d.N.` ` ,.z.mXLXUXUXUXUXUXPXPXIXLXLXLXLXKXHXHXFXHXBX).,.h.j.N.B.oXuXMXnX-.} ] v.R.} H J :.`.`.`.:.:. X:.} K 0 2 2 2 { K { } { E.{ + 5 + + $ + o . .   . w e w @ * C c.c.5. .o.5.+.o...Z k ^ Z x - = f N < - W ].}.'.}.|.4X|.5X8X8X5X5X%XtXjXkXkXvXgXfXiX_.0X_.F.J.t.J.Y.^.g d &.7.U.J.f b m b o 7.<Xm.T x.3.u k ,.h.$Xh.,.,.i.A.A.,...7 e e X X = ; 6 d V d * & X   o s t.K.y.O.v a B | o.0.-.+.%.o.+.| | +.5.+.+.5.r.O.O.O.Z Z D ..",
"H.G.c.c.H.H.q.y.w.7.7.O.S Z 0.c.E.(.Y.5.6 ; ; X < S U.!.,X-X~.N.j.i.+X[.,.,.j k y u I ! ! 3.,.N.,.3.4.d.mXLXUXUXUXUXIXIXIXIXLXLXHXKXHXFXBXmXBXnXm.4.j.p.k.h.V.2XfXnXG.W Q v. X:.J `.'.:..X:.:.:.v.:.:.L.:.{ 2 2 W K { z -.X.# 2 w + + $ . , + o . . , 6 $ . @ O.P.P.q.+.0.0.0.0.9.7.X.k k p @ X f M g s l V.{.'.}.4X4X5X8X5X5X8X7XyXvXxXbXSXfX(.^.^.F.D.D.F t A &.7.&.A f t.+.t.H.8.> n b o O.:Xx.! z.4.u k ,.A.+Xh.,.,.i.A.A.,.^ 7 e e X X & - q d C d & & o   . s &.q.n.y.e.e.8.D -.y.0.+.o.+.+.Z v | y.9...D | Z v v v Z | 5.",
"q.q.K.Y.Y.K.y.K.n.t.t.8.D D 9.U.!.>XY.| 7 ; ; % t g e.P.qX,X~.N.j.i.+X[.) 4.i E y u ! ! ^ ,.i.N.` 3.,.6.MXLXPXIXUXIXIXPXIXLXLXLXHXHXHXHXFXmXmX9X^ ^ 4.' ;.;.i.A. XE.{ r { ;.R. X] `.`.v..X:.:.v.'.:.H J W } } } } } K W K 2 2 w 0 + + . . + w + X . . - ; . e G.E.~.L.0...9.K.y.9.t.9.5.v q ; p g g c l l b.%X'.|.4X4X5X5XyX8XyXyXbXVXGXCXuXJ.8.>.F.S.S.D.D.D.D.D G A A S 8.9.7.t.H.N > : : O.:Xb./ b.4.u k 3.j.+Xi.,.^ 4.A.A.^ ..9 e w . o & - e B C w & O .   X t S 7.K.K.K.7.*.*.y.r.+.o.o.+.O.v Z +.K.0.5.Z Z v | Z Z Z x Z ",
"c.H.L.Y.Y.L.K.K.n.r.8.D B O.E.(.>X9XM.g 6 q - % t A t.Q.,X).T.b.j.1.+X[.,.,.y k y u ! ! ! ,.,.h.#.6.3.z.MXLXLXLXLXLXLXLXLXLXLXJXHXHXHXFXHXgXuX7.e ..s.' ( ) [ Z.b.} 4 2 2 0 ;.v.Q L :.Q L H J :.v.:.L :.W 3 0 r } } H 0 0 3 2 r 2 + + + $ + - , . X . X < X V /.).!.Q.n.0.9.U.P.n.t.y.t.X.c M V g M g < * -.%X|.|.6X6X5X8XyXyX8XcXCXGXDX).J.A A U._.S.S.S.D.D._.Y.y.G.A g 8.8.O.D w.G > > o 7.;Xb.! x.4.i ~ 3.h.+Xh.` ,.6.B.A.,.5.9 a q X X - w d B g - @ $ .   O < D 8.H.c.7.o.+.9.7.+.+.+.O.| ~ Z 3.U.5.O.5.D | v Z | ^ Z x Z ",
"Y.E.I.I.P.K.P.U.y.0.e.O.O.9.(.9X,X=X9.x 7 f = % s M &.c.=X!.C.j.b.u.+XZ.) 3.u v y u k I k ,.3.h.' ` ' z.MXDXJXLXJXJXLXLXJXLXLXJXJXKXHXHXmXfXJ.= D >X@Xj.f.s.[ ) #.E z 2 2 2 } v.] H L Q H H J Q '.] J ] l.:.} 3 H } K 3 0 0 2 r 2 . , # 2 + + + + + . + - $ -.(.).uX).T.c.y.U./.Y.y.t.y.*.C c l s w % X - a.%X4X|.5X5X7X|.tX5XyXbXKXmX(.Y.8.y.>XiX^.m S.D.D.D._.@XC.c.7.V N A G B D 8.1 > > X.:Xd.! z.6.u T ,.N.{.x.` ` 6.B.A.^ 3.7 7 q X o < p d d - * & @     % t B 7.U.w.7.+.+.t.+.+...o. .^ Z O.9.0.7.X.O.5.+.| | | Z x v Z ",
"E.Y.E.@XP.n.P.P.r.0.e.+.o.y.Q.9X9X).^ a d g = 1 t M D 8.>X-X@XN.N.d.oXZ.,.3.u k y y ^ ! T ,.3.N.` #.#.z._.MXMXDXDXDXDXJXLXJXJXLXLXHXHXHXBXiXO.. I.DXDXpXA.j.N.u.Q T %.{ 0 3 K  Xv.J H ;.J H Q :.`.:.L J  X X:.:.K } K H J K K r + + e w w 3 2 2 + + + # q r K.-XuXuXuX>XY.y.P.^.T.U.y.y.8.v B M w o O t z M.5X|.5X8XyX5X}.5XyXkXFXmX).!.).).Y.uX^.S.S.S.D.D.D.F.L.v.$. .C V t n 1 B 8.N > : +.$Xx.^ d.4.u k ,.j.oXh.,.,.i.B.Z.` ^ 7 7 7 @ X ; q l d - @ & = o   % 1 s 8.Y.U.y.7.7.e.+.o.X.O.Z Z O.9.5.B 5.7.7.+.| Z v | | v Z x ",
"E.Y./.-XQ.P.Q./.n.t.7.O.5.K.Q.,X,X!.| a a p = = N S G t./.~.W.N.b.u.[.A.,.,.y u 7 y k ^ ! ,.4.C.' ` @.0.J.F.F._.MXMXMXDXDXJXDXJXHXLXLXJXDX9Xz V iXDXPXJXmX$Xs.R r  .l.l.a.K H v. X:.3 } L.0 3 H ] :.'.:.'.v.;.:.Q J } H L :.{ 2 + + 0 } } z l 2 0 2 - 2 r { E.9XuXuXiXiX).n.c.P.^.E.K.K.K.S s < O : N N | {.8X5X5X5X}.}.|.yXbXGXmX).(.!.uX>XF.F.S.m S.S.S.S.S.D.J.e... .o.O.C < > t G s > > O.:Xd.! z.#.u k ^ h.[.h.` @.d.B.A.( 3.6 p p X & ; p d d 6 # @ & .   % 1 M 7.K.y.w.o.D O.O.X.C C Z | 5.7.+.v Z Z 5.+.+.Z l C c f x v ",
"M.M.Y.E.T.E.-X).n.e.7.7.r.P.).,X>Xn.v h q a = 1 M A G y.(.-X#XN.f.u.A.R.) @.u j 7 8 I ! ! ,.,.h.,.3.3...e e o.-.I.0XnXMXDXDXDXDXJXPXLXHXDXiX9X_.MXJXPXJXmXiXC.x y 5.3.z.l.l.J }  X].K H R.:.r 3 H Q :.:.g.:.'.:.J H ] J H K 3 2 + + 0 K } } r 2 r 3 2 5 z z P.qXiXfXfXiX9XF.S m.>X).^.m.J.>.; % , F A w -.&XyX7X5X5Xv.].%XVXFXfX!.!.=XQ.I.G G S.m m b b S.S.S.m F >.F.G.*.X.V V 1 , V N > o *.:XN.^ 6.3.u x ,.h.A.h.` ` 4.C.N.,...y e e & = 6 p f p * * & O     = < M *.G.G.y.| c g D C g l C 0.e.0.X.| | O.+.+.7.| V V l q a C ",
"y.q.y.r.P.-X).Q.c.e.5.t.K.!.,X!.0.l v B a q = < N G 8.H.Q.!.!.N.f.u.A.Z.' @.y j y y k ! I ~ 3.z.,.^ ` ..6 e -.} Q K./.nXDXDXMXDXJXLXJXHXmXFXFXmXBXJXLXHXmXuXY.~ 5.6.0.3.;.R.;.Q :.R.} 0 K -.L.} H H ] g.:.] ] J H H } W 3 3 2 r 2 2 3 K K W 0 8 { 2 2 5 { { -.qXfXfXgXMXiX^.t f ^.9X).U.8.f % , N G N &.Y. XsXrXyX*X%X5XsXSXfXH.U.E.U.F.F _.MX_.b b b S.D.F.F V =.m F m F G V { V 1 N N 1 o O.:Xh.^ d.3.u k ^ i.A.i.! ` 4.j.A.^ @.9 e a & & p p 6 X = & & %     , t M 8.G.c.y.%.c a d V g V | 0.K.K.r.o.| O.o.+.O.O.| g e d C O.",
").Q./.~.9XqX,X(.n.y.y.c.P.).(.9.7 g | B g w = = M A 8.y.E.~.W.N.x.4.Z.C.' @.u j y y T ! ! ,.3.h.^ ,.3.^ 5 . 2 :.L.J } I.0XiXMXDXHXJXJXFXCXmXmXmXDXHXHXDXmX9XJ.^ -.a.6.q.%.a.Z.v.;.:.:.0 3 3 }  X:.} J :.g.] J J J H Q } 3 0 K K 2 2 3 H K r 8 W C 2 5 r 0 { %.9XfXmXmXmXfX9XS % >.9X>XU.5.t X t >.F G./. X&XsXyX5X5X6XjXBXnXY.=.J.F.F n V 0XiX_.S.S.D.D.S.F V V G > b b > n l X.X.w w w < o O.:Xb./ 6.3.u k ^ p.V.i.( ` ,.V.N.,...7 e e = ; ; - X & & & - O     O < A *.y.q.c.e.X.l C *.O.&.O.y.K.K.M.0.+.| o.+.+.o.C c g c | C ",
"T.~.~.(.qX>X).).U.K.Y.P.>X(.9.c a v Z l w q & , N A G H.E.E.R.N.f.u.oXZ.' @.i z y y k ^ ! ^ 3.d.( ! ^ ~ 0 2 0 } .X`.J } e.I._.iXmXJXHXDXmXmXmXHXmXDXmXDXfX^.S ; $.E.M. .W v.R.} ;.L.K.K 3 3 H J ;.v.[ ] '.:.:.'.:.J J ] H H K K 0 ;.:.v.v.s.} K 2 + 2 r { 0  .-XiXmXmXmXgXfXU.t ; J._.t.S t X F G G >Xv.OX8XyX5X*X4XzXKXBX_.I.F.>.n b b n F.D.D.D.D.S.S.S.S.I.=.B A n b > n n l D V 1 N t X *.:Xx.! d.,.y k ^ d.C.i.` ) 4.N.B.^ ..h e a - = & X X = ; - = @     , s N X.G.G.q.O.| S O.e.L.K.y.y.n.K.P.r. .X.X.O.O.O.l B D c C Z ",
"n.Y.K.L.U.L.E.>Xy.c.(.(.).9.a 6 h c a 6 6 - O , N A &.I./.0.6.x.z.u.A.Z.) @.u k 9 y k ! ! ,.,.d.! ` @.} 0 K L L `.2X:.H 0 0 { I.MXDXDXmXmXDXHXMXnXfXfXiX0XH.5 + 2 { c.$.l.T.} H 3 J v.;.0 3 L } K K :.] ] g.:.Q ] J J :.J J .X6XwX8X8XhXlXwX6X:.3 + # r K r P n.iXvXBXmXmXmXiX8.@ D ^.G.S p t F N ^.9XOX5XtXyX5X5XvXJXDX).J.D.F b b : > F F S.S.S.D.D.S.m F ^.I.H.^.G F n n n b N X.w w w : +.;Xb.^ 4.3.u k ^ d.N.i.` _ ,.N.m.^ ..7 7 f = & o X @ & & X X X     % t N *.G.X.V O.X.&.V X.y.e.+.*.0.0.0.o.| Z c | 7.| a g X.+.+.O.",
"y.y.*.| *.K.(.E.o.r.K.K.9.a 5 w c g - ; , $ X , N A X.H.U.l ~ x.f.u.A.Z.' @.i k y 7 k ^ k k 3.3.! / / ) } L L H J .X.XL 3 2 0 =._.MXMXmXHXHXDXmXmXnXiXuX(.O.. + 2 2 r l.E.:.Q 3 H Q :.v.Q H } } ;.;.Q :.L ;.] Q ] } H :.] .XNXSXZXlX8X8XlXlX8XR.} r 3 W {  .{ o._.MXmXBXmXmXiX^.V w U.G.B t F N F.0X X.X6X%X4X}.sXGXHXuX^.>.S.b b : b F D.S.m m S.S.S.m b m _.G.D F.>.>.A N n b > w w 1 w , o.=Xf.T i.@.y k ^ i.b.d.` ` 3.h.A.` ` a 7 e & . . . X & O @ X       O w V &.*.w e C D X.D X.7.O.| Z | | | v v d e S X.v a Z o.+.o.+.",
"V C D Z C D D S Z Z c v Z f f d a w - = - $ , < N V &.8.C 6 | z.d.4.Z.B.) 4.u k 7 9 u T ! k ,.3._ _ _ Q L H 0 3 0 } &X:.H 2 3 K ^.9XMXmXHXmXmXmXmXfX9X_.G.w + + 0 2 2 r %.R.H 3 J :.V.;.v.;.L ;.:.[ ;.:.Q Q Q :.v.} 3 Q :.6XxXZXAXNXhX6X6XzX3X} 8 } W Q $.$.$.W H.iXmXmXvXmXfX9XU.V G.8.w A F t 9X@Xv.'.}.5X{.5XNXDXuX_.D.S.m b b n F S.n b b b b b b b : M /.I.8.G F.=.F.1 b : : , w w < - +.$Xb./ 6.@.y k ( 4.b.4.! _ ,.m.m.,...7 e e @ . X X O X X .       X , s M C l ; d M e g S +.+.D v c l c a s d d l B g B D D D | | | ",
"w w p q w < q w p p 6 q w < = = & O . X O = 1 s N N N V d * C d.d.u.R.Z.' @.u T 9 7 u k k ,.,.3./ !  .$.K H H H H 0 :. XL H K L 3.m._.iXMXMXMXDXfXiX-XI.V $ . + 0 2 2 + 3 -.} J J v.v.Q M. Xv.} g.s.;.v.s.} ;.:.v.J J .XsXhX8X8XZXAXNXhX.X8XwX} r W ;.$./ K $.0 x uXmXmXiXMXfXiX(.U.G.&.N F m ^.qX].%Xk.].4X%XdXDXuXK.G m m b b b m S.b b b b : b b : b : D -XE./.=.G.H.J.F m : : $ > N < , %.$Xf./ a.@.u k ^ 3.x.4.` ! ,.m.h.k ..y e w .   o   .           X O , , 1 w ; $ ; q q g S O.O.c g p a p a p w s B B B B c B c M B c ",
". . o . X o . X . X   X . .   . . . X % , = < s N d p w = . d 6.d.4.Z.V.) ` r j 7 4 7 y x ^ ,.4./ ^ ` $.H J L H H 3 K  X:.0 0 3 * K -.I.iX0XMXmXnX0X-X8.- . . 2 3 3 2 + + 0 ;.l.;.;.;.a.R.V.g.v.Q Q Q } v.s.:.Q H H v.hXxXxXlX8X8XAXAXzX8X'.1X]._ _ ;./ W W $.e e U.iXmXiXMXiXuX)./.H.D F F _.nX X%XOX'.7X4XyXNXnX/.I.N m n b m m m b : b b : : b b : : o &.E.I.&.V d V 8.m m b : o : , < * +.@XV./ a.@.9 k ^ 3.d.4./ ! 4.b.h.,.^ a 7 p o                 . X % & % O O X X X X % = 1 ; = = O X X X X O @ $ = $ $ $ X $ O X $ O ",
"X . X X X O X O X % o X % % X % % 1 1 s N N N N N N N N s w v q.i.,.Z.N.) @.i j y 4 7 y y ~ ` 3./ R ' [ Q L 3 2 2 3 3 L .X} 2 2 2 2 J } -.J.0XiXiX-XI.X..   . + 3 3 2 2 2 2 0 ;.:.T.%. X~.#.;.v.v.} H 0 } g.} ] J H v.6XlXxXNX8X6XzXSXVXjX%Xv.'.v.v.) W W { W 2 2 7.uXiXuXmXfX9X(.U.8.F N _.mXR.%X7X}.].|.5XBXfXl.F.G n b b n m m m b b m b : : b : : F N *.Y.e.V G F N N b m m : : O , w @ %.@Xb.R 6.@.y u ^ b.d.4.` / 4.b.A.^ ^ 7 e w .             o X O % = , 1 , 1 1 = = , & % O X . . . . .   . .     o           o       ",
"O & = , = , = = = = = = - = 1 1 t g g B B A S A A V A V A A O.6.4.4.V.V._ ` r h 7 4 7 y y T ` 3./ / _ ) J H 2 2 + 0 H H :.R.H 3 3 2 H L 0 l -._.-XI.=.w     . + 2 0 2 2 2 2 2 3 K :.L. Xl.$.l.@.s.;.:.J J :.[ ;..X2X} :.XXNXwX.X:.&XNXAXNXsX%XsXsX7Xv.Q T W { 2 # z U.9XfXmXMX9X^.G.A N _.BX X].6X5X*X'.5XzXBXU.V =.N : b b F n m b : b m : : : : o n nX^.0.H.| G.F.F N l : m m : : % A M @ %.@Xb./ 6.@.y k @.x.6.#.` ` ,.b.B.^ ^ 7 e w o         . . $ , = 1 1 1 1 < 1 1 1 1 = , , 1 , = % X % X X O O $ = , $ X .   X o .     ",
"w f g f g g N g f f g f f g c B B S A C S D D &.*.&.=.=.7.8.5.6.u.,.N.j.( @.i h 4 4 a x y k ` 3./ / ;.Q H 2 2 + 2 0 J J }  X;.3 3 3 0 J 0 + 2 o.-.l $ o   . . + 2 0 2 + + 2 2 H K H } R.#.-. .$.v.] Q ] Q ] :.'.NXZXwXK K .X.X:.} ;.7XAXAXxX6X6XxXVX8Xs.K W r 2 2 5 8.).mXmXnXiX^.D M _.MXZ.v.7XyXrX4X5XjXDX(.8.G =.n : : n N m n : : S.b : : : : : , J.*.z.L.O.D G N V l : b m b : o A e # O.R.i.R 6. .9 k a.d.i.4./ / #.d.b.! ^ a e w .     . O $ $ , = < < s w p s w 1 p 1 1 < p p s s s p w < w w s p w p w = o o % O O X X ",
"S &.*.8.e.G.G.G.t.H.H.H.H.H.H.J.t.8.t.c.H.U.U.U.U.U.^.Y.H.Y.P.d.a.,.V.f.( @.y h 7 4 6 7 h ~ ^ 3.R / _ Q H 2 + + 2 W :.} K :. XJ 3 2 2 H J 0 2 2 0 2 . . . . + + 3 0 3 + 2 2 2 2 0 J H } a.a. .l.v.:.`.] :.g.]..XNXSXNXwX} l.:.:.L $.g.bXSXZXsX4X8XlXsX'.W K r 5 + 2 { _.MXmXnXiXH.M F.nXR.s.6X8XyX5X7XdXSXiXG.D G.=.: : n =.n n : : m m : :   o : o     w H.M.D N N w A N : : b b : 1 w 5 - o. Xd./ #. .y ~ z.4.6.@.` ` ,.h.h.! ^ 7 e d X $ & = , w w d V C &.&.8.&.&.&.S D D D D G D O.&.8.8.*.O.&.O.D &.*.C M & . O , = = p M ",
"*.t.G.q.G.K.K.K.U.).>X).>X).Q.U.Y.P.Q.^.E././.(.!.-X>X).Q.!.T.z.u.#.N.f.( ^ 9 y 7 4 7 y x ~ ^ ,.! / ` _ 3 2 + + 3 } } v.v.;. X:.H 2 2 3 J K 3 2 0 0 + . . . + + 2 0 H 2 + 2 + 2 H L J ;.a. .-.c.-.'.'.`.:.g.;.l.wXZXZXNXwX:.R.:.;.;.v.hXZXAXlX4X'.4X5Xg.R 7 2 e + 2 K I.nXmXiXuX7.G nXBXR..X7X8X6X}.sXKXmX^.>X0XG.N : 1 F.>.n > : b m b : : : o o : : o d K.y.V &.C X.&.w : : : b : > N V - o.R.a.T %./ 7 E 4.@.4.3.' ` 3.z.b.! ..7 e w & = ; - 5 q B D &.*.*.e.t.e.G.t.*.e.y.t.0.0.0.7.t.y.q.0.t.y.y.e.y.r.C N % . O 1 < s A X.",
"X.H.E.Y.U.L.K.K.T.).>XQ.!.E.Y.K.y.c.Y.y.7.7.K.).(.).).).~.~.W.d.a.' N.d.R / y 7 4 * 6 j ~ k ^ ` ! _ ! _ 8 + + + r } :. Xv.:.}  XQ 2 3 2 0 0 0 3 3 0 2 . . . + + 2 0 K 3 2 + + 2 0 H H :.l.W $.$.} J J :.'.) :.l.v.hXlXhXzX%XQ  X%X4X8XhXbXVXzX%X'.'.].g._ 5 + 2 + + 0 J.iXnXiX^.S _.DXHXnXpX7XsXsXsXHXDX^./.mXfXe., : F ^.n : : : m b : : o : : : b b : S n.w.E.qXY.9Xe., : : b b : b , M X { R.x.E @./ 9 T 6.u.4.6.` / ` d.j.! ^ a 7 w $ $ - - 6 w l g M l O.y.q.0.y.y.y.c.y.0.0.5.7.0.e.e.C V X.e.y.t.0.*.C s O o O , f A O.*.",
"O.c.E./.Q.K.y.w.n.!.).P.K.P.P.c.y.y.K.7.O.O.y.P.P.P.Y.Q.Q.T.T.d.4.@.x.a.! T 7 7 7 4 6 a ~ v ^ 3.~ T ! W 3 + + 2 } R.:. X} J H :.v.H 2 2 2 2 2 3 2 0 0 o + . + + + 3 K 0 2 + 2 2 2 3 3 K x.a.z K $.J H [ v.] v.-.} `.hXNXVXhX.XwXVXVXxXsXsXhX8X].] '.g.;.} + # e 2 + 0 e.iXnX_.O.V nXDXHXKXHXNXBXFXHXJX0XG G.fX-X=.: : F N : + : N b : : o : : : b b : o &.y.%.y.iX/.o.&., : : : b : > o O   Z T.4.k @./ 9 / d.f.a.d.` ` 3.d.b.T ~ 9 e w @ $ $ - - q d w q e Z 0.*.+.q.K.y.e.0. ...O.o.X.O.D s e V *.*.*.| O.o.C & . X 1 V *.-.0.",
"o.y.E.P.E.K.e.0.9.M.y.q.r.y.y.K.n.K.H.*.O.O.Z Z | 5.K.K.r.5.z.d.4.` x.f./ T 4 y 7 5 7 7 y x ^ ,.! T R W 3 + + 0  X X.X2X:.K 3 K :.;.3 2 2 + 2 2 2 0 0 + . + + + + 2 3 3 2 + 2 2 2 3 3 H :.l.W 3 K } { ;.;.} s.T.$.W $XzXxXhXeXlXZXAXbXsX6X6X%X].;.g.:.[ $.5 # 7 w 2 2 &.0XnXJ.*.7.U.iXmXLXPXLXKXPXPXiXF.F U.>XH.G n n m : : : n n : : o : : : : : : o o *.y.X.c o.*.e V > o : : b : : : o   Z T.a.k @.~ y T 4.4.a.d.` @.#.x.b.T | 7 e w @ & - - ; < f a q p p q a v -.0.o.O.o.0.e.0.-.O.B V O.l l C B C D 0.0.+.s . O < D e.t.0.",
"o.0.K.K.K.y.*.-.0.0.0.q.K.y.c.K.y.0.-.*.S B O.| 5.7.y.K.0.0.z.z.4.' j.f.! T 7 a 7 * 5 7 y x ^ ,.T T  ._ 3 + # -.OX.X%X].;.} K K $.v.;.3 2 2 2 + 2 2 0 + + . + + + + + + + + 2 2 2 2 3 3 ;.M.;.3 3 3 }  .W a.;.-.} W l.8XxXhXlXlXbXVXlX8X%X4X%X].s.v.g.;.} r 2 3 0 + + V -X0X7.y.H.9.8.U.iXBXJXPXUXmX^.U.^.).A.J.F >.F n : : n n : : o : : : : : : : o O r.y.C D V w V V % : : : b : : b o   S C.3.i @.R 7 T #.4.d.d.` ` ` x.N.! ^ y e a & O = - ; ; q q 6 p a g B Z O.+.X.| o.0.0.*.Z g a d B B V l c c c | +.| -   X s D *.*.*.",
"+.+.0.q.-.*.X.O.O.| 0.G.U.c.c.y.0.O.O.O.Z 7.9.8.t.9.9.y.0.8.z.z.u.' Z.<Xa.I 7 y 7 * 5 6 x ..~ 3.~ ~ ../ 5 + 3 ;.].'.'.].;.K W Q K ;.R.} 2 2 2 2 2 2 2 0 . + - + + + + + + 2 2 2 2 2 H 3 } V.x.K 3 3 r K r @.$._ W } :. XlXNXxXlXzXzXsX%X%X%X%X'.g.g.s.' } 9 + 5 e 2 . r ^.U.O.0.H.Y.^.U.9.J.9XMXMX_.F._.iX!.^.F , F S.: : n m : : : : : b : : : : : o w H.0.l I.Y.M V N : : : : b : : b :   V M.d.k @.E 7 ~ z.u.f.b.d.` 3.d.[.A...7 e e & @ & * - - 6 q q c c Z X.X.X.| | Z | C C X.a ; q w q B S v c g l Z +.| <   . < D +. .X.",
"+.0.K.q.+.X.*.7.0.+.0.y.y.y.r.0.+.+.+.o.D 7.7.7.9.9.t.9.0.7.3.d.u.#.B.W.6.k 4 y 6 4 ; 7 x 3.k 3.! ^ @.W 2 + W L.Q ;.].v.W 3 3 0 0 K ;.v.8 2 2 2 + 2 2 3 + . + + + + + . + 2 3 2 3 3 H H Q v.V.K 3 } Q 0 K K { E %.-.;.;.8XNXNXlX8X8X6X%X4X4X%X'.g.:.s.) } 4 + 2 e - . 5 e.+.e.9.3.H.!.>X9X).U.8.>.>.F _.t.J.8.t : n b : b m b : : : : : : : : : : : o M K.-.l { { q D w 1 b : : b :   : :   B C.6.T @.~ 7 ~ 6.6.z.x.` _ ` d.:Xm.W e 7 w & O & = - - 6 q f c B D S X.| C | Z c Z *.X.p ; a p e S C l V D c O.+.7.M   . = S 7.5.+.",
"C | q.0.0.*.7.y.0.r.y.y.y.c.r.0.+.+.5.O.7.7.7.5.e.q.0.0.0.+...6.4.) u.! T k 4 7 4 & # 5 7 k k ,.~ ( ,.k 2 5 ;. X} ;. X} 0 2 3 0 0 3 K :.;.3 2 2 2 2 2 2 + o + + + + + + + 2 2 2 2 2 3 3 K M.v.K K ;.W 3 3 K W W W K $.} %XNXxXwX6X6X%X*X*X%X'.'.g.s.s.) _ 5 2 # 5 # . X l { 7.M.H.9.3.^.).uXuX^.8.m n m t F.F > b n : b m b : : : : : : : : : : b b b X.M.y.e.w < < V w F.F., : b : o : o   S T.z.T @.~ 4 j ^ #.d.( ! ^ @.d.d.E z 5 6 w $ & = & - - 6 p B B Z c Z | Z X.| C c O.&.B p ; ; a g | | | | O.Z | o.+.<     & D y.0.*.",
"+.0.0.0.*.7.*.X.0.r.q.0.0.y.y.q.0.0.r.t.9.9.7.5.%.-.e.0.5.7.w.6.4.) a.` ~ y 4 4 * & # * 6 y v ,.T _ ` T 2 r -.l.v. X XK 3 2 3 3 3 2 3 { l.J 3 2 2 2 2 3 2 . + + + + . + 2 2 2 2 2 2 2 2 3 6.x.W 0 } Q } _ 0 Q $.8 r } K :.sXzXwX7X6X6X4X6X%X'.%X].s.;.) R 2 , + 5 @ . . l C +.(.m.9.m.!.w.w.n.).&.n m F.>.F.m > b b b n n : : : : : : : : : : b b b b G.P.r.8.N N D V , A F.> b b : : : :   C C.4.k @.T 6 k ..,.a.! ^ ^ @.i.@.~ a 6 7 e O @ $ = ; 6 a c S B c c v C C C c D *.O.e 6 - - p c D O.+.O.+.| | | +.+.&     O S y.e.0.",
"+.+.7.o.O.X.c C e.q.*.%.0.0.0.-.0.y.9.7.7.O.7.5.0.0.9.0.+.0.w.6.4.` i.` ! u 4 6 4 * * ; y k ^ ^ T ! ! j 5 z } $.v.R.Q 2 2 3 2 K $.$.r 0 } } 3 2 2 2 + 2 $ . + + + + + 2 2 2 2 + + 2 2 2 2 $.v.W 2 3 0 K :.l.Q g.} 8 K 0 } 7XsXsXsX8X6X4X4X%X'.}.'.g.s.( T # + . + $   $ B v c.).m.3.C.).P.).M.!.U.N F./.Y.A > > n b n m b : : : o : : : : : : : : : , Y.M.7.G G N O.&.O % : : : b : o : :   Z M.4.k @.~ 7 k 3.3.4.3.( ` @.d.@.k h 7 e q @ X % - ; q a g l l c B C C Z B c D | Z g ; < q a Z O.O.| | +.| o.o.0.O.=     X B e.0.0.",
"7.+.7.O.C g g B e.0.+.*.+.-.*.+.+.0.8.5.+.5.9.7.q.y.c.t.5.r.w.6.4.@.a.,.T k 9 5 * * * 5 a y k 3.T ~ ~ i 0 r r -.l.:.K 2 2 3 K $.v.$.8 2 r $.J 2 + + + 2 2 . + + + + 2 + 2 2 + + + 2 2 2 2 $.v./ 2 2 2 3 r :.'.:.:.Q $.K 0  XhXzXhX8X7X5X6X4X4X%X].V.[. XM.r @ . O X   = g l y.T.9.H.!.).J._.y.m.G.X.U.Y.t.n : : b m m b : : : : b b n b b : : : :   < Q.n.+.S S e C V o : : : : > : o : :    .M.#.k @.E 4 k 3.4.4.z.3.` #.i.@.i h 7 7 w & % & - - q w a a l v Z | o.O.Z c O.O.D B p w d g Z Z X.O.+.+.O.O.O.7.D -     O B e.e.+.",
"D ..O.O.Z a c V 7.-.+.-.0.0.0.*.-.-.-.r.0.r.y.y.y.y.q.-.e.t.w.6.,.` a.,.T ~ 9 6 5 6 & 5 a y k ` T T T y * 7 3 z x.} K 2 3 H Q ;.V.} 8 2 2 K { 2 + . + + + . + + . + + + + + + . + + 2 + 2 W v.} 2 + 2 2 0 } ;.Q ] Q Q 0 3 l.sXzXhXsX8X5X6X5X6X7XpXfXgXgXnX_.S X . .   $ f v +...3.w.w.y.t.J.n.3.y.(.M.E.C % o o b m b : o : m S.F m n n : : o o o   w T.!.3.0.X.V V g   o o o : o   o : O X 3.b.` k ..~ 4 j ..6.4.A.N.3.` a.4.k y 7 6 q @ O = = - 6 q d C C X.O.O.o.O.C Z O.| Z s a a g c X.*...o.O.O.O.X.o.O.| <     X g X.+.*.",
"O.+.+.o.S g a S 0.+.*.-.0.0.0.0.-.-.e.r.c.c.K.c.G.q.t.q.0.-.0.6.` ` d.d.! ~ 7 4 7 6 & 5 6 y x ..T ~ T y T / W $.R.#. .} Q $.s.v.V.s.$. .E  .a.E z z z K V r z r K z W z z W r W r W z W r $.V.z.} z r W ;.s.;.[ g.s.Q Q Q ;.sXsXsX7XrX5X5X7X7XgXgXgXpXuXfXuXm.D r e e l v ..6.6.w.z.m.!.!.OXA.d.L.#Xb.b.5.f p s G A p w q A =.A N 1 1 w < < < < 1 w | c.=X!.R.%.{ { V 5 6 q , w w , - w q h z.N.4.T 3.k 4 h ..6.6.d.V.a.' u.u.T k 7 e q @ X & - - 6 q g C O.*.+.O.o.X.v Z D Z B w g B C Z | 0.+.+.O...X.O.+.-.X.q     X w S 7.7.",
"0.5.+.7.-.O.O.&.*.O.*.0.*.0.*.0.e.0.r.r.G.K.K.K.q.q.H.y.| o.%.6.` ^ x.#Xi.T 9 7 a - # - y y y ^ k ~ ^ W.pXpXsXfXdXaXaXfXdXdXgXdXzXgXgXgXgXgXgXfXfXgXfXdXgXgXfXgXnXgXgXgXgXfXpXfXsXsXfXpXpXpXrXpXpXrXrXrXrX7XrXrXrXrX7X7X7X%X*X%X%X*X*X%X*X*X*X*X*X*X$X#X+X$XOXOXW.W.R.@XW.#XoXoX+X#X+X!.+X+XoXA.oXoXR.Z.C.M.M.C.T.P.M.M.M.M.n.M.c.c.l.K.z.z.z.w.w.n.x.b.b.b.b.b.z.m.z.q.q.5.9.0.q.q.q.z.z.z.x.Z.M.I 3.k 4 x n.3.^ _ 4.u.,.N.f./ q.e q q @ O & & - 6 e B Z X.o.+.| o.+.Z l C Z a e B D Z Z Z +.+...O.o.o.-.0.-.O.w     X g O.7.8.",
"5.e.7.7.O.+.+.*.0.+.+.+.0.-.q.y.e.-.-.-.q.c.G.-.-.t.c.-.O.*.0.3.3.` ,.W.a.^ v 7 e # * = 7 v y ~ u k z.oX<X*X<X*X:X+X<X$X:X$X*X<X&X+X*X3X<X+X&X<X&X$X&XOX*X<X<X<X<X&X$X&X&X<X+X$X:X<X&X*X&X*X+X&X$X$X#X<X$X$X@X$X{.&X+X$X$X$X+XoXoX+XOX[.&X+XoXW.W.[.A.A.[.oXA.!.oXA.W.@XC.W.W.C.A.A.A.A.W.A.W.W.W.T.A.C.b.C.m.C.C.b.b.M.M.b.M.b.x.x.m.v.m.b.z.z.b.b.z.z.b.m.z.z.z.d.z.d.w.d.6.6.a.6.6.z.d.z.d.d.i.T ,.~ 7 w.o.E d.6.x.V.u.oXB.` %.4 7 q X X & - - q w l C Z X.Z { | O.v c v v f c D D X.| | o.%.+.+.+.+.-.e.+.o.p     O S 8.+.A ",
"K.r.-.+.+.+.%.0.r.0.+.+.-.0.K.E.-.O.o.0.q.y.e.-.r.c.t.-.0.0.0.6.3.` 4.d.@.6.u a 5 4 * 6 7 y x ~ u k ,.` 4.3.,.,.,.^ ` ,...,.' 3.3.3.4.6.#.` ` @.` ` 4.,.u.4.4.;.4.4.' 4.u.4.' ,.#.4.' 4.4.u.#.4.3.4.4.4.4.4.4.4.4.4.4.4.4.a.4.#.#.#.4.' u.4.4.' 4.` ,.` 3.,.3.,.' #.' 4.` ` ` ` ^ ` ` ' ' ` ,.4.` ' ` ` ` ` ` ^ / ` ` ^ / ` _ / _ / / ` / / ^ / ^ ^ ^ ^ ! ~ ~ ! ! T ! T T R E T T T T ! ! ! ~ ! ^ ! d.~ 9 | z 3.6.#.d.V.f.Z.oX4.~ 7 6 6 O X = - - - 5 e C Z | { X.O.O.v Z Z v B c S Z | C | O.q.c.y.y.r.0.+.o.o.q .   X S 9.O.a ",
"G.0.+.+.+.+.+.*.y.e.e.0.*.e.y.y.r.y.q.0.y.e.-.-.y.G.0.0.0.0.0.6.` ` 6.4.6.^ a 4 5 * 4 7 7 x k ^ ^ T.!.!.#XW.#X#X$X#X#X#X#XOX$X$X:X*X:X$X#X$X$X&X$X$X$X<X*X$X$X$X&X$X+X$X$X$X$X$X$X*X$X$X$X+X$X+XOXOXOX+X+XOXOXOXOXOXoXA.A.oXoXoXW.oXOXoX XW.oXA.A.A.C.A.C.A.b.h.V.Z.V.Z.Z.V.Z.V.N.b.C.N.b.V.N.b.b.b.b.b.N.b.b.z.x.z.x.f.z.z.z.i.6.a.i.i.6.6.6.u.6.6.3.3.3.@.@.@.@.@.@.@.@.@.@.@...@.@.@. ...@.4.3.d.C.@.z v @.a.4.#.u.#.u.B.Z.d.T 7 6 q X X & - - w q B C Z c C O...| Z | Z v Z Z v C | | X.O.e.y.r.*. .%.+.+.X.q     & S 8.O.v ",
"0...+.0.+.+.-.0.r.y.r.0.0.-.0.0.c.c.y.y.e.-.-.r.G.c.0.0.5.e.z.6.` ` 3.4.3.k 4 5 * 6 7 y j v ..k h v ~ E / ^ ^ ^ ` ` / ` ..@.,.3.,.3.4.3.4.4.i.6.u.u.u.u.6.i.d.u.s.a.i.d.s.d.u.u.d.d.u.u.a.u.u.u.u.u.u.u.u.4.;.,.#.u.#.#.#.;.u.4.#.;.' 4.' ' #.#.' ` ' ` ,.` ,.,.@.` $.) @._ _ ` ` _ ` ` ` ` / ` @._ ` ` @.` ` ( / ! / / ! ! R / / ^ / ^ E T T T T k k k j T j u j k j k k j k u z i j y y 9 h y j i k h  .@.m.4.` N.f.V.#.f.B.u.P 5 6 q @ X $ * 6 e w l V v v Z +.o.| C v D | | | Z | X.{ | 0.e.-.o.X.o.*.+.-.+.w     O D 8.+...",
"-.O.7.-.0.-.0.0.0.-.0.%.*.0.-.-.q.y.H.0.-.-.r.r.r.-.0.+.e.n.P.z.` / ,.#.~ ~ 5 5 * ; 7 y ^ ^ %.v z 7 4 4 5 4 7 7 7 7 y y y y y 4 8 7 8 9 i u P I U P I P I u u P P I I I I I U U P P I P P P I P P P i u P i u P i 8 u i u u 8 8 u u u 8 u u y 8 8 u y y y y y y u u 8 u y u 8 y y y 8 y y 8 8 y y y 9 8 9 8 7 8 y y 9 8 9 9 9 9 9 4 8 4 9 9 7 9 9 8 9 4 9 4 4 8 7 9 9 9 9 9 9 y 7 4 7 4 4 4 4 4 4 h v k ~ 3.b.N.B.V.V.d.u.V.$X4.T 5 5 q @ X $ - - q d e g C X.C { | Z C | +.7.7.7.7.o.X.X.O.-.o.X.V B X.*.o.o.| <   . O O.y.0.9.",
"+.-.-.0.0.-.e.-.*.+.%.+.0.e.0.0.r.n.y.0.+.0.-.-.-.-.q.y.n.K.M.d.@.` @.` ^ h 4 6 # * y ~ 5.3.E v z v a y v E E ~ k ^ 6.@./ @.@. .9.3...I ,.,.,.,.,.,.,.,.2.,.,.,.,.,.1.,.,.,.,.,.1.<.,.,.,.,.1.1.,.,.,.Y ,.,.,.,.,.Y ,.,.,.,.,.u ,.,.Y ,.,.u ,.Y ,.,.u ,.,.,.,.,.,.Y ,.! ! ,.! Y Y Y ,.,.,.k k ! ! ! ^ ! ! T T I ! ! ! k ! k k k u k ! k u I u u k u u u u k u T k ~ /  .@./ k ..~ k j h h h y y o.| T ^ ` b.rXrX+XA.h.3.4.4.b.,.T 4 5 < @ X & - - q a p d C X.C | | C X.+.+.0.0.7.+.O.D O.O.O.O.X.B V C O.-.o.O.w   . X O.H.0.0.",
"q.*.*.0.e.-.-.-.-.%.0.+.%.y.n.y.K.K.n.r.0.K.G.-.q.t.-.r.K.y.0.6.4.` ` ` ~ 7 5 5 # 4 k ,.6.( ..^ 3.@.3.^ 3.M.M.b.M.R.R.x.x.C.R.C.C.C.m.w.3.h.{.*X}.*X*X}.*X*X{.*X*X{.*X*X{.*X*X{.5X}.{.}.{.{.}.}.{.{.{.{.{.k.k.A.A.k.k.{.k.k.A.k.{.A.k.B.A.k.{.k.2.k.k.k.B.k.2.k.2.h.h.k.h.h.h.1.h.h.i.2.i.1.1.1.i.i.i.,.<.<.<.,.,.4.,.,.,.,.,.,.,.,.,.,.,.` ` ` ` ` ` ` ` ` 3.3.@.d.6.#.6.a.` @.#.#.^ ` ` ^ ~ 5.5...%.@.3.1XCXCXrX[.j.4.6.4.4./ k * 5 6 @ @ & - q w d g l D X.C | | c { o.| | | | | | 5.7.5.O.+.X.c V V X.+.-.X.<     X S e.| v ",
"*.{ -.q.e.-.-.-.0.0.0.7.0.G.K.K.0.0.0.y.c.H.c.r.r.r.e.y.y.r.q.6.@.` / _ T 7 4 - * 4 ~ ` ^ ^ ` Q.:X!.b.b.x.R.oXoX<X2X*XOXOX&X@XZ.A.C.3.9.h.aXCXCXCXGXCXCXGXcXCXCXCXGXCXGXCXGXCXCXGXcXCXCXCXCXcXCXcXcXcXcXcXcXcXcXcXcXdXcXcXjXcXdXcXdXjXjXjXdXdXtXtXtXtXtXtXtXtXtXrXrXrX}.rXrXrXrXrX+X+X*X+X{.{.{.}.{.{.A.A.{.[.B.A.B.A.B.B.A.k.k.h.C.k.N.h.h.h.h.h.h.h.h.x.i.b.z.#.z.z.#.#.z.i.a.4.a.6.4.6.3.4.m.6.z.3.d.x.*XvXGXcX:Xh.4.d.f.` / k 4 5 q @ $ - - - 6 q d C X.| | C | X.X.| | o.+.o.v o.| 7.9.| O.X.e q a D 8.*.X.q     O c | v v ",
"0.0.e.e.0.q.q.e.e.0.7.0.y.K.Y.K.q.+.5.0.H.y.q.r.r.r.r.e.r.e.q.6.` ` @.` R T h 5 5 7 k T ! ,.z.A.@XoXb.!.C.b.b.Z.OX$X$XoXV.C.d.#.3.h.i.h.rXdXcXCXcXCXCXCXCXCXCXcXCXcXcXcXcXcXcXcXcXcXcXCXcXcXcXcXcXcXcXcXcXcXdXcXcXdXcXdXdXcXdXcXdXcXjXdXcXdXcXdXdXdXdXdXdXdXdXtXtXrXtXrXrXrXtXtXrXrXrXrX*XrXrX}.*XrX*X*X+X+X+X{.{.[.{.{.[.A.{.A.A.A.A.A.B.A.B.A.B.B.B.B.C.j.i.,.4.x.@.R 6.6.d.f.i.@.#.u.d.d.b.W.z.d.@.x.N.[.+XpXgXrXm.p.f.W.d.@.i * 6 q $ @ - ; 6 - q e C Z S D | X.X.| o.O.O.7.Z v Z O.| | +.O.X.s p g V X.X.D <     @ c Z v o.",
"e.0.0.q.G.K.y.e.r.e.+.| +.y.K.H.r.0.0.0.q.e.e.y.G.-.q.0.e.r.0.6.` _ z.d.T T y 7 h h k I @.z.x.f.V.A.N.a.d.4.x.h.f.d.V.6.#.4.i.b.h.h.m.m.A.{.*X*X5X5X*X*X*X}.*X*X*X*X*X}.*X}.{.{.{.}.}.}.}.}.}.}.*X*X+X{.+X{.{.{.{.{.{.{.{.{.{.{.{.{.{.{.{.A.{.A.{.{.A.B.{.{.k.{.k.k.k.B.B.A.k.B.k.k.k.k.k.k.k.k.k.k.k.k.k.j.k.k.k.p.k.h.i.p.h.2.p.1.i.i.i.p.i.i.i.i.i.p.1.1.,.,.` ` ( ~ ! ` ` M.6.T #.b.oXR.V.b.d.d.4.6.b.Z.Z.B.$X2XC.W.N.N.x./ k 5 ; q @ & = ; ; 6 ; s v C v | | D C Z +.+.+.O.| V v | O.O.7.0.O.g N B p d X.D ,   . @ M | | o.",
"0.0.9.r.H.K.e.-.e.0.O.Z D *.0.-.r.t.0.e.q.q.0.c.K.-.-.-.0.-.5.3.@._ b.@X/ y 9 v / E ~ ` d.f.d.b.V.V.f.u.a.4.u.i.i.i.4.,.d.f.f.d.i.h.h.h.h.i.h.k.k.k.k.2.2.k.2.k.2.k.2.k.k.k.k.k.2.k.k.2.k.2.k.k.2.2.2.2.2.2.1.2.1.1.1.1.2.1.2.2.2.1.2.2.2.1.2.,.1.1.1.1.1.1.1.2.1.1.<.1.,.,.1.,.,.,.<.1.,.<.<.<.,.,.,.,.<.,.) ,.,.,.,.,.,.,.,.,.,.,.,.,.) ) ) ) ) ) ) ` ) ) _ ( ! ! ! ! ! ~ ^ ` _ ` #.u.N.A.B.b.d.4.' 6.d.x.h.b.i.h.oXrXB.j.f.6.~ 4 5 6 X X & = 6 ; 6 a l l c Z | { C | o.o.| | | | | v | O.7.O.B w d N w w *.*.w     O g Z | | ",
"r.w.y.y.c.L.0.-.*.-.7.D D C X.X.7.0.q.q.y.G.y.n.K.-.q.y.e.0.5.3./ / d.q.k y k ` 4.#.4.b.V.N.d.x.V.V.h.OXZ.g.j.B.N.B.A.A.A.A.[.oXA.+X+X+X{.{.+XA.{.{.{.{.{.{.{.{.}.{.{.{.{.{.{.{.{.{.{.{.{.{.A.{.{.{.{.{.{.A.A.A.{.k.A.{.{.A.k.{.A.{.{.A.A.A.A.A.B.A.B.A.k.{.A.A.A.C.k.B.k.B.m.k.k.k.k.k.k.h.k.h.h.h.p.h.p.h.h.p.h.p.1.i.h.i.h.i.i.i.,.i.u.a.u.u.u.u.u.u.u.4.3.3.@.` ,.` @.@.@.` ' 4.u.u.4.i.B.N.d.4.4.4.d.V.Z.b.i.h.OXOXp.Z.x._ h 5 6 < . . X @ - ; q a c x Z | | | | o.| | |  .| ..O...O.+.O.c s e w p d g *.X.q     @ g Z | o.",
"r.w.9.y.K.Y.q.*.*.e.e.O.O.B O.O.*.7.e.e.e.y.y.0.o.-.y.y.0.0.0.3./ / 4._ y k 6.V.p.j.Z.j.p.s.N.@XV.j.N.[.N.B.].[.[.[.A.{.A.B.B.A.A.A.A.A.A.A.A.A.{.{.{.{.{.{.{.{.{.{.{.{.{.k.{.k.B.B.B.A.A.A.B.A.A.k.A.k.A.k.A.B.k.k.B.B.k.B.k.k.B.B.k.B.k.k.k.k.k.B.B.B.k.B.k.B.k.k.j.h.h.h.k.h.h.h.h.h.h.h.p.,.h.h.p.p.h.p.i.<.i.i.i.1.i.i.4.i.4.i.i.i.i.u.i.i.<.u.i.u.u.i.,.,.,.,.` 3.' #.u.4.a.u.u.d.d.i.4.6.a.b.d.V.d.s.f.f.b.h.f.f.B.@Xa./ j 5 - < X . X @ $ 6 q e x l Z v c C X.o.| o.o.o.o.O.-.O.X.+.*.D C s w p g S V d =     $ s Z o.o.",
"7.5.e.y.y.t.-.O.-.G.y.O.O.Z X.O.*.e.e.e.q.t.0.| Z 5.K.n.y.0.0.3._ ! @. .j / C.oXN.+X$XA.B.+XrXrX<X<XpX1X+XpXpXdXdX<XA.rXvXvXvXCXcXCXCXCXFXBXCXvXCXCXcXCXCXcXBXCXcXcXCXcXvXCXvXmXcXCXvXvXvXvXvXvXvXdXvXvXvXdXgXdXvXdXaXdXdXtXaXaXdXdXdXaXdXdXdXdXaXaXaXaXaXaXaXtXaXrXaXrXrXrXuXrXrX*XrXrX1XrXrXrXrX*XrX).+XrXA.A.+X#X{.W.[.+X!.A.[.W.A.oXA.W.A.[.A.[.A.A.A.A.A.A.A.A.A.A.A.A.C.b.x.z.x.b.C.C.d.d.C.~.A.@XC.V.C.A.A.C.d.W.W.d.^ k y 4 6 ; . . X @ & - 6 a h l c a g l D O.X.X.| X.X.X.X.| B c S B B < w q V X.B s $     O B X.o.| ",
"f g c C l h l Z 0.G.y.-.0.G.r.0.-.0.0.y.q.y.*.V l Z 0.9.e.+...@./ / / T v @.d.#.a.V.Z.j.$XtXuX[.#X$X#XR.R.R.C.C.b.z.Z.x.:XaXdXgXvXgXvXdXvXdXvXdXdXdXdXaXaXdXaXdXdXdXaXdXdXdXdXdXdXdXaXaXaXrXaXrXrXrXrXrXrXrXrXrXrXrXrXrXrXrX{.rX*X*X1X*X*X+X+X+X{.rX+XrX*X$X*X+X+XA.{.{.A.A.A.A.A.A.m.A.A.b.A.B.A.h.k.k.h.h.h.B.j.x.x.h.h.z.h.i.d.i.i.i.d.i.i.d.u.i.a.4.4.3.4.i.6.6.i.h.d.6.6.!.!.z.@. . .%.3.d.d.i.d.i.u.u.f.b.f.3.^ ` / T k i v e 6 q X X X & & ; q a g l g q 6 w c S C g l c C V a q 6 - 6 q - - 1 w B V e w O     $ M X.| | ",
"6 q e a f a l C o.0.7.X.O.K.K.r.e.0.y.G.t.y.*.d g Z O.D l g v 3.^ / / @.@.@.@.@.3.` 3.x.V.N.b.z.d.5./ ^ k k T T k / ..i u k ,.,.,.,.) ,.3.,.,.,.3.,.,.! ,.! ! Y ^ ^ ,.^ Y ! Y ( Y ,.^ Y ! Y Y ! x ,.,.u k Y T Y u Y I Y k Y k Y I T R I I Y k Y ^ k I Y I I U I I I I I u Y u u I u I P u u I u u u I u I u k u u I u i u u u ! u u I u I u u u I u u I I I u u I I I I I u ! 6.3.v h r 7 y h 5.z...` ~ R R ~ ! ~ u k ~ E ~ y k E 4 5 w X X O & & 6 p p g c g 5 6 q l g w 6 < w e B e 6 6 ; ; ; ; - q q q w q < O     O g D O.%.",
"B S S D D O.X.S V v S Z X.O.0.0.*.q.e.t.q.e.X.d B Z v a a a c 3.^ T v ~ ....| j v v u u k T E W y 7 7 h y 7 9 9 y 7 7 7 7 y u f u k u j x x u u u y u u u x k P ^ ^ x x k T T T x I x u k I k j u u u k u x k i u k x k u k u x I k k T k k u k k u k ! k I j T k k k k k k k x T k T z k k ! k k k I k I x k ^ T k k T k k T k ~ k T k k T T k I u k k k I u I k u k I u k k u 7 6 7 e 7 7 7 v x 7 y y h j y y y y k v v x h Z l # 5 q X X O & ; ; 6 d d d q - q w e q q q 6 w w l d w p 6 p p ; $ - ; - - ; = .     = B X.O.O.",
"V V M V M g B B g p w p l V c C D D S C c s p w f g M V N M C %...k 7 5 7 7 e 6 5 6 4 7 7 7 5 4 5 4 ; 5 5 5 q 6 7 6 5 5 7 7 7 7 7 7 7 4 9 7 7 7 p y y 7 7 7 9 e f f y y 7 y e 7 p p 7 y 7 7 7 7 p y 7 7 7 e 8 r 7 e 9 7 y 7 7 7 e 7 7 7 7 7 7 7 y 7 7 7 7 7 7 7 4 7 7 6 y 7 7 7 4 4 e 8 4 7 4 7 7 7 7 7 p 7 7 7 4 4 4 4 7 4 4 7 7 7 7 5 7 7 4 7 5 4 7 4 4 4 4 7 4 7 7 4 9 7 7 4 5 5 5 4 5 5 5 5 5 5 5 * 6 5 6 4 * 5 5 # * * 5 5 * # - - . . o X & & , q ; - & $ = < ; q w s w w w s p d w w < ; , = = # = = % X     o = < s a d ",
"= % % O X X . O X X X o X X O O $ $ O @ X . X o . . X X X X -  .| 7 # * - # # - * * - 5 - 6 w 5 5 ; 5 * 5 - 5 5 5 5 5 6 ; 6 * ; 5 5 5 5 6 6 6 6 ; ; 6 6 5 6 q 4 p t 6 7 7 ; 7 6 7 p 6 6 6 7 7 5 ; ; 6 7 5 5 6 5 7 4 e 6 p 6 6 6 5 q 5 5 5 5 6 6 ; 6 ; 6 6 6 5 4 6 6 5 5 ; ; 6 * 5 - 5 5 4 5 6 5 6 5 5 5 ; 7 6 ; 5 5 q 5 5 5 5 5 4 5 5 4 6 6 4 5 5 5 5 5 6 5 5 - 5 5 5 5 ; 5 5 ; - 5 5 - * - - - * * - * # - - * * # @ @ @ @ @ # * * 5 ; .           . o       o o . o . X . . . . . . . X X o . . .   o             X % , = $ @ ",
"f s s t t ; < 1 1 , 1 , , = $ X o o .   o   .               $ Z z 6 - - - , - - 5 - - - - - 5 5 6 ; ; ; - w < q 6 6 6 q 6 q 6 6 w q q 6 6 q 6 6 6 ; 6 ; q q q q ; p p 6 < q q q ; ; p q q e q e p 6 ; ; q w 6 w q e q q q q 6 p w q e w q q w q q q ; p w w w q q q w w q p p q w q w w e q q q 7 q q q ; p 6 6 w < 5 w q q q q q 5 q q q q 6 6 q 6 ; q ; 6 ; 6 < 5 6 ; q 6 ; - - 5 - ; - 6 - - - - - * - - - * * & $ - , $ & - - , < 1                                                           o         . o o X & , , 1 , 1 ",
"8.7.7.&.G D 7.&.O.G A N V M f w < w < , = = % % O O $ o O & - q q 6 5 * $ @ X + @ % $ X @ O $ X $ $ $ $ $ O O $ $ @ = = & & = = $ - $ * $ $ = & & = & & $ $ & & & & % X & O $ $ & & X & $ $ $ $ & & % & $ $ $ @ $ $ & % & % @ % $ $ $ $ $ $ $ $ & % & & $ = $ O $ $ $ % & = & X $ $ $ $ $ $ $ $ O O & % & X % & $ $ $ O $ @ $ & $ $ $ $ @ & % & $ $ $ $ $ $ O $ $ $ @ O X X @ X X O $ @ . @ X X O X X X . O . O . O O O . . X X X X X X                                   o o   o X . o o X o . X o X O % = = & O O % 1 1 1 1 s ",
"Y.Y.Y.^.I.G.H.G.7.8.A A S D S S B S A c g f s t w s N N s g M g p g w ; & X . .   .         .                     . . . . .   . . . . . . . . . . . . . X .           .       .     . . . . . . . . .           .                                                                                                           o . . o             . . . . .       .                       X                         .                       .   . . . X X X X X o X X X & = ; ; ; < < - = 1 < 1 < q < w w p g p s , = = 1 = = p B ",
"I.^.^.Y.Y.I.I.I.y.e.8.y.H.H.K.J.G.e.8.7.D A M V A &.X.D O.&.&.*.G D S B s 1 & $ X X X X X X @ O               . @ @ $ O . .     . X X X @ X & X X X X X % X O @ X . . X X X . . . . . X X @ @ @ X . . X . X X X X . .       . o   . . .   . .                     o                 . .         . .   .                   o . . . . . . . . . X X @ X . X X . . o O X o       .     . .   .   X X . X o . X . X X O X X . . X .     X X X X % % & & ; - = 1 & = = < q q p g M g g g g g c B B X.X.S O.&.&.&.*.D < O % < < p B 7.",
"G.y.e.I.Y.I.Y.I.y.H.I././.E./.(.Y.y.8.S g p g D 8.e.&.*.t.G.t.8.7.O.O.S S B q ; < * * * * & * = .       . X = - = & = & O X X . @ @ $ X @ @ - & & & X @ = - ; = & O @ X O & @ X X X . * * * * - ; & X . X X = ; - - * $ X @ - - = $ - - < = X X . .   . o X . . X & $ O X @ X X . X X X & X X & & & & X           X O & & & & @ @ @ @ @ X @ @ $ & - = & X & X X & & = @ . X X . X . . . .   X X = & & & & X . X = & $ $ $ & & O X @ & - ; ; - ; ; ; ; ; - & & p g d p g c D D c V B Z X.X.O.| *.8.+.7.e.7.0.*.X.$ . O < V O.t.K.",
"O.D X.K.^./.^.G.0.G.E.K.K././././.H.O.l q t B G.K.J.K.G.t.K.G.7.t.y.e.t.8.7.c d w ; - - - - - , .       X ; 6 6 - * - - & & @ & & @ @ @ @ @ - = & & & & - * & & - = = = = & & & @ # * - q q w 7 - # @ + # @ ; a e 6 q 5 # * 6 q 6 6 q q q 6 * @ @ * $ $ * & @ @ * q 6 $ * & # # & & # & & @ & * - ; * # o       . & - w ; - - - - & @ @ @ $ & & * ; < - * X @ @ @ & & @ @ @ # & X X & O X X . @ = ; = = & X X O & @ @ * - 6 - * & * ; - - < 7 q p 5 ; * @ O ; f B S B B B O.D B X.7.e.e.e.0.0.e.e.5.+.O.o.X.X.V X   o < O.8.y.K.",
"*.C X.G.I.y.y.-.O.y.G.+.t.Y.^.E.c.t.+.Z c D t.Y.Y.I.H.q.&.t.y.9.t.y.y.t.7.&.D V g q q q q w e < X     . = p p p q - - q ; ; * ; - * - * * ; w q ; ; - * ; ; ; - ; ; ; ; ; - - ; * 6 p p a a l C z V z { v C |  .$.%.*.-.-.} -.-.-.-.-.r.0.-.o.+.+.+.+.O.X.| | X.X.*.+.o.X.{ { | X.X. .| E v v v v V v z M d M r l l a e - - ; q < - & $ * * * & - q w < ; - & & & & * & & = - ; & @ X & & X & ; ; ; - * @ X & & & @ * q q 5 - - * - q - 6 w a a p q ; - & - g Z O.O.D g p Z | Z o.0.e.0.-.+.-.*.o.| | | O.o.X.S $   o ; A +.*.*.",
"V l | G.r.o.{ X.*.e.O.| X.0.q.0.O.O.O.*.9.H.^.(./.I.0.X.C *.H.c.e.7.9.| v C &.D d 6 q d d l c d <     X ; f a q 6 - q e 6 ; ; 6 6 ; q q w g g a q - - ; 6 6 6 ; 5 q w p q q ; 6 p p a g e a ../ W E E {  ._  .$.-.K.l.M.L.L.I.R.E.T.T.P.L.M.l.K.c.c.l.q.w.q.q.q.-.q.q.y.l.q.q.l.-.a.-.%.%.%.%.@.@... . . . . . . . .z - * * - 6 < 6 6 6 - - ; 5 6 a d e ; & * & & & = & # & ; p * & & & & ; ; ; 5 - & # & - ; * & # * w - * * * - 6 - * - ; q p q 6 q w s V X.*.e.+.v q * l O.O.X.| | C l z O.o.v a l | O.0.*.X.w     , S X.z l ",
"| X.e.K.q.*.&.X.*.-.+.{ V o.O.O.+.O.O.+.t.y.y.c.c.0.O.X.O.X.e.U.U.t.7.+.| O.*.X.B d l c B V C V <     X ; c l a w l l g s 6 a a e 6 q a c c g g a 7 q q q 6 f a e a a g w s a 6 q p q 6 6 e  ./ R W W @._ _ $.$.;.l.g.l.:.l.L.v.L.v.x.x.l.x.l.;.6.#.-.$.$.$.%.@.$.$.#.#.$.#.#.-.;.#.#.$.@.} } _ _ Q R W W Q R  .R W v # - ; - 6 6 q q q q - q q l l l d q - 6 ; * - 7 * & - q d ; - - - ; ; ; ; - - - * - - ; - - - q d w - 6 ; w q 6 $ * - q q e w q w l C C Z X.Z c a p p c 7.*.+.| Z C | | Z v a v | | O.0.O.w   o - D X.B r ",
"{ e.t.G.t.t.0.7.0.0.7.l C O.X.| +.*.O.e.r.0.o.+.0.*.| | &.c C K.Y.P.U.7.0.O.X.X.C C X.X.D X.*.*.d .   X f Z Z c Z &.X.&.C f c B l d S Z A B c l g a d d f x B c B l d B c c M p q q q q a z  .Q #.$.R ;.s.d.s.:.v.v.l.v.s.l.v.:.v.v.v.v.l.s.l.a.a.a.;.%.#.#.$.$.#.$.#.#.#.;.#.#.#.;.$.#.#.@.@._  ._ / / / R / q.W T z 6 w e q q q g a e q 6 e B V l l d f p p 7 q a g p p 6 e l 6 * ; ; ; ; & * 5 - - 5 - 6 q q 6 e V V d w e d s e q * - e q 6 w e e d B c g l c c l g B ; p +.e.r.+.| Z | | | Z C C Z { X.*.*.w     $ D X.l B ",
"t.7.O.X.+.*.O.+.O.| h V *.*.C d g c X.*.0.+.0.r.y.e.-.0.*.D c e.n.U.E.H.e.e.-.O.Z  .O.D O.O.-.8.d .   $ d Z C C Z *.e.&.V c B B V X.7.*.D B c g g c c c c B Z D D c g g c M g e p q d a s v $.#.Q P Q s.v.v.v.v.V.v.M.v.I. Xv.I.v.v.v.M.K.v.l.;.l.-.;.q.$.-.-.;.%.%.-.-.a.-.;.$.6.-.$.$.%.-.;.$.$._ _ _ _ W R T 8 W z q w e a a a a d d l V X.D B l l s l d d e e g l V B e e s e q q q 6 5 - 6 q 6 6 5 q e w a l g g d e d d l l q - - d l q - - q q d c c C S S C C Z S a e Z +.7.0.+.| O.o.| Z C Z Z | O.7.7.s .   X C Z c V ",
"*.X.X.O.O.| | X.X.V e | *.X.M e V B D X.O.O.0.y.y.0.-.e.-.*.X.+.t.y.K.H.-.r.-.-.O.D +.+.O.+.*.*.g o   O g S c c Z +.e.X.l c Z | O.0.*.O.Z l V c c B B v D c c D O.S c c l B B g f d g g p v l.l.s.u.s.V.V.V.V.R.l.%.-.q.} y.-.l.} c.R.a.$.$.l.$.+.;.$. .{ -.{ { -.$.} } { { *.$.{  .o.W  .-.{ E %.$.#. .` } _ Q R  .v q d d l l d d l v X.O.X.Z B l B l l V B d g l l C C l l d d s w q q q q 6 a g q 6 a g g l B B l d d w w d w 6 @ q s w 6 $ - 6 q e d l | X.v V Z D Z c l c D o.5.+.o.| | Z v v v | | D | O.s     @ B C c C ",
"C Z X.X.V l Z D B 6 6 a C C e s D B V l C *.y.y.q.O.X.X.e.t.O.| 7.9.t.y.t.e.0.0.7.+.O.O.e.t.e.7.B .   & V D Z Z O.O.O.Z c V *.y.0.X.| Z C B Z D X.X.D Z 7.| e C O.Z S B g c B B c B c f s V M.R.v.V.V.Z.V. XR. XK.r r X.V { V r r } T.{ l V X.r { ;.%.r r { w r C C r N e e V C r r V e e { e e  .$.$.@.#._ $.` ` @.v e B B V l l l O.7.O.| C V c c v C C C V l D B q B A C c d a w w e e B a q q l l l l l l a g c c d q 6 s e q & $ q 6 6 * @ q q q q e c Z Z v B c C X.C S c l Z | o.| | Z v v C Z Z +.O.+.X.d .   X A B c C ",
"| X.D B V D C S s $ q g C C a l C c Z Z | | C C C X.*.t.t.0.+.X.5.0.r.q.y.q.0.0.9.7.5.7.+.+.0.*.w .   & A D Z X.+.O.O.S c e.I.y.+.O.| Z X.| | o.&.+.X.| 7.O.d c X.O.X.C B B B B c B D g d v M.v.R.v.V.V.R.v.R. XL.{ X.X.V } X.V -.K.T.{ { V { V -.l.-.e =.&.r l C r l l e M r V l l V V l V l e  .$.' #.$.#.` $.#.$.E a V C | C h Z 9.0.O.O.C C C V C O.*.X.C C D B a c c | Z B a d l e M d s e e V B l l l c c l V B e e d l d - X & - q w - q w e w e a s a a d c C O.O.Z C V Z | | | | D Z Z C C v Z Z | +.Z q     . V B l c ",
"D D B V C B B g 6 q l C B D V l g c Z D Z c d q g C O.*.e.*.O.-.t.-.-.-.r.-.-.-.9.+.5.7.D | 7.O.e .   $ M c c O.+.7.*.| o.K.y.*...7.O.O.| O.0.y.y.e.*.*.O.O.D Z X.0.e.O.S D S S D D D B r V l.L.v.v.b.V.V.].R. XL.K o.X.V { D l l.R.L.{ { C { z G.l.-.e C C 5 l -.l r V w B l l w l C C l V r e  .-.;.#.#.#.#.#.#.$.W g D X.&.V C e.e.o.O.O.X.C Z D +.9.0.O.| D C C C C D +.*.O.V l l B C c g a e V l v V v c c v c l a a q l q & & q w q q 6 q q q d c d q - - q a V | C C C C C | | { | | C C C { C C v v | Z <     . g l a c ",
"D C V S S B c e l B S V V B w B X.O.7.+.Z S B e l D Z | O.O.X.-.e.r.c.G.y.r.*.*.x 7.7.X.~ o.7.O.q .   , A 7.8.+.7.O.O.7.0.0.| | D 7.5.O.| +.0.q.r.r.q.+.| C C D *.*.*.O.X.X.C C D O.O.7.D V l.v.v.v.N.v.v.V.v. XI.K V { V { X.r $.K.L.{ l z { { K.l...r r z e r *.z V l e V r M V r V V r V l r ..6.u.#.#.#.#.#.#.@.E l D Z X.X.*.O.| Z O.O.{ X.v D +.+.*.*.+.X.V C Z | O.O.O.O.| l g B D D C C e q d V C C v B c c a g a a s 6 q w a w q q 6 q d l C v l a q 6 e g l c V V v V C { | X.C v V c l C C l g v O.O.w     . s C | Z ",
"Z g c C C d q B S B g w g s e C X.| O.-...&.V g l B C X.O.X.X.*.-.e.G.K.H.q.-.&.Z X.O...| 7.7.O.,     , A t.K.O.O.O.O.7.e.+.+.o.+.+.O.5.+.7.7.0.y.y.e.0.X.| C Z X.*.0.7.7.7.O.S +.7.0.O.V r -.R.l.x.v.x.R.v.R.R.L.{ { l.} { -.} { c.M.$.{ %.-.{ } l.-.{ X.O.C %.{ C { C z { { C { { { z | { { {  .;.u.#.;.#.#.#.#.$./ l D Z v +.7.Z | O.*.*.+.*.D | o.7.7.0.7.O.S C Z D | O.O.+.&.C d C O.7.+.| V e V B C Z C C l g l l g q q g g q - q w - 5 e l l B Z c l w < q g h V V V l C C C o.+.| Z C l d l v c l B | | w     X A +.X.v ",
"g a c B d q V &.X.d q e e q X.-.0.X.| o.*.X.V c C C &.O.v { *.C o.G.q.t.c.G.e.0.5.v D 7.D 7.e.*.w .   = D 8.+.h D 7.Z O.+.+.+.5.7.5.e.7.e.e.e.0.0.-.0.0.0.X.C V X.t.y.e.7.e.O.| 7.*.+.X.C v l.R.v.v.f.v.v.R.R.R. XR.R.R.I.R.L.L.M.v.v.M.l.M.v.l.l.s.l.l.l.l.-.l.q.l.;.-.-.q.l.a.l.-.a.q.a.;.-.-.a.a.;.#.u.;.#.;.#.#. .h | Z c v Z Z O.7.*.*.*.O.*.+.O.+.+.+.7.O.X.| Z v Z 8.t.7.X.Z l C O.| Z Z z h D | C l l a f a g a 6 * l B a 6 - e 6 - g C C l l c c g e a f l V V e l C l l C o.| X.| C V c d g c l Z O.D <     X V X.l e ",
"w a c g q c X.7.O.s e V | V D X.X.| Z O.X.B N r d l { V V X.O.C o.-.q.K.K.K.y.-.+.D | Z Z 5.9.O.< .   $ S *.Z o.y.+.D 5.5.7.0.O.+.0.+.D o.+.9.e.0.0.q.e.0.v l C +.r.q.O.o.7.| O.7.+.+.o.| v v.L.x.v.v.b.v.L.L.R.R. XR.L.R.R.L.L.L.L.R.L.L.I.L.l.l.a.l.l.z.l.l.;.a.a.q.a.q.a.l.a.;.q.l.-.s.;.-.a.;.a.-.;.-.;.a.#.#.a. .v *.C v X.O.O.O.| O.+.Z Z X.o.+.+.+.7.+.O.D v B Z O.0.e.| C v B Z | +.o.| v h Z | | B a p q a a e - d C D g - q c d e l V C l l v B w ; q 6 l V e e c V l C Z | o.O.| C C B g g e l Z O.Z -     X B C z X.",
"6 w g q g D +.e.Z l g *.*.| Z C Z Z C X.D e q M c c g g | X.C *.G.-.r.I.I.I.y.e.7.+.O.c v +.8.O.< .   % S 7.0.y.K.7.7.0.7.+.+.v O.+.O.B v O.9.0.0.r.0.+.o.Z Z 7.y.y.0.0.0.0.5.O.| 5.9.r.5.^ M.T.v.x.v.l.$.} -.-.-.-.-.} $.-.;.-.-.} } -.} ;.-.{ { l.a. .{ %.o.{ $.-.$.W  .%.{ X. .o. .o.o.{ o.$.W %.$.v z -.;.a.#.a. .| e.X.X.O.O.X.v l O.*.v c C O.5.+.+.+.o.D Z v | *.t.e.7.+.O.X.X.| Z 7.8.5.D v | Z X.| l 7 - a p - s C =.&.d w e O.D a l l l g l V l - * 5 q l q q l c z C | Z +.0.O.O.D l V V g 6 d C | B =     O A X.*.e.",
"d V C Z Z O.0.7.O.l l *.X.C *.&.D D O.Z V V C D X.C C V l l X.O.r.y.r.y.G.H.t.e.7.8.*.X.O.+.8.7.w .   O D H.c.0.7.O.5.7.+.O.Z | +.0.O.O.O.*.e.0.0.0...*.0.r.r.r.0.r.c.H.e.+.+.O...+.+.5.+.| M.v.v.x.v.-.z l { r { { { { { { { l { l V V z -.{ l r -.-.r z v w r { q.z r { z r C C r r z { e o.X.r $.v e e $.a.#.;.6.o.{ O.{ O.O.X.| Z O.0.0.| | X.&.&.O.-.*.X.O.+.+.7.t.7.7.0.7.O.Z | Z Z O.| Z C v Z v | | B g e V l g C X.D &.V a w D C l C S V V D l g w e B l e e d l l C Z O.| | O.| | C V C C c a g C X.V =     $ D 0.-.O.",
"B C D Z X.X.O.O.*.D e O.o.| &.O.D +.*.X.C | D { C V C C C X.X.X.+.y.e.-.q.e.y.q.e.O.B Z O.7.0.O.<     = O.K.r.0.7.Z Z 7.O.Z | 0.0.*.| X.O.7.0.o.+.o.X.0.y.y.9.r.7.+.0.0.o.| O...O.| D | | ~ a.x.f.x.:.-.z V V l { { V X.{ X.X.l V r -.K V -.{ l r q.-.z C d 5 C %.a.z V X.V e -.D r V C D r { { d %.{ e 7 ..;.u.#.#.| C &.| C | | | | e.*.0.v Z *.7.+.+.+.X.| *.7.7.7.7...7.7.5.~ Z Z Z Z v B v Z c l v D Z v l c A V V V D C D D l 6 X.c c Z S C Z C l d l e l V l l d c C C V D O.+.| X.Z D C C d a s V C | d &     O D -.O.{ ",
"C X.X.C Z Z C C 7.O.r O.*.*.X.C D O.+.O.X.B V D *.X.C V X.*.X.X.O.0.y.y.r.0.r.y.e.l w Z O.*.=.&.< .   O D H.0.0.9.5.v O.| Z | t.e.+.+.7.{ | *.-.| l X.0.0.0.e.+.+.+.o.| X...O.+.o.| o.o.| E @.;.l.s.l.a.V l V d V { { X.{ { X.V V r e.-.{ r V l l -.-.C D r w C -.c.%.C w d l -.C r V C { e X.{ r 5.C 2 5  .;.$.#._ z C 8.{ M { Z | O.r.7.+.O.| Z O.O.O.| j | O.O.*.7.+.D ..D Z v Z Z | v Z v v c l l l Z v Z c C S c l l l g l *.g 5 X.D D C l v C Z | V e d M V C B l C C C B Z o.O.5.| | X.D C < ; d V D D e O     = D *.| | ",
"X.C C X.Z V B X.e.*.O.O.| 7.*.O.O...e.7.&.V { X.*.&.C D D C X.X.0.r.y.e.e.y.y.t.X.B S X.X.&.X.r , .   = D y.0.0.K.7.S v D +.7.9.7.5.7.7.| O.*.-.e...q.+.O.-.0.+.o.X. .|  .O.o.O.o.| | o.o.%.a.a.s.s.l.-.r w { r V V z V C o.l r { V q.o.V r V V r -.-.r z l w { ;.;.{ z r r V -.C e { { { e { X.e | z w e o.$.` _ _ z V e.&.r V Z O.0.t.5.7.7.+.D X.O.e.+.O.-.X.o.*.*.O.v Z Z v | | Z v Z v c D | v v v Z v | D Z c l c c g d C 7.S c S B O.S C | X.X.X.C B l l { V V l B B l l D | | O.O.+.O.Z B q 6 B l B B - X     - O.*.o.+.",
"C V D X.D D D *.e.9.0.v c 7.7.+.7.0.0.+.*.X.C X.&.{ C X.V v C X.-.r.K.r.y.y.e.O.D l D &.*.D M q d O . < &.G.r.K.Y.t.O.D O.7.7.O.O.7.0.+.7.0.y.K.Y.K.y.+.+.0.0.o.|  .o.| X.+.+.o.o.| | +.0.%.z.l.s.;.s.l.{ V -.o.V *.} l { -.{  .-.{ } -.V o.o.o.{ -.;. .W $.{ W $.l.$.l o.+.r } $.z %.o.o.{ W o.z W z z r }  ._ _  .z { H.-.V D X.+.7.5.+.7.+.O.O.O.0.c.H.r.*.X.X.*.+.v v Z Z v v Z v Z v v v | 7.X.Z Z v C v Z B h v Z V l V X.*.O.X.l l X.D C O.O.+.O.| C V V C V M l d l l v X.7.+.o.+.O.C c B e d l l l q - &     1 +.e.0.0.",
"C | X.D D | +.e.0.t.7.+.O.O.C l O.+.O.O.O.&.D d V V O.*.D X.*.*.*.r.y.9.e.7.+.+.X.B D X.&.X.V X.D @ . 1 D K.t.0.K.y.7.O.| +.| Z O.9.7.0.e.0.K.I.G.-.X.| o.| | v X.O.| o.+.+.+.+.O.O.O.*...%.l.s.N.x.;.s.;.l.l.l.l.:.L.-.$.c.x.l.K.:.L.-.l.c.;.l.l.a.-.a.l.-.q.l.a.a.l.;.-.q.;.q.;.-.a.@.;.-.#.#.#.%.$... ._ $.z./ W C C H.*.D { X.O.D Z | 7.9.8.7.7.0.H.t.O.| D C V Z c v Z v Z Z D o.| Z D Z Z Z ~ B x l c B C Z Z Z C v c | *.7.+.O.O.D C l l X.X.| | | V e d r B X.C l v V C | X.+.O.| Z l g s q w B B B e B 1   . t O.e.o.X.",
"O.+.X.C S O.0.e.q.0.*.7.e.| | C O.+.O.X.O.O.X.B V Z *.*.O.+.*.0.0.t.y.-.O.X.-.*.&.X.X.&.D D V X.f X X < D U.r.+.t.t.7.+.*.X.Z C X.e.0.q.0.e.G.K.0.| C | Z v h V Z | { | X.-.*.+.O.| | Z o.5.6.a.@.R } a.l.l.l.l.l.l.x.v.c.l.l.l.;.l.a.l.s.a.a.a.a.;.a.6.a.a.a.a.q.6.a.6.-.s.;.-.;.;.#.$._ $.;.` $._ _ _ R / W T r T z l e.e.O.o.X.X.{ { O.e.9.7.+.*.0.0.7.| v C V d l V V l z l Z O.| Z Z v l c x D v h x B l Z Z Z Z v Z D *.*.*.O.| 7.| Z D Z X.X.| | C C l e B V X.{ V C X.X.o.+.o.Z l l V g B l d B l d d g =   o < O.9.O.l ",
"0.e.*.l V O.7.0.+.| | 7.t.0.*.0.0.r.K.0.| O.*.X.| D O.o.O.0.-.0.y.q.*.D V X.t.*.&.C X.F.D B X.D w . O < O.K.9.o.0.t.9.e.*.Z Z l *.q.y.0.o.O.-.o.o.| Z | V a w d C O.o.l X.*.+.O.X.v a l +.%.$.%.$.$.;.l.x.x.l.x.l.l.l.x.x.l.c.l.x.l.l.l.z.l.w.l.-.l.q.;.q.l.-.l.l.a.-.a.l.;.l.a.a.$.$._ } $._ #._ _ _  . .W / E j W z l -.e.e.*.O.X.Z Z +.e.9.5.X.| | | O.v V V h q e d B D V e | O.| C V l e c D ..Z Z S O.l | 7.7.D a c | *.O.D v D +.7.O.7.+.+.7.e.O.v C D V B V D D { X.X.X.O.X.v l d d C V V V V D d w l q X   . < O.9.| x ",
"7.0.O.D S O.O.+.O.o.O.*.0.0.0.0.q.K.e.-.7.0.*.O.X.X.O.O.O.O.o.| X.*.O.D X.*.t.X.r e V X.D C g g ; . % s O.t.y.t.K.y.7.7.X.&.+.O.e.H.q.%.o.o.o. .| C Z V e 6 q d X.e.O.r { *.+.o.o.C v X.*.5... . .o.%.%.%.%.$.%.*.-.o.%.-.+.o.} $.o.%.$.o.$.o.$.O.o.o. . .%.o.} { o.$. .o.o. .X.C W z z C r z z W W z z z z z j l r q V -.-.*.X.C O.O.O.e.t.9.X.Z Z Z | C C V d - ; w l X.X.V q B Z C C C c l v Z O.Z B Z D | 7.e.0.O.l c | O.| Z v | O.O.7.+.O.0.-.+.+.o.O.X.D V C C X.C V V c l V c s s C C c w e w l d d e < O     1 D O.| Z ",
"e.O.O.O.C C | X.O.*.-.*.+.0.5.0.r.y.0.O.*.*.*.O.X.X.O.O.O.C V a w C X.V *.G.*.V w V M e D X.6 - & X % f &.t.K.K.K.y.| C V G.K.y.y.K.0.+.| o.X.X.| | v a q q c X.e.q.*.l C +.o.O.o.o.o.| 0.0.o.l e e r V z v z l r 2 w w r w r w d z z l V l l d r e e e 5 5 e w r e w 5 5 w e e w e q 5 - = # * w w - + X @ $ @ 6 e l *.e.%.V l v e.r.0.t.c.+.| Z v Z | | C e w 5 q B D X.O.V e B | Z Z Z Z Z C ~ O.~ v v Z 7.7.8.7.O.Z V v C C Z Z O.| O.+.+...0.%.o.X.O.X.X.C { D C C Z C a < q d d c B S S a 6 q 5 - B B & X     O w Z | +.5.",
"O.O.+.D V c O.+.+.-.*.*.&.C &.G.G.q.X.Z X.X.S C Z X.X.Z C c f d e e e w V C Z d q p e g O.X.q * = X & N &.t.y.U.L.y.| a e O.q.-.-.-.7.X.X.X.X.X.Z v Z O.l e D X.X.-.+.z { *.-.o.o.| o.-.-.q.0.Z V v X.-.t.q.-.*.X.B C O.*.X.| Z *.e.r.y.r.e.C X.X.&.V a g V S Z V V q q 6 e w w B l V s 6 q q g &.D ; X X X , w B X.0.y.y.0.l a e | O.+.0.+.| | o.D Z Z C C X.X.6 a D D V O.C w C v v | Z C O.O.O.q.| C C X.O.*.X.+.O.C g r C O.X.X.O.O.| C | +.-.O.C C D Z l d V { V C l l q 6 q 6 - q a p g ; - < - a D c & X .   % < A Z %.5.",
"B | O.D l C +.0.-.O.X.C B w V D X.D e B C c c l B D X.S g a a V B - 5 q w d q - q w p S &.X.q - < @ = f D *.c.Y./.H.Z q 6 C +.+.O. .| v O.{ C l | +.7.e.l s V V V *.+.v | +.o.o. .o.-.0.t.K.q.| v C C *.H.c.e.&.C X.O.*.*.X.Z C X.q.H.y.q.*.C &.X.&.V d Z D D B d w w B w * 6 6 q w w 6 q e g O.&.D q @ O X 1 < g X.r.L.K.0.v 6 q c | o.| | c v O.v x l { *.-.*.e d B l V O.v d A Z Z Z v Z o.7.r.c.5.| c v X.C D O.O.V q l X.O.X.{ C C a q V D X.V e c h a a 7 V D V d e w e g w @ * - - 6 * @ - * 6 c B l & X o   X < c Z 0.9.",
"q B X.e e B S X.*.C s - . O . + X - w l e V l w d d d B V c B O.V q M M V e @ @ & - - a l l w a w O % 1 A y.K.^.Y.-.e q g X.*.-.X.C V | C e e C e.+.X.0.c d c V X.*.0.| | +.o.o.-.+.o.0.y.c.y.*.v C z | 0.t.*.l C *.O.-.*.X.B 6 l -.r.r.*.Z C B w c g q e B B w s g l D B q s w d w 6 - * q w l V l - & $ . X = D e.K.Y.U.+.7 p c B X.O.C l l S B a a O.*.X.X.X.e e l l z X.X.B C D v v O.| V o.0.c.y.O.C C C l e X.D - 6 d V X.X.l w - @ . @ $ $ * d l f c g 6 q e w e w a c V w - w w e - & @ & & & 6 6 p & O O . X = A +.e.y.",
"p S A a s a a V V d d O X X $ $ O - < ; ; s q & & & & 6 e g X.S 6 6 B l l q 6 q w < 6 6 a g 6 < = o X = M G.I.Y.U.X.e d d g g V s q h s w 6 q S Z v +.*.v c C C X.0.*.C C o. .+.e.-...G.y.-.K.y. .| v | -.y.-.e V o.O.O.o.X.g # e +.r.0.*.O.C w g e 6 - ; q q * e l C B 6 e d e d e ; - ; w - - 6 q & & $ o X - D e.H.c.t.v g B D w w B q ; p a p * q v v C O.O.g B B B V X.| d V v v | +.| v o.+.| C d d B g w a Z V ; w w q B B l d - . O X @ $ $ q q s g 6 & $ @ $ - 6 a c g & * w a w * * * * - & - * ; @ X .   . @ A &.0.0.",
"X = ; < ; X @ & X = O . X X = f f - X . X @ X @ X X @ ; f a S q - g B g g w q d f q ; ; ; ; - < & o O 1 N B &.8.*.g g c < X * - = ; & & & & 6 e e C -.*.V V | X.O.7.+.h l 5.9.9.y.e.+.c.y.o.| O.X.O.+.0.e.0.8.v Z | O.*.-.X.d # d *.r.0.t.7.f = & X & & & - - 6 a S C w q B B g g f ; p c g ; & < < = = o . % 1 f l &.O.X.l c D p X & & & & & X @ * 6 q e v *.O.l l C S C X.c q B D X.*.*.X.v *.| - @ X X @ & & = < ; 1 = % X & - $ $ X . O = q q = X X X # X . X X @ & ; p f = = w d w a ; * - ; * & & - - @ X     X % p c D | ",
"O X @ O % X X ; < ; 1 = X = w p p ; - & & & - & - - - f S f q - - < < g M - = f q = & - - = = = X   O 1 w < d p e - w q @ @ = = = 1 = ; a s g d s C X.D w d c A &.7.D g c D O.&.O.C S 7.O.e 6 c C X.*.e.7.O.+.D C C *.O.O.D ; . a O.7.+.7.B & X . . . @ ; d g V c B a q a g p ; q t - ; w , X O & % O .   . = = < ; d g p - p < O O & = = = = ; p s d d s B C V q q g B B B g p M C D C C d d S f X . X X X = = O . . X .   X $ , 1 - @ @ - - w p - & & & = & @ & & & t p p - O = ; ; q p * X @ * X @ @ @ % X .     X < ; ; a f ",
", X % O X % = 1 t < , X % = 1 = ; ; 1 = = - = $ = = & = = % X X $ O X O % X X % & $ X o X       . o , < t s 1 = O X O O X % , O % ; < , < = , - = - < < = O & & = < = = = = = % & $ ; p ; & = = , w s g p g p f g M B s d d @   @ w f t 1 = X O X o   . X < < t - , X = & X . . X . . X .       .       . o , 1 p < 1 = X X X . . O O % & = = ; , , - - & = & O X X X O $ $ @ X X $ $ @ O . & , %   O , 1 t s s 1 = O X . X = 1 < < = O O , , - ; & < = O = O X & & X & = O . X . . . O & X . . O . . .   .         % 1 f < - $ ",
"o X X X . X X o X . X . X X X . X X X X X X X X X . . .     X . . . . .   . .   . . X X     X X X % 1 t s N 1 = O . .   . o   .   X   X . o X X O X X . X X X o X X X . . . X X X . X X . o . . . . . . . X   X X X .             X X . .   o             . .                 .               .   o X X O = 1 s f s < $ . .         X . .   X o .   .   . . o X . o o . . o o .     o                 . X O O X X .         o   . o             o     o     .                                               . o . O % t N p , % ",
"= = = = , = = & , = , = 1 1 ; 1 ; = 1 = = 1 , , % = % = , = - , = ; 1 = = < = < < = = = = = 1 t 1 t t p s s f t t = = , = = = , - = = = , = , ; , - < = < < < ; ; < = = ; ; ; ; < < < ; ; = = = & & & X o . X           . X X % < t f t ; = & % X X X . X o X   o o o . X % X O & & , < - = - ; = < < w < s d f p p p 1 = , O O % & = - & & & & $ - = = = < < = = < = = - = ; = = = = , , , & % X X X X X % % % % % O X O X X X O O O O O O O O @ X X X X X X X X X o . o X X X O O O O O O & % X O X X % & = = , < 1 p g d w < ",
"t t f f g N g f g N f g g M M M N g < t < < 1 < 1 t g M M g c A A M A A S S S S A B D A g A S S B S S A A S g N g f t M g g g g M c B B g B c g c V c B B c c B c B x g x S S f A B B c f l l f g p p < < - = ; = ; ; ; w w p p B 8.9.7.O.S B p = X & O % < , = $ & = q g B A Z A g V D S A A A S S X.&.S &.*.D S B M g f g p t p p f B B B S S B V c c g g c g B B g f g g f a g d g d p w s < 1 1 t = < 1 1 ; p g M N N g g p p < < w g M c g p w 1 = % % % O % = 1 = = = < < < q q 6 6 < < < ; t 6 < 1 q w p s g w d B A A B ",
"B 8.&.G G O.D G O.D S 7.8.t.G.8.*.G p 1 , 1 < s s D 8.t.t.7.O.8.7.D D 7.t.t.8.t.G.9.t.8.O.O.t.t.7.t.t.O.O.S A *.7.A M S 8.y.H.U.U.H.H.t.7.8.9.t.e.0.0.0.e.0.7.r.t.t.w.t.y.H.9.| ..7.B B f c D X.X.X.X.D S B x S 8.7.8.8.8.8.8.7.8.y.K.U.^.P.H.S f p p p t t ; p t A O.8.H.U.J.Y.Y.O.O.H.K.e.8.H.H.H.H.q.O.H.H.y.+.B B g c g B g f c t.H.U.P.Y.K.0.8.5.7.7.7.O.O.7.O.O.X.+.O.O.O.O.D B p < , q f f f g f f f p f D 8.e.8.8.G.8.&.&.S V S 8.G.H.G.7.A q ; = % % 1 < g g f V M B S B B D D B B V V c B c d B S Z D C *.&.&.V Z O.S ",
"8.9.O.S Z D &.7.&.&.7.9.t.y.H.n.y.t.A t O % 1 t S t.H.Y.H.9.8.9.t.7.*.9.y.y.t.c.H.t.c.9.7.9.t.9.c.c.t.t.t.t.t.K.H.t.H.t.y.Y././.Y.P.U.9.+.| 0.9.G././.L.y.w.9.K.E.H.n.E.^.y.| D 7.9.D g q Z O.o.G.K.K.K.t.y.H.H.y.8.9.9.y.H.c.y.c.P.n.L.U.K.K.y.7.8.&.D ; t p p O.H.U.)./.P.K.P.Y.e.+.K.L.q.0.y.y.y.G.y.q.P.y.w.w.9.| D D c S 7.S O.K.Q.Y.Q.Q.K.0.o.O.7.7.9.9.9.w.9.9.9.r.y.y.t.e.+.S w - & p g B +.7.7.7.D O.7.G.t.*.*.*.e.e.7.8.7.O.O.&.e.H.K.t.8.c ; X O 1 t M A A D 7.*.D l l S 7.O.O.X.| C S D S S D O.O.O.O.7.G.t.v c c v ",
"D O.D c B B D X.D C Z +.+.7.5.9.n.t.7.f O % 1 f D y.U.L.0.*.*.0.7.D Z 7.+.+.+.+.+.5.7.7.e.y.t.0.5.0.e.0.y.r.K.U.y.t.n.H.y.U.P.y.r.q.9.+.| | | o.0.Y./.P.5.+.5.0.y.w.9.n.y.5.5.7.q.q.*.e q B X.-.K.Y.E.I.n.U.P.w.5.+.+.5.7.0.y.5.0.y.M.n.y.y.r.K.y.n.w.D - , t x w./.>X).P.0.q.r.r.+.| e.5.7.5.+.+.+.0.9.P.P.n.y.t.n.9.7.+.Z Z 7.8.0.L.Y.P.P.y.5.| | | +.O.0.K.K.K.9.5.5.t.K.y.y.+.| | B - & p g O.y.K.I.H.e.t.e.O.Z v C Z D 0.e.*.o.o.O.o.+.0.c.U.K.e.g X X , f A &.O.*.*.-.C w l V X.V z l l l l l c l B v l l l c C *.V q h Z ",
"c Z c f p a l c l V | 7.+.Z c Z Z +.D f X O < f &.G.L.0.| | C C c w p C D Z D X.S C O.7.7.7.D v B D Z O.7.O.7.7.X.7.y.9.S | O.O.7.o.| D Z Z v +.r.0.0.r.+.X.o.o.+.7.+.+.+.5.5.7.-.y.*.e * e v X.+.+.+...9.9.5.+.5.o.o.+...7.7.5.0.0.y.y.0.5.5.0.w.y.w.S ; - p Z c.>X>XM.7.+.+...| x h 5.0.5.+.+.| | 5.0.y.8.5.~ 5.t.7.+.v Z D f B +.+.5...o.| | | -.X.v o.0.0.0.7.5.o.Z o.+.+.+.+.o.O.B ; O 6 f C X.X.o...*.7.| Z Z C V D X.O.| X.o.%.y.0.0.0.0.n.n.n.S X o = s A D D X.D B w w w B B l l e w e e a l V C C a e e e e B e q p a ",
"g B B < 6 q d l g c | O.O.x v B v 7.+.M . X t f D G.c.O.C C V c d d l S D B c g d g A O.O.D x f S C B Z S D D Z x O.9.| B B D D B v v O.o.| | 7.0.5.o.+.+.o.+.q...+.o.+.0.+.+.0.0.0.o.a - e V | O.+.+.0.y.0.+.o.| +.| o.| 5.7.o.7.r.r.0.5.o.+.0.y.U.c.S = X ; D U.-XY.9.O.o.+.Z l l v o.o.| C c v D | 5.0.o.h D X.7...+.| O.7.a a c C Z C C Z Z | 0.+.l X.-.5.+.+.| ..5.+.o.o.| | o.o.B ; @ - l c C v Z X.*.X.Z S Z C B C | D X.X.O.0.r.y.0.O.+.0.y.U.O.@   % s C C X.X.c q e s w M d d g e e e a s d c D V s q - w d q q w 7 w ",
"g B g ; q q d g g c C S Z C B C X.e.O.l . . % s S e.0.V z X.X.V f c C V g c q ; 6 p q c D v a +.7.S c Z | | | D S 9.+.Z Z D D B f v 5.9.+.5.0.+.O.o.o.o.7.%.+.t.9...+.5.%.o.5.0.y.0.| g 6 C r.y.+.+.0.c.c.+.o.| | 8.v v | +.+...5.y.y.0.*.+.5.0.y.H.n.D ; X t D n.Q.n.5.| o.0.v l Z X.| C C a 5 7 p f v o.| | r.5.X.7.9.+.5.7.a ; e g c X.X.| O.| o. .| X...o.X.| o.X.5.0...o.| | o.O.V q - v 7.O.l Z X.0.0.v C C D X.B c V Z Z X.0.y.r.r.0.+.o.| 0.K.O.%   O w C &.O.D a e d l r M B M e s s d d a q d c c d q q s a 6 q a p d ",
"6 p g ; w g d g x g f B B B c B C X.O.c o   = s S *.X.l l C &.C f w w q e d w e a q s D O.O.| X.| Z X.+.7.0.5.+.D 5.7.| | Z Z O.+.7.9.O.O.0.K.r. .o.+.o.+.q.5.5.n.w.+.5.0.0.q.r.K.t.| l a y.L.q.w.r.q.c.n.%.X.c | 7.c l Z o.o.+.o.+.0.5.o.5.0.9.0.9.e.Z = % < S w.P.q.Z Z 7.5.D h d l l l l a a d d l | -.+.| o.| o.0.0.0.0.O.l p d g c Z D D c c Z o.t.o.| o. .| O...+.5.0.+.o.+.0.o.v q e e.G.0.O.-.+.0.0.| V B X.D q l V C C | *.0.r.0.0.*.o.| +.c.&.$   . < D O.C d q a a g B M l r s a a a e a a l c g a ; 6 q q e q w a a ",
"= d g < p l d l g c x B v B B Z | O.O.V .   % s Z +.o.l l C D S a 6 6 q a s e s w q c O.7.7.*.c C C O.*.0.0.*.+.O.7.+.D O.| D 5.O.7.+.Z | +.K.L.0.+.0.o.+.r.0.5.c.L.0.5.r.y.q.r.P.0.v 6 c K.K.r.y.c.q.y.r.%.| l | O.v v +.o.+.5.0.+.0.0.5.0.0.0.+.O.| Z ; X ; x c.Q.5.v | 5.O.| g e 6 q h d l V g l X.*.G.y.+.v v | O...5.+.X.v Z c v Z Z v v v v C *.K.+.{ +.o.| -.t.%.7.0.0.o.O.q.X.l - l K.q.q.y.0.+.*.+.C l e C C e B Z C | X.O. .y.r.e.-.o.X.5.K.7.-   o ; D | g e 6 a s B d B e M d d a f a s a l h g w 7 q q w q q e e q ",
"< p p - - d B X.D O.D 7.7.D O.9.0.-.o.g . o % f 7.7.Z l g c V B g a e g l s s c s V &.X.X.*.O.X.X.Z X.X.D Z v B D 7.7.8.O.D v S O.+.| Z | o.5.y.r.0.%.o.+.y.n.r.5.9.n.K.K.K.y.9.w.+.a e | c.K.y.0.+.+.0.7.+.+.| O.| v c +.0.9.9.n.K.K.y.y.9.0.7.+.| O.D - X = S P.E.5.v v Z | Z l a g C C V B C C | *.0.0.q.-.+.O.| v |  .0.n.+.Z | Z Z Z c v D C e c 0.q.O.+.O.E *.y.-.o.%.0.0.y.y.C 7 e | K.c.0.O.| | X.| C C V X.D l V X.*.0.y.y.r.y.y.r.0.0.e.y.K.&.-     ; &.X.l a a d l B B d d d a s a w q q a g a a w q p a q w e a w q ",
"q < w < q s V D Z A B B g B O.9.G.q.+.d . o = g 7.+.v g d d c c B c s B l B l c B B S D X.O.*.O.| Z C S D B S c g B B c c S c v B B v Z o.+.%.r.w.r.+.| o.9.M.y.y.y.0.0.0.0.c.c.q.+.z { +.q.q.0.0.%.+.%.5.5.+.+.+.O.Z v | 0.r.0.0.0.0.0.7.7.7.7.5.0.7.B % X ; 7./.P.7.v v v Z v C c l O.X.C C | C | o.0.+.0.0.%.0.| C v | r.L.w.5.+.o.| l l v v l a Z 0.t.%.+...v X.*.+.+.+.O.0.e.0.| e C +.q.0.0.o.|  .o.X.X.{ D D Z c v X.*.-.r.y.r.r.r.y.y.y.K.n.G.X.$   . < e.*.c e w w d l l d e d e a p & @ - q l l d 6 = p w 6 w w s p e "
};
