/* XPM */
static char *out[] = {
/* columns rows colors chars-per-pixel */
"256 256 256 2 ",
"   c #040402",
".  c #050706",
"X  c #0A0603",
"o  c #0C0A05",
"O  c #0D0D09",
"+  c #140302",
"@  c #1C0303",
"#  c #130C05",
"$  c #1B0D05",
"%  c #1B0608",
"&  c #130E0A",
"*  c #1A0E09",
"=  c #14120C",
"-  c #1B1309",
";  c #1C130C",
":  c #030A19",
">  c #0E1111",
",  c #161511",
"<  c #1B1611",
"1  c #1C1A14",
"2  c #151718",
"3  c #1D1D19",
"4  c #230303",
"5  c #280807",
"6  c #35080A",
"7  c #241306",
"8  c #2A1806",
"9  c #23150C",
"0  c #2A150B",
"q  c #24190E",
"w  c #2C1B0C",
"e  c #35190A",
"r  c #321D0C",
"t  c #380E11",
"y  c #221611",
"u  c #241C13",
"i  c #2A1D14",
"p  c #241E19",
"a  c #2A1D18",
"s  c #351A13",
"d  c #1F201B",
"f  c #34220D",
"g  c #3A250C",
"h  c #2B2116",
"j  c #24221C",
"k  c #292319",
"l  c #2C231A",
"z  c #332313",
"x  c #3A2513",
"c  c #3C2A14",
"v  c #32261C",
"b  c #3A261A",
"n  c #34291E",
"m  c #382C1A",
"M  c #3B2B1C",
"N  c #020E24",
"B  c #061529",
"V  c #161C29",
"C  c #061A36",
"Z  c #142436",
"A  c #292824",
"S  c #2C2A24",
"D  c #352B22",
"F  c #342C27",
"G  c #3B2E23",
"H  c #3D3125",
"J  c #34322C",
"K  c #3D332A",
"L  c #3B352A",
"P  c #292F35",
"I  c #393834",
"U  c #461717",
"Y  c #4C1213",
"T  c #452A0D",
"R  c #462716",
"E  c #422D15",
"W  c #432D1B",
"Q  c #4B2D1B",
"!  c #552C19",
"~  c #45321C",
"^  c #4A3418",
"/  c #4B341C",
"(  c #52341C",
")  c #533A1D",
"_  c #59391C",
"`  c #602B1D",
"'  c #462D22",
"]  c #572725",
"[  c #433325",
"{  c #4B3523",
"}  c #4D3A23",
"|  c #43352A",
" . c #493729",
".. c #45392D",
"X. c #4B3B2D",
"o. c #523524",
"O. c #533C23",
"+. c #5A3D23",
"@. c #533D2B",
"#. c #593929",
"$. c #453B32",
"%. c #4B3D32",
"&. c #433D38",
"*. c #513F31",
"=. c #5A3C34",
"-. c #6B2F2D",
";. c #643C29",
":. c #63421E",
">. c #5C4225",
",. c #54422C",
"<. c #5A4529",
"1. c #5B442B",
"2. c #4E4134",
"3. c #45423B",
"4. c #4D433A",
"5. c #534335",
"6. c #544734",
"7. c #5A4534",
"8. c #564934",
"9. c #5C4A34",
"0. c #544639",
"q. c #594739",
"w. c #56493B",
"e. c #5B4B3C",
"r. c #644528",
"t. c #634A2C",
"y. c #6A4D2C",
"u. c #76472A",
"i. c #6C512E",
"p. c #74532D",
"a. c #634C33",
"s. c #684933",
"d. c #614E3D",
"f. c #754A36",
"g. c #6B5234",
"h. c #665438",
"j. c #64523C",
"k. c #6B543B",
"l. c #735533",
"z. c #775837",
"x. c #745A3C",
"c. c #7B5D3B",
"v. c #7D613C",
"b. c #122D4B",
"n. c #102E52",
"m. c #2A394A",
"M. c #374651",
"N. c #1E4166",
"B. c #2D4D6C",
"V. c #454041",
"C. c #484946",
"Z. c #554C42",
"A. c #5C4E41",
"S. c #5E5143",
"D. c #5B544A",
"F. c #4F5656",
"G. c #614F41",
"H. c #684C47",
"J. c #754C45",
"K. c #645344",
"L. c #695645",
"P. c #665846",
"I. c #6C5A45",
"U. c #645649",
"Y. c #695749",
"T. c #66594C",
"R. c #6C5B4B",
"E. c #735C44",
"W. c #795C43",
"Q. c #715E4C",
"!. c #645B52",
"~. c #6C5E51",
"^. c #715F51",
"/. c #7C6244",
"(. c #74614D",
"). c #786449",
"_. c #7B644C",
"`. c #6B6356",
"'. c #746353",
"]. c #7A6653",
"[. c #726854",
"{. c #7C6955",
"}. c #766759",
"|. c #7C6B5B",
" X c #525E61",
".X c #596568",
"XX c #706F67",
"oX c #8C5036",
"OX c #875938",
"+X c #A55F3F",
"@X c #83633C",
"#X c #96613C",
"$X c #8C5C45",
"%X c #836543",
"&X c #846A4C",
"*X c #886A48",
"=X c #976748",
"-X c #906F4E",
";X c #94744C",
":X c #826C54",
">X c #896C53",
",X c #826E5B",
"<X c #8C7254",
"1X c #85715D",
"2X c #8A735D",
"3X c #977957",
"4X c #AD7251",
"5X c #A77A58",
"6X c #BA725C",
"7X c #835A60",
"8X c #857362",
"9X c #877365",
"0X c #8A7663",
"qX c #8C7965",
"wX c #867769",
"eX c #8C7B6A",
"rX c #947C64",
"tX c #927E6B",
"yX c #AF7C63",
"uX c #9E815C",
"iX c #A4845B",
"pX c #B8855B",
"aX c #98836A",
"sX c #8D8671",
"dX c #988674",
"fX c #A78966",
"gX c #B88765",
"hX c #B18F6E",
"jX c #B6956B",
"kX c #A48C75",
"lX c #AA9378",
"zX c #B79976",
"xX c #BDA17B",
"cX c #CA8C6A",
"vX c #C7956B",
"bX c #CF946A",
"nX c #C99975",
"mX c #D49A77",
"MX c #C4A06E",
"NX c #C6A57A",
"BX c #D7A57B",
"VX c #376185",
"CX c #7B8590",
"ZX c #9D9285",
"AX c #AC9884",
"SX c #B8A58C",
"DX c #C7AA86",
"FX c #D6B18D",
"GX c #D8B48A",
"HX c #CEB49D",
"JX c #E7B38C",
"KX c #E6C499",
"LX c #EEC79A",
"PX c #D8C6A8",
"IX c #EDD0AB",
"UX c #E6D9C1",
/* pixels */
"A I I I Z.XXZXZXAXAXlXkXkXkXdXtX].{.dXaXqX2X0X2X2X2X0X0X{.].aX2X:X8XwX`.~.R.~.~.A.K.`.U.G.U.eXdXlXkXdXlX0X,X^.K.{.8X{.'.1X,X,XqX8X,X|.|.9XwX8X1X{.].(.I.j.R.K.%.K l v 3.4.4.e.S.S.U.~.R.T.T.`.R.|.'.R.~.~.'.}.8X|.wX|.^.^.^.^.'.8XsXdX].2XR.P.4.k 3 A J S L }.eXeXeXAXtXwX,X,X8X|.e.e.].8XQ.Q.{.Q.].].Q.Q.Q.H.|.8Xd.R.'.~.0.0.4.2.$...4.4.2...`.wXeXeXqX0X].K.e.X.K.Q.K.K.Y.^.Y.~.Y.U.L.G.Y.Y.^.'.~.R.G.q.5.w.w.G j u & S K F 5.0.%.*.Z.Z.A.Z.A.H.U.!.H.Z.A.H.H.~.T.~.U.A.w.S.K.K.K.}.8XR.'.A.%.F y X 2 A A J [.}.{.,X9X8X^.Q.~.",
"1 J &.C.XXeXAXSXHXSXaXrXrXqXqX,XQ.'.qX>X_._.:X:X:X_.{.:X2XrXkXdXqXaXaX8X8X0X|.'.T.K.wX8X}.|.aXdXkXaXaXaX:XQ.K.e.^.8X:X1XkXdXlXAX2X1XqX:XtXAXkXkX{.L.I.P.P.(.R.5.K l n &.3.0.[.eXwX8XeX8X|.aXsX'.T.A.e.A.e.e.K.8X}.|.Q.Y.Y.Y.H.R.R.|.rXdXaX2X|.U.v = 3 A F Z.dXZXZXAXAX8X].Q.R.Q.R.e.5.K.E.K.R.R.Y.R.Y.L.R.^.{.eX,XR.'.'.'.Y.T.R.T.0...w.`.`.T.Q.8XqX8X8X|.R.q.2.} q.Q.R.Y.{.eXeXtX|.R.R.Y.{.|.8XeX^.q.w.0.@.K.d.X.n u ; l F D w.~.{.XX|.~.Y.}.wX`.4.5.&.%.%...*.~.U.K.G.0.q.q.8.q.0.P.'.|.wX|.!.| < X > j A &.|.,XwXdXdX|.R.R.G.",
", J C.3.!.dXHXSXSXkX2X2X0X1X{.'.e.G.0X,X,X,X{.{.{.R.{.2X2X0X0X0X1X{._.1X1XqXQ.'.~.e.~.'.|.8X8X1XqX8X{.[.Q.L.~.Y.R.].,X2XaXaXdXdX1X].].Q.,X0X2X1X(.(.R.(.I.I.R.T.2.l S L $.4.U.}.}.8X8X|.|.|.|.'.K.G.e.e.e.K.Y.].^.R.K.Y.^.'.Q.'.'.'.8XaXdXaX|.P.k o > A K U.eXZXAXSXeXR.E.K.G.L.e.} [ H.U.R.^.Y.K.K.q.Y.^.}.{.].^.R.L.d.].'.R.d.0.w.*.$.2.U.U.U.}.'.'.(.R.e.5.0.q.0.L.K.H.^.,X,X8X'.L.H.w.L.Q.^.Q.L.e.e.e.e.G.q.0.| y y l D G 4.K.R.'.R.Y.R.R.U.A.5.%.$.%.*.%.A.G.G.w.0.q.e.e.d.j.e.j.R.|.wX|.}.0.u   . 3 l Z.[.tXdXdXeXT.K.G.0.",
"O j I I !.ZXHXHXkX0X:X].].'.Y.K.G A.{.^.].{.'.Q.R.R.8X0X0X,X:XR.K.(.1X{.{.|.I.T.].'.[ %.~.^.^.L.I.P.I.R.R.Y.{.wXL.@.(.2X|.<X1XqX,XE.E.E.W.R.L.L.I.R.R.(.(.(.R.T.4.v k D | ..5.S.j.d.P.Q.|.(.I.P.K.e.e.e.K.T.Y.R.Y.R.R.^.].8X8X|.].`.1XeXrXaX8XR.v . O A I !.eXSXSXtX^.H.e.G.q.q.0.[ i w.Y.Y.K.A.G.q.%.A.Y.'.^.L.G.5.e.R.~.T.R.S.5.e.A.G q 2.5.e.e.6.2.0.e.5.*.j.].S.[ e.R.^.^.~.].Q.w.d.w.q.q.q.q.e.e.q.q.e.G.q.w.$.u < u u n | ..X.5.*.A.Y.A.0.5.5.%.$.%.%.%.A.0.w.q.q.0.S.R.^.U.U.e.e.].|.|.{.Z.p X   O p 4.|.dXZX9X~.q.0.@.%.",
"O 1 A I }.ZXSXAXaX0XE.).].Q.e.e.%.A.R.R.R.U.A.0.0.U.Y.^.0X|.Q.q.L.{.1X[.[.{.).R.,X|...%.w.*.q.K.P.K.^.R.R.K.'.eXK.9.:X1X:X(._.{.E.I.E.].(.I.I.L.j.I.I.).).(.'.P.5.D k F %.%.0.A.K.j.E.].].R.K.G.G.G.A.w.A.U.Y.U.K.H.R.^.].8X:X'.'.R.'.'.|.eXeX[.n . . d L !.wXAXZX:XE.d.q.d.q. .| | G w.q.Z.q.%.| ' $.%.w.Y.Y.G. .| K.Y.L.K.L.U.5.A.R.| a L | %...5.6.q.q.5.5.q.'.G.[ e.R.L.H.d.L.d.q.e.L.G.0.q.e.q.q.q.e.G.K.G.7.| k - u l G L | { %.q.S.K.5.2.$.$.%.%.| $...%.%.2.5.0.e.P.R.R.K.U.0.w.G.A.|.9XA.a X   o 1 &.|.sXdX'.e.%.X.X.5.",
"O 1 J C.XXdXSXkX2X:X].{.].Q.G.U.~.T.Y.Y.H.A.' H | X. .%.R.'.Y.q.8XqX(.I.{.<X1X[.|.}.5.K $.%.q.q.R.I.Q.R.Q.Y.^.{.E.L.{.].).I.E.).I.E.].tX1XR.I.I.I.I.R.(.).:XQ.A.4.S F w.'.'.K.@.L.Q.].|.Y.e.e.q.A.'.Y.$.0.q.A.L.d.G.R.9XtX0X}.].'.U.K.d.R.0XeX[.v o . 1 D !.XXZXdX|.Y.e.H.Y.G.X.%.0.w.w.0.0.5.S a k v v G 5.q.w.X.A.].G.e.R.R.Y.U.H.~.%.a v G ..| 5.q.0.e.e.q.q.K.q.8.q.K.G.q.e.e.d.G.G.^.R.q.q.7.q.q.q.e.e.L.G.5.$.S u K w.!.A...X.e.R.P.e. .X. .X.w.A.G K | $.0.@.X.8.R.}.R.L.L.H.q.q.5.=.~.|.Y.S .   o 1 | '.eXeXQ.q.X.2.6.e.",
"o 1 I Z.}.sXSXkX,X).1X1X:X'.G.q.A.A.A.G.U.A.=.%.0.%.0.G.~.].'.R.|.|.P.(.<X1XqX1X].'.%.%.%.5.0.q.'.L.R.R.R.G.Y.Q.{.8X_.(.E.(.(.(._.].].:X,X_.(.I.(.R.(.(.|.aX'.K.0.S 2.|.8X,XQ.7.Q._.].8X'.d.e.q.e.Y.A.| %.w.q.L.d.d.L.].:X0X,X{.R.L.K.L.I.,XeXR.n o o d J S.|.kXtXE.q.d.R.^.L.*.G | $.%.%.*.%.H n G G G X.q.q.0.q.Y.^.q.A.^.R.'.'.Y.K.X.n H G [ | 2.w.6.w.q.5.q.e.K.L.d.d.G.d.q.q.L.Y.H.Y.U.G.G.w.q.e.e.G.G.'.U.5.$.a l D.~.R.T.0.q.K.K.R.L.}  ...$.0.5.G n [ ..5.2.*.0.A.L.R.K.Y.K.e.e.5.5.R.^.A.a X   o 1 | ~.sXwXj.X.X.6.q.e.",
"o 1 J C.}.tXSXrXW.Q.{.:X1X'.R.q.%.....=.G.w.e.A.q.*.U.,X0XtXsX,Xd.e.j.|.|.|.qX1X,X'.Y.A.w.A.U.L.R.L.U.R.Y.G.Y.^.wXtXI.e.'.{.(.(.,X1X_.'.0XaX{.R.Q.(.{.[.{.dX[.K. .v A.dX,X_.8XtXeX].'.,X].R.e.[ w.L.w. .$.K.H.K.A.j.R.G.L.wXqX8X'.R.L.R.L.0XaX].D # o d L w.8XlX9Xq.5.H.Q.Q.K.5.D F v F | | | ..%...D 0.G.Q.].].'.0.5.*.e.R.Y.'.].Y.e.%...H ..%.0.5.5.w.0.0.%.5.e.^.8XG.5.d.d.e.q.R.^.U.d.R.8X~.e.q.d.H.L.R.8XY.*.[ u F }.|.K.Y.}.|.R.S.R.L.q. .' [ %.$.n v *.w.X.5.0.q.q.*.R.'.R.Y.G.w.5.*.~.|.U.a X   . 1 | ~.dXwX8.[ 2.w.e.5.",
"o < J 4.^.dXAX2XE.Q._.].,X].L.w.%.*.S.H.U.G.U.Y.e.A.|.1X1XtXtX8XI.R.I.|._._.|.,X1X8X'.L.K.L.R.R.R.R.L.Y.L.K.Y.j.8XtX{.E.].1X(.R.2XeX_.].1XtX1X{.^.{.8X,XqXaXG.w.H | ^.dXtX{.|.|.^.Q.'.'.'.Y.A.%.e.`.e.X.2.R.T.L.R.].(.I.R.qX0X,X|.^.U.R.R.0XeX{.L o o 3 K A.eXlX|.q.e.G.H.d.G.5.X.G D  .$. ...%.w.5.[ G.Q.R.]._.Q.d.e.0.K.U.G.R.^.~.Y.G.w.%.%.%.%.*.5.q.w.w.5.0.*.R.wXL.d.d.G.d.q.L.^.R.K.R.].R.G.G.U.R.G.^.8Xq. .G u %.wX|.R.~.~.Y.G.G.H.e.q.X.' | 0.%.D D w.A.0.e.e.K.e.5.L.'.'.~.U.q.G.G.^.|.T.n     o ; $.'.tX8X,.X.X.0.2.2.",
"O 2 J V.tXkXkX&XE.Q.].].].E.d.w.*.G.,X}.K.A.Y.R.K.Q.eXtX1X2X1X8X8X,XQ.R.e.e.K.R.aXdX|.(.'.].Q.K.L.R.R.L.K.`.w.X.^.,X0X8X|.|.R.I.{.8X1X2X1X{.2XtXtXtX2X{.:X|.q.[ ..A.'.tXeXeX].Q.Q.Y.R.R.Q.Y.L.L.j.R.d.X.0.R.'.|.1XeXaXeXtXsXeX0X8X,X].8X0X,X0XR.h X . 3 J !.dXaXQ.G.e.d.G.G.G.X.X.D | A.Y.q.$.q.e.5.q.R.].Q.Q.R.R.R.R.q.5.X.$.X.X.}.8XQ.U.G.e.A.%.5.5.5.=.*.w.%.b q.Q.R.Q.L.L.G.*.q.R.Q.R.T.K.~.}.^.|.'.G.^.}.*.v v ' q.}.|.{.R.G.q.q.q.e.d.e.5.2.*.5.w.G ' 0.A.L.'.|.|.'.|.,X{.'.}.^.G.^.^.^.^.S.h     o 1 Z.|.eX'.2.[  .5.X.X.",
"X 2 F Z.AXAXrX^.].].Q.(.Q.E.I.K.w.U.{.].R.Y.^.^.R.'.'.].{.{.:X0X1X,X].'.K.Y.U.E.eXdX8X1X1X].(.R.K.K.L.R.K.Y.w.q.'.|.8X1X{.{.I.j.(.:X].].{.,X:X{.0X0X8X,X,X|.L.[ 5.R.].,X{.|.{.R.R.Y.R.Q.Q.Q.I.R.U.R.S.w.e.K.R.{.'.1X2X|.8X|.{.qX8X8X|.tXqX8XqX`.h X o 1 L wXZXqXL.d.q.d.7.A.q.*.q.X. .H.R.e.*.e.G.e.e.Y.R.d.G.L.R.R.'.U.A.*.%.X.0.{.eX{.Y.U.Y.U.S.w.5.0.w.*.*. .| G.^.R.R.G.Y.d.5.e.Y.Y.L.L.L.R.H.~.^.'.^.R.~.G.' G q.U.^.L.U.Y.G.G.d.G.e.e.e.e.q.0.*.=. .| *.5.R.R.L.R.K.R.Q.Y.^.|.^.~.|.}.^.~.A.u X   . 1 U.wXwXG.X... .X.5.8.",
"X < P D.SXAXrX2X2X_.Q.:X,X0XtX{.w.5.H.^.].{.}.}.'.R.R.Y.'.].,X8X8X8X1X}.e.G.5.5.Q.2XeXqX{.[.qXdXR.d.'.,XY.X.R.].].].{.{.'.(.[.{.R.I.I.I.].tX].j.E.I.,XtX,X:X^.I.I.(.'.E.Q.^.^.Q.R.Q.R.Q.Q.E.R.R.R.I.R.P.d.0.I.8X|.R.R.R.Q.Y.Y.|.|.}.8XdXkXeXeX|.v X . 1 J eXAX2XL.Q.U.7.A.Y.^.R.P.X.G ,.e.G.e.A.K.G.G.q.q.q.A.K.Q.^.'.R.K.*.[ | [ 0.R.Y.'.^.K.K.eXR.%.q.G.A.M X.G.L.K.G.L.K.G.d.d.K.e.q.0.e.].R.*.7.5.H.|.R.Y.Y.A.7.H.K.G.G.G.A.G.d.A.q.G.d.G.e.q.q.*.0.*.%.....R.R.q.q.q.q.5.5.H.R.R.R.9XeX,X'.U.S .   X , !.eX|.5.5.q...X.5.e.",
"o 1 J A.SXAX>X>X2X].Q.:X:X,X0XI.q.H.Y.].|.{.{.'.~.U.e.L.Q.'.{.:X2X|.,X].K.L.d.d.(.1XaX2X|.{.aXaX).(.[.{.I.0.].|.|.{.{.{.{.R.(.(.(.(.I.(.,XqX{.I.K.d.,XdX8X].]._.).I.).I.(.(.^.Q.Q.R.Q.^.Q.Y.Y.R.R.L.L.A.e.5.P.|.|.Y.L.K.G.d.R.R.].}.|.dXaX0XsXR.v X . 1 L eXdX,XW.Q.R.q.G.R.^.^.K.[ 5.@.w.K.H.d.H.K.G.X.*.q.A.K.R.'.^.U.Y.*.X.q.q.e.K.Q.].R.R.R.8X~.5.e.G.A.[ d.R.R.K.I.R.d.q.e.e.8.e.e.e.j.R.R.q.7.*.G.|.^.Y.U.L.K.K.e.H.j.A.K.G.A.d.G.G.q.q.d.q.q.0.5.0.5.| X.L.R.q.5.5.*.X.q.K.K.R.G.8X9X'.~.Z.k X   o 1 !.eX].q.5.5.X.2.0.w.",
". 2 L Z.AXkXtX0X:X_.^.:X(.E.E.e.^.,XQ.{.{.].}.{.].Y.d.K.Q.].{.:X{.{.1X{.].eXdXdXqX{.aX2X2X2XeX2X|.1X(.I.I.R.].{.[.(.(.).{.(.{.(.I.(.(.,X{.{.(.L.d.d.,XaXaXaX,X(.).I.I.(.(.R.'.R.R.Q.Q.^.^.Q.Y.Y.L...5.e.w.K.K.K.Y.R.Y.U.G.G.K.R.Q.'.|.eXsXqXI.[ 1 o . 1 I |.dXeX:XY.G.e.q.K.d.q.%.6.P.q.d.K.U.K.U.K.d.X.X.e.K.L.Y.Y.K.R.^.K.R.1XqX|.L.R.].R.R.'.`.R.L.d.7.d.q.G.K.G.L.d.d.q.d.d.e.e.d.A.T.L.L.e.0.5.*.Y.wX8X|.^.K.e.j.e.d.S.S.d.G.G.e.G.d.G.d.q.5.q.[ n 2.X...5.5.2.5.0.5.*.5.q.G.G.R.Y.{.{.|.T.n *     o 1 U.wX8XL.5.X.X.X.%.X.",
"X 2 J Z.AXlXkX2X,X].Q.Q.R.L.R.Q.].].^.{.}.}.{.].'.P.L.Q.'.{.].{.{.{.,X{.2XqXqXaXdX2X2X1X2X2X{.{.|.2X{.:XqX0X{.{.{._.(.R.(.(.(.(.R.I.:X,X].(.(.R.R.L.{.tXqXqX:X(.E.(.E.(.(.Q.(.^.^.^.^.Q.Q.~.R.Y.K.X.e.X.X.R.U.R.Y.Y.R.K.K.0.e.U.~.^.{.tXtX|.9.w ; X . 1 K }.dXqX].H.K.e.e.A.5.5.8.G.K.d.G.K.L.K.Y.K.5.@.A.G.L.L.K.K.L.U.L.'.(.,XeX,XQ.'.R.R.Y.U.G.d.R.Y.I.Q.R.R.d.G.R.H.q.G.d.G.K.e.e.j.L.P.K.K.e.q.5.Y.}.'.].R.L.d.j.K.e.K.j.G.G.e.d.H.G.G.e.e.q.q.G M | n 5.A.e.5.5.0.5.2.%.%.0.e.G.Y.~.'.~.*.u #     o p A.8X{.G.q.*. .| X.[ ",
"O 1 J Z.AXAXrX:X].].H.j.d.E.|.{.].&X^.].{.{.|.{.I.L.eX0X'.].].|.].{.]._.tX2Xk.E.rXaX1XI.R.I.2.9.(.qXaXkXkXkX0X2X1X|.{.(.I.I.[.{.I.I.,X2X2X,X0XqX8X8X}.{.(.Q.(.(.(.(.R.I.R.'.'.R.^.wXrXwX9X0X|.Y.K.5...v ..S.'.qX|.L.R.e.q.%.X.L.~.R.|.eX0X].2.k - X o 1 K }.tX,XQ.q.L.e.0.=.*.w.K.G.H.d.d.K.K.Y.K.G.5.Q.{.Y.K.K.H.Y.L.K.e.].|.d.e.].,XR.5.0.5.[ ..5.^.{.0X0XqX,XI.I.R.L.L.G.q.G.I.G.q.d.R.R.L.R.'.R.U.Y.A.K.K.S.U.L.K.j.e.e.G.K.d.w.Q.}.^.Q.^.^.5.*...D a u 5.T.'.^.q.5.X.[ | G 5.w.w.G.Y.^.G.| 9 o     o < Z.|.'.w.5.*.%.[ [ [ ",
"O 1 F A.AXkX2X{.,X:XH.j.I.{.:X].]._.^.:X|.{.].].I.(.0X0X(.R.E.'.R.(.:X:X|.1XP.I.,XqX^.q.G.e.5.K.|.aXaXlXlXlXqX'.:X8X{.(.(.(.{.(.I.L.:X2X2X2X0X|.}.|.].'.(.(.(.|.(.I.R.E.R.Y.K.0.Y.^.{.8X8X8XR.Q.R.e.X. .0.5.U.8X^.Y.Y.q.5.| %.G.G.L.~.|.wXG.v 9 = o O j J |.wX'.k.d.R.q.X.q.d.d.L.G.K.K.G.K.K.L.Y.A.7.R.].Y.e.K.G.d.K.R.^.'.'.d.5.R.'.d.[ X.| ' | q.{.|.rXtX2X].d.L.Y.R.L.G.e.L.K.e.q.d.R.'.Y.L.^.Y.L.A.A.L.A.K.R.P.K.j.S.e.q.w.*.*.G.H.U.K.R.K.0.q.| G v K %.%.T.`.e.5.2.[ G D 4.2.0.w.R.'.5.h $ # o   o d j.|.R.8.,.0.X.G  . .",
"O A I D.AXtX].:X0X].I.J.].{.].].:X]._.{.].{.'.].(.{.{.Q.R.R.7.e.{.1XaXaX1X:X(.(.R.'.d.*.%.%.e.K.0XdXkXkXlXkXE.K.^.,X,X|.{.'.I.d.].,X1X2X2X,X0X].R.R.'.'.`.(.|.lX1XR.Q.(.e.M ..%.0.D %.^.K.[ q.K.R.S.e.A.w.G H U.~.~.U.%.[ [ *.w.e.K.H.^.'.D % ; - . > j L |.8Xj.q.R.'.5.*.K.U.K.K.K.K.K.K.K.K.H.L.H.G.K.L.K.q.*.[ K.^.{.,X].L.K.e.e.e.8.[ G D | 5.L.,X0X9X0X9XJ.*.q.L.^.R.K.G.e.,.K.R.'.R.R.R.^.K.A.S.w.A.K.e.U.wX|.d.e.S.w.M v ' $.G D 0.q.G X.5.e.X. .%.$.v h $.0.S.A.K n l D 2...0.5.w.S.G # # =     O j D.|.9...0.j.[ [  .%.",
"= S I D.AX0XE.,XtX:XE.Q.Q.{.].]._.].:X].{.{.{.{.{.{.[.(.I.P.j.P.{.2XqXaX1X:X1X|.(.'.^.Y.e.5.U.Y.{.eXaXaXaXaXQ.'.{.{.:X].1X{.I.j.(.2X:X8XqXwX|.K.A.U.L.R.Q.R.~.dX{.e.R.`.q. .w.w. .D q.^.e.*.q.R.].T.R.R.S.X.X.5.U.U.5.| | 5.%.e.R.~.R.^.'.D ; u 1 . = A I wX1Xd.d.(.'.G.d.G.L.K.G.L.K.H.G.L.Y.L.K.K.L.G.K.q.5.5.5.L.'.].'.'.R.E.(.A.q.,.q.5.[ %.0.L.].{.,X,X,XG.q.d.U.R.L.R.L.G.q.d.R.~.R.R.Y.U.4.2.0.2.e.U.e.K.|.}.5.5.e.5.D K %.K l | A.5...X.%.G.*.%.q.0.G D | *.0.4.F l D F $.2.A.w.e.G.n $ = =   o > j `.|.e.} S.e.{ .. .%.",
"1 S I !.SXkX2X2X:XQ.0X2X:X_._.:X]._._.{.{.:X_.{.{.{.{.).R.R.].,X:X|.:X1X1X2XrX2X].:X,X^.L.q.R.^.I.I.{.2X].K.R.'.|.,X:XQ.|.1X|.I.R.^.^.].|.].e.X.X.X.S.'.(.R.R.E.j.2.K.U.A.0.U.U.q.X.q.e.G.w.K.^.'.R.'.|.}.~.Z...| ....| 0.%.%.e.R.{.|.,X|.H q j 1 O 3 J 3.eX8XQ.L.K.d.R.^.H.H.G.G.R.L.K.K.H.Y.L.K.H.L.Y.I.e.q.K.K.L.I.R.R.(.Q.'.R.I.K.e.L.e.G %.q.q.q.H.].R.*.5.G.Y.Y.E.q.Q.^.L.j.0.e.A.A.K.e.%.[ D n [ S.U.A.w.e.e.[ X.w.0.| ..Z.*.K | %.$.%.5.0.K.q.G.~.Y.w.2.| G G K D G G F %.4.U.G.K.~.L = # #   . 3 n !.eXR.6.0.X.5.K.X.5.",
"2 F K D.AXAXtX2X_.,X0X{.(.)._.&X{._._.{.].].:X{.{.{.{.(.E.(.Q.].'.'.{.].,X8X0X,X,X].'.'.d.q.Y.R.R.R.{.{.I.G.^.R.Q._.[.).{.|.{.{.K.R.R.'.U.G.%. .G 5.U.'.R.L.R.L.e.,.5.d.K.A.S.'.U.w.w.Z.A.q.Y.K.`.'.].|.'.~.S.X.$.%.2.[ $.%.%.e.'.8X|.|.|.L u j j # d S I sXdX,XE.H.d.{.Q.q.G.G.L.L.K.L.L.L.L.K.K.H.H.K.K.e.e.L.G.L.G.Y.Q.R.I.R.R.R.U.e.K.5.[ *.w.q.q.L.Y.q.} q.q.K.L.K.H.R.R.L.K.q.q.q.w.q.%.| G D D %.S.S.e.0.0.5.[ ..%.=.%.....$.| $.%.%.$.*.w.H.w.K.U.U.w.5.| H G K G l K K %.0.K.U.K.U.K = = # . O d D ~.|.'.I.e.X.0.K.X.*.",
"p I I D.AXkXkXlXkXqX>X:X_.{.2X:X{._._.{.:X].:X_.{.:XdXeX].(.^.R.L.L.Q.I.E.'.,X8X,XI.{.:X^.R.R.H.U.I.R.I.I.R.Y.E.(.).{.{.).|.{.{.R.R.L.U.w.5.%.w.e.0.H.E.R.E.R.Y.K.w.w.S.e.A.w.q.q.G.5.'  .Y.R.G.R.wX'.R.R.R.T.e.A.A.A.$.%.A.w.G.'.|.}.P.S.F ; 1 3 O j J 3.eXaX0XqX2X'.E.L.G.L.^.^.Y.L.H.H.L.H.K.K.L.Y.|.8XR.j.K.G.e.q.K.K.q.A.L.(.R.K.0.d.G.A.q.5.5.7.q.e.e.e.q.q.G.H.L.R.Y.R.R.U.e.w.5.0.%.| | 5.2.| 5.e.e.e.5.0.5.$.%.%.$.%. .| G | [ F v 0.A.5.5.Q.Y.0.0.A.A.%.$.$.| D D %.%.$.0.U.R.w.X.k - # # . O d S !.|.].Q.R.e.e.A.X.X.",
"3 I I D.tX9XkXAXlXtX:X_.(.:XaX1X_.{._.:X:X].{.:X].,XdX0X].'.Q.R.R.R.Q.Y.L.Q.].].'.Q.|.'.,X|.Q.q.L.K.L.L.^.Q.R.R.(._.{.qX,X1X|.|.'.L.H.R.e.5.G.U.L.A.K.G.R.Q.Y.L.K.A.K.S.K.L.'.Y.Y.Y.*. .Y.^.R.^.(.8X}.R.|.|.|.K.G.K.5.%.%.A.w.K.T.|.|.!.e.H - - 1 = j J 4.XX'.2XtXtX,XL.L.G.K._.'.G.K.K.Y.Y.L.U.K.K.E.8X|.R.L.P.q.e.A.w.w.w.e.P.L.S.e.d.K.R.U.0.| %.q.5.5.e.G.q.q.A.G.K.^.^.Y.R.'.S.0.5.=.&...X.U.w.$.0.w.q.w.0.5.5.5.%.%.%.5.A.=.%.0...v | A.w.5.7.~.^.d.K.G.S.w.2.5.$.G D | %.$.5.L.'.U.%.D - o O o > d S e.P.`.|.8XU.5.8.@.X.",
"2 I &.Z.!.:XlXAXlXqXR.].:X:X2X1X{._.].].:X:XtXqXaXeX|.(.Q.R.R.R.R.Y.R.R.R.^.Q.L.^.^.Y.H.].^.G.X.U.L.K.R.{.'.Q.Q.(.].aXkX2X1X{.sXR.q.^.{.8X].^.G.0.*.5.0.Y.U.Y.K.P.K.L.j.e.H.|.wX'.~.Y.~.}.Y.L.^.].|.wX|.|.].(.P.U.Y.G.w.| G *.G.R.1XsX[.w.h - 1 3 O j J 3.U.K.0XtX2X:Xd.G.K.^.|.^.d.j.L.I.L.U.{.].|.8X^.L.U.S.e.e.A.w.A.A.w.e.A.q.q.G.5.*.R.G.5.v  .0.q.q.d.K.e.e.K.K.^.wX{.^.L.}.L.' e.U.Y.G.A.w.| G K  .%.0.w.5.5.0.0.*.*.*.K.^.T.A.*.*.0.d.q.e.e.Y.'.R.R.K.A.5.0.w.0.4.G v D %.w.U.'.P.2.v # # = . = d D 4.2.L.8X|.Q.,.X.0.0.",
"p I C.4.Z.'.dXkXlX0XQ.:X,X0XrX1X{._.{.{.:X,XaXlXdXeX'.'.(.^.^.^.Q.Y.Q.^.Q.^.^.Q.^.Q.^.^.^.^.q. .R.R.R.(.,X|.^.^.^.Q.rXrXqX].].}.e.S.].8XqXtX{.G.*.w.w.q.U.H.^.R.Q.^.R.K.R.R.|.0X}.R.R.I.Q.L.Q.2X8X,X8X8X}.^.Q.R.Y.K.Q.K.$.| 5.K.R.,X{.R.H ; - 1 3 O j L 4.w.U.8XrXrX,Xd.K.R.^.].E.L.Y.I.R.R.L.].qXtX|.P.L.Y.L.G.K.K.w.w.G.A.A.G.q.q.H.e.G.R.G.w.v *.d.w.e.K.U.K.G.K.L.R.|.|.R.T.Y.0. .e.U.'.^.U.w.X.H ..| *.%.*.w.q.G.Y.@.5.G.R.{.^.q.*.7.5.7.q.e.Y.R.^.L.L.Y.K.A.w.2.0.2.[ n | *.A.K.Q.U.H - o # = o > d F ..X.L.'.~.].0.5.q.q.",
"2 I &.&.D.~.tXkXAXaX,X].,X0X:X:X_.{.{.<XqXqXrXqX'.E.(.|.|.].].].Q.H.Q.^.^.^.R.R.R.R.].}.].,Xw.{ R.{._._.{.,X^.].L.I.qXtXtX].R.q.R.'.8XtXkXtX^.Y.K.~.H.A.A.G.8XeXdXdX8X'.8X|.qXdX9X^.^.H.^.{.].,X8XtX8X{.{.{.].Q.G.G.R.G.5.0.R.].|.sX8X0.q q - k k O d J 4.D.R.1XtXkXtXR.G.R.^.R.L.L.R.I.Q.].|.,X].d.8.e.L.R.Y.K.K.K.q.G.G.K.G.w.q.q.e.G.K.K.U.5.s 0.Y.L.K.L.L.R.R.G.S.R.|.|.R.L.%.0.A.U.^.8X,X^.w.$.Z.A.%.Z.%.A.~.}.8X8Xe.R.Q.'.|.^.q.e.5.5.R.K.K.E.|.].R.K.K.K.A.e.2.5.2.L ..5.A.Y.'.~.w.u # $ 1 1 o > j F K 5.K.~.|.8XK.5.0.q.",
"< J I &.D.}.qXdXAXdX:X].'.{.'.].{.{.(.{.qXrX1X(.L.R.^.].].].|.:X].Q.Q.^.K.e.H.U.R.^.^.R.^.R.*.X.Q.{.,X:X).{.{.^.L.U.Q.{.8X~.5...S.'.8X8XtXtXXX~.L.R.R.R.K.Y.9XtXeXwX}.Y.L.,X0XqX:X{.].G.H.0X,XQ.,XkXkX,X:X|.'.Y.L.L.H.G.*.d.R.8XqXsXeXn q h j j d . 2 J &.R.].1XrXkXtX^.A.H.R.H.e.d.L.e.L.{.|.].Y.q.e.K.U.L.L.Y.R.K.0.A.G.q.*.0.q.A.A.G.w.w.G.X.n 0.U.R.R.R.L.R.U.e.w.S.I.`.~.0.D %.w.U.Y.{.{.L.A.%.*.A.%.=.*.A.^.'.'.U.e.e.T.'.].R.R.H.5.5.R.^.K.R.9X8X^.Y.H.H.e.0.X.2.X.H 2.w.R.}.|.|.| - 9 ; 1 1 o = j S 2.q.e.R.|.|.K.%.2.0.",
"< K m.Z.D.U.8XtXtX8X^.Y.A.T.].'.K.e.e.R.,X2X].(.I.Q.R.R.^.].,XqX].^.^.R.K.K.L.R.R.R.G.*.q.G.G.0.'.:X2X2X2X0X].Q.R.^.R.G. .G v | %.%.~.8XtXtX9XH.q.q.R.].'.,X,X,X{.H...*.Q.qXqX].^.{.].H.d.Q.Q.W.,XkXkXtXdXdX{.L.K.G.K.e. .e.U.9XeXdX8Xm n v h p , o 1 S I T.'.{.2X>X7XT.0.|  .e.0.5.H  .@.H.R.K.R.G.e.j.e.A.L.R.'.Y.G.q.*. . .w.w.G.Y.q.{ X.5.%.[ 0.R.'.^.].^.R.w.e.e.e.5. .n k | 5.K %.R.^.,X^.*.| ..0.A.A.G.^.^.K.q.[ M 0.R.].^.Y.Y.L.e.*.e.L.e.H.9X9X}.|.{.^.0.2.X.5.X.H ..%.R.8X|.'.G i h < - = . = j S 3.A.j.R.R.L.w.X...M ",
"2 J &.C.D.T.8XrXtX,XR.5.H w.T.T.0.5.A.U.(.0X0X2XQ.R.L.E.^.^.1XqX].R.Q.K.q.e.I.R.R.Y.q.5.q.G.K.q.(.>XrXrXtXdX{.}.}.^.H.Z.%.K K $.H | S.}.8X8XK.q.G.G.].{.{.8X{.,X^.*.*.H.,XtX,X:X{.:X].E.7.Q.'.E.{.tXaXdXtXdX0XL.L.G.H.0.@.K.^.eXdXdX'.H 2.F u u 1 O 1 J I T.[.{.:X].^.L.$.n [ w.w...n ..X.w.G.Q.^.H.w.q.q.G.K.Y.^.H.G.q.*.X.%.q.w.G.Y.*.| $.%.*. .A.Q.{.^.].:XR.w.A.A.0.%.H v n | F v | K.R.^.L. .X.*.A.~.Y.R.Q.U.Y.[ x 2.q.R.R.Y.R.R.G.q.*.U.d.e.I.|.8X8X^.|.}.0.%.%.X.H M X.q.}.|.|.'.m v k 1 = = . O d S w.A.L.R.L.K.0...S D ",
"2 I &.&.D.'.eXaXdX0XK.X...K ..X.%.6.R.(.,XdXdXrX{.Q.].^.Q.(.].|.'.L.G.e.L.Q.'.K.K.Y.d.G.e.Y.R.Y.|.qXtXkXkXdXeX9X~.H.A.*.*.$.| F v n w.T.R.Y.q.q.G.Q.,X|.,X|.^.U.q.q.^.|.wXtX,X:X].{.^.^.H.].R.} *.E.].]._.rX:Xe.e.7.*.@.q.|.eXdXeX{.X.| $.H u u = o 2 J &.`.eXaXqX{.'.e.H G G D M H  .2.*.G.].2X,XE.K.e.d.G.G.L.^.R.A.%.$.q.A.G.w.q.A.%. .*.0.w.5.Y.{.9X9X8XwX].'.A.%.| K ..K G p < a K %.e.e.5...=.G.~.^.~.R.q.*.%.G X.R.L.R.Q.R.Y.Y.K.d.q.d.A. .[ d.R.H.d.^.'.@.[ L ' H G A.].wX8X'...n L m - = = . = j S Z.~.}.].U.H.5.G a s ",
"3 I C.V.Z.~.eXrXrX:Xq.0.w.2.4.2.5.e.R._.:XrXkXrX{.^.^.Q.Q.'.].{.R.e.d.e.U.K.R.K.G.K.q.G.q.K.'.^.9XqXkXkXlXtXeX{.w.0.0.Z.*.$.D y F 3.2.w.A.G.A.w.R.].|.{.{.^.L.G.A.H.Q.].eXwX,X}.:X{._._.E.].L.@.d.L.(.].1XaX,XK.G.@.e.U.L.,XdXdXwXU.0.X...v - ; = o j J L !.|.0XtX].R.X...$...D ..| 5.G.H.'.'.].:XR.e.d.d.e.R.R.R.Q.w.%.*.w.A.G.w.%.*.| $.*.*.U.d.I.}.9XqXtX,XQ.~.5...| K | D l ; ; v $.$.*.@.%.*.G.U.^.^.Y.G.q.5.*...0.A.R.].Q.Y.L.K.K.H.q.R.R. .X.q.d.d.G.|.{.2. .[ D %.%.U.8XwX|.9...D L k - = o . = 3 S 3.H.}.{.U.G.%.G F v ",
"j I I C.C.A.eXqXrX,XY.e.0.5.A.~.].].8XqXrX2XdXaX{.Q.^.Q.E.].|.|.R.e.%.%.5.5.'.|.|.].G.5.*.e.^.R.].,XtXkX8XY.Y.q.*.*.=.&.| | K $.| D L &.| %.K.].^.^.8X{.Y.H.G.0.0.q.*.q.d.a.R.].|.].].].|.R.Y.R.'.Q.:XqX2XrX2XL.H.d.L.2XeXtXeX'.~.U.w.| D h $ = = O j J I S.'.qX0X_.'.w.%.| K %.0.A.R.,X{.|.:X0X1XE.G.K.d.q.L.Y.U.G.=.G G '  .A.U.A.U.*.| $. .0.q.H.R.].qX,Xd.q.| G | F F D a S l u y a D v v [ Y.Y.G.Y.^.Y.q.0.X.| ..' M X.2.0.H.R.Y.K.L.K.H.q.d.q.q.H.'.'.}.'.2...| ..U.}.{.}.P.j.2...n k - = O o o 2 A S $.4.T.|.H.G.*.| G S ",
"j &.3.C.C.A.dXtXeX0XE.q.8.0.S.R.,X:XrXkXlXaXaXqX(.Q.Q.I.E.'.R.R.w.[ [ %.Z.w.{.,X1X|.L.q.0.K.R.P.L.'.1X2XR.K.0.2.0.5.%.G D G K $.K n H l D H d.|.(.'.qX{.U.L.w.*.%.X.w.d.q.q.I.|.{.[.{.[.{.e.R.|.[.|.1XaX:X{.(.I.d.7.I.eXsX|.!.j.T.w.2.m w k - , > , A J J 6.9.sX1X{.,XL.5.2.L 5.e.L.Q.:X0X2X:X:X].L.K.H.9.q.L.K.d.%.| a n { 5.w.R.R.~.e...X.X.X.%.q.j.E.'.I.*.*. ...K v a k u l S l u l j q l X.^.e.G.R.'.K.0.2.[ ..| [ 2.5.@.e.R.R.H.G.K.G. . .e.e.K.P.'.'.R.S.0.%.%.%.'.wX|.Y.2.0.4.G k ; - = O o o 2 j A L 2.w.|.E.^.w.| H D ",
"3 &.C.&.&.Z.wX8X].{.].(.R.P.X.9.0X2XkXaX2X2X2X:XE.R.L.L.L.j.P.e. .K [ U.^.|.,X^.{.'.'.R.K.q.[ [ I.0X,X,XL.K.L.S.[ n D D D K | F G L F n ..,.'.|.R.j.E.R.E.K.q.q.L.e.|.eXeXqXtX:X[.k.).(.(.I.'.|.{.Q.(.rX0X1X[.X.{ q.P.qX[.8.8.8.w.H k u k k k = = 2 A J J $.P.sX:XR.(.R.U.A.0.H H R.,X{.,X{.Q.Q.Q.K.q.*.7.q.5.q.*.[ s G ..A.U.L.K.R.R.K.e.5.X.[ x 0.`.I.G.d.7.e.e.M i u y u a l a a u a - h H A.'.w.5.w.K.j.q.5.X.%.w.e.|.|.{.'.|.L.0.G.G.e.@.q.d.K.d.e.'.(.}.P...n %.w.^.R.5.%.....L h < q u , O X # 3 A k L 3.P.8XR.e.5.5.$.| ",
"A I C.&.3.3.D.A.q.].wX|.Q.Y.} j.kXrXlXeX{.1X|.|.Y.5.8.e.%.5.q.0.G [ 2.^.|.0X9X,X|.2X|.R.K.A.[ [ '.0X:X|.R.'.[.S.v D K l F K F K | 3...L 0.(.eXqXK.5.R.|.].^.e.R.^.L.,XkXdXaXaXqX[.E.R.x.(.'.|.|.{.P.(.sXqXwX(.h X.K.[.2XP.4.$.L D u u k k D k O O d A J J $.D.[.L.d.].8X|.`.e.H [ ,X0XrX0XR.Q.R.E.G.[ [  .[ ' 5.X.G G [ 5.'.'.'.P.U.R.T.q.0.0.M v e.].U.L.Q.K.R.d.v i h u u A D a S F F j k S.|.}.w.| 5.A.K.U.w.*.w.q.j.0XaXqX1X,XR.e.e.e.G.q.G.K.G.%.0.}.'.R.P.G i 0.S.~.A.%.H D k q - q 3 k 3 o . O d A A L 4.P.'.q.5.U.~.*.%.",
"J I C.C.&.D.D.w.0.U.U.w. . .L (.rXrXaX2X{.(.S.P.q.0.q.0.0.e.L.S.5.S.R.^.'.|.7X:X|.|.[.S.S.0...5.].'.L.q.w.`.U...H $.j u F F K $.2.4.L I w.}.eX0XR.K.].].].`.L.L.Q.{.,X,X].,X0X0X1X[.[.sX}.R.[.[.T.P.}.|.[.T.2.h | R.T.2.L L m k ; u S k k S d O = d S I I L 8.[.I.K.`.`.2.L G n S.8X1X8X^.R.Y.q.w.5.X.%.X.| 2.w.%.K %.S.T.R.~.~.T.R.Q.e.2.%...n M K.~.e.4.%.G.G. .h D h # u a k k l k u k H !.{.R.0.2.A.e.e.S.e.%.q.T.(.{.{._.].'.R.Y.G.Y.^.w.0.w.*. .w.`.R.S...k K 4.w.2.D n k h 1 1 j k 3 j 1 O . = d A A J 3.T.`.e.5.A.%.v S ",
"J I C.C.3.D.D.Z.| L F v k m 2.T.^.R.Q.R.D.2.6.w.w.e.S.w.0.S.U.S.A.`.`.R.^.{.^.R.P.8.2...2.L L S.T.w.[ v 2.U...n L F = 1 l D D F L D n n L S.T.j.w.G.K.w.w.%.X.2.S.R.T.A.e.K.~.Q.P.T.[.|.P.H 2.3.L ..6.....v j u D K k ; , - = = = - 1 = d , = O 1 d S I I J 3.`.T.5.2.L k h D L U.}.^.R.R.U.*...0.4.2.X.2.3.8.4.2.%.Z.D.K.A.K.Y.S.w.Z.| [ F n h | Z.$.n l | w.| k k n = o 1 k d a l j u l L !.P.w.5.w.0.2.X...H G 0.L.U.e.8.e.U.R.T.K.R.[.T.L D D v v K 2.H n k k k S k 1 < - = = = - 1 1 = 2 = o . 2 j j A j L Z.S.2.n u u - ; ",
"I I C.3.C.3.J I j u 1 = 1 k S 2.[ H H J n j j k F D v A v A A l S D D n G F H F v k u k k 1 k D n j q u k k u 1 j u = , 3 3 j j 3 1 j k v L D v v n l h u q ; j j k h u u u h j q k k k , = = , j 1 1 = = O o & = = = < O O O O = = - = , , = O 1 S J L I I L J L K k 1 1 k S L $.$.$.F D v y p k k j j d k j k l S l S S S S F S k l k u p < 1 F l = & < j j 3 = O = . O 1 ; , = j j l F L 2.L l F F j j 1 = = < l l p < u j S F l p l l q < ; * ; ; ; = O O = = O O o o o . o o O = , = , = O O 1 d d j S J S L L k q ; = & 3 ",
"I &.&.V.I I J J A A k 3 1 3 d p 1 , = = O O O O O > O O O o o o X X o O = O O = O O O O o = 3 3 , , 1 3 j j 1 , 1 3 2 1 d d j d j A A A A S A j j p u 1 1 u 3 3 1 = , , 2 1 1 , , 1 , , , 1 3 d 2 3 3 2 = , , , , , 1 1 , , , , 3 3 d 3 d d d d S S I I I J S S S j j n k d j j j < > & o o X X o o o o . . . o X   X o # o o o X o O o X o   o o .     .   X   . . . . . o o = = = , 1 1 1 O o o O X X       . X   X X X X X   X   X   . . . . X o o X o o o . . o . o o o # O O > > , , 2 2 3 d j j d A A S J S A j j j 3 1 3 ",
"3.3.&.C.C.3.I 3.I I I L J J I I I J J A A J S A j A j A A A d A 3 1 3 j S j 3 3 d d 3 d d A S j A S J J L I L I I I J J I J J I I I I I J I I J I J F S A S J I S A J S S S J S J S S S S S J S S J S j A A A A A A A A S j j S j j j 3 d A S J J J I I I I I J J J S S J A S J P A d j < < , , 3 3 , 1 , ; = = = = O = < , , = < 1 , = = = , 2 = > = > = , = = > O O > = = 1 d d j j A A j d 3 1 = , , , = o o O > = , = > = O = = > = = = O O = O = > O = = , = , , , , , 1 2 3 1 3 1 A A A A A d d d d A J S l A S A S d d j ",
"C.4.C.C.C.C.Z.$.3.C.3.I I I I &.3.3.3.&.I 3.I J J J I I I I L J P J J J I J F A P J A J S J J J L L I L L ..$.| X.X...L L H m L ..L | I m L ..2.2.L L H H L 2.3.L ..3.L $.3.$.L 2.L L 2.L $.L L L L L D H D D L L m S S S S S k S k j k n S m L L I L L L L L J L L L L L J J J F J F F D D k k S k j d d k k d 1 1 1 3 k k h j k k k k k k k j u j k j k k 1 k 1 u d k 1 k k k S S D m D S S S S l A l A d d A 3 j A S j d j A S A A 3 3 3 d A d j d 3 2 3 j j d j j d p p p p j A j A A F F A A A p A j j A A S A j j j j A j ",
"Z.w.Z.Z.S.D.Z.Z.Z.4.4.4.Z.T.!.!.U.D.w.C.C.C.L J $.4.3.$.I L I I I I I I &.I J F J I P J S k L [.|.1X2X1X1X2XqX3XqX2X2X1X1X1X2X|.{.{.{.:X|.:X|.|.{.<X{.[.{.).[.{.{.{.{.{.{.{.[.[.I.[.[.I.(.[.[.(.[.Q.I.P.P.P.j.P.P.P.h.h.h.h.S.e.j.j.j.j.j.j.j.e.j.e.j.e.j.j.S.S.P.8.8.e.8.8.8.8.8.0.5.6.w.8.2.2.8.8.8.2...2.2.$.2.,.2.2.2.2.2...2.2.2.2.2.2.2.2.2...2.....2...2.2.2.2.L L 2.L 2.,.2.2.L 2.2.2.%...3.2.2.2.L S A j A A S S A S J I S S F A S S A l S S l k S L I I L L L I I I I K K I K &.&.V.I K I J F K I K F $.J J F S F L L ",
"A.!.'.XX'.~.~.!.A.0.w.T.wXZXdXZXeX}.Z.Z.Z.4.3.4.Z.!.~.U.e.w.&.F J I P J I F S j S I $.$.L L 4.kXaXuXrX3X3XaXaXrXrXrX3XaXuXaXuXaX3X0X3X2XuXaXuXuXuXuXuX|.<X<X2X<X<X<X<X2X2X2X<X1X<X|.<X<X{.<X<X{.{.:X:X_.{.).{.).&X[.[.x.P.).x.).(.).x.x.E.E.).P.P.I.).I.P.E.E.x.h.x.h.h.h.h.h.h.k.j.j.j.P.h.h.h.h.h.h.h.h.h.e.h.9.h.e.9.8.9.e.9.8.8.8.9.8.8.6.6.5.,.2.,.,.6.,.,.2.6.2.,.,.,.2.,.,.2.2.2.2.,.*.*.2.2.2.2...v 3 k A S A K J S J J I K K I K $.I K I &.Z.4.4.Z.!.!.D.$.6.D.}.}.'.!.U.D.A...| &.&.4.Z.D.Z.Z.Z.Z.Z.Z.D.Z.$.H L L 4.T.",
"eXeXtXtXeXwX8X|.2.q.'.8XdXdXZXdXeXwX|.~.T.0.2.w.U.{.9X].w.5.%.S 3 S J F A S D K K.`.~.D.w.D.j.kXaXx.g./.v.E.W.%X%X%X)././.).).v./././.&X>X&X/.&X).x.v.v.x.v.v./.).).v.)./././.)./././.v.x.x.x.x.x.x.v.x.v.x.x.x.h.x.h.h.h.x.h.h.h.h.h.9.h.h.h.h.h.h.h.h.h.9.9.t.t.8.<.8.t.h.i.8.a.9.1.t.t.<.<.9.t.8.8.t.<.<.<.8.<.,.>.,.<.<.<.<.<.<.,.,.,.} } } / } ,.} } } / ,.} / ,.,.,.~ H ~ ~ ~ } ,...,.*.@.^ [ ~ [ h q k S k S K &.Z.4.w.S.T.`.D.T.!.!.S.A.A.A.~.~.T.T.R.!.D.e.e.S.^.|.8X8XR.U.Y.w.=.%...$.U.~.~.~.~.'.~.^.'.`.2.v ..0.T.'.",
"dXeX8X8X9X8X8X|.8.R.wXdXeXtXtX0XqXqX|.|.wX{.A.G.'.,X9XQ.q.S.Z.v , A J A S I Z.R.{.}.}.~.R.R.I.fXaXx.v._._.a.&X&XrX&Xa.a.&XuX3X:X:Xx.t.g.x.&X%X_.).<X/.v.).g.( g.v.v.v.c.x.x.v.v.l.x.v.z.z.l.x.l.l.x.l.v.l.x.g.l.i.i.i.t.h.h.i.h.i.i.i.i.h.i.i.h.i.i.h.t.9.h.i.i.t.i.i.h.h.i.t.8.<.t.t.t.t.t.h.t.t.t.h.8.t.<.<.8.<.<.<.>.<.<.<.<.<.<.<.>.<./ <.I.9.} M ,.,.,.) 9.a.} ,.d.h.} / ~ L f 2.,.{ X.5.X.q.^.x 9 9 q a D v ..D.}.}.'.}.}.'.R.`.'.}.'.~.~.R.'.T.R.'.'.K.H.8.e.G.^.|.].{.9XR.G.d.q.H.U...' Z.R.^.T.Y.~.^.Y.L.R.%.z 6.~.L.R.",
"U.U.S.U.A.U.eX,XP.R.'.(.E.^.Q.I.R.R.L.I.sXAXtXwXtX0X^.R.R.].T.D & A F A J U.].|.R.Y.wXdXdX1X{.fXfXuXlXk.o.+.k.I.k.O.) kXSX<X_.).).&X/.a.@.<X).x.uX<X{.uX&X>X( %XlXzXzXlXhXhXfXfXfXfXkXfXkXfXfXuXiXfXfXfXiXuXuXuXuXuXuXuXuXuXuXuX<X&XuXuXuX).uX<X<X<X<X<X<X<X<X<X<X).<Xv.v.v.v.v.v.).v.v./.).).v.).v.v.x.v.x.v.v.x.x.x.x.x.g.g.g.h.t.t.9.t.<.).aXh.m ^ ,.,.) ) ,.h.2X).P.8.~ M x m m m q z v M } 8X|.D $ $ 9 n e.w.q.q.H.~.L.A.d.A.K.'.'.R.A.{.8X|.}.A.5.q.e.*.q.5.K.Q.8X^.q.q.q.*.%.| G A.^.$.' %.X...X. .X.X...w.'.q.[ 5.w.*.5.",
"4.w.w.4.4.U.sX|.R.(.'.I.'.'.Q.I.L.L.R.'.dXAXdX0XdXdX^.Y.{.].6.v O A A A 4.}.|.8X].E.tXAXaXrX2XuXfX3Xx.g b L.I.a.{ x P.lXa.M ) } } ,.9.a.a.Q.k.h.k.h.h.h.<.k.E t.)./.x./.).v.x.x.v.v.x.v.v.l.i.i.h.l.l.i.i.i.i.t.i.t.i.8.t.t.<.i.t.<.>.>.<.<.) <.t.<.<.<.<.<.>.<.<.<.<.<.) ) ) ) ) ) ) ) ) ) <.) ) ) <.) } ^ ) O.) ^ ^ ^ ^ ^ ^ ^ ^ ^ ^ ^ E E } 6.g m ^ ^ ~ } ^ ^ k.dX,.[ v m w 7 r M f $ w x } K.(.q.5.0 4 0 n %...G [ %.w.%.X.%.0.w.Y.U.G.w.^.|.|.T.0.0.5.5.7.w.2.0.I.Y.=.X.*.%.| | ..D Z.U.%.| | ' G G G D H H w.~.w.0.0.5.*.0.",
"4.Z.w.4.w.A.K.A.K.R.|.8X0X,X].^.R.R.}.eXtX8XY.H.Q.^.Y.|.tX|.2.i o 2 j F U.^.'.,X].tXAXkX,X].>XaXfX&Xa.,.*.I.d.5.M z ,. .r w w w s x z M x E / ,.h.h.h.k.7.x e ~ / ^ ^ ~ / ^ M ^ E ^ ^ / ^ c c ^ ^ ^ ^ ^ ^ ^ ^ E c ^ ^ ^ ^ ^ ^ ^ ^ ^ ^ ^ ^ c ^ ^ ^ ^ E E T ^ ^ m T T E ^ c ^ ^ ^ c c c c c ^ c c c ^ c c ^ m c c c c c c g c g g g c g g z g r g r f H [ } ~ ,.~ 9.5.n q u $ q h f f q $ i M X.8.j.d.q.0 9 9 i h u u a v D G K X.2.5.5.0.0.0.G.A.e.0.0.A.5.5.w.w.5.[ 5.X.$. .*.*.X.=.0.$.*.%.Z.A.| F D D F F K K | | [ ..5.d.e.K.",
"%.w.*.&.Z.A.w.Z.e.G.{.2XeX,XG.R.R.~.,XeXeX0X^.q.q.G.^.8XsX|.2.j   , A F Z.d.Q.^._.qXkXdX|.I.v.aXaXx.t.9.7.d.*.[ h - 0 z v v z i w q 9 7 7 r z h M [ [ b 7 7 8 r w f r f z z g g g m c M c c E c ^ m c ^ m ^ m E ^ E c c ^ ^ H ^ E ^ ^ ~ / ~ ^ / / { / ~ ^ ~ ^ ~ ^ ^ ^ ~ } ~ ^ ~ / / ~ / [ ~ ~ Q E M c M ~ c M c c x c x m g z x z g z z r r w w w w z x z q b v q 0 q 9 - # 9 i i w # # i [ X.7.d.,.0.w - q 9 - ; ; ; i k n H ..*.*.5.*.*.*.0.q.0.q.A.e. .5.q.q.5.G %. . .X. ...5.0.2.}  .[ *.w.| y D F F K K G | | ' G 5.Z.Y.R.",
"A.}.|.'.K.T.'.R.^.R.L.Q.2X].*.0. .0.|.eXeX,X].Y.d.Y.^.}.1X|.0.k X , j K e.H.E.%X2XtX0XR.e.2.x.aX3X/.&Xa.1.@.b w 7 + - 9 9 * 9 9 q - $ $ $ 9 q $ 9 - 7 - 7 9 8 9 8 8 q 8 w r q r w r w f r r f f f f f f f f f f f f f f f f f f f g f f f z f f r r f f f f f f f f f w f f f f f f f r r r w 8 8 w 8 8 8 8 8 8 7 7 7 7 7 - 4 7 7 - 7 7 - $ - 7 7 - $ $ # - i # $ * $ - $ - $ $ $ $ # $ i M X.7.a.@.,.9 % 9 * # ; ; - , u v n H | | $.*.%.5.0.*.*.A.U.U.5.q.0.0.[ ' w.5.5.q.0.q.0.q.w.X. . .*.G.H.%.| *.A.D.%.| %.Z.%.$.....0.A.",
"R.|.eX}.K.U.~.K.].^.H.E.,X^...| G 0.eXdXeX,X^.'.Q.Y.{.,X|.8XS.n X > p I K.Q.].^.2XqX(.I.K.e.I.fXuX&X&Xx.t.[ w 9 i 9 D u - - u 9 $ # $ q q q 7 q 9 w i a l v l z n n m m n M m m m H m M H ~ M [ L ~ m ~ ~ ~ ~ ~ m ~ m H m H m H H m m m x x x n x m v x g m m m m m m m v m v h h z h f z z z z z r h h h z h s w w h r i w i r i s i i i i i u i u u ; 9 - ; 9 9 9 $ 9 9 q 9 9 9 D l ..~ M o.1.O.5.e.u # 9 ; + & & # # ; h l G [ | ..X...$. .%.5.Z.G.G.Z.0.5.*.| [ 0.%.w.5.w.e.0.9.0.5.*.%.*.w.A.w.$.0.U.'.Z.*.Z.*.%.A.0.| *.H.",
"R.Q.'.~.I.R.'.].|.,XE.I.^.L.%.%...w.dXsX^.R.R.Y.H.K.}.,X2X1XD.D o , A $.^.,X0X&XW.Q.a.j.0.} h.fXaX*X<X*Xt.x 8 q a D a 7 $ $ $ # # # = < 9 ; - $ # # # # # $ $ $ $ $ 7 $ $ 7 7 - - 7 7 7 7 q 8 8 8 8 8 f w q 8 w 8 8 w w 8 w w 8 r 8 8 8 w q 0 8 7 8 0 0 q 8 q 8 8 8 8 8 8 8 8 8 8 8 8 q 7 7 7 7 8 7 8 8 8 7 7 7 7 7 7 7 7 7 7 $ $ - $ $ $ $ $ # # $ # # # * ; ; $ - # ; # $ ; - q n z M @.O.).:X,.,.X.7 * ; ; # o o X # ; u k D H | [ ......$.*.5.%.5.5.5.5.%.5... .*.5.5.q.0.5.0.q.5.*.X.X.$. . ...0.*.*.w.%.&.Z.Z.=.D.*.F %.A.",
"~.R.(.T.T.Q.'.(.9X{.I.R.L.G.w.%.| 4.wXeXL.P.I.K.K.L.Q.{.0X|.e.S O 2 S 2.|.aXaX,XQ.E.q.@.M @.a.kXfX-X*Xv.v./ z 7 q h q - - $ $ # # # # # = $ $ # + # # # h n $ # $ # # # - - - $ $ $ - 7 7 7 7 q 8 8 8 w w 8 w 8 8 8 8 8 8 f 8 8 8 8 f 8 8 8 8 8 8 8 8 8 8 8 8 8 f 8 f 8 8 8 8 8 8 8 8 8 8 7 7 8 7 q q 8 7 7 8 7 q 7 7 7 7 7 7 - $ - - - # - - $ # # # - u l ; - $ $ $ $ ; ; $ q n ~ ~ E <.<.<XkXg.z w * & ; < X . o o O = ; k v G | [ | | | $.%.%.$.$.*.%. .5.%.[ %.*.0.5.0.5.5.5.8.0.q.X. .X.X.|  .0.%.=.*.=.*.C.=.%.H.%.| | | ",
"S.U.T.T.T.S.S.S.K.L.Q.K.X.$...G h ..wX8XK.U.L.K.R.R.(.'.1XwXe.n o 2 S 3.|.0X].k.J.K.X.~  .9.j.fXiX*XuXxX/.} } i q ; 8 8 7 - $ # o $ # $ $ $ # # # - q h l q $ $ - q i $ ; 8 8 q 8 q q 8 w h f f g m c m c m m m m g m g c E c c c c c c c c c c c c c m c c c c g c c c c c c c c g c c c m g f g g g z x f f f f w w w w w q q q - q q q < < - ; u u a u ; # $ # # # - q ; h ~ / 8.9.g.).x.fXzXg.5.z - * ; u X o o o o O # - k G H H K | [ | | |  .X. .%.%.| n | *.*.5.*.0.5.5.5.5.5.5.%.%.0.G.=...| $.&.&.%.$.| $.| &.%.$.F v ",
"e.D.K.S.U.S.e.S.A.T.R.A.M F H D l %.wX|.I.Q.R.R.R.R.R.(.8X0XD.D O , A 2.8X{.k.k.L.q.[ @.0.q.I.fXuXc.iXDX<.z [ $ - q 7 7 8 q - - $ # o = $ = # + + $ # - - 7 9 i v D i w q m [ m - 8 8 q w r w f f f g f f g m g g f f m g g c c g m g g g c m g g f g f g g g f f g g m g g g g g m g m g m g g g g c g g g f z f f 0 8 8 v  .h m 7 h u - - $ $ ; u ; # X # # * $ = - p ; a ~ X.<.a.,.>.) a.I.a.{ j.M - # ; y o o o # o # = - q a G D D G G K [ $.$. .$.%.K u a 0.w.5.5.%.5.5.2.2.0.5.5.w.5.5.A.*.| | $.%.$.| | G | | | $.4.v y ",
"D.e.w.d.S.e.w.S.A.K.'.6.l G G a L 5.T.L.L.`.(.R.I.R.R.(.|.|.P.D O = A 4.0X].:X>XI.7.5.e.q.,.I.fXuX@XnXjXO.0 - # 9 q - $ q q i q - ; j k ; n ; * < q q ; q i f M M z h z m ~ ,.f m M h w x z f z m f f f g f f f f f f f f f f g f f f f f f f f f f f f f f f f f f f f f f f f f f f f f f r r f r r f w w w r w 8 w 5...v M q h 8 w w h h q h n i = * ; ; q u q ; - u w ~ @.9.9.>.~ <.1X&X1.1.x.9.~ - % ; u o o o o o # = - , u l q s D G K [ |  .$.%.G l u G D.A.5.5.5.5.%.2.2.0.5.2.w.*.$.%.K | | | | | $.%.| G | | %.0.a ; ",
"A.A.w.S.~.U.A.5.w.L.R.%.n H L H 5.w.5.d.R.Q.(.R.R.I.I.I.].|.A.l O , j 3.wX2X1X_.Q.d.J.d.*.e.).fXuX@XhX-XO.i 9 - h h $ # $ ; h h u v K u D | ; k D F G n l z n ' { [ r v ~ } @.x [ [ i x [ H [ M ~ ^ / ~ / ~ m W H m m m m c c c c m g g z f f f f f g g f z z g f m f f z g z h g f g v z z f f r f f f f f h f f 8 w m h h 2.r M v h r v 4.v a < y i i j h h l u a q G M [ 8.1.} g } ,.).>X&XlX2X).} q # - u # # o # o # O - - q 9 ; a D G ' [ | | ....v D a v w.Z.=.*.4.%.%.0.5.0.4.0.4.*.%.$. . .| | | | %.Z.$.D G ' &.&.a y ",
"K.e.U.U.S.S.K.K.R.'.].w.v n 0.e.P.R.|.}.K.P.I.R.(.(.'.|.1X,XS.l o > A 2.1X{.{.{.I.I.Q.K.Y.E.).fXiX*X3Xc.+.x 8 q v q $ # $ - q h H G G n 2.a l | | | | X.X.X.{ [ G.W w W W / } x z z ' 5.5.,.,.,.,.8.9.9.9.<.<.=.<.<.,.<.>.>.,.} } ,.} } / } } ^ } ,.~ / / ~ ~ ^ ~ ~ [ ~ { ~ / / ~ [ ~ ~ ~ ~ M ~ M ~ E H ~ M M M m m g h f 2.M q w 1 ; ; D D * 9 y l l l v n v z i n 0 n 5.X.~ M ~ ~ } ,.9./.&XhXkX>X,.h % 9 a # O o o o o O = < u u k n l n | | | %.%.%.X.K a a ..X.%.%.%.0.Z.*.%.%.%.%.5.%.%.%.&.&.| | ' | ..$.| G | %.=.V.n % ",
"K.K.K.d.e.K.K.S.R.'.'.A.v H T.U.P.R.|.8XT.K.I.R.(.'.,X8X0X1XU.n X > A 4.'.I.{.:XE.^.].L.e.L.&XfXuX*X*Xl.O.x q - - $ $ # - q h v X.,.I.5.z [ ,.w.e.9.9.e.a.e.a.a.7.W @.d.d.h.1.,.9.d.d.a.a.a.d.a.h.h.g.k.h.h.g.g.h.h.h.a.a.a.9.a.t.a.t.9.9.9.<.<.9.<.9.9.1.1.<.9.<.<.<.9.,.<.>.,.>.>.,.) } / ) / ) ^ ) / [ / / ~ ~ M H M M M g v m M } 2.m h w v n n n n M m G n h v | X.5. .i z [ ~ 2.} 9.I.&X>X/.).1.s 7 ; u = = o # o o # - = u h l n u u D | %.%.5.5.%.| D D | | ..%.*.*.%.%.%.%.5.%.%.*.5.%.%.=.$.$.$.| | | | | &.&.%.4.F # ",
"'.Y.R.K.S.L.R.L.A.e.0.,.[ 2.S.j.K.L.R.R.{.'.Q.'.].{.].1X1X{.w.u   O j $.].(.E.k.E.{._.Q.a.d.).hXiXv.x.x.O.c 7 - k # # - < q h h *.].).O.} e.k.k.k.k.k.k.g.k.k.x.l.j.k.E.x.x.k.x.x.E.x.W.x.E.x.E.E.x.E.x.x.x.x.W.v.x.l.x.z.h.l.i.g.g.g.a.g.g.g.h.h.t.t.t.<.9.<.t.<.<.>.<.>.1.>.1.,.,.>.,.>.,.>.O.,.) ,.,.) ) ,.) } } / ) / / [ ~ m m ~ ,.~ m m m n M M M M M [ ' n e.].X.G s ..[ } 2.M ~ E.k.1.a.).&X} 0 * 9 a # = o o o o o # - ; u u k z v  .$.%.| %.$.H G D b | | ..$.&...&.%.%.%.%.%.$.X.0.w.%.$.| =.%.&...| | |  .| G | n ; ",
"|.].].^.G.L.|.'.e.X.X.5.2.8.d.e.w.K.R.Q.qX2X^.].{._.1XqX}.^.%.u . > A $.}.I.d.a.].2X{.(.7.a./.fXfX/.g.v.+.x 9 u K $ $ $ = u l n 5.d.k.=.G.E.^.W.W.W.Q.W.k.x.k.I.h.h.k.k.k.k.k.x.x.E.x.W.k.E.k.E.E.x.k.k.E.k.k.k.k.k.g.h.h.h.a.h.h.9.h.h.a.h.h.h.h.9.9.9.7.a.1.=.<.8.1.1.7.1.7.1.,.,.,.>.,.1.,.,.,.,.,.,.} @.@.@.,.,.<.,.} ) / / E c M M M c g n M M b b b M W M z M P.z i D v W 0.L.X.} E.L.W.kXzX).c 7 * 9 u # = # o o O o - - q q i l | ..%.%.| | | | G b F F $.| | | ....$.%.%.2.5.X.} X.0.e.X. .X.=.*.5.%.| *.0. .G G D v 9 ",
"|.].|.].L.R.~.L.d.q.q.q.5.X.K.K.K.L.K.R.].^.^.].,X:X0X,X{.'.%.a   . 1 L ].(.Q._.,X2X:XE.].Q./.fX3X@X%X>Xx.W w 9 h - # # $ u v H | s I.b w r s w r w w w w w w w w s w r r z r r s r r r f e r f e f g e e r g x e w f f f f r r f w f f r f w f f f f f r i w w w f w f r i r r r w f e r r r 0 8 8 r w r w w w 8 8 8 w 8 q w w w w 8 7 8 q q - 9 7 7 7 7 8 8 8 8 x R.w 0 v n { q.9.7.9.j.a._.zXqX} g 9 * 9 u % - = O # o o - = ; u l H | F ' | | G | | D D ' F | *.%. .%.%.*.=.A.K.A.0.X.%.d.K.X. .*.w.*.q.$.| %.%.| | K D G y ",
"{.{.|.{.Q.R.R.R.R.I.U.K.%.@.L.Q.~.Q.Q.Y.R.Y.Q.,X2X,X>X:X:X{.%.p   o 3 | ,X0X2X].2X0XW.Q.qX]./.fX3Xv.uX3X).g r 7 * 7 $ $ ; y a $.b ' rXb G =.7.q.*.*.q.7.7.7.1.e.a.q.d.d.d.d.j.a.a.e.7.8.,.9.a.9.9.9.7.7.j.1.j.,.j.,.,.8.8.,.e.,.6.,.,.h.} ,.~ ,.} 9.,.,.} @.@.8.,.8.} 8. .{  .[ / } } [ } } } ~ 2./ 2.~ ,.} } } } } | ..H /  .~ ~ } [ ,.[ M / ,.M X.M ~ b ~ [ M M 8.eXb 9 v b q.L.).L.o.a.9.r.rXE./ z 9 * 9 i # - , = # # o = q y a v D | F b G G G G D a v D F &.*.$.%.%.%.*.Z.R.'.L.P.%.5.A.e.X. .e.A.*.Z.*.%.%.%.$.X.$.| G u ",
"|.^.R.Y.R.R.R.R.(.'.L.L.R.U.R.'.].].7X,X^.^.,X0X,X8X:XQ.L.K.%.l . o p $.8X,XI.s.:X>Xj.d.s.E.%XfX3X%X3XfXg.} x 4 $ 9 - * ; a | v G d.qXW *.d. .}  .X.} 7.0.,.,.,.5.#.1.7.1.7.9.1.,.,.o.<.X.@.,.X.,.} ,.o.,.} 1.} 8./ } } 8.,.,.~ ,.~ ,.<.M ~ ~ / E <.m ^ ~ 8.1.7.m ) H ) / / ~ Q / ~ ~ ~ { E } ~ ,.g E E ,.E } / / H ~ / c m m E c M c ..m c m [ f M w n x n M e...2.aXv 0 v x e.{.2XL./ <.) W.SX).f w 9 * ; i # & = O O o o O - y y a D D v G D G H G ' K K ' |  .%.%.%.$.%.%.*.%.2.w.e.5.X.@.X.X.X.q.q.*.*.%...$.$.*.%.$.[ H K ",
"^.R.d.G.R.Y.Y.^.^.^.^.].}.^.^.Q.^.^.9XqX{.'.eX0X].8X^.H.d.@.*.F O O j $.8X_.s.L.rX>XL.j.L.W.&XfX3X@X-X>Xt.1.{ 9 q 7 - * ; a u a e.j.rXQ =.j.s 9 a a s a a s z z s x v x x b b c c M W M b M b M z x M M M ~ ' W M M W W M W ~ M { ~ ~ W M ~ ~ [ ~ M ~ [ ~ { [ / W W ~ / ~ / M ^ { } ~ ~ ~ ~ ~ ~ ~ E M ~ ~ M c c c x c c ~ c c c x x c z z z r f h w q i i 7 M (.M X.tXb q M [ X.a.k.L.{ 7.z.3XkXI.8 w 9 * * a # o # O o o O o # # ; v v h v D n M H H ..| $.$.%.%.| $.*.%.%.*.4.n M U.~.5.| [ X.X.X.%.5.$.X.| ..|  .5.%.X.%.X.$.",
"R.R.R.Y.L.R.^.].}.|.9X9X,X^.^.^.Q.Q.^.}.j.q.G.Y.,X|.:XQ.d.q.%.D o > A 3.sX{.a.&X{.I.j.a.a.Q.&XfX3X@X;XaXg.O.' 0 l % 9 * $ u D %.G.k.aXW @.I.z u y y ; y y u u u u i i a i i h i i i w i i i h s s h h h h h h h h z h h h h h l h v v a s l z h z h h z z l v i h i v v l l z h h z z z z z h z z h z z h z h z z h z s h h s i z z h h h h h u w q u y ; h j.1XW *.dXz 9 G 8.E.1X/.7.c k.)./.<Xk.7 i 9 * 9 i + # # # o o O o # # = ; k v n l v D H H H G K .. .%.| | =.%.=.%.%.[ D %.2...%.G  .2.8.5.%.X...K ..$.5.w.q.0.0.0.5.",
"Q.^.Q.Y.H.R.,X9XeXtXdXdXqX{.].^.^.^.^.L.5.q.} 0.{.{.,X^.e.L.Z.G o = A &.qX1X2X2Xk.a.k.s.1.a.l.jXiX%X3X3Xt.r.s * v % # ; $ i F %.G.s.aX' @.k.z i *   X X X X o # X # # + # # # # + o + o # X X o o o X o o X o # + o o + # o o o # # o O X o o # # + X o o # o # # o # # # $ $ $ # # # # o # $ $ # $ % $ $ $ $ $ $ $ $ $ # $ $ $ - - # $ $ $ $ $ # # # X X D ).qXM *.aXx ; n 5.I.,XE.1.c k.E.x.2X{.0 i 7 * y u # # - O O o O o O # # - q v H h h n G H H G ' ....' | | %.X.X...*.2.%.| v X.*.| [ 0.e.5.%.%.%. .| *.K.L.I.R.U.e.q.",
"^.Y.Y.Q.R.Q.^.^.T.'.tXtX0X,X9X8X].^.,X].Q.L...X.'.^.:X].(.|.U.F o > A 4.wX{.Q.k.a.H.W.L.h.I./.fXfX@X;X3Xl.).8 * S % # 9 ; i H 2.G.k.kX{ 7.I.c z *   X o & & & & & = & = = = $ $ - ; = = & O o o o O O O & & & & = = = = = = = - = ; , * , ; = & & = & = & & & & & & = ; ; ; < ; < u u 9 & $ q h q q q q w 0 q h w q q q 9 9 ; - u D h 1 q , < ; ; ; * # X G :X1XW *.aXx 9 n @.k._.W.} c g.W.t.lXaXw w 9 $ * y # = & # O O = O O & = 1 i v L n v n n ....| | ....' |  . .X. .$.*.K.w.%.%.%.$.$...2.A.5...%.%.....2.5.0.0.e.R.K.S.",
"Q.Q.^.R.Q.Y.R.Q.].|.0XqXwXkXdXwX^.].^.:X{.~...X.R.].|.:X1X|.S.S o > S 3.0XQ.a.g.k.E.Q.W.Q.W./.hXiX*X&X>X2X2X0 * F * + ; ; q n ,.d.k.fX{ 1.E.c v * X o & * , , < , < = 2 < ; ; ; 9 < < & & O & & = = = = = = = - - ; ; ; u < < < ; u u u y y q 1 , ; , - = - - - ; ; = ; u u q i h h i v i < h n z z z n n x z x m z z h i w h q h ....D k h h h j i 1 = X  .3XuX{ *.kXx 9 v 7.E.&X:Xt.^ 9.x.g.3X<.f s 9 $ ; u # O O o O O = = # & = < h n | n n G M  .2...[ [ [  .%.%.%.%.X.@.5.U.L.w.L.w.[ [ $.2.d.6...2.[ [ %.2.5.q.q.j.R.e.R.",
"E.Q.^.^.R.L.Y.R.^.}.,X9X8X8X|.E.].,X}.:X9X,X%.X.5.d.R.].L.5. .l o , S 4.8XE.L.k.I.G.J.:X_.W.v.hXiX@X3XfX<Xs.0 9 G - o u q h n 2.L.E.kX} s._.Q n * X & = , < 2 < < u < u u u u i u < ; & & = & , ; = , 1 1 , 1 < 1 1 1 1 1 i u u i u u u a u u u u u q u q 1 1 1 u < ; , ; u a h h h h G M h v m G b M M W W M M M b x b v x h h i ..e.5.D k h j h h i ; + ,.aXuX} 5.kXx 9 M 5.E.:X2X_.} <.v.l.).>.~ ..w 9 ; u & = O o o O = O o = - q l n n n n v M  .X.%.X. .X.*.| [ | %.*.5.A.~.R.2.%.$.' $.5.0.w.2.X.2.2.X.X.X.X.5.*.w.Y.q.q.",
"^.Q.].^.R.Q.^.^.'.{.|.,X{.K.j.R.].{.{.2XtX8X .[ .. .K.e.z m ..F . = S 4.8X|.L.k.k.H.W.:XR.J./.hXiX%XiX3XO.x 0 9 H $ # L h u v 2.E.W.hX} s.).~ n * X & ; , y u < p p u u q u u k 1 , & , , = , = ; 1 1 1 1 q 1 u u 3 u u j u i u u j a h k u a i i u u u j q ; u 1 u u 1 < q i h h l v H ..n v H ' [ [ ~ [ [ [ G [ M M M M n n z w M e.e...n v h h v l q # 5.fX3X/ 5.kXg 9 G 6.E._.aXaX) <.z.l.<Xx.o.2.h * * y # # O o o o o O = = ; l D z v n n v n G G %.0.X.X.| | [ | X.5.e.R.Q.e. .[ %.| 5.A.w.8.w.2.,.j.2.2.5.%.5.5.q.K.e.2.",
"{.8X9X{.^.Q.^.].R.L.L.(.Q.P.'.2X,X,X2X0X2X}.| H %. .w.v n 5.S.I . , S &.8X8X].].:X:X].W.].W.%XhXiXc.t.) e z s 9 L # - H ; w m } E.W.lX} a.E.W b ; X & & , 3 1 < u p p y q i h 1 < = = , ; , = , < 1 j 1 1 j 1 j u u u i i h j h j i a k k h h u i j u i h u 1 q 1 < u u 1 ; u a k h v n 2.[ v m H [ [ W W M M W M M M G m x m v h h 2.S.8.m n h k v l u o 5.fX3Xc @.aXR q x 8.E._.3XlX<.9.x.v.zXg.g r - $ 9 u % O o o o . o o = = ; G [ n n G G G [ [ ..| $.H | | | K | [ | 5.U.T.q.q.%.*.X.w.w.0.2.2.6.e.e.6.w.5.*.5...%.X.X.} ",
"dXeX1X1X'.'.'.K.7.e.K.R.R.].tXdXkXdXdXaX[.R. .X.5.X.i G %.A.4.F . , S 3.'.{.qXtXdX0XW.^.].)./.fXuXv.v.*X9.^ m 8 m $ ; h ; h ~ 2.7./.lXO.9.).~ M ; # & & , < < < u u h q q h u 1 = = = = = = 1 1 3 u u u 1 j j q u u i j h h h h h k h l v h v k k h h h k h k u u y q u 1 u < q j h h n ....m n M [ H ~ | [ [ H H ~ [ H M M m m m h L j.d.H m h v n v q # 8.lX*XE 5.kXE 0  .{ I.{.x.).a.t.v.x.DX;Xg w 9 * ; u & = O O o o o # = - - G L ....| [ X.2.,.5. .[ [ ..[ | | [ L H ..j.4.8.P.2.%.X.w.A.w...6.e.e.e.q.0.%.%.M M [ W 5.5.",
",X,X{.R.R.'.{.'.(.:X{.,X|.{.].].8XaXaXsXI.2...[ [ D x ..5.0.H u o d J 3.P.T.I.(.0X>X].:X].)./.fXiX@XuXzXv.) f q L = # # u r [ j.k.W.zXO.g.).^ W ; X & , ; < p p j h 1 1 1 u , ; , , , = 1 1 1 1 1 1 3 u j q u h u i h h h h v l z v h v h v h v h m h k k z k u u u < u j q q 1 u h h z m  .L m M [ ,.[ [ [ ~ H H ~ H ~ ~ M M M m h m 9.K.2.m m v H n u # 9.hX<X} 7.kXQ i q.5.E.).i.) g 9.x.v.FXuX^ g 7 9 9 a ; - = O o # = # = = q k n | K n H [ H H ..%.%.2.%.$. .| | G n M 2...,.w.w.5.%.0.w.5.5.e.6.e.q.7.0.5.5.X.2.0.0.e.q.",
"{.{.(.(.(.'.|.{.1X1X,XrX0X2X].].|.2XqX_.9.5.....n 9 q ..0. .n ; O A I 4.U.e.e.L.,X2X,X>X].k.v.fXiX@XfXNXv.) g q H - # $ h n [ 5.{ x.zX,.h.<XO.M y X & = , < 1 p u j q j j - 1 = , = , , ; 1 1 q 3 u u u q h u q j h h z v z h v v v n v v h v l v k h h k h h u i 1 q q u u u 1 u a h l n ..2.m M [ ..[ L [ [ L L ~ L ~ ~ H M m n m m 2.h.8.m n M m n a - e.jX3X@.7.lX/ 9 s @.9.[.uX) <.h.z.v.KXuX^ g 9 9 9 u & - = O = O o o = ; < - q K K l n n n | X.2.5.S.U.2.| 0.4.G n G m H H 0.S.A.0.0.=.0.S.w.0.q.e.0.5.5.e.5.w.d.K.R.e.",
"R.R.I.I.(.8X8X2X2X0X:X,X2X1X{.,X|.(.R.P.d.2.5.H i 9 n 0.w.| h = = F I C.T.e.e.(.qX,X:X,Xd.a.l.fXiX@XfXNXv.) g 8 [ 7 7 $ M X.0.x W E.zX<.t./.) H y X & , , < 3 p u q 1 q 1 = = , , , , 1 j 1 1 j p u u u i u h j l h v h u a i u k v m n v v v z v m v h k z h u i u u 1 u u u u u j h h v | 2.H n [ 2. .,.L ,./ ~ H ~ ~ H M ~ H m n v ,.P.9.H m M H M h 7 j.zXfX) q.lX( 9 ..{ 7.sXuXv.t.a.v.z.GXiX^ x 9 9 y u # o o o O # - = 1 ; - = - D L h h j h n ..H ..5.w.5.X...$...L 2...| M 2.w.0.&.%.%.S.S.2.} 2.2.%.5.K.K.q.q.e.e.S.d.",
",.X.8.R.2XqXeXdX,X0XaXwX{.'.L.G.0.e.j.e.0.X.| l w D 2.A.w.| a ; A A S w.R.q.K.^.,X:X].:X@.7.k.fXiXv.iXNXv.O.c w [ 7 7 z X.M *.W k./.zX,.<.v.>.m ; X O , , 2 p p 3 u u 1 = , 1 = 1 - 1 1 q 1 j u u u u i a k a k h j i u < y * # < j p u v n n m m v k m k k k k k u u q 1 u u u i h h l k H 2.,.m m 2.2.,.,.H H H H m ~ H ~ [ [ H n v ..d.8.M n m H M h 9 j.zXfXO.=.lX/ 0 b { :XuX{.x.<.<.x.l.GXuX) c 7 ; 9 u & X X o o o O 1 k n k = u D L u 1 q h v L n b ..0.S.e.G L w.Z.S.2.M v ..%.$...*.A.K.e.| H ' H 5.L.`.P.e.w.e.j.e.w.",
"~ 5.L.'.aX,X].'.'.R.I.I._.'.K.0.} e.q.5.*.X.D i D $.w. .[ [ h ; S S J 4.S.0.0.d.R.^.|.,X} @.W.iXiXv.iXGXv.) c w H 8 8 w M M X.M x.&XzX>.<.h.) M < + & , , < < A u 1 u 1 1 , 1 1 1 , 1 1 1 q u u u i j h h h a u u u < = , * & & o # ; ; 1 h D n n m n n k m m k l i u u u u u u q h h k k n 2.L H c m 2.2.H L m ~ m H m H H H W G M v ~ 0.X.M b m M H v w k.zXuX} =.kXW 9 M e.1X).i.x.) >.x.l.PXuX^ c q 9 y a % o o o . o o # = ; u ; k k n q q i h k n D v v G H D n F D v n H M L w.w.%.| | A.0.%.M H  .*.U.(.8.,...,.2.2.2.w.",
"[ q.P.|.dX|.w.0.U.0.~ 5.'.R.5.@.5.0.6.0.5.X.9 < ..%.| ' X.[ u < S I F L 5.w.H.Y.Y.^.^.^.@.7.W.fXiXv.iXGX@X) c 8 M 7 w 8 z ' %.W E.>XzX) a./.) E < X & = , < 3 p u 3 1 < < , 1 1 , < < q u u u u u a h k h u ; y u < & o & > & & & o & & # # u D S m m D m k m k h a i i u u u u q j k v k m 2.2.L ~ 2.8.8.[ ,.} 2.L [ ..} [ [ [ H H v M 7.q.[ [ [  .[ L z x.zXfX) ,.lX~ w M ,.&Xv.<.i.>.>.z.l.KXfX) c q ; 9 u # # # o X X X X o = < q ; ; u q u j k l v v D v D u q D L 1 - n H L 2.4.w.| ' &.A.| G n G $.0.`.R.X.M H ..m h  .w.",
"2.w.Y.|.|.T...%.0.L X.2.w.0.X.5.5.w.d.q.w.$.y F 4.%.| w.w.K ; j I F A L &.0.A.H.Y.Y.Q.Q.8.j.E.iXiXv.iXGX%X>.c 8 M 8 8 w b { @.W x.&XzX) >.9./ H y X & , , 2 p p u u 3 ; = < 1 1 < u j q u k w u h a l u ; y < , = & o o o O o O # , 2 & o & = p u v D m m m k m v h h a a u y u h h u h h n ,.2...6.e.8.j.[ ..,.<.2.,.,...,.X. .[ M n X.j.P.[ [ [ [ [ H z /.xXiX1.7.lX/ w H ,.>XuX).uX:.<.l.g.KXjX) m 8 9 9 a # O = o X o X . X = 1 d d k ; 1 k v l l v v D S k j h k v ; u k L ..2.2.4.&...%.Z.&.H v n %.0.K.e...M H M h z L L ",
"K $.Z.e.w.L H H K F L $.| ' D G L %.%.$.$.| G %.&.$.%.Z.K p o 3 F j p I &.Z.%.*.Z.A.G.A.e.d.h.uXuXv.fXKX%X>.E r E 7 8 r s o.7.1.v.<XzX/ <./.,.~ y X & , , 2 1 j u 3 1 = , 1 1 1 1 u i i i i i j p u u ; < 3 2 * & O > O O , O X . O % > O % O & 1 k S m m m m S n v k h f j ; q h i u h h v ..0.[ 6.8.8.j...[ ,.2.,.,.2.X.} }  . .M n 0.j.R.X.' H [ [ ~ c /.xXfXO.a.lX_ s ' E.aXlXz.3X>.>.z.z.KXfX) ^ 8 q 1 h X & = & o o o . X X o O = < j u k k l D D l l k k l l ; < j a l K &.*.%...&.2.| 3.&.F v l L 2.| M n v n k u h n k ",
"u A j k k k 3 1 j j l l A S k A v S a S a A F K F F K S % X X p A A A F K K I | | F v D F m [ uXiXv.jXGX*X>.^ f [ 8 8 w ' d.*.b x.&XjX) 9.)./ ~ 9 o = < , , 1 p u 1 , 1 , 1 1 1 y u i i i j h h y < , * & O O & O X X O 2 A & . X O o & = O X X O 3 k m m m m m n n l k h u q j u h i j h v ..0.L ,.w.8.9...{ X.,.X.,.,.5.} %.X. .H b 8.j.L.,.X.X.} X.[ c x.NXfX+.s.AXo.r { O.a.a.g.3X:.>.v.z.KXiX) m w q ; u X X   X . X               & = = = ; = 1 1 , = , , , = & = ; 2 p p p A j p k l A v l u < < 1 j 1 j 1 1 ; < 1 1 3 1 ",
".   . . . . . . X X o o o o o . O O # X X o X o % O O X o o , A F P J I J A > O , & & & = = v 3XiXv.jXKX=X_ ^ z { 0 e e 8 v b Q &X*XjX^ <.).) m ; o = 2 2 ; 1 p u u , 1 < , 1 y p u a i h h q ; & & > & . X O , , X . X p p > X = 1 = & 2 & & O O = , q S m m m G D v k u h j q h h q i j n 2.6.} 2.e.e.P.X.X.8.8.0.,.5.0.,.X.X. .H M 6.j.P.,.2.X.X.X.[ x x.xXfX) 7.zXo.s } ~ W.v.fXiX:.:.v.v.GXfX) ^ 8 9 y p                         . . . . . . X X . o o . . . . . . o X .   X .   .                   . . . . X . . . . . . ",
"= = O = = = O O O > & > > O O O > , & & O O & O & , = , > 3 A S F J I I A p & j S j p j j S D uXiX@XfXKX@X>.E f } 0 e r w W R t.3X*XhX) <.g.^ ~ 9 X = 1 1 1 < p p u , , , 2 1 1 u a a i v u < O X   o O   X & , X . O O & * 2 ; = 2 < O O & > o o # O - k L L m m m v h k h u u u j h h k k 2.6.....2.8.9.2.} 2.,.,.X.X.*.%.} X. .[ G 8.h.j.,.,.@.@.X.} M x.xXiX+.s.lX_ s <.r.t.t.GXpX:.i.z.z.KXfX) ^ q 9 y p X                       o . . o o O > O & O O O O & O O , , , , O O O O O o o X . . . o o . . . . . . o . . . . . ",
"A A A d j j d d d j d j A 3 2 3 3 3 1 j A 3 3 3 j j 3 j p A F F F J I J J S F I I I I J J L L 3XiX@XiXKX@X_ ^ g @.w e 8 z x g k.uX;XhX) 1.l./ M 9 X = < p 3 1 u p 1 , 1 2 < 1 1 u a a z i u < X X O . X O & , & & O 2 < X o > = & & , O   X o o . . # # q m L m m D m k k k h q u h u h k v ..0.H m ..6.9.8.8.2.@.%.} [ ..X.{ [ [ L H 8.h.j.2.,.,.,.,...M v.xXiX+.1.lXo.f >.l.*XxXIXpXp.i.v.v.KXhX>.~ 8 * y y X             . .   . X o o o o & & , & = & , , ; 2 2 u 3 3 3 2 , , 2 = , = O O > O O O > O > > O o > = O & O = O ",
"S S P A P S A J F J L J F J S J F J I I L F J K J F J J I J F P J J J J I &.I 3.4.A.Z.e.w.8.h.uXiXp.iXKX@X>.^ x } s 8 r z c ) x.uX;XhX) 1.x.>.H ; & = 1 1 u p k p 1 < , 1 , 1 1 u i h a u ; , O & > & > 2 = ; = % 2 y > o X X O o o O X O   o , O o O . o u L H L m S k k k k 1 j h u h h v ..w.....h.T.R.R.I.R.I.R.j.X.,.5.0.5.2. .L 8.j.9.} 2.2.,.2.2.m v.NXfXt.s.zXo.f >.z.iXIXIXiXp.p.v.v.KXfX_ ~ 0 9 y a X     X X . o O = # - , , ; 1 < j p a p p p a l A k k l l l S l k j p 1 < 3 1 1 2 > > , = , , , , , 2 1 1 j j u 1 ",
"J S A S J A S I 3.Z.D.w.Z.4.I &.&.3.Z.!.`.!.~.!.S.4.3.4.&.L I J S A J 3.I &.3.D.|.sXdXdXdXsXaXfXiXv.jXKX%X:.^ g O.f 8 e g c ) x.uX;XhX) r.k.) [ ; # ; 2 1 1 1 u u < < , 2 2 1 1 a i z k < & & & & ; , 3 p & & O = 3 = O X .         . . O O , d , = . O o u L L H m m n k k k k i h h h k k 2.w.X.X.T.P.P.P.P.j.K.P.P.5.0.q.q.5.X.| [ 8.h.e.2.,.2.,.,.m m k.DXuX;.a.zX+.s >.v.fXLXIXjXp.p.v.@XKXfX_ / 0 q y a % = = , ; - 1 k D D D F F F F 2.2.Z.Z.Z.A.w.w.A.D.Z.%.K | 2.w.4.$.%.$.G F F F 1 = o O > , 3 3 3 d j j l S I L L L ",
"d A J J F $.Z.A.R.|.|.[.].R.w.~.`.].~.|.eXsXeXeX|.}.R.S.A.A.&.D S 3 I 3.I &.}.dXdXdXkXAXkX<X3XfX;Xv.fXKX@X_ ^ f } 8 8 8 c c ) x.iX;XhX^ a./.) [ 9 # = < 1 1 3 1 u 2 < 1 , 1 , q h h h a < & O X O o > p p = o X < , & X                 . > , , O O o o o q ..~ H m D n z k k f j h h k k n 2.e.2.,.K.K.h.9.j.e.9.j.j.8.8.q.6.2... .[ ,.d.5.} H m m n z w v.DXiXr.t.lX+.e O.v.pXIXIXiXp.i.p.v.KXfX) ~ 9 9 ; a = = - - = = - k n n H H H G D H 2.*.Z.A.G.A.w.q.A.A.q.0.0.A.K.K.A.e.w.0.X.%...j & , j j j S D n l H  .%.5.A.w.A.e.",
"S J &.&.%.U.}.}.8XeX8X{.{.|.|.8XeXtXqXeXdXsXkXdXsXqXdX|.R.~.2.u j j J I I 3.sXkXaXrXaXaXE.g./.fX;Xv.fXGXv.>.^ f } w 8 g ^ ^ >.x.iX;XzX) t.i.^ H 9 X , , 1 1 1 u u < , 1 1 1 1 q a h h q , # .   . o & < , & X . O X # # X o X + % & X   . X O X o   . o o = H 2.[ m m n v k h a h h a l l n %.d.2.,.j.P.h.j.j.j.j.d.h.8.8.e.2.2...| H  .2.6.j.S.w.6.6.2.m k.NXfXt.9.jX) g O.v.fXLXIXiXp.i.v.v.KXfX) ^ 7 9 y a - - = o o o = q D D | ..H D n l G  .A.G.L.e.q.e.A.G.K.L.K.U.R.Y.G.K.K.K.A.A.A.S = 3 A u p F $.| | 2.5.G.K.K.e.e.G.",
"4.D.!.!.`.'.^.U.E.{.,X1X2X0XwXdXdXwXqXtXtX|.8X0X{.'.1X'.R.Q.X.u S J J I I e.eXdXeX1XL.j.j.).&XiXuXv.fXGXv.>.^ f / 8 f c ,.^ ) v.iX-XjX) t.).O.~ ; # & < 2 1 1 1 u 1 < , 1 1 1 1 h l k q ; o     o & O 2 O     X % 9 9 9 r ' s 0 a v * X X X X         o X - m H [ L m m v l k l k k k k l n 2.S.2.,.j.P.j.j.S.j.j.d.e.2.2.8.2.2.| H H H 8.(.[.P.K.e.,.2.[ x.NXiX>.t.hX@.s O.z.iXIXIXjXp.v.v.@XKXfX) c 8 9 ; k ; = # o # # # u n j q u u h u l h G } K.Y.K.K.K.e.5.q.K.K.G.Y.R.R.^.~.Y.L.w.5.D # 1 j l L %.5.0.5.5.X.} q.G.e.q.d.",
"R.[.'.|.|.R.U.0.P.'.|.2X1X2XdXkXAX,X].{.dX,XE.I.5.8.K.L.1X1XX.a F F J I | T.dXaX:X(.j.I.(._./.fX;X@XiXGXv.:.^ g } w f E ~ ^ ) v.iX*XjX) 9.v.) H 9 X & , < 1 1 3 1 1 < < 1 < 3 u h h k h ; X o O X > & ; & X + s 7.W.f.s.f.$XJ.U x v s s b s y 9 o     o O = n ,.L ~ m H n v v v z n H v n n 5.S.6.2.j.P.j.j.j.j.e.j.8.,.2.6.0.2.......[ 9.{.P.j.d.w.2.2.M k.DXuX9.t.lX) T O.l.iXKXIXiXv.v.v.@XKXiX) ^ q q y k = & o o o o # k k j u ; - q u i q v ' R.'.R.K.K.e.[ [ @.X.X.*.K.].|.].].Q.0.X.i # < v $.w.w.e.K.q.X.[  .0.G.G.G.q.",
"8X8X].|.'.Y.X.q.].[.{.{.{.{.0X0XeX9XwX,X0X{.R.P.,.w.j.j.8X8X..; S J I &.D.|.dXeX{.].L.].{.(.).fX;X@XiXKXv.) ^ f ^ 8 f E } ^ ) v.iX-XzX) t.).) ^ - X & , < 1 1 p 1 1 , 1 < u u u h h h k = O > O O X O X # $ W W.yXgXgXyXyXfXyX=Xf.f.J.%XJ.f.s. .; X . X X = n L [ L L m m n n v x P.sX} X.,.} 2.T.e.P.h.P.P.P.j.j.e.d.9.e.e.j.w.w.6.X.| j.{.I.h.j.e.5.2...v.NXiX) <.jX) s +.z.iXLXIXiXi.v.v.@XKXiX) ^ w q ; h $ # O o O o = k k h h u h l k i a G %.~.K.e.e.S.w.*.%.X.%.5.5.U.'.R.^.'.e.0.X.h h G ..w.U.K.L.G.q...h 5.K.G.q.q.q.",
"sXaXdXeX|.^.M 0.'.R.L.I.^.'.Q.q.H.].eX8XE.R.R.j.5.A.q.e.8X1XG ; j S I Z.}.}.1X].I.L.(.].).).).iX;Xv.fXGXv.) ^ g [ w f E ,.^ ) l.iX@XjX) h.x.^ H 9 X & , < 2 3 3 u 1 < 1 1 i u u h h m k = O = O o o O = s s.3XzXnXmXmXDXnXnXcXyXyXyX2X4X=X=X$Xd.n o o   o O k } } L L ~ G G [ K.H.^._.I.:X&XR.K.dXP.| 8.P.P.I.k.j.j.j.9.j.9.j.j.8.q.0.} P.{.(.P.j.P.8.6.,.x.NXiX<.<.jX<.m ) p.iXLXIXiXp.v.@X@XGXfX) ^ q q 1 h o o o O o X # - u l h v K | D a i H  .q.%.[ H H M e.L.5.*.X.5.e.e.q.q.0.*.G n | %.K.G.R.8X|.{.U.A...i $.A.5.@.5.q.",
"~.{.8X,X'.^.@.X.e.G.q.L.'.9XtX|.L.'.tX{.R.R.P.d.8.L.e.j.8X|.[ ; 3 A I Z.`.].'.E.8.L.].(.P.[.{.iX;Xv.fXGXv.>.^ g ) f g c ^ ^ ) v.fX;XjX) t.x.) ^ ; o = , < 1 p u 1 < ; u u 3 u u h k h k - O O . o % * v Q.yXnXnXDXDXhXyXhXzXAXDXcXyXyXyXyX5X=X$Xo.+   X . O m L ..~ L m %.^.'.e.s.>XrXJ.=.f.J.!.F.D.T.| 2.h.h.h.P.h.j.h.9.d.w.w.q.8.8.2.h.<XI.h.P.P.h.8.,.x.NXuXh.t.jX} m :.p.iXLXIXiXp.p.v.@XKXiX) ^ w w 1 j o o & o X . # - u h l l G | G D K | ..X.X. .n n H ..8.X.%.5.d.q.*.0.*.X.G v  .%.5.A.e.q.H.~.Y.e.w.$.i G %.X.X.5.w.",
"K.Q.^.'.].I.q.5.z ..Y.'.].1XAXeXQ.^.9X'.L.R.I.K.R.R.6.P.8X1XH $ , A F C.wX8XK.I.I.R.(.(.[.v.v.uXuXi.fXKXv.<.) g } w g c ,.^ O.v.uX;XjX) <.x.^ ~ 9 X O = , < 3 u u < 1 < q u q j h k v v 9 o o & ; y s s.hXmXmXmXyXs.' s s ' s.9XAXcXzXgXyXyX3X$Xs.i . . o k L } L ~ ~ ..Y.^.Z.!.Y.0X7XQ.J.7X7X XB.I e.2.j.P.8.8.P.P.h.P.h.e.e.q.e.8.q.,.I.|.I.k.j.I.P.9.,.v.NXfX<.) jX) m ) v.iXLXLXiXp.p.v.@XKXiX) ^ w w u k # & 1 & o o O = u i u i l G G G [ | ..X.X.2...2.2.H h [ 5.U.^.w.%.%.$.| [ X.5.q.5.[ [ [ 0.q.H.d.w.$.[ S 9 [ 0.q.e.",
"Y.K.L.^.Q.K.q.X.M e.,X,X,X|.dXtX|.8X0X'.Q.j.K.P.K.I.T.Q.}.R.H # & A F !.eX8XI.I.'.(.(.(.[.x.h.uXuXv.iXGXv.<.) f } w g c ,.^ ) z.iX@XjX) <.h.^ [ ; o = , < = 1 1 1 < 1 q u u u h u h h v u # # u F | o.=XnXmXmXiXf.f.H.=. .s 5 s -.rXcXzXyXrX>X$Xk.~ o . - L ....} L 3.P.J.-.%.`.q.7XH.G.J.J.H.C.F.I 5.| n [ P.2.2.x.I.h.I.j.j.K.j.q.0.5.P.1X).I.I.I.j.4.,.v.xXuX<.<.lX) k ) p.iXKXLXiXp.p.@X@XGXuX) ^ w q u j O & = & o o # - u i i u l S b D G H  .....$.%.2.2.H [ H [ q.G.%. .$...G D [ X.5.X.[  .@.5.*.q.q.w.%...F a 5.K.K.K.",
"'.R.L.Y.d.K.K.q.q.R.8X8X,X|.dXdXqXdX8X|.].R.R.R.L.^.E.L.L.0.h & < A F D.dXwXR.W.R.Q.{.0X}.I.).uX3Xc.iXGX@X<.) g ~ e f E ,.^ ) z.uXuXjX) <.).) m - o , u 3 u u p 1 < u ; u u p a h h k v z x [ o.s.j.f.gXmXBXJXcXgX>X$XJ.7.o.#.Q ] $XgXyXJ.U s b { | + # m L ,.[ } D.4.C.=.J.J.XXwXeX|.}.8X0XwXXX!.*.D | H.V.F V.=.^.I.k.k.h.P.j.e.e.8.6.j.|.).I.).(.I.9.} v.xXiXt.>.kX>.r } l.iXKXLXiXp.p.@X@XKXiX) / w y y a & # # = O O o = u a h a i v v | X.X.*.%.| %.%.%...%.2.M z L ..[ | v l l D v v ' | %.=.A.w.5.*.5.5.%...L [ e.R.K.K.",
"'.Q.R.R.K.K.K.j.P.I.'.:X(.(.|.0X0X1X{.{.Q.Q.R.E.Q.'.R.Y.e.5.D - < S J S.|.8XR.L.R.E.'.|.(.9.E.uX;Xc.fXGX@Xr.) g } r g E ) / ) x.uX@XjX) t.<.^ ,.; # ; u u k k j u < 1 u u u u h h h h h s J.hXyX=X&X-XnXmXmXJXcX4Xf.#.W s R _ f.=XcXAX4XR 9 y a 0 9 # u ,...L ,.Z.h.3.3.*.9X9X^.$.v j h k D H 4.T.[.A.$.] &.P | H.^.k.I.k.P.j.j.j.9.8.8.j.1X{.I.(.I.h.8.,.).xXiXi.<.hX@.r } i.iXKXLXiXp.p.@X@XGXuX) / 0 0 a p % # # = = o # = q i i a i v G X.w.*.*.%.| $.%...%. ...n h H | [ $.v n D v v [ $.=.A.q.Z.*.%.%.%.*.5.%.X.X.9.U.e.e.",
"d.G.S.e.q.j.K.j.K.L.'.].{.'.{.(.L.(.].'.'.Q.E.Q.].^.E.R.K.G.| < 1 S I D.wX0X_.Q.E.Q.Q.(.e.,.2XfX;Xz.fXPXv.>.) g } e e T } / ) x.;X;XiX^ <.x.^ H 9 # ; u a l a u 1 < ; u u u p a k k k h s 7X6XJXBXgXgXmXmXJXJXJXyX=X7X=.o.#._ $X6XJXDXoXr v | X. .i & | ,...2.2.8.6.w.D.U.%.| a * l ; u D H l ; * p 0.^.S.J J &.| ' *.I.I.h.j.j.e.w.8.8.9.).[.I.I.P.P.h.8.v.MXuX>.>.hXO.f ) p.iXKXLXiXp.@X@X@XGX;X) ~ w y a A + o o # O O o O - < q u i a G | %...K | G a v | %.....l h G D K ..| F v b [ %.*.A. .| | X.%.%. ...X.2.2.2.5.e.w.9.",
"e.G.e.0.7.K.{._.j.Y.K.I.].{.].{.].].Q.^.(.Q.R.Q.Q.Q.{.,Xj.0.| ; 2 A J U.eX8X_.].Q.E.Q.R.j.I.fXfX3Xc.fXJX@X>.) g / e f E / ^ O.l.;X@XfX) t.t.^ ,.; # = u u a i p u 1 1 1 1 u p p k v h h ] +XJXmXBXmXgXmXmXJXJXJXmXgX=X$Xf.u.#XyXcXJXmX-.4 * a U o.v v 2.[ ,.,.e.w.D 4.4.A F S % G [ y a F K S 3 = o % y *.D.| K F &.' %.).).I.P.j.8.8.2.2.9.).).{.|.{.).x./.MXuXt.>.hX@.c >.p.uXKXLX;Xp.p.@X@XGXiX/ { 0 9 0 a O # O # = = O O # q u i v a D K H n D b v q F %...2.K v h G S G F l p a D  .| ....| | |  .X. .[ | 5.q.,. .X.X.6.w.",
"A.q.q.=.5.H.1X:Xd.G.5.e.R.{.].(.'.'.Y.E.E.R.Q.R.E.Q.{.].e.@.| u , A K !.sX9XE._._.].2XsXqXrXkXfX3Xc.fXGX@X>.) g / e T E o.^ O.l.3X@XfX) t.v.) / - # = u u l a u y 1 1 u 1 u u u h k h h W yXJX6XgXBXvXmXBXJXJXJXJXcX6X6X4X4XcXmXmXJXcXJ.s D ' s b '  .2.,...,.P.D.$.n < S &.a 9 H.{ i v D S p , > O & o & G =.I F C.' b 8.).x.P.P.8.e.6.8.[.{.[.).[.{.{.v.).MXuX_ 1.fXO.m >.l.iXKXLXiXp.p.@Xv.GXiX) H q 9 y a + . o = 1 = < = - ; i h l a D G ' v i v a F $.| K D v l l D v a i 9 * y v | | b v | %.....| H G [ 5.e.2.G M n X.5.",
"0.w.A.*.G.E.].:XI.L.@.G.R.R.R.R.^.E.R.R.R.L.J.E.E.Q.,X].9.q.w.p 2 A I !.dXwXW.7X:X2XqX1XI.(.aXiX;Xz.3XFXz.r.) g ~ e e E ) ^ ) l.;X;XfX^ 1.h./ / 9 # = 1 p l l u u 2 < u u u u u h h j i n yX6X+XBXBXcXmXBXJXJXJXJXJXDXcXcXDXDXJXJXJXcXJ.#.o.] ] #.{ X.,.,.2.,...H F - a | | s o.^.;.Q Q x w 9 ; > X O & # # y | F ' ] w m P.).I.P.h.h.8.h.1X1X).).).).).v.*XjXuXg.<.fX>.g >.v.iXKXLX;Xp.p.v.v.KXuX) ^ w 9 y a O o o , q ; q - - - < j v v v D a D G G G | | F ' v l k u a a u u a S a b | | v v %.%.| | | G | %.5.e.5.| H v X.5.",
"| | G X.Y.E.].eXqX{.5.R.Y.K.L.L.Q.R.~.E.P.I.L.I.E.Q.2X:XL.U.Z.l , A F D.tXwX:X,X2X].L.h.d.E.3XiX;Xz.uXGXp.r.O.g { r g ^ } ^ O.l.;X*XfX^ >.t.) [ 9 X & < u a a p p < ; 1 1 u u i h i i i v 3XyXDXJXmXgXvXBXJXJXLXJXJXJX6X6XcXcXJXJXJXcX$X-.$X$XJ.f.@.X.X.2.,.2.m p * 2 i b #.W.5XzXfX5X5X3X$X#.i * & X X X O o < ' F b a c ,.[.).).P.j.8.h.1X<X).{.{.{.{.x./.MX;X_ 1.kX>.g O.g.iXLXLXiXp.v.v.v.GXuX/ / q q y l X X # u < 1 1 = # - ; h l D D v D D | [ H [ ..D u v F u u k u y p H | ' $.| K D D D G G l v z ..A.@.0.S.A.K n %.X.",
"|  .%.q.e.P.R.'.8X{.} q.G.Y.I.'.'.Q.Q.I.(.L.I.Q.Q.W.:X0XE.5.%.k = A J A.9X9X:X:X].]._.E.L.E.&X3X-Xl.iXGXz.r.) g / e e ~ O.^ ) x.3X*XjX) a./.) } * # = ; 2 y p p u < < u 1 u u u u j u j s $XDXJXJXDXgXvXBXJXJXLXJXmXcX+X+X6XJXmXJXJXmX=Xu.$X=X=X$X1.5.5.,...2.k O % ; s %XcXDXFXJXJXGXFXnXcX5Xy.0 < O X . o + o y a j 2.2.H ).[.P.x.P.8.h.<X[.).{.<XuX).x.).jXuXt.r.fX>.c O.z.iXKXLX;Xp.p.v.v.GXuX) ) w y y p o o = u q q q - # # - i k v v D b D K G D D v q u v S k ; y j u i G F $.$.| F D F S a a a n H | %.X.2.A.S.G s G ..",
"A.Y.P.0.%.@. .5.U.Y.X.X.e.q.Y.{.].:X]._.,X].^.>X2X2X2X2Xj.8.2.1 O A J Z.|.Q.*.K.:X].Q.&XQ.Q.z.5X@Xz.iXGXv.<.) g / e g T ) ^ ) z.3X*XiX_ ) 9.) / 9 X & < p 3 p p p < < y u y u u h u a a a =.DXJXFXmXvXnXmXJXJXJXJX6X$XoX+XcXJXJXJXJXcX+X-.$X5X4X@X8.2.,.,.,.,.k X & * %XBXJXJXLXIXLXLXJXBXbXcX=XQ * < O o X X X + y F w.$.' (.{.).x.h.8.h.1X).P.[.uXuX).v.v.jXuXt.>.kX+.z >.g.uXKXLX;Xp.p.v.v.GXuX^ ) q q u p o o # - - - q - $ ; q i h h h n D D H l q y u l D G v u y D L h h | | H l a h i u 2 5 v ..| ..D D v v ..Z.D a v K ",
"Y.K.P.q.X.*.=.Y.{.G.X.G.G.d.'.{.|.,X:X,X:X:XE.Q.2X0X2X/.j.R.2.q = p I D.].R.L.}.,X^.^.].Q.W.k.3XuXp.uXBXv.:.) f / e e ^ ) ) O.g.;X@XfX^ <.v./ [ 9 X , < < y y p y < < p 1 u q i u u i u a s rXFXFXgXjXnXmXFXJXmX6XoX-.+X4X+X$X7XcXmX6X$Xf.$X4X4X*X<.8.2.,.8.L = O & ' gXJXLXIXIXLXIXIXJXBXmXpX5Xz.s * & X O X X X O l K D 0 5.{.[.).R.h.h.{.[.x.[.{.).).).v.jX*XO.+.fXO.f >.l.uXGXLX;Xp.p.v.p.GX3X^ / 8 q u j X o # = - ; h ; = - i u i u k n h S v ; - h l D D G p 9 a H F j h D n h j u l i v a v $.&.$...G D D G %.%.G ' | G ",
"q.q.e.6.d.R.|.qX8XR.U.Q.G.Y.{.}.,X:X,X2XQ.K.L.I.>XrX2X:XI.L.H = = A I C.}.8XtX}.*.*.Q.Q.^.^.W.;XuXp.uXGXv.>.) g [ e f E ,.^ ) g.-X@XfX) t.h./ / * # & < < < p u p , < u u < u i i u i u a q M W.$X#XjXnXBXmXbXpX-.-.6XyXyX6X-.u.oX=X$Xu.-.oX+X+XOX9.8.,.2.8.L = & + f.mXBXJXLXLXIXLXLXJXBXbXcX5X=Xf.s + o o O X X + 2 a v q w R.{.).).8.h.{.).P.).).{.{.).).jXuX>.>.hX,.g >.p.;XKXKX;Xp.p.v.v.GXuX) ^ f y p l X o # - - h h < - ; h h h h n u - v k - ; G F l k h u u k l l l D n D h h D G G .. .....' ..%...%.w.A.A.%.$.*.=.D ",
"0.d.K.R.R.'.8X|.^.R.K.Q.R.R.^.'.].{.:X2XE.R.L.k.2X>X,X:XE.R.2.- , j J D.'.Y.eX|.G.q.^.W.W.%XW.;X@Xi.uXGXz.>.>.g Q e g E ) ^ / i.-X@XfX) <.h.O.~ - X & < < y p u p < < 1 u u q u i u u a i u h 0 f.5XgXnXmXvXvX#XJ.$X4XyX6XyX+XoX` ` ! ! -.-.oX$Xl.1.2.8.,.8.~ 1 o s =XmXJXJXIXIXLXIXLXJXJXBXvXgX5X=Xs.i % X O = * O % y e.l q P.[.).P.h.P.{.).).{.{.{.{.v.).zX*X) >.kX>.f <.p.uXGXKX#Xp.p.v.p.GXuX) ) w w y p & # = - q q h q - q k k l k l 1 v D l 9 9 H | G G H l j a v K H D D D n v D ' $.|  .| F ' | %.*.0.K.K.5.2.*.X.0.*.",
"'.].^.'.Q.^.{.K.@.7.d.'.0X'.j.R.Q.].,X:X:X(.{ @.qX2X:X2X0X1X4.- > j J D.Z.X.|.8X^.I.G.a.Q.Q.s.-X@Xp.iXBXv.>.) g W e f E ) ^ ^ g.&X@XfX) 1.g.O.{ 9 o , u p u u u u 2 y u 1 q j q u i u u i h j f W.gXgXjXvXgXgX4X$X-.-.7X7XoXoXoX-.-.u.;.;.` f.f.r.5.8.8.8.h.m 1 % ' yXmXJXJXLXIXIXIXIXLXFXDXfX>XW.%Xf.o.w + o o o = # 9 X.q w A.{.).x.h.j.).x.h.x.).h.h.<.v.xXuX<.<.fX1.x O.i.;XGXKX;Xp.p.p.v.NXuX) ) r y y l & # = ; u q q j - - u h k k S G ' h l 9 i %.w.%.X.G k ; ; m w...H G L K D | 0.A.q.q.%.%.*.5.0.0.q.G.q.[ G [ X.G.U.",
"].{.].^.Q.R.U.G.w.X.5.R.{.,X(.L.Q.R._.{.,X].8.e.,X,X].qX{.R...= O 3 F C.A.w.~.'.:X_.H.I.E.W.x.;XuXp.uXNXv.>.O.f W e g ^ ,.^ ) h./.@XaX) O.a.) [ 9 o & u p p u a p < y u u 1 q q u u u u j h h z >XcXpXcXvXpXpXpX+X6XJ.yXDXDXcX7Xf.-.;.] #.! u.s.7.7.5.8.8.8.L - % o.nXDXJXLXIXIXIXLXGXnX>X#.Q U W { o.#.o.9 # O o o o - u & - X.[.).[.h.9.).[.).[.{.[.h.8.v.jX;Xr.O.hX@.z O.y.;XGXGX@Xp.p.v.v.NX;X) } w q y A X # = ; q q < i - # < a j l G $.| D F l l %.w.*.2.| | u q ..I K F G | | H *.0.q.A.q.=.0.w.q.0.q.e.q.q.X.' n [ q.G.",
"^._.G.I.^.'.Y.'.R.e.q.8.(.|.aX(.(.{.{.{.{.Q.j.L.Q.I._.0Xj.S.| # O d S 4.w.0.5.7.].:XE.R.J.Q.W.;X@Xz.iXBXz.:.) f E 8 e E ,.^ ) a././.iX) O.g.o.{ * o = < u u a p u < < 1 u u q j u h h j s H H.Q.5XvX5XpXcXpXcX6X4XcXcX7XAXHXIXPXDXyXJ.6 R ;.y.1.<.8.8.8.8.8.m 1 % 5.>X3XrXhXDXJXJXFXcXf.T e ' W.-X>XW.;.;.{ - & O o o o o X o v ).[.).h.P.{.{.).).sXsX).9.).jXuXa.O.fX@.s } t.;XNXGX#Xp.p.p.p.GX;X^ ) w 9 y p & # = = # ; ; - # - = u v G | | K K K G v G %.X.q.w.0.k u k h ..w.| G H [ ..| e.Y.Y.R.e.q.*.[ 5.e.e.0.5.X.[ v  .q.",
"{.'.R.E.}.{.Q.R.K.d.8.d.:X2X1X{.(.{.{.|.(.I.R.R.Q.'.|.R.K.Q.L & > d S 3.K.'.d.H.,X2XW.E.Q.%X%X3XuXp.uXNXz.:.) g E e g ^ <./ / t./.v.uX^ ) 1.) { y o = < 1 u j a u u u u u u u u h h h h ' 0XAX5XfXBXgX;X5XcXpXcX6XcXmXcX6X6X6XcXyX3X#.! s.oX>.,.,.8.8.9.8.<.w , & M g.#.( +.=XcXmXbX4Xu.! W #.s.;.u.f.f.s.r.s # & = o o o = o ; P.[.).h.h.sX[.v.[.{.).).a.).jX;XO.>.fX@.z ) y.-XMXGX@Xp.p.p.p.NX;X) / w y y A # # = # # ; < - # - < u l H ..H H ' G D v G $.X.2.5.2.v j q k 2...D v v [ G @.R.'.R.L.e.q.5.{ 5.8.e.5.5.%...n @.K.",
"].(.{.{.{.'.R.j.K.Y.q.j.2XtXaXdXeX|.|.P.8.P.I.[.|.8XQ.U.'.|.$.& , d J C.S.U.}.1XrX2XJ.I.Q.W.x.3X=Xz.uXNXp.:.>.f E r g ^ >.^ ^ t./.%X3X^ +.E.>.{ - # & < p p k a u u y u u u u i i v v b s.kXPX>XgXGXnX=X=XiXpXcXpXpXbXBXcX6X4X$XoX-.] r.f.s.+.,.8.8.8.h.8.8.q = + H.hX=Xf.r.oX4XBXBX+X-.` #. .t 5 t ! ;.p.u.' $ % = , , ; & X % 8.{.).P.).1X[.v.).[.).[.9.).jXuXt.<.fX} f ^ i.@XMXGX@X:.i.z.v.NX;X^ ) 8 y y S % O = # = ; 1 u - = ; q h G ......[ ..| ..M H  .X.m D l k k D K G D v %.0.0.Y.^.Y.K.8.e.w.q.5.q.d.w.5.*.0.$.G e.Q.",
"].(.(.(.(.'.(.R.G.L.L.Q.:X0XdXdX2X1X{.j.h.R.{.|.8X}.K.j.R.S.m = , d F F.Z.%.K.|.,XE.k.E.).W.z.3X-Xz.iXNXz.:.) f R 8 e T ) ^ ^ t./.*XuX^ O.t.) { 9 & = < u a j a u 1 1 q 9 1 a v  .7.7.s.H.yXPXkXjXGXBX5XOX=X4XpXcXcXbXmXmXyX$X$XoX-.u.u.s.#.1.8.8.t.i.8.8.8.k = X H.$X=.*.b ! =XJXBX#Xf.c.$XW.' ' R ;.#X=Xf.#.7 o o o X o X X * 8.{.).x.v.1X[.).).[.[.).h.v.jXuX9.} fX,.k ^ <.;XMXBX@Xp.i.p.z.NX;X) } f y p S * o # # # & - u 1 = - i h H ..X.%.X...X.%.' D ....L D l k l G G [ v v 0.q.K.Y.R.'.q.5.q.q.5.5.8.e.7.*. .%.%.@.e.L.",
"L.I.(.'.[.(.'.'.R.E.Q.].:X2XkXtXQ.(.R.I.'.{.R.}.}.I.'.'.S.[ l # , d J D.D.Z...M R.].(._._._.%X3X=Xz.3XNXz.>.) f E 8 g E ,.^ ^ i.&X%XuX^ O.x.<.[ ; X & < 1 u p a p u u 1 u n [ j.2XfX3Xf.` >XPXUXDXDXmXvX#Xu.#XiXgXvXcXcX6X+X$X-.-.-.f.;.O.8.8.9.8.8.8.h.8.8.k > # #.Q ' *.s u.yXJXBX+X+XgXgXyX+X#X=XyXyX4Xf.@.0 o & & # o o & D ).[.).I.[.:X[.).).).).).9.).jX@X>.O.fX<.f ^ <.@XNXNX@Xp.p.z.p.BXuX^ } u y y p & = = # o # = ; , = u h l D [ X.5.*.w.5.%.D b G D v v v D 4.0.*.| v v %.5.q.e.K.Q.e.7.5.[ *.5.0.q.q.0.%.7.q.e.d.H.",
"e.L._.(.(.{.{.(.R._.Q._._.,XqX1XR.K.|.|.|.(.I.R.P.'.R.L.2.2..., , A S D.S.2.K $.`.0X]._.:X&X&X-X@Xp.;XNXp.) ^ f E e r ^ ) ^ ^ <./.v.uX^ O.1.~ / 9 # , y u u a l a u u u L P.(.fXzXhX2X-.Y ;.lXIXIXHXmXmXpXOXy.#X5XnXBXnXcXyX$X-.f.f.s.#.1.h.9.9.8.h.h.8.h.8.m > X J.=Xf.$X=X6XmXmXcX4X4XcXDXDXmXmXmXbXyX=Xu.;.s + ; & , & # ; w.{.{.).I.x.1X).).).[.[.x.h.v.iXuXh.) uX<.k ^ t.&XMXNX@X:.i.v.v.NX@X^ } 8 s y p O = = X o & = - q - ; l D L ..[ @.*.0.%.[ n D F D n n D H w.w.Z.0.v M *.5.w.e.G.H.e.e.5.X.q.w.q.7.e.q.*.5.q.0.8.q.",
"I.1XtXsX(.{.wX1XR.E.Q.].,X,Xd.{ X.5.L.`.}.'.[.j.@.5.0.q.X.2.3.k , d J Z.4.L 4.S.A.}.].(.].W./.-Xv.p.uXxXp.:.^ f E e e E O.^ E r./.%XiX^ ~ k.O.{ ; X & < u u l a a u u G E.aXlXxXlX;Xx.` Y Y =.yXIXUXHXnXgXiXOXp.*XpXgXnXnXgX5X=X$Xf.O.1.k.h.h.9.h.h.8.h.h.8.z - * 2XmXnXmXJXJXmXBXcX+X4XmXJXJXJXJXDXcX6X+Xu.;.e 9 $ & % o o - 0.[.{.).E.[.{.).(.).).I.h.a.v.fXv.^ ) aX>.f } <.@XMXMX;Xi.i.p.p.NX;X^ L 8 q 1 p X o X & = o # = ; $ - k n | %.*.*.' H b G G K G v n H 2.2.w.e.5.%. .*.5.*.q.q.e.q.d.K.5.*.Y.^.d.X.w.K.q.*.8.5.d.K.",
"].|.qX2Xj.(.qX8XY.I.L.R.{.,XL.*.} 8.R.R.(.|.|.R.q.8.e.L.6.2.L = , A I Z.2.2.4.w.U.K.~.R.Q.E./.-X@Xp.@XNXp.>.^ 8 c 8 r E O.^ T r.%X@X3X! O.E.O./ 9 o = , 1 a l l a i M E.aXxXDXSXhX_.;.! Y 6 6 ! yXPXIXDXjXgX5X#Xf.z.&X-X=X>Xc.f.s.#.W } h.h.h.h.8.h.h.t.h.h.H 1 q yXJXJXJXJXBXbXJXbX=X4XyXJXJXLXJXmX6X+X+X-.! e e w y % X O # h j.{.{.).).<X).E.I.(.[.j.9.v.iX*X<.O.aX>.f ^ t.@XMXNX@X:.p.z.p.NX*X^ ~ 8 q q p o o o - < & # = ; = u h k | %.0.5...| [ [ K K F a n | 2.S.S.A.5.*.7.0.5.5.q.G.d.w.K.G.q.e.K.R.q.[ e.R.6.X.5.X.5.K.",
"'.|.|.R.8.P.}.'.P.K.R.^.'.,X|.R.G.K.L.L.R.|.8X'.A.e.R.Y. .D G = 2 S I 4.`.T.P.P.`.U.e.L.(._./.-X*Xi.@XMXp.) ^ f c e r E ) ^ ^ r.%X/.3X^ } k./ [ 9 X & ; u u i z b [ j.&XfXxXDXNXxX3X=.U Y Y 6 5 ] ^.DXPXPXnXiX5X*Xu.+.O.=.#.#.#.' R x ~ ,.9.h.h.8.h.h.t.9.h.8.u 6 yXJXJXJXJXbXcXmX4XoX+X+X6XBXJXJXmX6X+XoX;.` e s R a o o & # $ m j.).(.v.[.).).).).[.j.9.v.iX*X) O.iX>.f ^ :.v.MXMX@Xp.i.p.l.NX;X^ ~ 8 q 1 l o # o o & , < ; 9 ; u l v [ $.X.X.X.%.$.| [ K F D | *.w.P.K.L.H.q.7.5.q.q.e.G.d.q.q.5.e.e.G.G.X.[ 0.e.5.%.5.*.0.e.",
"^.'.(.I.7.K.K.L.K.K.e.R.'.|.|.8XR.d.L.K.e.L.`.P.q.L.'.R.n v n k 3 j L D.8XR.S.j.R.R.S.U.L.L.E.*Xv.i.uXMXp.) ^ f c e e E } ^ ^ >./.c.3X( ,.k.) { ; o & < u l [ q.x.).x.z.%XaXxXxXzXyXk.U 6 Y 6 6 5 Y J.HXUXPXzXfX5X*Xu.! R x s R s w M m q m <.h.h.h.h.h.h.8.,.u 5 4XBXBXJXbX6XoX+Xu.` -.u.4XcXmXcX6X6X+X-.u.! T Q o.0 X & & # $ k } I.).).).).).I.x.x.j.h.).fXuX<.O.fX1.f ^ <.v.jXMX@Xi.i.l.p.NX@X) [ 8 q q j O X # + o & u u 1 ; u v F G [ ..| | %.$.| K K K | $.5.8.e.K.L.q.e.q.5.q.q.q.d.e.q.q.@.5.q.e.e.X.X.X.%.%.X...} 0.8.",
"R.Y.^.'.'.(.X.@.5.e.e.Q.R.^.|.eX|.Y.K.Y.R.Y.X.X.0.Q.|.R.n F F 1 2 j J 4.|.|.`.Q.|.|.wX'.H ,.E.-X@Xi.;XMXp.) ^ r c e r E o.^ E >.%Xc.3XQ O.a.) } , o = q v *.].rXfXaX*Xr._ _ -XfXxXhX_.o.5 t Y Y 6 6 t -.tXHXIXPXhX=X$Xf.;.R Q ' s x  . .0 i W 1.k.h.h.h.9.9.,.1 % $XmXmXmX6XbXcX+XoXoXoX+X6X6X4X4X4X#XoXoXu.! s ' #.* X < y & o i M 9.(./.(.E.I.I.h.h.j.a.).iX;X<.O.fXO.s ^ <.v.jXjX@X:.i.p.p.nX*X( ~ 8 y y A X X o o # o = u j ; ; j k v D ..0.w.*...$.$.%...%.0.*.*.q.K.Y.d.| =.K.U.e.G.e.A.0.5.} 5.2.5.e.e.e.X.[ ..[ G [ *.5.",
"I.I.E.Q.[.'.8.8.X.e.K.R.K.L.8X8X{.~.Y.Y.R.H.M } 5.R.'.5.n G D = 1 j j I P.R.{.|.8X8X}.~.K ,.L.>X*Xi.<XzXi._ ) f E 0 e E ) ~ ^ r./.x.;X^ } t.) / q # < a G s.rXhXzXxXjXuXOX:.r.5XNXNXfXL.s 5 t 6 6 6 5 6 ] W.ZXHXHX3X$XOXr.! ( Q s { a.H.D - 0 E <.a.h.h.h.h.[ k 2 ] 6XcX6X+XmXBXJXDXcX6XyX6X4X=X#X+XoXu.u.;._ 0 y a X o , ; , + 9 m ,.).x.(.[.[.I.I.h.j.h.v.jXuX1.) 3X) w ~ <.z.jXjXv.:.:.i.p.jX*X~ ~ 9 y y a X   X o O o o , u - = - ; y l $.5.%.$.[ %.4.0.$.$.q.w.*.Z.G.q.'  .G.Y.Y.A.=.*.=.......2.2.6.e.K.K.%. ...| ..5.X.{ ",
"tXeXeXtXeXqX8X1Xd.K.R.Y.G.G.8X'.{  .e.H.R.L.G.A.L.L.*.n n m n < 3 A S I H 2.[.|.{.8X..i G [ { &X@Xr.-XzXi.+.) f c e e T } ~ ^ >.z.z.<X^ ~ t.O.{ 9 & h ~ 1.g.OX;XiXzXNXzXhX*Xv.uXhXnXzX>X#.6 6 6 6 6 5 4 4 6 ' J.tXzX3Xf.` _ o.R  .:X:Xq.y * * s c } 9.h.j.h.,.l a t =XyX+X+XmXmXyX6X+XoX$XoX-.-.oX4X#XOXoX;.! 7 y p X O * * * O # v ,.I.I.E.k.k.k.k.x.h.<.v.fXuX1.) 3Xo.w ^ >.z.fXjXv.:.>.p.p.zX*X^ { 8 0 y a o & & # O o o # = = ; ; , u S i a %.5.[ G 0.w.$...%.=.%.*. .' | 0.n i i h $.A.%.b K.'.'.'.'.'.'.`.'.~.A.X.q.0. . .",
"eX0X8XqXqX8XeX|.K.A.G.G.e.A.'.R.G ..5.0.q.G.Y.U.R.e.*...n H k < d S S 4.3.2.!.[.'.}.H u D v n &X@Xy.*XzXp.+.) f E e e E O.~ T >.k.z.<X^ / k.>.} 9 $ m @.r.r.:.p.@X;XzXDXzXjX;X@XOXfXDXkXg.U t 6 5 6 4 @ @ @ 4 t ] f.SX%X;.+.Q #.kX0X*.y % = * ; q z <.9.h.h.j.m D 0 J.gX4X+X+XoX6X6XcXcX4X-.` ` 4XbX+XoXoXu.! 5 G ' % o * y , % + q 8.E.E.E.k.h.h.I.I.I.h.v.fX;X) O.rXo.r c O.z.pXjXv.:.r.l.p.zX*X^ [ 9 s y A O & & & o o o & = = ; < < p j ; a &.4.$.F w.4.| | ..| | K a a | F - q h D w.w. .| H.~.}.}.R.Q.'.R.~.R.0...0.%.X.X.",
"G.0.5.0.0.S.j.0.0.A.w.w.0.0.5.4.v v $.$.....| [ 5.$.G L v j 1 d j S J 3.3.L D L $.%.v S v k W :X%Xg.*XzXl.+.) e c e r E ) ^ ^ >.z.k.-XE ^ 9.>./ w h / a.y.u.u.u.u.@XuXMXNXGXjX*Xy.fXFXSX>XR U Y 6 5 5 4 5 4 % @ 5 R tXyX#.o.] rX].' y + O * * ; ; 0 b ~ ~ ,.j.9.b i W yXbXbX+XoXcXmXJXcX+XoXoX#XbXcX+X#XoX:.T 7 X. .; X = * , % X $ M k.).).{.).{.).).).k.%XiX3Xr.O.3XO.w E <.v.jXjXv.:.r.z.l.zX-X^ ^ 8 0 y j & = = o o o o = , = , < 1 = = < 1 l k u j k u u u u 1 , ; u l ; X ; l v D K K L K K $.2.4.| %.$.K | | F | ..[ K H ",
"K D F D D J L F K $.D D F K S l u y K L F l a k l u D S 1 & = d S J I I A d 1 d D S j j j k n ].W.g.-XzXl._ ) r c e r ^ O.E E >.k.z.&XE / a.} / f W 9.x.-X*X@Xp.u.r.#XiXjXGXNX;Xp.hXFXDXlXs.t -.-.Y 4 5 4 6 4 @ 4 t $XlXs.R Q.,Xs t % X O y ; * ; 9 w s 0 z } 1.o.i 8 %XbXBXbX6X6XcX6X6XoXoX#XpXcXpX#XoXoX_ e @ D G o X , * , & o - h ~ h.).{.).).v.).k.t.c.iX@X/ o.2X/ w M ) v.jXjX@X:.y.z.z.MX-X^ ~ 8 y y j % = > o o o o O O O = , = O o O = 2 1 = = O O , = = ; ; - j A = & u S j F D F F S F F S l l A u u p l a S A a a p ",
"o O O O o & o o & & o O & O o O o o O O O O O O & & = = O = 3 j S I I J d d d d 1 , O o o & u /.c.t.-XjXp.>.) f W 8 e E } E E <.k.g.&XE } h.) ^ f [ 9.k.*X3X3X;X;X@X@X#XuXjXNXfX3XzXDXzXfXW.t Y ] J.] 6 @ 4 6 4 @ 5 #.kXf.#.2X' s % + + % y y a 9 ; q s w 7 r b ' a - ) 4XbXBXbX+X+X+XoXoX+X4XpXvX+XoXoXu.! s $ &.=.o O ; & * % # u m c ^ h.).v.v.).E.h.a.x.iX<X1.} <X} f ^ O.v.jXjX@X:.r.l.p.jX*X^ } q 0 y p . .           .     .   .             X .   . . o   X X . X . . . X o o O O O o o O o X o o o o o O X o O o o X O ",
"o o . X . . . O O O O > & & & = = = > = & & , , , 2 1 3 j S J j J S J J S J S S A 2 , = , , y Q.W.y.-XjXi._ O.r M e e T O.~ E >.k.g.*XR ~ 8.~ ~ w x ,.t.l.;XiXfXuX@X@X@Xz.v.iXxXzXNXDXzXhXW.e 5 Y Y -.J.] 6 6 5 @ @ x 2XW.^.o.5 % o O X > y y a u 9 i x r q q w i 9 $ E p.4XbXbXcX6X4XgX6XcXpXpX4XOXoXu.` ! s % I I X o & & & O o $ n } m ) I.E.I.k.h.h.7.g.iXc.o./ <X/ r m ) i.iXiXv.:.r.p.i.jX@X~ / 8 9 < p                                                         . . . o o . . . o         . .               . . . . . o X ",
"3 1 1 1 < , 1 3 3 3 p A A j j A j j S S A A S S A A S S J I J I &.L I I &.I I I I I J J J F v ).v.y.*XjXi.:.) 8 E e g E <.^ E O.a.g.&XE ~ h.~ ~ i z { s.W.-XhXzXjX3X*Xi.<.v.#XiXjXnXzXjXjXaXX.4 4 Y Y -.-.-.] Y 6 4 0 J.9X=.t % + + + X & < z b s u w s a s 9 9 9 ; $ G R.r.yXmXBXJXJXLXJXJXbXyX#XoX:.` ` ! T 7 + X X & & & u % # # * b [ M h.I.k.k.h.e.1.l.uXv.) } <Xo.s ~ >.l.;XiXp.:.:.i.i.jXv.^ ^ 1 9 y p                       . o . . . . . . O . . O O O O > > , , , ; , , < < 1 = = = , d = > = > = O O = , = ; , , , , ",
"S S A A j A A A S J L F F J L J L L &.&.I L I I J L L L S L L I 3.3.I $.3.3.I &.3.3.L L I L [ _.v.i.@XjX:.>.) f W 8 e E O.~ E +.g.i.&XE [ ) m / h x } g.k.%XrXSXDXzX-X*X3Xl.p.z.iXfXfXzXDXfXH.s 4 Y Y Y -.Y ] -.-.] U #.=.e $ @ X + O X + 9 v [ M q z c s 0 9 * * ; ; k ..9 @.fXFXJXLXJXJXcX4XoXoX:.` ` ` ` T e # o o X % < S = * < $ 9 x M e.k.h.h.h.9.<.h.3X&X,.) -X) x ~ <.l.;XuXv.:.:.i.i.jXv.^ ^ f 9 < p X                       X o o o O O o O & O = = = = , ; 1 1 d u 1 u j j j j j j j d d 3 2 , d d , 1 1 d j k k u 1 ",
"S S S S S S F Z.!.T.`.!.T.[.}.!.!.`.XXXXXX[.Z.Z.4.Z.4.4.D.D.D.S.`.`.}.XX[.'.}.'.}.}.[.~.R.`.1X&Xv.t.*XfXt.) ) f M e e T O.E E O.k.g.&XE ,.<.^ / z ~ a.I.k.s.x.3XxXDXxXuX@Xr.:.p.@X-XfXNXGXxXI.s 4 5 Y Y -.Y Y Y Y ] ] U t e @ + X + % % + ; M o.[ w z b b q ; 9 & & < $ = % $ W 5XDXmXcX6X4X#Xu.` ` ` ` ` :._ T 7 # # # ; < D * ; v 9 # * s 8.j.a.a.9.9.1.l.3X@XO.o.<Xo.g M ) i.;XuXp.:.t.i.i.iXv.^ } d q 9 j o     .     X o O O = = = = , 3 1 j j l n k n n k J D k S L 4.L 6.Z.Z.D.Z.2.$.I F 3 1 d 1 j j , 1 S L 4.8.w.6.4.w.",
"S S F S J I '.ZXZXqX|.eXeXeXeX|.~.|.wXsXeX|.Z.S.P.`.(.}.wX8X8XeXdXdXZXdXdXdXdXdXkXZXAXdXdXAXkX>Xv.t.@XfXy.) ) f M 0 8 E @.E c >.g.g./.c ) 8.~ } x } k.k.s.y.t./.aXzXDXnX;Xp.p.p.OX@X;XzXDXDX3Xo.4 5 Y Y Y -.Y Y 6 5 6 Y ] #.0 + + @ 4 % + * M @.@.b ' s w 8 4 9 * & y & ; = & + s f.$X#XoX-.:.` ` ! ! :.u.:.:.! e w 9 X = ; l 9 - F v * # i q.a.9.9.,.,.<.z.3X-X1.) <XO.r c >.i.;XuXp.:.:.i.i.iXh.^ } f q ; j X .   . X o O & , ; u u k l v v v n L I L L ..I 3.6.4.2.4.w.4.e.D.A.U.~.^.2.%.2.K k = 2 1 j d 1 F 2.j.XX[.T.`.~.[.",
"> d A S 3.D.dXAXkXkXwX9X'.(.|.~.0.T.|.].'.R.8XsXwXaXqXaX1XrXdXaX0X1X|.{.,XqXtXeXwX8X].R.|.,X_.>Xv.y.*XiXr.) ) 8 x 8 e E ,.E g O.g.g.&XT ~ a.>./ c ,.).&Xv.x.a./.<XuXhXxXjX@X@X@Xp.:.OXuXNXDXfXj.0 4 6 6 6 ] Y 6 Y U t U #.U 5 @ 4 5 5 4 + $ n 7.1.W z s z i 0 y < ; = # ; < & & o 7 #.:.` ` _ _ ` ! :.oX:.oX:.:.! 1.[ X o & y y & p l ; # - | e.j.9.9.8.1.c.3X@Xo.) <XO.r E ) i.<XuXi.) r.g.g.5Xv.^ } q 1 1 j . . . X     O & < k l K D l n L | L ..%.%.$.2.4.0.e.A.5.2.8.2.2.8.7.G.R.^.~.Y.Z.%.L 1 O 2 S j F 2.w.}.|.|.D.R.S.0.",
"= j A I !.}.ZXAXkXdX8X|.L.L.~.e.2.S.}.].R.`.dXdXwXsXdXdX0XqXtX8X|.}.}.L.'.'.^.R.R.K.e.d.K.q.a.&Xv.i.*XfX:.) ^ 8 v 8 e c } ^ c ) a.g.&X^ / h.) } M 2.(.&Xx.h.y.l.l.&XaXzXjXfXuX@Xi.p.p.p.uXxXlX].U @ 4 6 5 Y Y 5 6 Y U ] ] 6 @ 4 t 5 5 4 + @ z 7.7.~ x h i 8 i i y ; - X # u ; & # $ ;.OXoX:.:.:.` :.:.:.oX:.:.:.s.W.{ 8 + & ; 2 % & ; * # + 0 [ 9.j.a.e.7.x.3X3Xk.) <X/ w c ) a.;X;Xp.>._ y.g.iXh.^ } f q q k . o . X . o o # < n F | K k l L $.H L ..X.$.$.4.e.K.S.5.X.2.} X.2.5.q.G.R.|.].q.w.L ; o , d k $.2.Y.8X|.'.P.K.2.[ ",
", d j I }.8XkXrX1XL.G.U.K.L.R.0.| 5.~.~.|.[.R.w.5.S.T.R.G.q.R.Y.Q.|.].].'.R.8.5.R.I.6.2.5.5.9.*X/.y.%XuX>.) ) r x 8 e g } E g o.a.g.&XE / 9.) } x ,.{.3X/.l.i.>.t./.uXjXfXjXiX@Xp.OX#XoX#X3XlX3X{ @ 4 4 4 5 ] 6 4 6 Y Y -.t R 6 t 5 5 5 % $ i #.=.{ x x s 9 s v i y 9 % o * ; * - $ _ ;X+X#XOX:.:.:.oXoXoX:.oXp.-Xz.;.+.b * % * < < = % % * a s [ 9.9.9.9.x.3X@X+./ <X) f c ^ y.-X;Xl._ >.y.l.iXv.^ } k q - k # o o = = o o & - u ; q j h l S n v n L L h h v m ..%. .| X.X.q.K.5.*.X.5.^.^.U.0.$.u   = d d 3.4.~.{.K.8.5.2.5.2.",
"= d A $.{.0XaX2X{.G.q.U.^.K...X.4.Z.'.eX|.T.4...4.w.e.e.e.K.Y.H.R.R.`.|.Q.U.d.5.R.K.M [ 0.w.a._.@Xy.%XuX>.) ) w x w 8 E O.E g / s.g.%XT @.h.) ) m ,.eXlXaX<Xl.t.r.x.&XfXuXfXjX@X:.p.oX:.u.p.*X3X9.4 @ @ 4 4 t t 4 5 6 Y -.#.J.U 5 4 5 5 @ % 4 ' +.r.~ c w w z v s s v i # O & * - - g +X4X4X+X#XoXoXoXoXoXoXoX#X%Xf.=X$Xc.1.s * % , ; & & * s G s } 9.8.1.z.3X-X+./ <X} w m / i.*X;Xl.) +.y.f.iXx.^ 8.q 7 1 k O = - - - o o o - - - q i h k v n n D  .K i j k n K $.....X.X.S.R.w.7.*.*.H.Q.G.5.$.j   o 2 k 2...~.|.P.q.5...0.A.",
"O 3 S 3.[.1XaX<X].K.7.0.K.e.| w.%.%.H.~.A.| l a K F | ' H.~.R.Y.Y.G.L.R.R.K.[ [ K.K.X.X.' [ q./.v.y.&X3X;.>.^ w b 8 e E / E g ) a.s.%XE Q <.^ / z ,.eXlXxXlXfX<Xy.+.z.2X-XaXfX3Xy.>.OX;.oXc.v./.g.a @ @ @ @ 6 U 4 4 6 Y ` ] Y 6 4 4 5 5 @ @ % ' ! ! ! T 7 i M W z w n n * X % & & & i =XpXpXpXpX4X4X+X#X#X=XpXiX#X5XpXpXiX;X&Xd.D 1 O # = $ y M z ~ ,.8.,.x.3X%X( / >Xo.w c / i.*X;Xi.) +.y.i.3Xz.~ ,.i 0 < p = - = - # . o # < u ; u u h k l n n L ..K u i l n L L [ ..%.%.Z.e.q.q.=.5.*.5.e.w...1   . = 3 L $.'.}.q.X.[ ..$.%.",
"O , S $.!.{.2XI.G.G.e.G.K.e.*.*.K 5.q.Z.0.D * a a ' ' %.H.}.Y.q.d.G.d.q.{.T.b [ '.^.X.M 0 G ~ W.W.y.&X-X_ _ ) f b 0 e c ) E c / t.t._.E M 9.} / s | |.lXSXSXSXzX%X) 1.W.x.>XfX3XW.O.t.f.c.p.l.p.f.c @ @ 4 4 5 U 6 4 6 Y Y ] 5 4 4 @ 5 4 @ % 5 ` ! Y ! ! x x W ' x h W M 9 * < & X # w.5XpXvXpXpXpX4XiX5XpXMXjX;XvXbXmXvXnXzXkX|.w.L d = & # ; u z M ~ ,.,.x.;X/.o.^ &X} f c / t.*X*Xi.) +.s.y.5Xc.^ @.f y y a - - - - = o o - u u u i i k k v n n F | H < q j D ..H H %.5.%.0.q.w.*.*.*.5.@.K.T.F #   . O 1 $.0.'.Y. .X.| X.X.$.",
"O , S I A.E.qX(.G.q.q.G.A.0.| D v | X. .0.| G 0.A.q.H.~.~.^.H.A.R.R.H.H.9X,XG.^.8X^.{ n [ 0.@.W.x.r.%X<X>.) ) f M e e g } E g / 1.t.W.W b } / } 0 s a.dXSXDXSXSX&XO.) @.1.W.>X3X&Xs.r.s.l.x.i.p.y.s.W 4 @ 4 4 Y t 4 5 t ] ] 4 4 @ @ 5 5 @ @ b ;.` ! ! R ' z b X.b s [ b - < p & X 9 rX3XpXpXpXpXpXpXpXgXBXNX;XMXBXBXBXDXDXaXP.3.w.4.3.I d : & 5 w M [ o.O.g.-Xx.) ^ _.^ 8 c ) t.*X@Xi.) _ y.g.iXz.^ o.w 9 y a - $ = # = o = = - 1 i i a k h h k u q F L h k F H | H H %.| K *.*.*.*.*.5.*.X.K.!.H = .   . = D ..~.G.X.X. .%. .%.",
"O , j L K.:X<XL.Y.d.q.G.A.e.%.D n G |  .Z.$.0.U.~.^.^.~.~.U.K.'.}.Y.G.Q.wXqX,X8X2XR.X.5.e.L.a.W.z.t.%X3X>._ ) 8 c 8 r E } E g / 7.t.E.M x { ^ [ 9 9 ' Q.lXSXSXxX>X>.E R R 7.W.3X&Xt.a.&Xc.OXc.y.OXr.f.' 5 4 4 5 6 4 4 6 Y ] ] ' 4 4 5 5 @ s +.;.:.! ! ;.s.x s { W c [ b * < p & X G fX=XpXbXbXpXbXMXnXFXNXiXBXGXGXGXGXFXsXw.I 3.w.F.!.M.M.Z 2 > 9 b [ X.@.g.-Xg.E ^ _./ r m / <.).;Xi.) +.s.y.3Xz.^ o.w 9 y k $ $ # O = , ; $ = ; q u k h k h h u i n L h i K | | H | ..G G %.*.0.5.7.5.q.5.Y.T.H - . . o = n ..R.L.5.X...| $.0.",
"O 1 3 K wXrX0XR.G.5.G.K.e.A.$.'  .%.=.0.| G 0.U.~.^.^.^.G.G.'.'.Q.G.R.Q.Y.L.d.R.0X^.L.'.^.d.k.W.z.r.*XrX_ ) ) 8 b 8 e c ) c g ^ 1.t.E.W x 7.} / 9 @ s { ,XAXDXSXfXc.1.c r W a.3X&X@.#.fXkXv.i.l.#X` ;.;.#.6 4 4 6 4 @ 4 t U ] 7.5 4 4 5 U 7.+.! ! r.;.&XW.~ w b [ W W s = 3 < & a Q.iX=XpXvXvXbXMXBXKXMXpXMXBXGXGXKXPXsXw.F.C.M.P M.M.N.m.N.Z 3 = u b ..X.a.&X/.,.E /.{ w c / <.v.uXi.) >.i.i.5Xl.^ ) r 9 y p # - = = - < # - - ; u u k k k v D D D K L k u D G $.0.A.A.0.A.H.T.G.G.H.Y.R.Y.R.~.L =     . = 3.`.Q.R.5. .| ..%.4.",
"O 2 j 4.sXqX:XH.G.q.q.G.*.%.[ X.q.Z.w...D %.H.^.|.}.^.^.d.L.}.Y.e.K.Y.H.q.q.L.Q.eXqX].Q.E.j.Q.W.z.r.%X3X>._ ) f x w r g ^ c g ^ 1.9.E.c z { ^ { 0 7 Q R a.>XAXAXlXrXE./ s r #.&X%X;.( 3XSXjXl.i.p.;.` s.+.s.#.R 5 @ @ @ 4 s t 5 @ @ 4 s s.+.( ;.O.Q &XaX>Xk.c s b W b q ; 1 ; v o.3XgXyXcXbXvXBXJXBXMXpXMXGXJXLXIXPXsXF.C.F.M.M. XB.n.N.N.B. XM.A 9 i b { a.&Xg.E / &X{ w c ) <.v.@Xi.) ) t.i.iXl.^ <.w 9 y y % - - = - q ; - - y u a k l n S D n D D D ; q h G | w.~.H.Y.R.^.^.R.R.^.}.].^.R.R.| =     o 1 w.T.K.G.*.$.....| | ",
"O 3 S D.sX,X_.d.d.q.e.5.%.X.%.w.H.U.w.w.A.A.A.Y.^.^.,X|.^.Q.R.H.L.H.K.U.K.L.Q.G.L.E.j.K.Q.J.E.W.z.r./.<X_ +.) 8 x 0 f c ~ c g ^ 9.t.x.E c a.O.} 0 b R o.Q o.wXkXAXfXW.o.r 0 W W.-Xt.) <XDXDXkXh._ ;.;.g.+.a.l.f.' t 4 4 4 t U 5 @ % W #.>.;.R o.o.r.lXfX-Xx.o.w s b i - 2 2 a X.g.fXDXnXMXBXGXGXMXMXNXGXJXJXKXIXUXsXD.!.F.M..X XN.n.B.B.B..XwXXXD...z v W 9.&Xk.~ ) _.{ w x { <.v.*Xi.) _ y.i.3Xz.^ @.w 9 y u # # = = = ; < = ; u u u k l n S v D D a i k k F [ | ..*.X.*.*.*.*.=.e.G.R.'.{.^.R...-     o = A.T.0.*.%.0.| | | K ",
"o , A Z.tXW.L.K.G.G.q.$.X.5.w.0.K.A.0.w.H.0.A.~.Y.'.9X,XQ.R.R.H.~.R.Y.R.G.q.G.d.G.R.Q.^.R.].E.%Xx.1.%X;X) ) ) 8 c 8 8 g ^ c g ^ 1.1.x.E c @.^ O.0 R E 1.U 5 @.{.lXfXL.#.w 0 x g.<Xg._ <XSXDXxXaXO.U =.t.o.( /.s.q.;.1.Q 6 Q J.#.{ { ;.o.x @.#.Q r E.lXfXW.g.@.w i x 9 & p p X.s.=XzXFXFXGXBXNXvXMXJXBXLXKXKXKXUXAX!.`.XXXX.XN.b.B.XXm.B.M..XZ.P.h.`.S.v x a.&Xk.O.~ /./ e R / r.*X;Xi.) ) t.i.3Xl.^ } r 9 u u o o o # & = = # 1 u k a h l l l v v v u u l v D F ......%.%.*.%.X.%.0.q.G.R.].R.H.L ; .   . < Z.U.*.*.=.=. .' D G ",
". , d w.dX:XR.].Q.U.A.%.*.A.w.H.K.U.0.A.T.U.R.^.'.'.U.Y.].eX}.Q.'.^.^.^.^.^.].^.e.Q.{.}.^.].W.%X/.t./.-X_ O.) 0 b 8 w f ~ c g c 1.1.x.E / a.O.O.w W o.#.6 4 7 o.qXkX&Xs.s 7 W k.%Xz.;.%XxXxXlXuXk.0 $ b W r.%X+.' ! u.y.+.-X<X1.} 7.( _ R { b 5 0 s.aXfXt.+.@.s i s 9 * u D a.OXjXMXMXMXpXMXMXJXBXJXLXJXGXKXIXSX[..XsX[..XN.m..XHXHXB.B.B.m.P 5.e.D.C.S S 1.&X/./ E /.~ 8 c ^ t.@X*Xy.) ) t.i.3Xl.^ } f - u j X o O o o O - 1 q q u k h h l v v S D a i l l v G H  .2.2.X.} 2.2.*.*.5.e.d.Q.^.U.M -     . = Z.T.5.q.q.H.%.G D | ",
"o , d Z.wX1X,X,X^.K.0.0.A.A.A.K.K.A.5.K.~.^.^.R.'.'.G.d.^.,XQ.^.R.Y.'.{.^.{.eX^.5.G.,XR.d.j.J.W.x.t.%X&X_ ) ) w M 0 8 g } c g ^ <.1.v.E [ 1.) } w s o.Q 4 5 @ 0 G.0XqXj.W 0 W W.W.s.r./.jXNXSXaXW.n + + @ R E.o.x s.u.;.! =Xz.5.} @.Q +.o.' * + 9 7.fXzXW.>.1.c s i * , u 7.y.5XvXMXBXMXBXKXJXJXBXBXLXJXKXIXKX[.`.F.F. XVXZ F.PXPXHXZXM.n.B 2 %. .P P V d 6.%Xx./ ^ _.} f c ) t.@X@Xy.^ ) t.i.3Xp.^ } k - u u o O = = = , 1 1 k k k k k k h k v v D a i l l v D n 2.X.X.| ..5.4.%.*.*.w.e.K.Q.G.H = X   o ; D.T.G.e.d.5.| [ | | ",
"o , d Z.eX8X2X].Y.e.0.*.[ 0.~.K.G.H.U.~.R.T.R.~.Y.^.{.}.|.^.^.^.0.5.^.|.R.Q.R.R.qXeX}.G.s.j.Q.&Xx.y./.&X( ) O.8 W 0 e g / g g E <.9.v.c ~ h.O.} w 0 ' s 4 5 4 5 b s.,XW.O.z R k.g.+.1.c.fXSXHXfX/.[ % % 4 4 t s o.E.r.;.;.%Xz.@.{ O.o. .s % X + 9 8.dXzXfXW.1.W s i * < M r.OXjXMXNXMXMXKXJXLXGXBXJXJXJXPXPXsX[.C.F..XB.b.Z ZXPXDXAXwXZ C : A $.A 2 B 2 2 2._.x./ ~ /.} w c ) i.@X*Xy.^ ) r.i.3Xp.^ ) w 9 y u o # = # - - , q k m k S D K L L K F G v l q i K $.w.U.2.2.2.....m $.%.%.q.q.Y.^.A.m ; . .   = Z.U.K.G.q. .G G v a ",
"O 2 d Z.8XqXaX{.d.5.*...H ..A.U.%.0.U.A.A.Y.Y.H.G.R.eX9X|.].,X^. .5.H.G.K.K.d.R.tXtXQ.H.e.7.a.W.l.t./.<X+.O.) 0 b 0 8 g ^ g g ^ <.1.x.E E } / >.9 w ' 5 4 6 y % t U s.:XE.{ W x.g.) +.z.iXxXDXlX).[ % + 4 5 5 4 5 t s Q ( ;.%XO.o.@.s 5 + X + @ 4 } aXzXfX&Xa.E f ; * a q.r.pXvXvXNXiXMXJXLXJXBXJXJXLXLXIXlX[.F.[..X.XN.Z .XPXxXfX}.A V B B B > : : : 2 S 2.&Xk.Q ^ /./ f c ^ t.*X*Xy.^ ) <.y.uXl.^ } w 9 y p # O # o O O - q k D L H L $.4.4.2.$.G v l - 1 | 4.A.R.,.2... .M u | X.X.5.G.^.~.*.k = .   . < Z.R.L.G.*.G D D l u ",
". > d 3.8X<X1X'.H.q.G [ ..X.e.A.G.U.U.A.K.L.K.K.R.K.L.'.wX'.^.Z.G.Y.Q.R.^.^.Y.^.}.Y.e.q.K.Q.,XW.g.t.).uX<.) ^ 8 G 0 7 g ~ T g E <.1.k.E ~ 9.) } q s x 4 @ 4 U 4 t s o.]._.O.o.).W._ ^ g.3XzXSXfX).{ % + 4 5 6 6 6 5 4 @ 5 6 O.s.#.0 + % + @ 4 4 4 { 2XhXfX>Xg.E i 9 - X.g.OXvXbXBXGXjXBXJXJXMXBXLXKXIXIXPX[.[.[.[..X.Xb.Z M.ZXlXJ.V V B N C b.N : : > d S 6.:Xl./ ~ %X{ f g ^ t.@X@Xi.) ) t.i.<Xi.^ } h 9 y y X O O # O = O - u k l i h F K D l F D l l y u k D $.0.2.2.L L n h K X...%.w.^.A.G ; -       , Z.T.q.q.%.H G a v v ",
". O , 4.XX|.2X{.e.%.D H $.5.w.K.S.R.Y.U.U.G.0.q.q.G.e.U.8XR.' D K.R.^.{.^.Q.Q.'.Q.Y.*.v K.,XaXW.i.>.v.uX<.) ^ 8 M 5 e x ~ g g E <.1.k.M ~ <./ } 9 0 0 @ @ 4 U t 6 U s E._.g.a.z.k.} E 1.<XzXzXaX&X .* + @ 6 6 6 Y 6 4 4 @ @ 4 Q W + X + @ 4 4 4 5 M ).lXuX/.t.c i 9 v W.c.pXBXBXMXGXjXNXJXBXJXLXKXLXUXUXsX[..X[.F..XB.Z b.m.C.`.F Z C N C b.C N N B : 2 k 2.>X<X1.Q W.Q 8 c ^ t.@X*Xy.^ ) t.i.;Xi.^ } w ; y p X = , o o o # = - u - - q l k u 9 l v n D j l u k F | 2.L 2.2.n v | $.%.%.w.T.| i q ,       = Z.K.q.A.*.| S i D D ",
". O , 3.qX8X2XR.e.%.a $.w.U.U.A.L.T.U.K.K.0.e.e.G.A.q.G.Y.L.R.U.G.A.K.L.q.7.q.q.q.H.G.~.e.7.L.c.i.>.v.<X:.) } f M 9 8 g ~ c g E ,.<.j.c ~ 9.^ } 9 y @ @ @ 4 t ] 6 t t *.E.:X/.9.@.Q R >.&XhXlX3X).q.s + @ 4 6 6 6 6 6 4 4 4 4  .@.* + + @ 4 4 5 5 w E.fX:Xx.<.g i q d.<XiXBXBXBXMXiXgXBXMXBXKXKXLXIXUXlX`.F.XX.X.X.Xb.d b.N.d Z Z C N C b.C C V B V B : , 2.:Xv.x Q %X/ q g ^ t.*X*Xy.^ ) <.i.;Xi.E { w y y y X o # . o # = - = ; u u < u u k u D | | H H K l u u k k n H D D $.$.%.X.2.0.G.v - - =       = S.U.G.H.X.[ n l D G ",
". O 3 w.wX8XqXL.0.| D &.%.q.A.U.K.A.A.K.G.e.e.G.K.e.e.K.w.G.8X8XY.K.e.q.q.7.*.=.d.L.{.].e.5.d.k.h.>.x.&X>.) ^ w b 0 0 x ~ T f Q ,.<.h.c [ O.) } < 5 + @ @ 4 5 ] t t e W @.0X<X9.) c E O.&XhXhX<Xg.a.a + @ 4 4 6 6 Y 5 4 @ 5 ' #.) [ s $ @ 5 4 6 4 w E.fXuXx.@.z < m dXlXBXBXKXBXBXvXBXmXBXGXKXKXLXIXPX[.F.[.XXXX.XB.m..XP Z b.B.b.N N C C C C P V B V B > 2.*Xv.,./ /.{ q g ^ t.v.#X:.) / <.i.;Xi.^ } i 9 y p O o o o # = = < - q ; ; - 9 9 ; u F %.G D $.&.a y u u 1 k k v J $...$.2.w.w.q.v * = =     O 3 Z.S.K.K. .M v l v n ",
"o , d 4.|.,XtX|.L.S.!.w.5.w.R.T.e.G.A.A.A.S.A.w.0.A.'.`.A.L.R.0.q.w.q.G.K.e.d.L.K.K.d.e.'  .8.k.g.>.x.<X+.) ^ 8 c q 8 f ^ g g c ,.,.h.c M / m } y % + @ @ 4 5 Y ] 6 6 5 M qXaXh.~ E E E v.lXjXaXx.@.i + @ @ 4 6 5 6 4 4 @ *.@.;.r.:.<.W 4 5 5 6 5 s E.kXfX/.} z ; S.HXUXUXUXPXPXKXNXGXKXKXIXIXIXUXUXeXF.F.F..X.XB.Z .XSXM.Z n.N.C N C C C N 2 P V B Z B 2 X.&Xx./ ~ /.{ 8 z ^ <.v.#Xy.^ ) >.a.;Xi.^ } f 9 y p o o o o % O = = = u i # ; l k a l G ..| K &.$.F D H H v n S k k G K ..5.A.G.A.F # o O . . O 1 4.0.K.G.q.5...4.$.L ",
". 1 d &.D.^.tXdXeX|.}.U.w.R.,X~.A.G.G.H.A.e.G.w.5.].8XL.L.H.q.*.0.=.q.q.q.*.d.L.e.7.*. .z b X.z.g.>./.<X>.) ^ w n 8 q g ~ g f ^ <.,.a.c [ h.) ~ ; X + @ @ @ 4 6 ] Y 6 4 z 1XaXx.Q } Q f x.kXzXaX&X#.w + + @ 4 5 6 t 5 @ s E.) c.p.:.y.1.e 4 4 5 4 s L.&X3XW.W q u D.sXSXHXPXUXIXUXUXUXUXIXIXPXPXPXdX!.C.!. X X.XN.P sX1XF.M.b.n.C C n.C N Z m.A 2 V V V > ..&X/.~ Q )./ 0 x ~ >.@X;Xi.^ ) t.i.;Xt.T ,.w y y a o o o O O # o # - 1 i # i K K F v v | ..K | %...$.2.L F H v k k k K | 5.A.G.w.k o o o   . O 1 4...K.'.'.U.A.A.%.[ ",
". 3 A L 0.Q.rX0X|.R.w.K.~.'.}.H.Z.A.A.w.%. .5.%.U.wX8XR.Y.L.q.*.q.w.q.q.5.7.K.q.q.e.@.*. .*.W k.g.+.W.<X>.) ) w x 0 7 f ~ g f c @.<.9.g m / / H * X X + @ @ 4 6 Y Y t 4 w E.aXk./ a.@.g k.fXlX<X).1.i + + + @ 4 4 6 6 @  .g.y.@X=X:.:.l.W @ 4 6 4 v #.&X3XL.W * S F.!.`.`.`.XXsXsXsXsXsXsXsXsXsXsX`.V.C.F.F. X XZ m.lXP.M.Z b.b.C b.C C C P V.&.j V V B B L /.&X@.~ E./ q g E r.@X-Xy.) ^ t.i.;Xi.c } q 5 y a o o o o O o o - u i j k v D G 0.0.| | &...| &.K K L L | $.H v k n %.0.H.R.0.G 9 O O X   . o 1 3...A.'.R.A.X.2.e.w.",
"O 2 A I H.Q.,X].P.K.K.0.wX}.w.5.0.Z.%.%.$...| w.sXaX|.R.R.U.*.*.q.*.q.w.7.q.e.8.q.e.7.*.q.5.n k.g.1.z.-X_ _ ) 8 c 9 - f ~ g g c } } 9.g m 6.) H =   + + @ 4 4 4 6 Y ] 4 5 5.0XE.1.1.<.m x.aXfXy.a.e.0 X + + @ 4 4 6 5 @ @.t.y.*X;Xp.:.p.@.@ 5 6 5 w 7.kX<Xr.v 1 m.C.M.F.[.XXF. X.XXXXX.XXX[.[..X!.M.m.M.F.F..Xm.Z I sXC.m.C N.Z C C C C Z A V.V.A 3 V B V I (.x.c c x.~ q f T >.z.@Xy.^ ) >.i.*Xi.c ,.f y a a o o o o X . # k k h k n v a G Z.Z.K H %.%.| | | ..2.L L | n j u v A.G.^.].X.i * % & . . . = 1 3.4.A.~.L.X.| | 2.L.",
"O j S L | e.1XI.^.'.5.A.'.U.w.w.Z.=.4.%...$.5.H.~.H.G.Y.^.Y.A.A.w.G.H.A.5.2.5.X.q.5.5.K.~.Y.5.k.g.+.z.<X+.) ) 8 M 0 7 r ~ g f c O.O.9.g M / M ~ * X + + 4 4 4 4 4 6 Y 6 @ x I.W.k.o.} R k.aXhX_.@.5.i + + + + @ 4 4 6 4 ' a._ y.p.u._ r.o.+ 4 6 4 9 L.hX%X<.i S D..X.XF.XXXXF.F.F.F.M.B..X!.[..XM.F.F.F.m.!.m.C C P }.V.Z n.N.C b.b.N C F.F.I I J A V V B L W.k.[ x E.~ w f E >.p.@Xy.) ( r.y.-Xi.T ,.w ; h p o o O o O o # - ; j v D v D D | K G H *.w.| ..%.$.$.| L $.F h n L R.R.^.^.X.q q # & .   . = , J L U.^.K.w.2.$.5.U.",
"> 3 A J D 5.0X8XwXR.A.U.K.U.A.A.S.*.$.....0.~.U.w.G.^.'.^.^.G.w.q.Z.w.w. .2.2.X.5.X.q.R.].^.L.k.s.1.k.>X_ ) o.0 W 5 7 r c c f ^ } @.9.g M } ) H * X X @ 5 4 @ 4 4 6 6 Y 4 9  .^.Q.^ W c a.3XhXaX7.M i + X + @ @ 4 5 5 t 0 s.r._ :.! T p.D + % 5 4 e Q.fXW.O.a 3.XXF.F.XXwX`..X`.sXXX XXX X.X.XXXXXF.M.F.C.!.P C C % m.m.C m.C C n.C N Z F.V.I I S S S V 2 I (.y.c x x.~ q g E >.z.%Xy.( ) 1.a.-Xi.^ <.h 9 q a % & o & = o # $ q h D K G G D F K | %.w.0.%.| %.%.| K K | H k G [ ^.^.Q.Q.[ q ; - = o   o = 1 k k A.{.Q.K.%.%.w.D.",
"= d j L $.0.8X|.].R.w.G.A.A.A.w.%...$.| =.!.^.Y.5.q.A.G.~.R.Y.w.5.|  .%.n n ..5.X.q.H.H.Q.E.k.k.a.+.l.>X>._ ) e ' 0 7 r c g f ^ } <.9.c M 1.o.W 9 + X % 5 s t 4 4 4 5 6 4 % W {._./ c x 7.<XkX3Xe.x y + X + @ 4 4 4 5 t 9 { >.) ^ ^ +.@.9 X 4 5 4 0 W.rXx.[ F F.XX.XF.[.[.F.F.F.sX.X.XF.XX.X.X[.[..XM.F.XXXXM.C N : N Z C m.C b.n.C C Z V V.J I F V 2 V d $.(./. .x k.~ q v E +.z.%Xy.( ) 1.y.%Xt.^ <.w 9 y a o & & o o o o $ u h n G G G D [ | | %.H.w.%.| q.H.%.F G K n l [ %.P.E.].].[ q q - = o   . > 3 l S Z.U.d.G.$.| $.%.",
", d A J G 0.'.'.}.'.%.Z.5.%.0.5.G D $.*.~.^.Q.~.w.q.q.w.G.~.{.Y.0.[ $...D H ..e.q.K.Y.Q.R.L.H.k.s.+.k.>Xr.) / 0 b 8 5 g c g g c } O.9.z c @.O./ q * 5 4 4 5 U U 5 4 4 5 5 + s Q.Q.} Q r <.3XkX3Xj.M 9 + + + + 4 4 5 6 t t 5 x <.@.O.a.y X + 4 5 @ s W.3Xx.m I  XXX X.X[.[.M. XF.XX[.F..X X X XF. X[.XX!.Z.P m.m.B : V C n.b.B N.C C Z M.F.Z.3.J J 3 2 P V L ).t.x m x.E q g c _ z.%Xy.( / >.t.%X:.T ) f 7 y a * # O o X X o $ 1 h n G D S D [ ..$.%.H.U.*.*.=.D.%.| H K l v ..0.L.Q.].R.M u - - = o   . = 1 A D 0.G.e.K.X.| G K ",
", A J J L w.[.[.|.}.Z.&.%.$.A.C.G | %.H.eX9X^.^.H.A.K.A.L.U.R.R.4.2.L L H L 8.e.P.P.P.R.K.I.L.k.s.@.W.>X+.( / 0 n 0 5 r W g f c ) } 9.g m ,./ ^ q 9 5 5 4 @ 4 6 s 5 @ 4 % + i 7.J.@./ x 7.rXfX3XI.~ q + + + @ @ 4 4 4 6 U 6 @ 9 y w * X + + 5 4 @ s W.rXk.b C..X X XF.[.[. XF.M.XX X XXXXX.XXXsXXXXXXXm.V.Z N b.Z N N C b.C b.N.C C b.P I I *.P F S A V d K _.&X{ M x.W 9 x ~ ) g.c.y.( ^ >.r.W.r.E @.w 5 0 p # O O . o = = 1 k s D G G S G | | G G  .X.*.q.A.T.%.| K F G G *.K.I.'.'. .< i q - # o   . , d n S e.T.d.K.5.| D a ",
", j J J I 8.R.T.|.|.%.$.S v %.%.| *.%.Z.eXtXeX,XH.G.A.K.e.K.L.A.w.6.2.L n 6.D.j.S.P.Q.R.d.H.s.j.s.+.k.W.+._ { e b 5 8 f m g f c } } 9.E E ) / ~ 9 9 s 6 t 4 + + * @ @ @ % + 7 b 9.9.O.x a.3XrX).k.{ i + X + + @ @ @ 4 4 6 t 4 4 5 s * + + @ 5 5 @ s ].3Xj.D `.XXF..X[.[.F.M.B. XM.m.M.[..XF..X.XM.N.B.b.b.b.C C C N : V b.B m.C C n.b.C.D.&.A I F S A F 2 $.W.k.c E E.Q 7 z ~ ) t.c.r.^ ^ O.t./.r.E } w ; y a # = # o o u k k k a D G F D s D | l v b ' d.G.H.R.X.G H H $.*.e.^.[.R.L - ; q ; = & o . . , 3 j D w.P.e.G.*.| D u ",
"O A J I 4.Z.R.'.8X`.4.| | *.~.^.U.Y.'.|.9XeX8X'.'.U.A.d.w.K.A.w.w.L G D G 0.2.e.K.P.P.e.d.L.E.k.g.@.l.%X+.O./ w b 9 7 f M g g c / } 9.c ~ 9.>.~ - % 0 7 $ 4 * + + @ @ % % X + s @.L.O.E k.3X3Xg.@.' a + + + + + + @ @ @ 4 5 6 6 s =.| 4 @ @ 5 4 @ x &X:X} F  XM.M.M.!.[.M.M.M.m.m.B..X[.XX X.X.XB.n.n.n.n.n.n.C N : : B Z b.n.n.N.C N P V.&.J P 4.F F V V L ).c.,.~ W.{ 9 f W ) r.x.r.) ^ o.>./.t.E @.w 9 y a & # # . # = 1 - ; l D D | ' K D a a [ X.q.K.R.d.G.*.[ ..*.5.0.d.^.8.k = - j l q - # o   X = 1 F D w.U.K.P.q.| D a ",
"O j A J 4.A.'.|.8X'.S.&.*.G.wXZXtXwXwX9X9XeX0XwXeXU.w.5.0.L.R.K.e.L v L 2.L | e.X.0.L.K.H.L.R.k.s.1.g.%Xr.) / 8 b 9 7 z m g g c } @.<.c [ 1.^ ~ 9 q g ) s + % % + + + @ @ # + 9 } ].@.O.k.rX>Xt.{ { i + + + @ @ + + @ @ 4 4 5 6 ] U t @ @ @ 4 4 @ W k.L.G P M.M..XF.`.[.M.M.M.XX XF.[..XCX Xm.N.n.n.n.n.C C n.C B N : V b.m.n.n.b.N B B N : p p 4.I j 2 2 L W.x.,.Q W./ 7 z E O.t.l.r.^ / ) O./.<.T { w 9 y a X o . o o # O o - a D K | | | G v | 4.5.e.R.Y.d.e.0.*.w.e.e.K.Y.e.m q q k h k q ; O . . . = j J H S.S.K.S.0.$.$.H ",
"O 3 A J 4.S.|.Y.S.S.w.| 2.e.0.d.XX^.R.Y.|.|.].|.'.e.w.5.X.5.K.q.2.h n $.4.S.A.6.5.e.L.U.e.L.I.k.t.<.g.x.+.) ~ 8 n 9 7 f m g g m ) ,.<.c g ,./ / 0 z ^ 9.z - @ @ @ + % + % + # 9 2.E.9.O.z.aX>Xt.@.@.y + % % 5 5 @ + + @ @ 5 6 t ] 5 @ @ @ 4 4 @ $ c a.a.k V M..XXX X[.[.F.M. X`. Xm.M. XB.m.N.b.n.n.C n.C C C N N N : V b.B.N.b.N N C Z m.F A F F S 2 V 2 I W.l.o.~ W.~ 7 f ~ O.t.t.>.^ ^ ) <./.>.g ) q 9 9 a # o o # O = - - k v D G | K K D | [ | 0.e.I.d.e.d.6.| e.K.L.R.L.H k 1 - q u - - = # .   . = k F L Y.U.*.X.....L $.",
"o d A J &.U.8XS.i G Z.Z.w.w...0.q.G.0.w.U.G.K.A.K.K.0.[ M X.0.2.[ v 2.w.T.U.d.e.P.I.K.T.R.L.d.g.a.>.y.x._ ) ^ 8 b 7 4 8 f w f c / ) 9.m x } ^ / 9 f M a.x y + + @ + + + % % + 9 X.k.a.^ k.fX3Xg.@.@.i + % % U U 5 @ @ + 4 4 6 t U 6 @ % 4 4 @ @ $ x k.d.k V M.M.m.M.F.D.F.F.C.3.F.b.b.N.m.b.n.b.n.n.n.C C C C N N N : C N.B.n.N C C N P V.A F F S F p j V K Q.g.^ E E.W 9 w c } >.t.>.E ~ / / v.>.g ,.w 9 q p # # # O - u k k v H H D F | ..| %.F G D b M 2.A.~...w e.K.R.R...; - w k q - = = O . . . . = j G ..K.A.a - G $.%.K ",
"> d A J &.A.U.H # L w.2.0.2.2.2.@.w.*.%.*.*.5.5.%...[ [ ' X.[ } M M X.0.8.0.w.U.S.5.w.L.K.5.} a.t.O.t.x.) ) ) 8 m $ - 7 q 8 w g ~ } <.x r ,./ ~ 9 9 ~ s.{ s % + @ % @ 4 y + % y [ {.j.E ).fX3X).1. .0 X + @ 5 U U 5 @ + @ 4 5 6 ] t t 5 4 @ + @ @ b k.q.j 2 M.M.I C.P.C.C.M.P M.F.b.b.Z Z b.b.b.n.n.C C C C B N : N : B B.B.C Z Z C N V P A ' F K F S p 2 I /.g.O.Q W.W 9 w f ~ <.>.>.E ~ / O.I.>.c ,.8 q q k o o # - # 1 k k h v v a G | $.l n F G D D n L 2.6.i h ..H m n ; ; - 1 u - - O # o .   . . , j F | $.| * 9 H K S H ",
", A J K L $.G ; h D G h h ..e.e.Z.=.| '  .%... .[ [ [ [ H %.} X.X.,.X.5.X.X.5.%.a v 5.2.%...[ a.t.>.i.g.) / / 8 m 7 $ - u H f g / } ,.g v } ^ H $ # q b z q $ % + % @ * % X % 4 %.3Xj.~ I.<X<X).a. .a X X + @ 4 6 t 6 % 4 @ 4 4 U ] f.s @ @ + + + v @.@.k > P M.M.F.!.8.3.3. XM.C.Z b.Z Z b.b.Z C C C C C C N N N : : B B.n.B CXF.N C N N F Z.!.%.L A p 2 $.W.&X1.E W.Q 9 w f O.k.O.<.E E } >.v.>.g ,.w - 1 k o . o O # - - q j a D D D K n < ; q q u l j 1 - 1 < j k j k u j h 1 d u 1 # o o . .   . O 2 j S J D l 9 i S a u a ",
"d j S S j J D - 1 l S D H 4.S.D.4.2.G m K | | L K %.2...2.6.2.0.2...L | K | | l F $.L L J H H a.1.<.t.g.^ ^ ^ 8 g 9 7 $ q z w g [ ,.,.f x M c ~ * X + @ % % @ % % + + X X + 9 * 5.qXI.} ,.k.:Xk.9.[ w X X + + + 4 5 6 5 5 4 4 @ s U ] s @ + + + + i ~ @.n = Z m.M.I w.Z.3.m.M.!.M.Z Z Z b.C C C C B B B B N : N : : : B B.C V CXm.B B N V C.2.w.5.K y 3 3 | _.&X@.^ W.{ 9 i M 9.^ ^ O.m M } >./.>.c } f - ; k .   X o = # # = ; p a p a p 3 ; = = = = , < < = - ; 3 1 , < - , - = O O o . . . . . o O = , d 3 j a ; # ; j h k v ",
"> d S A 3 , O O o = = ; k k n d 1 1 1 1 3 , 1 , 1 p 1 u k 1 u j q = ; ; < < = = j u - , , = q 1.<.) t.g.) ) ^ w v q $ 9 H i M [ M / ..f z } } M & X + 0 t s 0 @ @ X X     + % 4 ,._.9.M f 1.x.a.X.' y X X X + + + @ 4 4 4 4 @ 4 t e 4 @ + + + + @ w ~ 7.M = Z P I I 3.Z.&.F P P m.Z C C C C C C N N N : N : : : : : : N N.C Z B.V C N : 2 C.C.Z...F F 3 j | W.E.O.Q W.[ 9 0 @.9.h.).^ ~ ~ ^ <.).>.^ } w - 1 u .                 . X .     X X   .     X . . . . . . X X   . . .   . . . . . . . o . o = = = o o O o X X O = = , ",
"d d d d d d , , , = > 1 2 3 = O O O # O o . o o   . X . o X .   . . .               . . X X = 9.1.O.t.g.) ) ^ 8 z 9 $ $ q z [ x m } } f n [ M M % X + 4 5 t s t 5 X X X X % 5 * 0.I.9.w w 8.1.X.' G y X X + + + + @ @ @ 4 4 @ @ 5 t @ + + + + + @ 9 @.a.~ = B m.M.P 3.8...I m.P I Z C C C B B N N N : N : : : : : : . N b.C N.N.C B N : : Z P K $.F S d 3 [ E.@.W W L.M $ y @.,.8./ m c M / ) v.>.c ) k 9 y j                                       o . . . . . . . .     . . X . . . o . O O O = O = = , , , , < = > , = & = = ",
"S A A S A J A S S A d A A n 3 d 1 3 2 1 1 , , , = , , , , , , O o . . . o o O O O O O O O & ; 1.t.O.t.l.+.^ ~ 7 v 7 $ $ i w G z z ~ / h w M ~ ' = % 5 s U t t 5 5 + X   X % 4 0 @._.d.w M ,.o.~ s v 9 X + X X + + @ @ @ 4 4 5 @ % 0 + + X X X + % 9 =.L./ < 2 Z Z P 2.w.3.C.3 m.P B C C N B B N : N : : : : . : : . X : b.n.B.n.C B N N N N V V.2.L F 1 2 I E.g.W b k.b 9 8 [ 1.,.} ,.~ ~ ) +.x.>.g ) f q u p X                         . . . . . . o O o o o o O O O o O O o O o o o > , , 1 1 1 , 2 , 2 , , 1 3 , 1 , 2 , , , ",
"J I J J J J F J J J l S J I I J S k j S A l S F S A A A j S j 3 3 , , , 2 1 1 , , = = 1 p u u 9.t.O.s.g.( ^ ~ 7 v $ # $ w z b w M E  .f h [ W ~ % o 5 6 5 5 U ] ] U * X X % @ 9 X._.8.x ' ,./ x s i ; + X + + + + + + + + @ 4 @ y t ' y + X X @ $ 7 =.k.o.h > Z m.M.2.6.J C.I P V B B B N N N : : : : : : : : : : .   : n.B.n.C N N N N B B Z I 3.J J d : J I.k.M c j.c - w z ,.,.~ ,.~ / } <.x.>.g } r 9 y j X                         . . o o O & & = & > > , 1 = = , , = , , , , , 1 , , p 3 d 1 1 , 1 1 3 3 1 , 1 = = , 1 1 ",
"L &.$.$.I &.3.3.$.J F L L L $.L L H L $...I L I K K K K L L F S d d d 3 j 1 , p 1 j j k S S G 9.1.+.t.s.Q ^ Q 7 s * # - v q v b x ~ { z w b c M % X + % 5 t t 6 t t t @ + % @ 9  .I.X.b M o.} ~ s 0 ; X + @ @ + + + + + + + + @ 5 s =.s + + + % % 7 #.k.} z = B Z I $.8.I I I I A B N B N : : : : : : : : : : :       N B.n.C n.n.N.B.N.N.m.b.V P P A V : S k.9.[ b I.n 7 h 2.d.9.} ,.^ ~ / <.v.:.g { i 9 y j X                   . X o # & = = * , , < 2 3 y y 3 k p u 3 3 p p k d j j j j p p d k d k j u j u 3 j l j u j j j ",
"~.T.!.`.'.~.U.~.'.`.T.U.~.'.}.'.`.'.[.}.8X|.|.!.w.A.}.9Xw.4.3.n j j , 1 j = F Z.A.Z.w.w.w.2.e.a.1.+.r.l._ ^ Q 7 v 9 + i v 9 G b m ~ [ z h 2.~ M & X % 4 $ 0 t U Y -.` ] U 0 @ 5 [ q.{ M b } 1.@.v y * X + 5 6 5 4 @ + + + @ % @ 5 t a y + + + % % 9 ' a.Q x & 2 Z P I 8.3.&.P A C.M.V C B : : N : : : : : : : : . : : m.B.N.B.B.N.N.N.N.B.B.B.B.M.P V Z B A K.E.} M I.M 7 h } ,.) 9.h.H ^ ) r./.r.g { w y y a .     X o o & = u u 1 1 u l S k k v A F F K ..$.$...3.2.4.4.$.4.Z.L L ....%.2.4.$.w.4.2.8.Z.0.w.4.2.w.4.2.&.2.$.$.",
"8X8X,XtX0X|.}.].|.|.|.|.|.8X|.1X1X0X|.2X0XeX0X,X{.{.sXeXw.0...j j , o 1 j L D.[.|.'.'.[.R.e.j.1.O.O.t.W.+.E c 7 v * % q 9 q w w M M { z r ~ E W % o % @ 5 5 t 6 -.] Y ] -.U @ % D X.[ M M @.s.*.s a * X % 5 s t t 5 4 @ + + @ + % a % + X + + + + $ W =.b h * : Z Z P e.4.3.I P V I P B N N : : : : : : : : : : . . C B.B.VXB.N.b.b.B N N B C C Z B N Z Z J d.a.W M I.x - n ~ ,.8.<.,.^ ^ ^ >.W.:.e [ s y p a X   X o & = ; j v H D a h K | n n v v D F ....&.Z.4.0.U.U.R.R.R.Y.6...2.X.w.A.U.A.S.S.S.S.T.S.S.U.0.2.S.U.K.w.0.e.",
"0XqXqXqX0X:X].].,X,X8X,X].^.].^.[.[.L.w.w.Y.,X8X,X}.|.Y.*.*.D ; 3 > O 1 k w.D.|.}.I.K.'.^.^.'.d.O.) +.f._ E s 7 i % # $ - q q z M E } z z ,.^ M $ @ @ @ 4 @ 4 U Y 6 6 Y -.-.U t D |  .' s { a.*.b a % X X + @ 4 5 5 5 5 @ @ @ + % s 4 @ X X + % + # b q.' i 9 : C Z P 8.8.S P P A P m.B B N N : : N N B N : : : . : b.B.B.N.B.N.B.VXB.B.C N : : N Z C B V P j.k.L m k.z * l M 1.k.a.( ~ ~ ( ;.c.>.g ~ w 5 2 p X     X o * u a h D F D G | %...| | %.%.$.$.$.%.=.0.q.R.Y.H.G.q.w.w.=.=.X.0.Z.%.%.2...w.T.U.d.R.K.G.e.G.L.K.K.e.e.",
"}.|.9X8X{.,X,X|.^.R.Y.R.R.L.I.R.(.U.v v G %.|.wX,X^.U.*.%.*.b , o o , 1 L P.(.|.j.2.R.'.`.|.R.7.1._ t.2X_ r r 7 0 $ $ - $ q n  .x W } f w M ~ x * X X @ @ 4 5 t 5 5 4 6 U Y -.-.-.] ' U b | *.X.v a & X X + + % + @ @ % 4 @ @ @ 5 s 4 @ + + + % + # z @.{ s * O B P I 3.w.m.P F.C.m.P B C B N N B N N B B N : .   : m.b.B N . : N Z N.VXVXB.N : . B Z Z B S a.8.v f j.b 9 s @.7.s.j.>Xg.E ~ @.z.r._ ~ w % y j X     X # = ; i l D H | $.&.w.D.H.G.q.w.A.=.%.*.X.X.*.H.R.q.7.*.*.5.0.| G *.w.D k k G S.T.K.G.K.Y.Y.K.q.q.*.X.@.5.",
"w.A.K.L.^.^.I.R.Y.G.K.R.G.e.G.U.T.w.....| %.!.H.Z.A.%.0.U.G.%.D o O d k w.[.|.1XR.R.{.8XT.[ v 1.1.) x.3Xg.x r - y # ; ; $ - G n M ~ { z z X.c m %   + + @ 4 6 @ @ @ 4 @ 5 5 5 Y ] -.] ] U ' ' ' a y + X + 4 9 @ % + + + @ + + + 4 t t y + @ @ % + # i M ' v ; o B P I 8.Z.I J C.P V C C C C N C C C C N N N : : . : V > A [ %.2.' 2 N b.N.VXB.n.Z B C Z Z A 8.} c n j.x * v } d.g.s.Q.} E ~ +.c.fX&X,.w y 2 A X   X X # # # - i h v D G [ ..*.0.q.%.*.*.*.*. . .| X.q.q.X. .%.7.X.%.*.0.w.0.D v D K 2.3.5.$.5.K.A.5.5.*. .X.*.0.",
"v G [ e.^.G.q.q.=.G.~.'.~.R.~.!.%.5.S.U.&.$.L | | | &.H.~.~.G.D o , S D D.|.|.wX|.|.aXwXH i ' 1.@.) 1.E Q Q w 7 q % $ # # q v h z M / f w ~ c m $ X X + 4 4 @ @ @ @ @ @ @ 4 U ] Y -.-.] -.#.R s s y % X X + 4 5 4 5 4 % + @ @ + % t ' b @ @ % @ + # q b W b y o > Z I 3.Z.J M.3.I m.Z C C B C B C C C C C B N : . . 2 D.2X2X<X).>XH.D N b.b.N.B.B.B.N.b.C A e.8.M x k.c 9 x W =.s.a.E g R E O.x.J.c M 9 % y a X o O X X X # = ; < i l h l D [ ..%.*.q.=.*.*.' |  .X.| [ | X.0.w.*.%.=.A.Z.%.H S l h h h i n &.A.X.[  . .X.A.G.A.",
"| 5.5.5.G.K.5.w.G.Y.R.U.A.A.4.%.F ..*.Z.%.| | | L G | 5.A.U.*.v X 2 n J ~.].].,X'.~.|.Z.a G *.7.+.( ^ O.g R 8 $ q $ # + # = - ; x M ~ f w } c g $ X + @ @ @ + @ @ @ 4 4 5 U t 6 6 Y 6 6 ] -.-.-.-.Y 5 % X X + + @ @ @ @ @ 4 @ @ 5 t s 5 @ @ % + X + < b W n 0 # > Z I L 3.J M.A M.I Z C C C C C C C B B B N N : . . A 1X&Xv./.v.<XuX<XJ : Z C C n.B.n.C B S 9./ M b k.W 9 z s W 1.7.~ W c ~ +.k.M } s # ; y a X X o X o o # - u u a h l l v G  .| ' *.%. .| G D D F ' | %.5.0.5.%.%.$. .X.| K v k l l F L [ %.%.| '  .%.=.q.*.0.",
"A.D.w.w.e.8.@.5.q.2...G *.&.F l D D D | D.*.G F G v G [ *.*.%.a . O d J `.L.e.K.L.U.G.X.| *.*.t.+.~ / ) x f 0 % q $ % & # # - r M c / f f X.c v * X + 4 + + @ @ 4 4 4 6 s 5 4 5 U 6 4 Y -.] -.-.oX-.] t 5 @ @ + % ; % % @ 4 @ 4 0 5 @ + + % + + + X y M W M i & > P M.L 3.J 3.J m.V C b.C C C B N B N : : : : N Z m.M.wXaXuX/.g.x.<XuXk.D B b.b.C C C B : S 9.9.[ x k.c 7 i H } @.1.{ W c ~ O.a.@.v 9 $ < y A X X o # o o # = q l l h l D v n D v v ' | G G G D D v ' F ..*.$. .%.5.$.G H | v u F $.$.%.%.%.| | ..|  .X.| D ' %.",
"0.Z.w.w.0.5.*.0.*.X.[ | A.4.u F F D D ..U.%.D | |  .L X.L.L.A.D X O 1 J ~.(.K.K.U.L.A.$...A.d.7.O.( O.o.g s v $ - $ # # O - - w c M } z w ~ z h % + @ @ @ @ @ @ @ 4 6 t 4 @ @ t 6 4 4 6 Y 6 Y Y ` Y ] -.-.] U G }.ZXXXK @ @ % b | b y 5 5 v o.H.=.0 9 b [ Q i # > V P I 8.P I M.M.C C b.C C C C C N N : : B C m.B.B.M.M.|.uX3Xv.<.t.i.).8.d V n.Z B B B : v 9.<.W c h.z $ k M ,.@.O.1./ E / ) } } w w 9 y y p X o O & o O & = q u i l l v F D D D G [ | n G ..H F ' G F | 4...X.X.%...G K | F v H K | %.......[ | [ $.| D D | 4.",
"*.*.0.q.q.q.5.5.G D 5.A.!.4.u l S D s | Z.*.%.0.w.2.2.0.K.|.~.F   O , F }.8X|.'.`.R.H v %.H.H.1.) ^ / } c z z 9 * # # $ - = - w z x / z s [ m u & + % @ 4 @ @ 4 4 5 5 4 % + 5 t 4 4 4 4 4 4 6 6 6 Y Y Y Y -.0XSXPXHXSX}.$ @ 9 Q s.k.f.%XyXgXAXzXyX>X#.R M R i = > Z I I 3.J P P m.C C C C B N N N N N V b.m.B.B.n.Z b.Z P D.dX3Xi.>.8.<Xx.L 2 Z b.Z B N > S d.9.M x h.z $ r M [ 1.@._.O.x ~ O.^ ~ 8 i q 9 y p O O & & o & & - ; u u l n l v v v G | G n ' D | | | %.%.*.5.5.2.%.%.%.H H K [ ..$.L G K | ..| [ K | K G i G 4.%.$.",
"$.*.0.5.5.5.X.5...$.0.%.K K u k l G H  .e.S.w.0.e.w.0.6.K.}.2.< . . , J {.|.'.'.T.H.*.$.Z.^.Q.1.O.E / ~ c x h $ * % - # # - - 8 h c ~ z f H z ; % X + @ 4 4 4 @ 4 4 @ + + + t 5 4 4 @ @ 4 4 4 5 5 6 6 Y Y $XHXIXPXPXdXk.=.s.&X5XyXgXgXgXhXgXnXgXgXnXfX*Xy.Q w $ O d P L 6.F I P P C Z C C B Z m.M.B.m.B.VXM.b.B.N.V N B Z V w.<Xv.<.<.{.x.[ k 2 Z m.B B > S j.7.b x j.b $ r M ~ @.) :XI.c ~ <.,.^ 8 s u y y j O O = O = = O = q u h l l h v D D F ' G G [ K G G D | =.&.=. .%.%.%...| H K | $.$...K G [ | | [ | | F F | | &.v a ",
" .| @.X.5.5.5.%.0.w...v ; u 9 a F &.w.w.w.e.6.0.w.e.8.w.Q.'.h $ . . = D '.|.'.R.%.| ..A.^.].,X7.) ^ ) ~ c ~ h $ - - u # # - ; 8 w m H f h H f q D M { #.=.1.=.=.=.=.=.@.*.a.s.;.=.a.a.s.s.s.s.s.s.s.u.f.f.zXHXHXHXDXuX-XiXgXiXgXgXgXiXgXpXiXfX5XfXpX5X;X;X&Xa.X.$.8.S.h.I.e.D.C.C.F.F.C.C.C.C.F.F. XF.F.F.M.J I C.m.J J P I H a.h.<.>.<.t.@.[ F P I J A l 2.E.j.b v j.x $ z H } ,.>.x.).} / 9.a.O.g q 0 9 y A O o o # # o # = q y i k a a l l n D G G D H H v l F  .$.$.' F  . .| | | | $.*.5.4...F G K | H G G D D | %.%.F y y ",
" .*.5.0.5.5.X.5.w.5.$.K a v v n | %.w.w.4.5.e.e.e.j.8.e.|.R.m 1 . o 1 n [.|.(.R.q.X.H.'.^.,X:X7.} ^ E.g./ [ 7 $ ; i $ # - u u w f m / f r } m 2.I.).&X<X<X3X0X3X3XaXaXfXfXrXfXfXfXfXfXfXfXfXfXfXfXfXfXfXfXfXfXuXaXiX3XuX5X;X3X;X;X;X;X;X;X;X;X;X-X*X-X;X-X-X<X:X<X).&Xv./.).).).).(.`.I.E.R.E.I.I.j.j.j.j.d.d.d.d.K.j.j.j.j.h.1.1.<.<.<.1.a.1.7.8.,.,.,.,.h.:X/.v z e.z % i 5.(.9.,./ h.9./ >.<.>.g n i * y j + . o o o o o = - q u u u i h D D D D v D G F q h | $. .| G $.$.| | ..| | %.*.%.[ H G D [ | | | | ' D | %.K K a ; ",
"X.0.q.A.e.0.X.%.w.A.A.$.D l F D | $.2...0.0.6.e.e.e.8.S.'.K.H h O O 1 L `.'.}.|.e.0.H.}.R.Q.(.1.} ^ g.2Xa.M w q q a # # # - q h f m ,.f h 2.9./.E.W.).)./.%X&X&X&X*X*X<X%X*X<X-X&Xc.<X<X*X3X<X3X3X;X*X<X3X;X<X*XuX).*X-X-X-X*X3X/.*X/.*X/.*X<X*X%X/.&X/.%X&X%X/.v.&X[.v.x.x.x.W.k.g.h././.k.E.k.E.g.k.j.k.k.a.9.h.k.h.j.9.9.h.9.e.8.8.P.a.s.a.g.1.a.1.a.<.<.k.9.[ m 1.h + | ~.[ ~ ,.^ ,.,.^ x.).>.<.@.9 * < j X . o o X o o # - < 9 ; 9 u l v v D v D D k u j h &.%.| | | ' | $.| ....%.%. .[ F G G D ' ....%.%.' | ..%.$...l a ",
"X.6.e.d.d.5.2.q.K.w.0.| n H L [ ..%.%.5.6.5.0.w.e.0.5.w.I.q...h X O j J U.R.}.{.K.w.L.R.e.d.L.,.O./ / &Xo.x 0.i l q # # # ; q i x x [ r w M M { / / } ~ W Q { { ^ / / _ / +.O.~ O./ O.O.O.O.#.r.) O.Q +./ ) ) E E ^ >.E O.o._ O._ O._ ~ O.o.O.O.O.^ ) Q / ) } } } } ^ ^ M / W Q ~ ~ / } / @.~ } [ / ~ / ~ x ~ c c ~ m g / m H M n M b z W [ M x M / ~ c ~ c E g w c 9.z * 4.z v } ,.^ ,.8.,.l.<X) k.~ 7 9 < p X . . o X o o & = ; u u q a l v b D b D v u u k j | $.F | $...| | | | ..%...X...H D G [ X.%.%.%.X.' | | %.| K a y ",
"K.U.e.e.5.X.0.5.5.....[ D H | X...5.e.K.q.w.6.e.K.q.7.w.S.0.[ j O = j F A.G.~.'.G.w.5.0.q.5.d.=.} / g.g.~ } b 9 i # + $ $ $ q u H n X.z [  .{ } } } / o.,.1.O.@.@.O.+.@.#.O.O.1.,.1.O.1.@.>.>.O.1.O.O.>.+.1.>.>.O.<.<.>.>.1.r.O.+.1.1.>.+.+.O.O.>.O.) ) >.} ) ) } ^ } ) ,.) / } O.) } ^ / / ~ ~ ~ ~ ~ ~ ~ M M ~ E M m c m m c M c c M x W ~ W R ~ Q ~ ~ ~ ~ ~ ~ { a.k.b $ D v 5.} ,.^ m ,.<.y.z.t.) c 0 9 ; p X X o X o # # - ; u u u l h a a S v G G D i u 1 q F K | | | ..| | | .. . .%.%.X.X.5.0.8.0.*.%. .G D | $.| F ' a p ",
"L.A.5.e.e.e.2.0.5.%.| G M | 2.5.2.0.S.d.j.e.e.d.e.q.K.T.R.K...a o > A I %.A.'.^.A.w.e.R.d.5.d.7.@.) t.@.7.{ b 7 - $ # $ $ $ 9 w D M ..G S.R.L.K.L.I.I.Q.(.).Q.W.W.Q.)._.W._._._._.&X&X_.&X&X&X_.&X_.&X&X&X&X&X&X_./.)./.&X%X&X/././.%X/././.c./.).x.x././.x.v.x.x.h.x.x.x.x.h.g.l.k.k.g.g.g.h.a.a.a.a.a.h.9.9.7.1.,.,.,.,.,.@.,.,.,.,.#.@.} { } { o.,.,.,.,.@.,.1.a.9.M 0 ' G R.R.k./ m ,.,.>.z.x.) E w 7 y u X X o o o & # ; < u 9 9 i v z S s D G H G a a a v K K | | | .... ...*... .X.X.X.X.,.0.e.q.@.| $. .| H ..| H v i v ",
"K.q.e.T.P.0.H  .X.[ n ' *.5.0.q.,.0.K.K.e.e.e.e.d.e.{.'.R.K.X.u o = l L U.R.'.^.U.'.'.Y.*.5.d.8.} ) t.a.@.[ w $ 9 # $ ; q q i h [ ..9 $ - ; $ $ $ 9 9 8 0 0 e e w w w 8 w r r r r r z r r s g x g g r x x x x x c g x g g x s x x x x x g g x x x x x m g f g g g g m g f f f z s x z z s s r z g z z f f f r r h r w w w w w r s w w w 8 0 0 9 9 9 7 7 9 7 7 0 8 w 0 q v D [ } / ,.8.~ h.,.g.x.>.) g 7 9 < p X X o # & & = q h 1 9 q a i l ' G D F G H F D F | ' F | | | $. ...X.%.*. . .%.5.q.q.q.e.5.X.X.0.%.G v | H l y D H ",
"w.,.w.R.d.2. .2.2.X.'  .2.5.q.q.q.e.K.L.d.e.G.H.R.R.Q.Q.'.Y.| u o O u J |.}.L.K.R.}.|.K.e.G.d.,.o.} 1.t.o.M n 7 9 + $ $ 7 q n b b X.D i l - # $ * - 9 9 9 9 9 w w w w 0 0 0 0 w w w z f r r f r r f w f w w f f w r f 8 8 f 8 8 f f f f q f f q f f q w 8 8 f 8 8 8 q 8 8 8 8 8 8 q 8 7 8 7 q 8 8 q 8 q - q 7 9 9 ; 9 7 9 9 7 9 7 9 7 7 9 q 9 9 - * - $ $ $ $ $ - i h D H L 2.<.9.h.x.a.} <.E.<X<.^ g - y ; y X O & # = # $ , q ; q i h v n G G D D G F G D G G ' K | K ' | $.| %.5.%. ... .*.5.*.5.5.{ [ ,.X.X.D v | K v a | | ",
"2.8.e.K.q.@.5.w.w.5.5.5.2.6.R.P.5.q.d.L.'.].:X9X,X|.^.^.'.K.%.p o O 1 L }.8X0.5.K.'.}.R.8X|.9.,.} / O.7.Q  .i $ u + # $ w [ @.' X.G 0...G z i v v b b b x b q.L.' W { } } E } ,.M ~ ~ ~ ~ / ^ ^ ~ E E ~ ^ ^ ^ m ^ E E c c ^ c c T ^ m c c m c c m g c m c g c c c g g g m c f g m f f f f f f f f f z g f r f z r r r z s W b c b M W M s %.' w s w q q w q v v X.n h v M ,.h.)./.x./._./ ,.o.k.y.g g 7 * ; p % ; & & = # # q j u u u h K | F H G v v b D D D b |  .| K | K  . .e.U.X.D G G [ X.*.*.X...X.%.X.| [ ..[ | H | G D ",
"5.A.R.K.0.5.5.q.5.5.0.8.0.0.K.e.5.e.d.K.:X:X,X:X:X^.{.].~.G. .< X O 3 F '.|.e.q.d.H.L.Y.'.^.e.1.o./ / +.Q M 4 9 q + # * n ,.,.8. .x z x c { G ' @.=.9.7.} a.:Xa.W 7.E.I.I.k.k.I.O.o.Q ) >.:.>.<.r.r.>.>.t.>.>.:.>._ >.:.:.) ) ) :.) ) ) ) ) ) ^ ) ) ^ ^ ) ^ ^ ) ) ^ ^ E c ^ ^ c c T T ^ E E c c c c g g g c x g f g x ~ / 7.@.} o.8.7.~ x } [ c z n z z z G M 2...X.2.,./ x.fXjX3X*Xx.<.E @.O.>.<.~ f - * < p * = & & # # # ; h i q i l D G G D F v v v s D D D | | | ' | | | X.w.5.[ [ [ [ *.0.q.X.[ { 6.A.2.|  . .| H | | ' H ",
"w.e.R.e.0.5.5.0.q.e.e.e.5.q.w.j.K.Q.^.^.^.Q.].^.R.^.^.].{.e.| <   = 3 D U.'.H.K.R.^.w.R.K.e.Q.7.@.} ^ } E r 9 9 9 * $ q [ ,.} ~ M W } k.E.s.7.{ d.I.W.I.W.>Xj.I.k.W.W.W.W.W.W.a.L.a.~ y.%X*X*X#X@X@X@X@X@X#X@X@Xv.@Xv.v.v.v.v.v.@Xv.v.v.v.v.p.v.l.i.i.i.i.i.p.i.i.i.i.i.t.i.t.>.t.>.r.>.>.>.>.) >.) _ ) ) ) ) ) / ) g._.7.o.} @.@.1.@.W 1.X.[ } W [ { [ ~ [ } H { d.} j.~ ).xXGXNXfX&Xa.,.@.O.( ) c f $ % y p * & & # X o o $ 1 j u n D v v G G G v v D D b D F &. .| $.' | |  .{ [ 0.T.w.5.*.*.5.[  .X.w.6.} | | $...| | ..| H ",
"e.e.Y.G.e.*.@.q.K.d.G.K.L.R.L.K.d.Y.'.Q.R.I.L.d.H.^.Q.:X^.q...u X > y J ~.'.~.{.|.Y.A.w.q.G.Q.7.,.) ^ / E s i $ - $ $ i [ { ~ } ~ E.k._.2X].W.@.7.W.W.>X>X&X&X/.%XW.k.k.s.a.].s.=./ r.3XMXNXMXMXMXMXMXBXNXBXMXMXMXMXMXjXjXjXjXjXjXiXjXiXiXpXiXiXiXiXiXuX;X;X#XuX;X;X;X*X@X@XuXv.@X@X@X%X*X@X@Xv.v.v.v.v.v.c.x.z.g.g.l.1.O.j.k.1.~ O.a.a.9.o.} @.o.} 5.,.o.,.(.,.@.9.} h.<.h.uXGXIXxX).x.a.} 7.k.^ ~ f - * < p o = = o o o o $ = 9 u l l v D v D v v G D v b F | | | .. .| | | | X.} 0.e.8.8.,.,.X.[ 5.2.2.,.2.[ [ | %.X. .%.X.%.",
"e.q.q.q.7.5.0.L.'.^.'.'.{.'.L.K.d.Y.R.Q.R.A. .G H.^.'.R.Y.U.| u X O p K }.8X'.wXK.q.q.q.q.Y.I.7.,./ ~ Q E c ' 9 $ + 7 z M c M x { E.7._.W.a.s.a.s.s.k.W.2XrX2XW.k.E./ } W W #.{ 1.s.&XfXjXvXMXMXvXMXMXMXMXMXMXMXjXjXpXjXiXjXpXpXjXpXpXiXiXiXiXiXuXiXiXuX;X;XuX;X;X;X;X;XuX#X@XuX;X-X*X-X@X@X*X@X@X@X%X*X@X@X%X@X/./.k.( ~ R @.W x O.k.@.1.o.@.O.,.1.1./ 1.a.)._.9.1.<.I.j././.3XzXxXzXh.a.@.E.E.<.O.w 9 $ * y # - = X o o o # = ; u l v D F s a v F v D G G ' ' G G G | G | |  .X.X.X.@.6.9.H H ..5.6...2...[ M ' X.q.0.=.Z.G.G.",
"8.5.5.e.e.q.K.K.Y.R.'.R.'.R.e.K.H.(.R.L.U.0.v | K.R.].R.R.^.$.u O = j I '.|.}.}.K.G.q.*.q.L.d.@.} ^ >./ E b b 9 9 $ i n w f c [ 1.7./ j.t.1.O.o.{ a.s.1.g.s.t.a.o.O.@.a.9.1.1.1.t.g.z.c.@X@X@X@X@X@X@X@X@X@X#X@Xp.@Xv.p.p.v.v.v.v.v.v.p.@Xp.v.z.p.p.v.p.p.p.p.p.p.p.i.i.p.:.y.i.i.i.i.i.i.i.y.y.y.y.i.t.:.i.y.y.y.y.r.+.O.o./ / o.O.O.^ ) (.a.E } 1.L.>X&X_.z.g.<.,.} 1.<.h.a.h.i.aXsXh.h.1.,.h.k.~ r w * y y X = = o # o o o = ; u a b G G D v v D b D K ' K F ' F G | H |  ...X.X.X.,.e.L.m H X.5.2.H [ ..H ..%.%.*.q.q.0.0.w.",
"*.0.e.e.X.q.R.U.q.5.q.q.e.e.e.L.,X,XQ.R.}.~.3.4.%.q.~.'.^.].%.u o , j | ^.}.U.=.q.w.5.*.K.R.G.1.} ^ E.&Xs 0 $ $ i z w n m M ~ } / / @.t.1.O.^ ~ { ~ } 1.+.1.1.o./ O.O.>.>.O.o.O.) o.+.>._ :.>.>.r.:.:.r.i.:.y.:.:.:.i.:.:.:.:.:.:.:.:.) :.:._ >.:.>.) :.:.) ) ) ^ _ ^ _ ^ _ _ _ ^ ) ) ) ) ) ^ ) ^ ^ ) ) _ ^ _ ^ ^ ( ^ Q ^ ~ ~ E E Q / ^ Q a.} E } o.+.k./.k.k.1.O.) / } ,.9.<.h.h.h.i.{.aXI.~ Q { o.@.w * y y & , = o o o . # = * ; l D G G G a a y K K G F ' K | G H G | | %.=.6.e.8.w.K.T.2.2.q.e.2.~ ,.2.H m %.2.X...[ [ [ ..",
"5.e.d.e.2.e.'.U.q.e.S.d.e.S.j.R.|.(.K.L.|.R.H F | w.P.'.}.Q...q o = j L Y.Y.A.*.d.e.5.q.q.G.G.*.} ^ a.k.M s 9 s M W W c <.,.<.9.>.<.<.a.>.O.1.7.1.@.1.t.a.t.a.t.1.1.t.1.<.t.9.9.<.t.a.a.t.i.i.i.i.p.i.p.h.i.l.l.p.p.i.i.h.i.h.i.y.i.a.a.y.t.t.t.t.t.t.t.t.<.>.<.r.r.>.r.>.>.:.<.>.>.>.>.>.>.>.) _ >.<.>.>.>.O.) ) >.) O.} ) / ^ ~ / ~ / @.) / ~ / / O.) ) k.z.L.<.^ / } } k.k.k.k.@.1.2XaX1.a.I.E.a.[ w * ; u # # = O O O # O = & # a D D ' D D v a F ' K | |  .| ' | | $. .%.5.q.e.0.5.8.j.2.6.P.8.2...2.[ L M %.X.X...[ X. .[ ",
"e.0.w.S.d.e.e.d.e.S.P.e.5.q.U.R.T.L.P.R.'.Z.h i K 0.R.(.'.d.| h O = j I G.*.*.*.*.5.5.q.q.7.a.*.o./ 1.o.z 0 x ~ ~ E @.<.g./.x.g.O.<.9.9.O.W.:XE.O.a.a.y.z.x././.W.z.W.l.l.h.v.x.x.x.x.x.v.v.h.l.x.h.l.p.z.l.l.i.p.i.i.h.h.l.i.i.h.g.i.g.i.a.i.h.i.i.t.t.t.t.i.t.t.>.>.>.>.t.:.<.>.>.>.>.>.<.<.<.>.>.>.) ) ) O.>.>.<.>.) O.} / / / { / } O.<.@.) ^ } +.O.O.+.x.z.O.) ~ } / E.1Xa.O.a.<.E.j.} 2XW.o.{ W q - q q o o # o o O = # = ; 9 q i [ | G D D D K G G | | | | | ..| %.2.0.e.K.K... .[ ..8.e.j.8.2.2.,.2.,.2...X.X.X.5.%.G ' ",
"e.q.e.e.e.S.e.S.K.e.e.e.5.q.e.e.K.I.}.|.].w.F D 4.$.w.e.d.2.H k o , l $.U.w.*.q.7.A.q.0.e.d.7.5.} ~ a.[ r r ~ 9.a.>.g.&X).g.>.>.g.v.t.k.1.a.1.O.1.g.z.g.z.a.x.%Xv.z.z.z.l.v.x.v.z.v.v.@Xv.v.v.v.v.v.v.v.v.v.v.v.v.v.v.v.l.l.l.l.l.l.l.v.z.l.g.g.g.i.l.i.l.i.i.i.p.i.i.i.i.t.i.i.:.i.i.i.i.t.t.i.y.y.t.y.y.y.t.y.i.t.i.i.y.y.<.t.t.t.<.<.1.>.>.<.1.1.1.a.r.r.O.t.>.).t.k.a.O.) 1.k.k.,.O.a.k.rXk.} W z u * y q # o o # o # = O - < p a S K | H G ' F K G | %. . .%.%.%.%.%.$.5.e.j.8.2.,.,...0.w.8.2.,...2.[ 2...%.2.X.%.5. .M M ",
"e.e.e.e.6.5.e.d.e.e.e.e.e.e.X.,.d.T.1XaXwX!.| 3.Z.%.L m S.w.H j o O 3 $.K.R.^.R.Y.'.d.*.e.d.q.7.O.E 7.{ q x ,.&Xx.x.fX&Xk.g.l.3XfX<X&XrX3XrXx.>X&X<XaXlXfX:Xx.>XzXFXGXDXGXGXNXGXDXGXDXDXGXNXNXNXNXNXNXNXNXMXNXMXMXMXMXxXxXxXMXxXzXzXjXjXjXjXjXjXjXjXfXfXjXfXfXiXiXuXuXuXuXuXuXiXuXuXuXuXuXuX<X<X<X<X<X-X&X<X*X&X&X*X@X@X*X*X&X&X/././.v.x.g.h.a.a.a.1.k.a.k.a./.y.2Xx.&Xg.r.g./.<Xx.E.@.:X<XE./ ~ W b a - ; 1 - # # o o o O O = l K [ [ K G H H ' F K $.0.0.$.%.=.%.| G H H 2.2.8.2.2.2...[ 2.5.2...2.,.2.2.2.~  .%.%.5.2.| ' G ",
"d.q.6.e.0.q.q.8.q.w.8.0.6.5.5.e.P.(.|.1XR.w...I 3.K H D Z.D.2.1   O j K $.G.Y.'.^.Y.w.q.q.e.,.@.O.^ [ x v W ,.g.t.a.uX/.>.g.:XfXfX>XrX<XrXd.j.(.j.a.d.Q.@.h.k.>.z.uXfXiXiXfXiXiXiXiXiXuXuXuXuXuXuXuX@XuX;X<X*X;X;X*X-X@X).@X;X/.@Xv.v.v.v.v.v.v.v.v.v.v.v.v.l.v.l.i.l.v.i.l.v.x.p.l.i.i.i.i.y.y.t.y.t.y.t.r.t.t.t.t.t.:.t.y.a.y.t.t.r.+.O./.aXa.@.X.[ [ ~ { o.1.>.t.t.1._ E r.r.a.c.a.c ,.,.E c x f z ; $ = - & O o o o o o = = k D G H K K K H | | | | 0.0...| ....| G D G | 2.2...2.6...} 2.,.2.,...6.,.L [ L ..L ..2... .L M ",
"P.L.K.e.A.S.e.w.5.,.e.w.e.S.P.R.}.|.[.P.H m J G L K k n w.w.L =   > 3 p G %.d.R.G.5.^.'.K.L.7.,.o./ } [ W X.1.9.1.<.>.<.x.<XuX>Xg.a.h.d.{ M ~ z x b z r c { a.E f T ) ) ) ) ) ) ) ) ) ^ ^ T ^ ^ T ^ T c ^ T T ^ T ^ T ^ ^ ^ ^ ^ ^ ^ E T c c c T c E T g E T g g c g g c g g g g g g g g g g g g g g g g g g T g T g g g g T T T T T g g g k.).X.a w r w w 0 z G.L.o.~ / Q E E ~ ) / x M ,.~ c f z m [ h # - - # O o o o o o - = u ; - u F K | | $.$. .F %.2.| | | | $.| G D v F S n | X.X.2.X.5.,.2.,.2.2.2.,.2.,.,.~ M H  .|  .",
"K.q.q.e.K.e.e.e.8.q.K.K.K.P.I.T.(.R.[.P.2.L n F L F K %.2.2.k #   o = h %.0.K.R.G.Y.|.^.5.0.j.7.,./ E { d.a.a.,.{ [ c g ~ <.1.,.1.7.M w q z r 8 w z z z s i w 7 8 g g E T c c c T c m E c c c c ^ c ^ g E ^ ^ m ^ E E E E ~ T E ^ m ^ c T ^ c ^ m ^ ^ c c m c c ^ m c c c c c ^ E c c c g E E E E c W c Q ~ E E M m E m E E E c c E E M c z h 8 % 9 i 0 a 9 ' w.s 7 f f x x x g g g r [ M M n M x } n - # = = O = O o o o o O = ; y y p S H F G $.| | | 2.5. .| | %...| G G S F H D L } X.,.2.,.2.6.6.L 2.2.L ,.2.2.} L  .X.} 2.",
"%...%.w.K.j.S.e.q.K.e.j.e.e.K.e.e.8.P.S.D.e.L D F $.S.Z.4...h = X O , S w.w.L.d.^.8X{.~.0.q.L.9.<./ f w ~ b s z 0 q 7 8 w r r w z w 7 9 ; 9 q - q 0 9 q 9 9 7 9 8 w r h f f h f f f f m g g m f m f f g f h f f f g h f z z f z f k f f f f f f m f f f r r h i f f f h m f k g h f h f r f h w w w w w w w w z f w w w w f w r f 8 w w 8 9 7 - 9 9 9 9 9 - - $ $ 9 9 8 0 0 w w 0 7 7 q 9 i i q i u # # = - q - # O o o o O - = < y a l a y 9 y D G G ..2.2... .| |  ...G H l h S m  .2.X.X.2.X.2.8.2.m m M 2.2.2.6.2.2.X.X.} 2.",
"..| ..0.S.e.S.d.8.0.5.q.q.6.w.0.X.K 4.2.4.I n D K $.L $.....v -   O 3 F A.R.R.d.R.'.'.}.q.8.K.9.} z 7 7 $ 7 7 $ - - $ * - * $ - * * * * 9 * * 9 * * 9 ; * * - - * 9 9 9 9 9 ; 9 q 9 9 9 q 9 9 q - 1 q 7 9 9 9 9 9 9 9 9 9 9 9 0 9 y 9 9 y 9 q q 0 q q 9 9 9 9 9 - - - q * 9 9 9 * 9 9 5 ; 9 * * - * 9 - - - * - - * $ - - - 9 * - 7 - - - * 9 * $ 7 * * * - $ $ $ # $ $ $ $ - $ - $ $ $ $ # # # o o o # - - y = & o O o o O = - - j k u k q ; u m m L L H 2.[ L | $.2.2.| L D n n G X.%.X.} *.X.8.2.m n n G 2.2.2.2.2.} ....} ..",
"l h z [ e.e.e.2.H D [ ..2...H n n v D v k k k k v v F | | l l < X > 1 n 0.K.R.R.R.I.'.'.%.X.9.,. .r 8 q 7 - $ # # # # O % & & % % * & * * * * , * * ; * - - - ; ; * * < - ; ; ; ; ; ; ; - ; ; ; - - q ; 9 9 9 ; y 9 9 y 9 9 9 9 y 9 9 9 9 q 9 9 y 9 9 ; ; ; 9 ; - - < ; 9 * * 9 - * * 9 ; * - * - - * * - * ; ; * - ; * * - * * ; ; ; * * ; * & # * * * * * - & = # # $ & # # # $ # # # # X # o # X o # # * u ; ; = o O o o = = - u ; q q u q u k k k w q k h v | 2.2...G K | 0.2.X.[ X.5.5.5.5.2.} n i u a H X.2.[ v v m n H L ",
"i k D L 2.| G D l v v L L L l h k l v v n k q u l n F K K D D 1 O O = j K 5.R.R.I.P.R.I.M  .2.[ } X.M H M i * ; * * & % % * & * * & & & & & & % & * ; & = & = & * = * * * = - * - - - ; * ; ; - - - < - ; < < ; ; ; < ; ; 9 ; ; 9 ; ; * ; ; ; < ; < , < < ; < < ; ; = - ; ; - ; ; * ; ; * ; * & # - - # ; & ; & & & & & % = * & = * * * % & & & * * & & & & & & # - * = # # # # & $ = & o O O o o o # # # # = = = = o o o . o O < k ; u u q - - q - - q - - u n D ..$...D n [ 5.e.@.[ } q.5.%.5.5.2.H u u k D | n v v q h h D K ",
"h n F F D h h l v D F K K | H D n D F H D v q h F v v l l D j = O = 1 l ..%.H.U.K.I.Q.K.H X.w.6.d.8.,.8...q + X X + # X X X X X X X         X   .     X X X             X X X   X X X X o % # # - o # # # + # X X X X X X X X # # X # # # # X o X X X X X X X + o o o # # # + o # X o o O # & X . X X . X .               X     X X X X X             X o X X X     X X . . X . . . .                 X o o   X & o o   . # o o o o o O - 1 = < - , q q ; u h h l n D H D l G 5.w.2.X.%.%.*.5.%.$.| k u k h v l h q h h h v n n ",
"k F J m K | F K &.4.$.F K $.$.$.$.$.K K D h k D n l S n k n 1 o O , 3 S | %.0.*.w.G.K.w...2.3.S.q.e.H.0.H - X o X X X   X   X X                                         .               X O & # & O O & o & X o o       X X . X # O & & # O o o o o o o o o o o o # O = = & % & & o o # O o O o o . o o X .                     X X o X .             . O O X .                 .                                 . X   O O o . . o . o = , , - , 1 k d u k S k k k j q ; u l D F G K G [ ..$.G v l p p l l h n D n K L G n D n ",
"1 u u k l F D J J F S l A j A S F F S u 1 1 p u q 1 1 < = = o . O , j l A y < y p k p l = ; - u k n A u ; o             .                                                                   . X X X X o o X X   X   o o . .     o O o O O o o O o o o o o o o o O o o o O & O o # O O O O O O o . . . . . .                       .                     X . .                                                             . O   . . . . o O o = O = = = - < k 1 = ; ; # & , 1 2 1 ; 1 j j k l < = ; < < ; , < j j j S v j 1 1 1 ",
"X . X . X . X   . X   . X X X X o X o     .     . .   . . . . O > 1 d A F j ; * , ; = o O , , 1 < & & X o X                                                                                                 .           . .     . . .                                           . . . . .       .   . . .                                                                                                                       . . . . . o . . o o o o o o # o X X o . .             X X           X   X X X .     X X   . . . ",
"  . . . . X . . . . X X . X o X o X   . X . o o O . O = = , , , 1 j A S J F j S P J F A S J L J S S l u 1 ; & o X                                                                                                                                                                                           .                                                                                                                   . . . o O O = > O , , = = , < , = = < 3 o o o o o   . o .   . .       .                 . . . . ",
"o O O = = = = > , , , , < < , , 2 2 , , , 1 1 1 d 3 3 3 d d 3 k 1 d S S J S J J I 3.2.C.4.3.2.I $.$.&.| K l u 1 = # o X X X X X X X X X               . . . X             .           .                                                                                             .                                                                                                 X                 .               . . X o o o o = = , u 1 j 1 k k j n j k l l k j < < 1 1 1 2 1 , = O O o o . . . . .   o O O O O . o o O ",
"1 1 1 d 1 j d 1 j j j j A j p j j l j j j j j A S S S v F J S j 1 d S S J L I 2.S.D.T.|.|.S.H ..w.U.S.U.S.0.%.L H D l j k u u p j u u 1 - = & = O & & # = = = = & > = = , ; ; ; ; ; ; = = o = ; & & X . X                         .                                       X     . . . .   . .                                 .       o = = = = = = = = o = = = - = = = # = O = & = & & - # # o     X X O = , , 1 = 1 = , 1 1 1 1 k n D D J H L ..2.2.L D L 3.3.J J l a u j p j l k j p u 1 1 , = = # O & o = = = = 1 1 = 1 1 1 ",
"S j D L J F F K L $.| L 4.&.$.%.| I $.$.Z.3.| $.4.w.w.D.`.`.D.D 3 j A S m 3.6.8.{.|.}.8XP.X.| H ..2.e.`.T.S.0.0.%.$.H F D D l v n D l l l j ; < u 1 < 1 i u 1 1 1 i j k l l v k h l k h - , u k a u u # # # X o X o   o o o X X X . . X . X . . o .     . . X X . X   o X o X o . . . . o # . .   o X o O X O .             . .   X # 1 j u 1 j < u j u ; ; , q j h k u u 1 u u y < u y u y # = & = = = = < < j 1 1 , 1 u k l k n n L L | ....2.2.0.w.w. .| 2...H G D D F H [ $...K K L J F S A j j 1 1 1 j j u k l D F k k S n ",
"D L 3.w.$.%.4.Z.A.A.0.0.Z.0.w.0.w.A.A.L.|.|.R.'.}.0XXX|.XX|.w.k 1 j S S $.P.}.8X0X,X|.].K.5.M H H n X.e.e.L.q.e.w.A.%.G G D i l H [ L L H S l i h j h j u u u ; ; < i v D D D n v L h - # i q j D D G l l v u 9 q a k l k a a i h h j u ; = # O o O O = = & O & , 1 ; = = = , & = # - = = 1 d = = ; u u < < , =             o - - , j l j i q k u i q ; - j l v n D D k a i u q - u l v D v q ; < ; - = q 1 ; 1 ; - # - 3 v D H L H H 2.v G X.q.e.e.e.d.6.w.4.....2.0.A.Y.U.K.U.U.P.S.8.0.2.K D k j j j n n F l L ..L 2.L H ..L ",
"$.4.4.2.2.2.w.U.K.K.q.q.q.Y.G.H.R.'.H.P.{.'.I.}.{.8X|.L.R.]..., > 3 S L D.sXqXaXrX{.:X{.'.'.5...[ ..q.5.5.q.X.X.w.j.2.L D G v a H | ....H D F l q l D v l u a u < ; k K K L L H m L l ; ; u 9 q G | | G G b z y h G G | G D D G n n v a 9 ; * % # # * y < & ; ; h v a q y a 9 9 9 9 y 9 - j q ; 9 a l a a h j =         . = ; u v D k k k k v v v k < - q j v v v n H n l l i q 9 u l D G n i < q q < q u q $ - ; - # - u v F H L 2. .L h x %.q.0.2.0.q.K.e.5.2...2.w.S.L.K.K.K.P.T.e.2.6...k q = < j n K F v D $.4.5.5.| H X.X.",
"w.D.T.(.P.j.e.P.Y.L.d.L.^.{.,X0XwX,X].^.].R.'.}.I.'.L.K.R.R...; o 1 S L [.8X|.aX0Xe.R.Y.8X'.d.5.8.d.e.8.[ } [ b X.e.2.3...G G v m H n m n D n v h D F k v D l i h l D L | 2.$.L J v k ; 9 u ' W X. .'  .' o.' c #.#.=.s.G.s.d.q.7.e.5.*.*.%.%.%.X.....*.| ' [  .} X. .'  .'  .' |  . .G M ~ M c b ' ' [ x h i #       . X j v h ..L k n G K L v k h q - h h k k h l K G n n u u 9 u q u i j u u k q l k - < h q u k - - , v | L ....n h h v $...M h 2.e.L.e.5.2.....e.R.2.X.K.L.Q.R.K.0.$.G k - # 3 n L %.w.w.4.$.%.A.0.2.} K.I.",
"[.[.`.R.S.j.w.e.R.L.A.Q.|.8X0X8X].].{.{.].T.'.Q.P.P.U.T.R.R.| u O 1 j S '.qX1X8XE.R.K.P.|.G.q.7.e.R.e.d.5.X.X.X.q.R.w.6.....K G n L H H H D H D S L l F l F K l n ....%.4.%...L J h i a u | ' s s R x x R R R R o.o.#.+.#.#.#.#.=.#.#.o.o.o.o.o.{ { ' ' ' ' ' ' o.' ' o.' ' R W Q W W R R x c R R x c W v i < = X     . # n G H $.G l D D F D v k h k h j v v h a n ..H D D h i i k k u q q h k v j K D q u k j h k q j k n D K 2...k q h G | | n n 5.q.w.X.X. .H ~ w.e. .X.R.Q.'.(.P.e.L D h = ; S ..4.0.0.U.w.G G 0.0.X.,.j.'.",
"|.1X[.`.4.2.2.2.~.^.U.K.Y.R.L.G.@.*.|.8XL.w...2.P.U.(.].^.R.2.k o 2 A L '.'.R.I.P.0.,.|.|.d.5.5.L.R.q.e.0.8.e.e.U.].S.w...n H K m H H M m n F H H $.| 2.K G L $.| $.&.%.L | D D n v l F [  .e Q #.R R R Q ! o.` +.;.#.! ! ] O.#.o.#.o.o.' o.' ' ' Q Q W W Q Q Q Q Q Q R R Q R W R R R R s R x x r R ' e M i q u o   . X = F L G n k i h k v v n G n v k v n n k k H %...H n h j h h h a j q ; q k D $.H i u q u q k n H n D l v v v n G H H H n v z 5.w. .z v n m 2.2. .n K 2.5.w.6.2.X.L K L J 2.4.U.'.U.w.2.G v u | w.q.5.2.e.",
"|.{.'.q.X.| %.%.~.}.}.~.P.K.e.q.X.e.8X,XR.w.H $.e.G.Q.I.R.}.e.j o , j I R.j.K.j.@.[ L.].R.'.K.q.R.R.R.e.@.w.j.U.R.R.U.w.2.H L 2.H M  .2.| L H ..2.2.I ..I $.G %.$.$.| D v G H F m D D F H ~ s #.d.x ! #.o.#.;.s.;.;.;.#.o.o.o. .o.o.o.o.o.{ o.Q ' Q W W W W R W R W R W R W R W W W R R W c R s s  .X.e b i i l %   . o = L 2.L n u q j h v k D L L D D D l n v H | 2.....K v n D l k h n k q u l D %.F u a y a u v D D v D v a i v G H | L n n h n 2.5.m m M n L ,.| n m h L [ X.%...G D K ..2.Z.T.'.R.L.e...l l l G *.K.q.0.@.",
"e.q.6.5...X.4.K $.K.}.|.}.Q.K.j.e.L.R.P.e.G.e.G.G.G.Y.e.'.'.w.u o = k L `.R.R.K.K.].].R.|.].e.w.R.'.R.5.6.U.R.].R.R.P.e.2.4.2.2. .[ 2.d.2.....L 3.w.2.4.w.$.G L K G v l D D K D J k n G ' 7.( U e t #.=.;.;.s.-.s.=.;.#.#.#.o.o.#.=.o.#.o.o.{ ' ' ' R ' R R Q W R W W Q Q Q Q R R Q R W R R R T R g 0 e W i v v =   . . ; L 2.L D l k v h k v m ..L L D k v D L 2...X.X.2.| G K H D v l ..F k v l D %.K a l a v l b S k i a v S D v a v K H M v H 2.d.w.[ |  .L 2.H M H k u n H H [ X.X.H H ......$.....X.$.[ v F K D z 0.K.K.L.",
"0.5.0.2.H ..0.2.v ..'.}.{.8XQ.K.P.K.L.U.L.e.G.K.K.G.e.Y.}.|.A.u . o 1 F R.T.P.d.}.eXE.0XeXP.e.K.Q.Q.e.e.(.].E.R.K.j.e.5.4.6.8.6.2.[ 5.K.8.0.2.| L Z.4.4.w.$.| L $.D D K L D H n n n L K G s.s.#.! #.f.;.f.s.s.s.;.;.;.;.#.#.=.o.o.@.o.o.o.o.o.' Q W W R ' R W R W Q ' Q Q Q W Q ! E R R Q Q R T W R T R { i F v o . . o = 2.2.D v n b S n n n J L L H v u D K %.e.%.| K | | K [ H H D K ..L L L v v $.K n l a v F K v a a i s a i a h D | | n M ,.0.9.8.X. . .%.0.2...L u l | 2.D G | | L L  .....[ H H | %.G D | | i u 2.I.S.R.",
"S.d.q.8.w.w.0.5.z H K.e.R.,X8XR.L.j.R.P.S.q.e.G.K.K.K.G.~.|.A.u . o = D T.j.w.e.K.'.8XsX8XL.K.R.'.L.a.Q.eX|.R.P.w.0.2...2.w.8.2.,.2.0.5.,.e.2.L J 2...L $.$.L L F G | K  .....H ......[ [ I.f.f.;.;.;.s.s.;.k.f.;.s.=.;.#.#.#.#. .o.o.' o.' o.o.' Q b ' R W W R ' Q Q ' / ' Q Q Q ~ Q Q Q R R R R Q ! Q { s H D # .   o ; L L D D G F G G J H D n D n D $.5.A.5.4...| | G H $.| [ L | | 2.2.0.2.v l v v D G D a D v a a v G D D i v G H [ H [ 5.2.[ | L ,... .| M ..m 1 k L 2.%.D D k a h H ....%.5.X.2.%.X.| =.%.%.G n K X.2.U.",
"P.G.e.e.R.j.X.0.[ K *.D.K.R.8XQ.q.K.P.e.G.e.e.G.G.G.K.K.Y.K.0.u . O = D S.2.2.d.L.}.8X}.(.q.0.R.K.9.|.aX0X|.R.d.6.2.,...6.e.w.e.0.5.} X.0.j.2.2.| H H ....I $.H l | $.| L ..L | 0.w.| K  .W.f.f.f.f.s.;.;.s.;.-.=.;.=.;.=.o.] o.] o.o. . .]  .' Q R W R W Q W Q ' Q ' Q ' ( o.Q Q ( Q Q ! E ! R Q Q ^ ( o.s G K -     o 1 L L H K D D F G F F ' n M H $.S.U.A.4.%.| |  .G | $.X...X.X.[  .*.0.*.[ D D D F | ' F D D D s v H [ G v D H G [ H 2.2.H ..[ ....M G G G K l - S K | H n i u D S G | D H 2.0.5.*.X.X.w.X.$.| v G X.5.0.",
"K.A.K.q.5.%.0.w.0.%.| =.G.G.I.L.e.P.G.d.d.G.G.d.G.Y.^.~.R.R.w.u . O , J e...2.6.K.R.|.].R.8.7.P.:XeX<XR.P.P.e.7.9.w.w.e.6.8.w.e.K.T...b w.S.,.0.L H L L 2.2.| $.| $.| v n  .....2.%.2.|  .f.=.u.;.=.s.;.f.=.s.=.;.=.#.#. .] =. .X.#. .] o.o.o.' ' W R ' W Q ' ' Q ' o.( o.( o.( ( ( ( ! Q ! R Q Q ! Q Q { s v K k .   . 1 L ..L ' F K K | | [ G G $.U.U.S.w.5.X.| | ........$.X.| ..w.*.z  .Z.q.*.| | H K | &.' G G | G h v H | ' | $.[ M H M [ ..[ 2.2.G i D ' G n ; < D G F v a 9 l n a b a v G %.q.0.%.*.| |  .%.| K G [ 5.5.",
"w.%.0.X.{ q.e.q.%.X.G %.e.K.j.q.e.d.q.G.G.G.e.e.e.H.Y.K.Y.R.0.; . o 1 G w.2.,.2.L.U.K.K.e.5.e._.kXaXI.8.e.0.q.e.e.0.w.j.P.S.j.j.U.{.X.8 | 9.5.w.2.H L D L 2.L L $.2.K H n K %...| | X...{ =.;.;.s.;.=.;.;.s.s.=.;.;.#.#.o.#.o.o.o. .o.' o.o.o.o.' W ' R Q ' { ' o.o.( o.o.! ! o.o._ ( Q ( Q Q Q Q ! Q ! W h G $.k .   O 3 | ..%.| | | ..*.%.G G [ A.R.q.0.7.X.[ | %.[ $.0.4. .$.%.$.q.5.i G q.*.*.%.G D b K K ' F | | K v s G X...[ G [ H G H H [  .H m v a G | n a - ; u v v a 9 u D D G v a D | %.%.$. .%.| | *.w.%.| [ [ X.5.",
"v v [ %.q.e.e.e.0.5.5.e.A.K.e.j.G.G.q.e.G.G.e.e.q.q.q.*.e.e.| =   o , D 0.| X.X.K.A.e.K.,.X.{.dXdX(.d.S.6.X.e.K.8.e.P.I.S.e.e.w.6.K.5.[ 2.w.5.U.8.2.2.n K 2.L | $.$.K n G ..| ..| K ..| ' Q o.=.;.;.;.=.;.s.;.s.=.#.#.#.#.#.o.o.o.o.o.o.o.o. .] ' Q ' ' Q ' o.{ { o.o.o.o.o.o.( o.! o.! ! T T R ! ^ Q Q W s G I 1     O 1 $.| G | %.Z.w.0.| b | U.R.2.2.e.X.X.X.%...4.A.G.G.*.$.0.2.X.| [ ' ..$.q.0.%.%.F | | F | K ' F n v n X.[ G G [ H [ [ K ..[ n n H D D H v # # a v D G D v v D S G ' ' F v h l l v F %...$.5.%.| ..%.*.5.",
"u v | *.%.*.0.q.*.%.q.e.q.5.0.e.K.q.q.0.5.5.5.q.7.*. .%.e.G.[ ; . . , n G h H X.0.2.8.w.[ e.1X|.K.A.H.G.q.A.q.5.K.P.Q.8X'.K.K.d.e.q.q.5.5.q.e.T.e.2...| &.$.$.H K K K | ..| $.2.L K .. . .] #.;.;.;.;.;.r.s.;.s.=.;.#.#.#.o.o.o.X.o.o.o. .{ @.o.o.' Q Q ' o.o.o.o.{ o.o.! #.o.o.( o.( ! ! R R ! ! Q ! Q b s D K u .   . u [ M H ..0.0.%.0.G v q.'.e. .2.q.X.0.%.| X.0.K.R.P.2.2.2.2. ...| | | 0.U.G.6.2.L H H H L ..| m m n H H  . .[ ....[ H [ ' D a b v a D S ; # q v n a D k l q w a G |  .K z a u y D F K | |  .| | G ' | 5.",
"D v G | ' | 0.*.[ X.w.e.e.d.Q.L.d.q.q.*.[  .q.e.=.X. .*.e.d.G - . o 1 n X.5.e.5.5.2.0.w.A.R.K.2.@.@.5.q.7.d.q.X.S.R.R.'.Q.`.Y.A.5.}  . .5.q.q.w.2.2.2.S.5.%.$.$.4.%.2.$.| n H %. ...$.| ' k.;.;.#.#.+.#.;.=.r.=.;.=.#.*.*.#.o.o.#.#.@.o.#.o.o.o.o.Q ' o.{ o.o.o.o.o.o.! ( o._ ! ! ( ( ( ^ ! ! E T s T e b 0 G K ; .   o 1 L 5.0.Z.%.$.| %.%.q.0.| X.H [ 0.5.5.0.G X.2.5.8.w.0.2.2.2. .n ' | %.=.q.0.5.5.X.G D ..2.2.2...X.M r h L [ [  .[ H L H D D G D v D l * y a l D a a l l i u G ..%...| ' G n l l D G F G | | H ' G  .%.$.",
"v G | | | ..A.0.X.} q.q.7.K.(.R.d.G.G.q.[ ' X.5.*.X.X.*.5.q.v & . . , n S.'.R.q.4.2.2.0.e.L.q.%.5.5.w.G.=.K.e.q.j.S.R.'.|.,X'.K.q...%.} *.q.e.q.8.6.2.T.4.%.| %.0.w.w.$.H h H X.| X.2.X.' j.-.s.f.O.+.;.;.;.;.=.;.#.#.#.#.#.o.#.o.#.o.#.o.{ @.o.o.o.o.o.o.o.o.o.o.o.o.o._ ( o.! ! ( Q ! ( ( ! R s Q =.W ' i D D = . . . p *.U.D.0.%.%.%...%.Z.%.H | H %.e.5.0.0.H ..5.2.e.S.e.d.e.2.H n |  .%.*.%.*.q.U.e...[ $.2.w.w.w.2.M h z X.[ | ..X. . .G D b b D D S y y v D k k u l v a ; D | ..%.%.*...H | D a a G v G | | D D [ | ..[ ",
"G K | $.$.%.[ ' 5.e.[ X.K.P.K.L.K.G.e.q.5.X.M | *.X.*.0.q.q.G * . o , S S.R.5.n L e.w...0.w.*.@.5.e.w.A.A.~.H.R.R.L.R.R.~.K.U.G.K.q.%.X. .q.K.^.R.S.e.R.S.[ 5.w.5.2.5...H z X.5.*.X.X.X.{ s.! ;.;.U o.;.;.r.;.=.=.#.#.#.#.*.#.X.X.#.{ o.@.o.o.o.o.( ' ' o.o.o.' o.o.#.+.o.! ! o.o.Q ! Q ! ! R U e #.s.x ' s D D - . . # p Z.U.0.[ ..2...G | *.| ....2.0.0.5.A.K.0.5.2.5.w.e.e.e.q.X...X.$.| %.0.H.R.R.j.2.2.H H ..0.0... .H z L w.,.H ....H G v v D D G y 5 a [ D n y 9 u k 9 y G | | H D ' ..%.[ F D v D F H K | D D  .[ b | $.",
"K ' D &.=.| a ' w.5.z [ K.L.K.K.Y.R.R.e.%.%.G ..*.X.5.7.e.e.m & . . , D w.j.M G w.P...H ,.5.0.8.q.w.A.A.w.G.e.R.].R.L.K.q.G.Y.U.K.0.[ [  .X.5.R.K.e.5.8.*.G 5.G.0.X.[ M M x [ q.A.5.X. .} =.o.R s U #.#.s.=.;.=.=.;.=.=.=.=.#.o.o.{  .] #.o.o.o.] { o.o.o. .o.{ ' #.#.#.o.! Q ! ! ! ! R R R T T T s e e W a D D = o o O p Z.A.X.[ 5.0.M v | %.X.2.2.2.6.0.0.w.%.e.w.w.5.2.5.e.e.w.5...| G [ | ..G.R.e.,. ...m L 4.5...| [ H b L 2.2.[ H v z n l v D H S $ u K %.[ F q i k u $ a $.0.5.%.K [ ....F D D v n D ..| a - D | l q [ %.",
"a v G | K F $.%.w.%.5.0.8.e.'.'.R.Y.Y.G.2.5.X.$.' v  .q.j.w.n O   o , D 6.L X.e.S.5.2.0.5.6.q.q.w.' 0.A.*.|  . .0.K.K.G.e.K.K.q.w.H b n 5.w.K.L.6.2.} 0.q.X.5.*.5.q.5.5. .H [ 2.q.*.X.X.[ W ' #.#.;.=.H.s.s.s.s.=.=.s.H.=.=.=.=.=.=.#.=.#.*.*.=.=.#.#.@.#.#.=.#.#.#.o.o.o.R Q ] Q Q o.Q R ! W U s s s s b y D A O     o p 4.w. .e.U.e.L G $.%.4.2...H 5.w.5.G [ | 2.6.0.0.5.0.,.2.%.' v G | %.H.Y.P.5.2.......|  .5.8.5.X. .H [ [  .2.%.[ v i q k v l y a K ..0.| u ; u G $.D D G G K ' G K ..K v y u u k D D a a G | H D G | | ",
"D v G | a G %.| ' ' 0.q.5.d.{.~.{.}.K.e.5.%.5.%.D G X.0.K.5.n #   X , n w.K.R.T.R.S.e.T.e.d.e.S.[ D G.Y.q.' |  .0.e.e.K.K.Y.A.w.2.H .. .q.R.R.G.q.e.q.K.G.q.7.X.*.K.R.K.X.H  .X.e.G.0.X.D s v b ' b ' ' ' ' ' ' F b ' F ' b b F S s v v D F G s v D b D D D v v v a i a 0 0 s a 9 0 s 0 0 0 0 0 0 y 9 a ; $ G k o .   o p %.G.L.I.K.6.K | %.%.%.5.H h 8.e.5.H H H 2.6.w.w.5.2.2.2.%.| G [ %.U.Y.Y.e.e.w.6.8.5.X.L X.e.w.2.2.[ |  .| 5.5...v - - a l - q | ....0.H i h u $.*.G D v D G G G G [ G 9 ; u a n F h i n K G v H %.%.' ",
"&.$.| | $.| D | ..5.0.G.K.K.R.G.R.Y.G.A.A.A.A.5.%.X.,.0.e.0.H =   . 1 D P.}.P.e.e.2.w.e.w.w.0.5.[ w.G.H.0.*.%.q.A.G.q.0.e.w.%.5.0.e.T.L.K.Y.H.e.U.R.L.5.5.*.X.*.X.} 2.X.| H H } q.K.q.X. .[ $.b a a a a v D D a y & % y y * ; y p p y y ; % % ; y , % * * * , & & & * * y a p a a v p S D a a v a y * $ i D $.k $ .   o j 0.'.Q.I.e. . .$.%...X.....0.e.j.0.2...2.2.2.2.2.2.2.2.%.0.e.5.0.A.A.5.e.G.8.0.2.....[ .. .%.%.[ H m M X.L X.X.X.H v l | G v D X.%.%.2. .H k u ..| v G ..| G | %.| F G l G F | H l v D n v G | $.5.2.2.",
"%.| ' $.| | K ..*.=.*.q.R.R.e.K.K.K.I.U.K.S.2..... .2.q.w.w.D O . . 1 H T.'.j.e.X.[ X.%.0.0.5.X.A.Y.w.q.%...0.q.0.q.2.2.6.2...2.K.T.R.U.K.q.5.e.K.L.5.X.X.X.*.X...~ ....,.L H } 2.8.6.2.2.2.S.D.w.2.0.A.S.U.U.5...k l 4.$.K $.&.0.%.$.%.$.F v F F F K F J K J F S n D m F 2.4.4.Z.0.%.Z.Z.*.Z.%.K F D v | 4.2.v = X . = k P.[.x.I.9.[ M L 2.2...[ 0.e.9.e.8.[  .2.2.w.w.2.2.,...2.8.e.6.S.e.5.2.e.e.0.5.L [ ,.[ ......| H H M M G [ 5...X.| z n [ [ G [ X.2.2.5.e.2.n u &.| n | %.$.....2...L n F G v K H G F D D | .. .|  .5.w.",
"| %.%.$.$.| &.A.=.%. .*.q.H.K.K.d.d.K.K.L.w.h h n 2.0.6.0.2.k = . . 1 L T.R.0.q.d.U...H 5.2.H ..e.Y.G.q.X.2.5.X.5.w.0.2...m 2.w.S.w.0.0.6.5.*.*.*.5. .X.@.*. . .,.[ 2...m H m H H 2.2.2...6.j.e.e.2.0.2.X.8.5.T.P.n G T.D.A.A.e.X.[ | Z.A.5. .$.v %.Z.A.0.4.2.| ..3...| [ %.A.K.A.A.A.A.Z.w.U.' * i G [ 2.5.$.j $ . o , k `.[.h.P.P.8.| m | ..[ L 2.e.8.8.5.5.X...2.8.2.L 2.M [ 6.4.6.2.w.w.,.2.*.*.X. .M ..L ....[ H H ~ L M v v ' 2. .[ | G L | ..n D H H [ H 0.U.D q 2.2...%.$.| | ....2.[ L G u D [ | | | | G ..| | G | Z.A.",
"| Z.0.&.%.K ..*.4.%...q.e.K.R.j.P.K.R.R.T.0.u k $.w.8.q.D.8.k O . . 2 J T.K.X.2.S.T.| K ..[ 2. .0.H.G.q.6.e.2.m X.2.w.0.M k 4.w.5.5.A.e.5.5.@.5.X. . .*.*.*.X.*...[ ,...L H H H ,.2.4.8.8.8.2.6.e.6.8.0.0.0.5.R.~.H G S.~.U.A.5.' G  .A.!.A.*.D n 2.D.U.4.4.$...4.4.2.| %.0.S.Y.T.G.U.T.Y.K.T.S - F ..5.e.3.$.h = . O , S ~.P.9.9.j.d.H n L H ....q.'.e.q.e.5.2.H } 2.2.,.L m ..4.2.2.6.8.w.2.,.2.,.2.| H } ..[ [ H H ~ [ H M v n G ..X...[ ....|  .G [ H M v m w.S.n h 2.w.4.2. .G H | 2.5.2...D l H K | $.$.[ ' %.%.| G G %.*.",
"| =.%.%.$.....' K |  .A.R.R.I.R.T.R.Q.P.5.2.n ..w.@.X.5.M k k = . o 1 L T.L.q.e.T.U.| [ H  .0.q.Y.A.0.0.5.2.2.5.5.2.S.P.P.~.T.2.%.6.w.0.X.[ [ X.X.X.@.*.0.*.@.*.,.H ..2.8.8.L ,.2.2.8.j.w.4.2.,.2.S.e.2.8.5.0.~.U.2.2.2...w.G.A.0.5.*.G.G.w.4. .X...w.S.2.....$.2...H [ 5.P.I.I.Y.~.'.Y.A.A.Z.a a K K %.2.H h - < # = 3 n j.[.P.j.P.R.2.M H ..2.0.e.U.5.q.q.5.X.2.2.2.8.j.j.T.P.2.L 2.4.w.6.[ H ....[ | L ,.[ H [ H m H 2.2. .| { [ ..[ [ H  .| H D | ..L m n H w.0.....$.F 2.5.X.%.2.%.w.8.2.2.D | [ G %.%.| F F | G D n ..0.5.",
"| &.&.| | %.| | [ [ %.q.K.L.G.K.K.U.P.e.8.2.n ..5.6.,...n i J k   O 1 J R.'.P.Q.}.'.2.L H 2.6.q.e.X.5.8.e.0.2.2.8.T.}.}.[.`.e.X.5.0.0.5...' X.X...[ } X.5.*.*.*...[ ,.4.6.4.2.H 2.2.6.e.e.8.2.2.2.d.U.5.5.2.w.Y.S.S.S. .G 5.q.e.w.q.e.Y.q.0.w.X.@.2.q.K.0...| | L H [  .5.e.Y.R.^.'.R.D.A.0.%.D v X.&.=.&.D < h d o O 3 k P.(.I.R.Q.[.w.[ L %.5.0.5.X.X.0.q.0.5.2.2.2.K.'.R.T.2...[ 2.2.2.L M ~ H [ [ L  . .| ..~ H H H 2.2.2.2...[ G [ [ [ | [ G H ....| G K 2.2.4.8.2.H l %.w.$.X.0.5.S.0.2.2.$.| G | X. .G [ H v M n M X.w.q.",
"v K K ..A.A.| %.0.0.q.,.K.L.K.K.d.e.6.0.0.2.L $.6.q.2.2.....4.j   O 1 J T.`.0.q.'.R.6.X.....2.X.[ X.%.e.e.K.S.e.P.}.}.Q.S.2...2.%.| [ [ n ..%.| [ ..X.X.0.5.*.*.2.2.,.2.2.2.2.,.~ ,.8.8.2.6.2.8.2.2.X.w.e.8.A.R.T.S.e.w.5.5.X.X.[ 7.q.d.0.,.0.8.0.X.[ 2...2.w... .2.w.0.5.e.R.|.{.U.w.*.%.0.0.F H | | %.%.H ..I k o O d S !.[.j.5.R.'.2.X...X.5.X. .X.X.8.q.e.w.0.w.e.L.[.T.2.[ [ H m m n n m | [ [ ..[  .X.} ..2.2...[ .. .[ H [ b b ..G ' X.X. .| K [ | H 2.5.2.8.w.w.2.2.....G n ..2.2.$.$... .| D D G |  .w...D [  .X.5.5.e.",
"v J | %.G.A.5.w.5.9.d.e.K.R.I.A.5.2.w.8.w.w.2.6.w.5.e.2...8.2.1 . O 1 G P.}.q.X.R.R.e.w.6.2.2.| ..{ %.e.6.S.P.e.R.'.R.Q.9.X. .[ | [ v b G ..| n ' | X.0.5.5.7.0.6.5.L H 2.2.6.8.2.2.8.w.0.0.0.6...[ 2.6.K.L.L.L.L.S.Z.w.5.X.5.5.X.e.G.e.8.e.e.0.5.~ [ 5.5.U.S.2.w.K.8.e.K.R.^.R.e. .| D G 4.w.%...$.| $.$.F &.$.1 o , A S `.}.w.X.K.Y.6.6.5.2.%.X.X...@.e.d.A.A.w.5.S.U.(.P.,.L H M m n v n L ..m |  .[ X.2.} ....H H H H ..| [ ' n M ..' H X.X.X. .H ..X.%.A.S.w.6.2.w.e.S.X.X.H m  .X. . .| X.| | v D | | *.A. .L X.2.q.q.8.e.",
"%.%.$.=.w.*.5.w.q.8.K.R.L.K.5.5.} 2.T.S.P.w.2.0.e.S.| L L | v = o , k J R.}.e.X.T.K.q.e.8.,.H ..|  .e.K.K.L.q.} 0.0.5.e.2.X.....$.' v v D [ ' $.%.n X.w.5.*.5. .X.H h z 2.8.8...2.w.w.4.6.w.6.5.2.M X.5.0.K.K.e.e.6.d.K.Q.`.T.d.G.e.d.K.K.d.d.8.j.0.e.5.X.5.q.5.0.q.q.K.R.R.L.0...G n $.D.Z.&.%.| Z.Z.| D G | D 1 . , j D [.|.w.M w.L.e.e.0.q.X.} %.X.5.q.e.S.w.X.2.2.X.8.8.L ~ L L m k h v M m ....h n 2.2.......m v m H ..} 2.[ X.*.%.M G 5.5.0.2.H [ X.X.0.e.8.2.2.2.e.S.w.e.q.w.5.5.U.S.0.X...$.H | | | %.$.[ X.2.X.5.e.e.q.",
"0.%.X.%.5.%.5.A.G.e.K.P.R.q.X.[ v 2.U.0.2...| | U.T.| | ....m = o = j $.j.[.2.H S.K.S.T.S.4.2.2.[ 2.S.L.'.I.,.X.2.,.2.X.} | ..2.| a a l z G %.w.M h ..q.,.2.X.X.H w z m 2.2.6...2.6.2.2.6.e.w.w.} n G 0.w.U.G.G.A.q.S.R.R.R.'.R.I.R.R.R.K.I.R.R.d.e.G.0.5.2.5.0.q.e.e.e.K.e.q. ...l n A.~.Z.D H ..w.S.m H L L S = o > d S T.[.8.M e.U.S.K.S.S.5.0.{ [ q.S.K.K.2...X...[ X.[ [ [ ..m h h v h n ..0.H 9 v $.X. .L H m v n H | ..X.[ [ %.%.G ' K.U.L.e.n h [ %.w.0.....L ,.8.w.j.e.e.K.K.K.R.d.w.5.8.0... .%.| ....X...%.%.0.q.0.X.",
"w.2.2.%.w.0.5.2.%.{ [ [ 5.q.0.| Z.D.S.$.n v | K L $.w.$.v n u = O = k I w.T.P.P.Q.(.j.4.2.M 6.e.0.e.L.R.K.8.X.X.,.2.X.X. .| ..H i q q a D 4.Z.w.H v D X...X. .[ M n H 2.6.e.6.2.,.H [ 8.j.T.P.w.5...[ %.w.5.=.0.e.q.q.e.e.T.R.U.`.|.'.Q.R.R.'.I.q.w.L.R.e.Z.A.0.$.| [ [ [ | 0...%.$.S.D.U.&.u D I S H L 2.k k u O o 3 A L D.S.j.P.d.e.5...[ ' X.e.8.5.q.R.e.X. . .| [  .} H [ | H q < h v n ..2.4.G q h  . .| [ [ L H H H |  .2.[ G %.X.5.e.R.K.5.X.X...H X.5.X.2.,.2.2.8.2.S.j.e.q.G.L.e.6.q.G.e.0.2.2.2. .X.%.$.| H G n G H [ ",
"w.5.X.5.5.%.w.%.| G v M ..2.$.4.`.T.4.%.v F | K k D 2.%.h i f , o , j $.D.P.P.'.'.}.w.G S | e.[.'.R.R.L.K.*.X.X. .X.X. .X.[ v i i u p K 5.w.w.%.| v G %.2.} X.X.X. ...X.6.e.6...H ..2.j.P.(.!.d.w.5.=.| | %.%.q.0.5.5.X.2.P.e.d.R.Q.I.I.R.P.K.e.q.e.A.%.H ..%.2.%.$.G v D ..Z.| $.Z.D.w.D.K l K H h k L 2.k 1 - # o d S L D.w.j.(.K.w. .n v G 5.K.e.S.e.K.d.X. . . .| X. .X...x u w h q n L 2.2.2.D u l ....[  .2.X.X...L | 2...[ [ H [ w.R.Y.d.*.5.0...G n n [ [ ,.,.0.8.2.0.e.q.5.d.H.d.0.,.e.e.*.X.X. .X.X.| $...[ D h u n K ",
"X.| ..5.2.%.%.| D n D H D D l D L L $.K k l l j v 5.w.0.i # - = O , A L P.e.T.R.(.}.2.F k u L e.6.2.5.q.e.7.{ 5...2.X.2.[ m H 0.K a G %.4.$.%.A...z H 5.0.2. . .X.2.X.5.S.P.e.2.,.[ ..2.0.T.K.8.q.w...D | q.q.q.q.5.X.2.e.R.R.T.R.T.R.8. .5.w.5.X...v K G | 3.2.| F k a a a S a v D L L $.l u l j v 2.3.2.k - = # . d S J w.w.j.P.K.j.X.m h q n 2.5.6.w.5.5. .' 2.,. .X.X.[ b D ....1 k G L m L 4.H q v ....X.[ [ H ..X.5.6.S.e. .X.[ [ *.A.A.w.w.A.2.M v h G ..2.2.2.2.9.,.2...X.q.G.Y.%.G ..0.X.M M b [ 0.X.H  .K v u u h h j ",
"n ..2.A.w.$.H n n n K S # i j l k n H D j v k k $.w.Z.0.w ; k < O 3 S I 2.6.R.|.}.|.w.| j $ n X.6.q.5.0.,.[ %.S.2.X.m m [ 2.P.S...a | K K n ..A.L M %.5.5.X.X.[ 5.e.w.e.P.Q.T.2. . .[ [ X.q.K.e.A.%...G $.Z.A.A.w.%.X.2.3.S.P.T.K.U.U.L | w.S.2.G h D 4.2.2.$.L v h u n S ; * ; q j h n k h k v h L 4.w.2.k O - # . d A S L 2.9.P.I.(.0.n k $ j | [ %.%.2.X.[ [ S. .X.[ M  .5.w.`.e.< n H n h H e.H k K .. ...L H H ..6.j.e.`.P.{ [ [ [ X.X.5.2.q.H.w.K l n %.5.e.2.X.5.....D | 5.w.A.A.v v %.%.' D v s L 0.X.H n h i a n D < ; ",
"l D L %.2.H H H K ..0.K u F K H L F u u q u q q l H | H u k n 1 = j S L 8.e.'.|.|.8X2.k 9 n K %.w.w.%.[ L [ %.%.H v k 2.j.0.2.0...S H F H M 2.S.%.X.5.w.5.} } %.e.0.X.w.K.R.T.,.X.X.[ [ X.5.0.w.q.' G ..0.%.=.Z.*...| n L 5.e.K.K.w.2.G $.l k J K i v G J L n k n n n L [ u a D k v D k q ; - u h n I L L u - = = . > , k 4.8.I._._.(...i - k H H ..2. .M n G 5.0.M z z 0.P.0.[ 0...q v n n n | w.$.D H  .2.H H  ... ...w.e.Q.j.0.X.[ ' X. .L H %.w.G k l K [ X.8. .n G k < ; ; p u p p y H K G D H v u n G D l u h D F K 3.q q ",
"j k l l D F | H %.4.2.H l $.$.K L l q 1 h 1 $ - q a F D u n n 1 O 2 1 l `.|.|.}.}.`.H h k K 2.2.A.w...z H 2...G q q ..D.5.H X.w...v K | | | q.d.0.%.5.0.5.[ q.e.e. .2.e.e.K.'.'.e.X.X.M X.X.w.L.0.i D $.%.%.5.5.4.[ l # k 2.S.U.S.0.K K F < j D v k u u n n j v F D K $.| u D n 1 n D 1 - < ; 1 < q u u k - - < = . o # k S.R.(.{.).R.m q u K K G $.X...l G L H H k ; L S.2.[  .0...v n G L D [ 2...| %.X.K v H 0.2.n  .e.e.S.S.w.0.....| ..i z 5.2.9 u l D D H 2.[ G K - X o & # o # & S *.%.&.4.K k p k h u i j n F | ..$.u u ",
"; ; < ; ; u l J A.w.n ; a I | l n k h k v v h j i a v u 1 1 - = o = , A T.[.}.R.'.D.n D F K j a l n j i h k j h ; < ....m | 0.S.$.H H G | 2.w.0.,.[ [ 5.X.X.w.K.d. .5.P.d.w.R.'.5.X.X.[ 5.5.H.K.5.v D  .[ %.5.5.*.| n # l 2.S.K.U.0.2.$.n k n k k q j h k h - q n K 2.H j i H a h k k k ; u q j u < = u 1 - = 1 = . O 1 k 3.U.'.(.I.K.v j m $.j q l k u i v l u u - , v H k L 2.0...H H L ..| | 4.%.n D ..| H ..0.4.H 2.d.w.| H H i u l G D h L 2.&.h l F n l D K H F D = & = < p u < < p a a v S u ; - # & # = u h F ..F u 9 u "
};
