/* XPM */
static char * east_xpm[] = {
"64 64 26 1",
" 	c #000000",
".	c #010101",
"+	c #020202",
"@	c #040404",
"#	c #070707",
"$	c #080808",
"%	c #090909",
"&	c #060606",
"*	c #030303",
"=	c #050505",
"-	c #510000",
";	c #7F0000",
">	c #9E0000",
",	c #AE0000",
"'	c #5C0000",
")	c #AC0000",
"!	c #760000",
"~	c #8E0000",
"{	c #4C0000",
"]	c #810000",
"^	c #860000",
"/	c #B40000",
"(	c #610000",
"_	c #A40000",
":	c #9D0000",
"<	c #A90000",
"   .+@#$%$&*+.                      ....                        ",
"   .+*=#$#=*+.                                                  ",
"   ..*@&&&@*..                                                  ",
"    .+@===*+..                                                  ",
"    .+*@@@*+.                                                   ",
"    ..+*@@*+.                                                   ",
"    ..+***+..                                                   ",
"     .++*++..                                                   ",
"     ..++++..                                                   ",
"     ...++...                                                   ",
"      ......                                                    ",
"      ......                                                    ",
"       ....             --;;;;;;>,                              ",
"        ..          ')>,>>;;;;;;-                               ",
"                    '!-                                         ",
"                     ~{                                         ",
"                     ~]                                         ",
"                     ->                                         ",
"                     ->                                         ",
"                     ->                                         ",
"                     ->                                         ",
"                     ->                                         ",
"                     ->                                         ",
"                     ->                                         ",
"                     ->                                         ",
"                     ->                                         ",
"                     ->            -                            ",
"                     -> -;;;;;;;;>,>                            ",
"                     ^/,>;;;;;;;;-                              ",
"                     (_                                         ",
"                     ->                                         ",
"                     ->                                         ",
"                     ->                                         ",
"                     ->                                         ",
"                     ->                                         ",
"                     ->                                         ",
"                     ->                                         ",
"                     ->                                         ",
"                      ,                                         ",
"                      ,                                         ",
"                      ,                                         ",
"                      >-                                        ",
"                      ;;                                        ",
"                      ->              -                         ",
"                        ,;            >;                        ",
"                         ;,;;;;--------:<                       ",
"                           ;;;;>>>>>>>>>>                       ",
"                                                                ",
"                                                                ",
"                                                                ",
"                                                                ",
"                                                                ",
"                                                                ",
"                                                                ",
"                                                                ",
"                                                                ",
"                                                                ",
"                                                                ",
"                                                                ",
"                                                                ",
"                                                                ",
"                                                                ",
"                                                                ",
"                                                                "};
