/* XPM */
static char *out[] = {
/* columns rows colors chars-per-pixel */
"280 256 256 2 ",
"   c #040504",
".  c #080807",
"X  c #0B0906",
"o  c #0D0C0A",
"O  c #180C07",
"+  c #120E0B",
"@  c #13110D",
"#  c #1D140B",
"$  c #1B130D",
"%  c #0F0F11",
"&  c #141313",
"*  c #1A1612",
"=  c #1C1915",
"-  c #15151A",
";  c #18171B",
":  c #1B1B1C",
">  c #23150D",
",  c #2D160C",
"<  c #29180D",
"1  c #231B14",
"2  c #271A15",
"3  c #2B1C14",
"4  c #231D1B",
"5  c #321E13",
"6  c #391B16",
"7  c #3B210F",
"8  c #2D2117",
"9  c #24211D",
"0  c #2C221C",
"q  c #372316",
"w  c #33241B",
"e  c #3B251B",
"r  c #3C2A1D",
"t  c #1C1C22",
"y  c #1B1A25",
"u  c #221E22",
"i  c #1F2022",
"p  c #242323",
"a  c #2A2523",
"s  c #2C2A25",
"d  c #24242A",
"f  c #29262A",
"g  c #2C2B2B",
"h  c #332B25",
"j  c #372A27",
"k  c #3B2C23",
"l  c #332D2A",
"z  c #3C3227",
"x  c #35312C",
"c  c #3B332C",
"v  c #2C2C34",
"b  c #332D34",
"n  c #2E3034",
"m  c #343333",
"M  c #3B3532",
"N  c #3A3839",
"B  c #511D1B",
"V  c #46291A",
"C  c #442B1C",
"Z  c #4F301E",
"A  c #432D23",
"S  c #492D25",
"D  c #582B26",
"F  c #443125",
"G  c #4C3224",
"H  c #44342B",
"J  c #4B342B",
"K  c #4A392D",
"L  c #533324",
"P  c #54352A",
"I  c #543A2C",
"U  c #593828",
"Y  c #5B3B2C",
"T  c #443B34",
"R  c #473936",
"E  c #4B3D33",
"W  c #433D3A",
"Q  c #543D32",
"!  c #5A3C33",
"~  c #6A2B29",
"^  c #653A2C",
"/  c #673B33",
"(  c #753A36",
")  c #3F413E",
"_  c #5C412E",
"`  c #484139",
"'  c #4C433C",
"]  c #5C4234",
"[  c #53443C",
"{  c #58463A",
"}  c #65422D",
"|  c #74432E",
" . c #644433",
".. c #6A4837",
"X. c #634B3C",
"o. c #764A37",
"O. c #6C523D",
"+. c #76533B",
"@. c #7B533B",
"#. c #313244",
"$. c #393A43",
"%. c #493C43",
"&. c #3F4043",
"*. c #484645",
"=. c #534B44",
"-. c #594B45",
";. c #5A524A",
":. c #4D4E53",
">. c #595856",
",. c #674C43",
"<. c #774B44",
"1. c #685549",
"2. c #775646",
"3. c #745B4C",
"4. c #7B5B4C",
"5. c #675B54",
"6. c #785D52",
"7. c #7A614C",
"8. c #6B635A",
"9. c #766856",
"0. c #796558",
"q. c #5D5F63",
"w. c #686767",
"e. c #776C63",
"r. c #7B7268",
"t. c #737475",
"y. c #903629",
"u. c #854A38",
"i. c #9F4F3A",
"p. c #86583C",
"a. c #92513B",
"s. c #835C43",
"d. c #8F5049",
"f. c #865B48",
"g. c #965946",
"h. c #855C53",
"j. c #A7554D",
"k. c #89634A",
"l. c #976749",
"z. c #9B704E",
"x. c #846353",
"c. c #8B6454",
"v. c #886959",
"b. c #966B57",
"n. c #8A725D",
"m. c #997359",
"M. c #A3694C",
"N. c #A86A56",
"B. c #AF6C54",
"V. c #A37454",
"C. c #A67759",
"Z. c #AB7B5B",
"A. c #B57A5C",
"S. c #866D62",
"D. c #956C64",
"F. c #897667",
"G. c #987867",
"H. c #907C72",
"J. c #A67A66",
"K. c #AA746A",
"L. c #B77B65",
"P. c #C47863",
"I. c #B1815E",
"U. c #99826D",
"Y. c #8C8479",
"T. c #9A8676",
"R. c #AA8369",
"E. c #B38463",
"W. c #B88969",
"Q. c #BB916E",
"!. c #A88876",
"~. c #B58B77",
"^. c #A7927D",
"/. c #BA9378",
"(. c #C58869",
"). c #C7926D",
"_. c #CA8B74",
"`. c #C79877",
"'. c #D49A77",
"]. c #D99976",
"[. c #CCA37D",
"{. c #D8A27D",
"}. c #7E7F81",
"|. c #96908B",
" X c #9A938A",
".X c #A79686",
"XX c #AB9D8D",
"oX c #B89887",
"OX c #B0948B",
"+X c #A89C94",
"@X c #ADA08F",
"#X c #B6A28D",
"$X c #AEA291",
"%X c #ABA49B",
"&X c #B2A594",
"*X c #BAA597",
"=X c #B5A897",
"-X c #B6AA99",
";X c #BAAD9C",
":X c #B7B09E",
">X c #BBB09F",
",X c #B9ACA3",
"<X c #B2ADA8",
"1X c #B7B0A2",
"2X c #BDB4A3",
"3X c #BFB8A6",
"4X c #BEB6A9",
"5X c #BFB8A8",
"6X c #C59B86",
"7X c #CC9B8C",
"8X c #E09C91",
"9X c #CAA488",
"0X c #D5A888",
"qX c #D9B18D",
"wX c #C8A997",
"eX c #D6AC96",
"rX c #CBB29C",
"tX c #D7B499",
"yX c #E2AA89",
"uX c #E3B897",
"iX c #C6ADA3",
"pX c #D6ACA3",
"aX c #C1B5A5",
"sX c #C1B9A7",
"dX c #C3BBAB",
"fX c #C9B8AA",
"gX c #D7B9A6",
"hX c #C6BEB1",
"jX c #CABBB3",
"kX c #D6BDB5",
"lX c #E3BAA6",
"zX c #E2C19F",
"xX c #C9C1AF",
"cX c #DBC2AA",
"vX c #C7C0B0",
"bX c #CAC2B4",
"nX c #CBC6BB",
"mX c #CDC5B9",
"MX c #D8C5B9",
"NX c #E6C7AA",
"BX c #E3C9B8",
"VX c #EAD3B7",
"CX c #F2D6B7",
"ZX c #CDC5C3",
"AX c #D8CBC4",
"SX c #DCD4C8",
"DX c #DCD5CC",
"FX c #DED9D1",
"GX c #E5CFC5",
"HX c #E6D7C9",
"JX c #E2DCD4",
"KX c #E9DCD5",
"LX c #EAE3DA",
"PX c #F0E4D7",
"IX c #EFE9E4",
"UX c white",
/* pixels */
"UXUXUXUXUXUXUXUXUXUXUXUXUXUXUXUXUXUXUXUXUXUXUXUXUXUXUXUXUXUXUXUXUXUXUXUXUXUXUXUXUXUXUXUXUXUXUXUXUXUXUXUXUXUXUXUXUXUXUXUXUXUXUXUXUXUXUXUXUXUXUXUXUXUXUXUXUXUXUXUXUXUXUXUXUXUXUXUXUXUXUXUXUXUXUXUXUXUXUXUXUXUXUXUXUXUXUXUXUXUXUXUXUXUXUXUXUXUXUXUXUXUXUXUXUXUXUXUXUXUXUXUXUXUXUXUXUXUXUXUXUXUXUXUXUXUXUXUXUXUXUXUXUXUXUXUXUXUXUXUXUXUXUXUXUXUXUXUXUXUXUXUXUXUXUXUXUXUXUXUXUXUXUXUXUXUXUXUXUXUXUXUXUXUXUXUXUXUXUXUXUXUXUXUXUXUXUXUXUXUXUXUXUXUXUXUXUXUXUXUXUXUXUXUXUXUXUXUXUXUXUXUXUXUXUXUXUXUXUXUXUXUXUXUXUXUXUXUXUXUXUXUXUXUXUXUXUXUXUXUXUXUXUXUXUXUXUXUXUXUXUXUXUXUXUXUXUXUXUXUX",
"UXUXUXUXUXUXUXUXUXUXUXUXUXUXUXUXUXUXUXUXUXUXUXUXUXUXUXUXUXUXUXUXUXUXUXUXUXUXUXUXUXUXUXUXUXUXUXUXUXUXUXUXUXUXUXUXUXUXUXUXUXUXUXUXUXUXUXUXUXUXUXUXUXUXUXUXUXUXUXUXUXUXUXUXUXUXUXUXUXUXUXUXUXUXUXUXUXUXUXUXUXUXUXUXUXUXUXUXUXUXUXUXUXUXUXUXUXUXUXUXUXUXUXUXUXUXUXUXUXUXUXUXUXUXUXUXUXUXUXUXUXUXUXUXUXUXUXUXUXUXUXUXUXUXUXUXUXUXUXUXUXUXUXUXUXUXUXUXUXUXUXUXUXUXUXUXUXUXUXUXUXUXUXUXUXUXUXUXUXUXUXUXUXUXUXUXUXUXUXUXUXUXUXUXUXUXUXUXUXUXUXUXUXUXUXUXUXUXUXUXUXUXUXUXUXUXUXUXUXUXUXUXUXUXUXUXUXUXUXUXUXUXUXUXUXUXUXUXUXUXUXUXUXUXUXUXUXUXUXUXUXUXUXUXUXUXUXUXUXUXUXUXUXUXUXUXUXUXUXUX",
"UXUXUXUXUXUXUXUXUXUXUXUXUXUXUXUXUXUXUXUXUXUXUXUXUXUXUXUXUXUXUXUXUXUXUXUXUXUXUXUXUXUXUXUXUXUXUXUXUXUXUXUXUXUXUXUXUXUXUXUXUXUXUXUXUXUXUXUXUXUXUXUXUXUXUXUXUXUXUXUXUXUXUXUXUXUXUXUXUXUXUXUXUXUXUXUXUXUXUXUXUXUXUXUXUXUXUXUXUXUXUXUXUXUXUXUXUXUXUXUXUXUXUXUXUXUXUXUXUXUXUXUXUXUXUXUXUXUXUXUXUXUXUXUXUXUXUXUXUXUXUXUXUXUXUXUXUXUXUXUXUXUXUXUXUXUXUXUXUXUXUXUXUXUXUXUXUXUXUXUXUXUXUXUXUXUXUXUXUXUXUXUXUXUXUXUXUXUXUXUXUXUXUXUXUXUXUXUXUXUXUXUXUXUXUXUXUXUXUXUXUXUXUXUXUXUXUXUXUXUXUXUXUXUXUXUXUXUXUXUXUXUXUXUXUXUXUXUXUXUXUXUXUXUXUXUXUXUXUXUXUXUXUXUXUXUXUXUXUXUXUXUXUXUXUXUXUXUXUXUX",
"UXUXUXUXUXUXUXUXUXUXUXUXUXUXUXUXUXUXUXUXUXUXUXUXUXUXUXUXUXUXUXUXUXUXUXUXUXUXUXUXUXUXUXUXUXUXUXUXUXUXUXUXUXUXUXUXUXUXUXUXUXUXUXUXUXUXUXUXUXUXUXUXUXUXUXUXUXUXUXUXUXUXUXUXUXUXUXUXUXUXUXUXUXUXUXUXUXUXUXUXUXUXUXUXUXUXUXUXUXUXUXUXUXUXUXUXUXUXUXUXUXUXUXUXUXUXUXUXUXUXUXUXUXUXUXUXUXUXUXUXUXUXUXUXUXUXUXUXUXUXUXUXUXUXUXUXUXUXUXUXUXUXUXUXUXUXUXUXUXUXUXUXUXUXUXUXUXUXUXUXUXUXUXUXUXUXUXUXUXUXUXUXUXUXUXUXUXUXUXUXUXUXUXUXUXUXUXUXUXUXUXUXUXUXUXUXUXUXUXUXUXUXUXUXUXUXUXUXUXUXUXUXUXUXUXUXUXUXUXUXUXUXUXUXUXUXUXUXUXUXUXUXUXUXUXUXUXUXUXUXUXUXUXUXUXUXUXUXUXUXUXUXUXUXUXUXUXUXUXUX",
"UXUXUXUXUXUXUXUXUXUXUXUXUXUXUXUXUXUXUXUXUXUXUXUXUXUXUXUXUXUXUXUXUXUXUXUXUXUXUXUXUXUXUXUXUXUXUXUXUXUXUXUXUXUXUXUXUXUXUXUXUXUXUXUXUXUXUXUXUXUXUXUXUXUXUXUXUXUXUXUXUXUXUXUXUXUXUXUXUXUXUXUXUXUXUXUXUXUXUXUXUXUXUXUXUXUXUXUXUXUXUXUXUXUXUXUXUXUXUXUXUXUXUXUXUXUXUXUXUXUXUXUXUXUXUXUXUXUXUXUXUXUXUXUXUXUXUXUXUXUXUXUXUXUXUXUXUXUXUXUXUXUXUXUXUXUXUXUXUXUXUXUXUXUXUXUXUXUXUXUXUXUXUXUXUXUXUXUXUXUXUXUXUXUXUXUXUXUXUXUXUXUXUXUXUXUXUXUXUXUXUXUXUXUXUXUXUXUXUXUXUXUXUXUXUXUXUXUXUXUXUXUXUXUXUXUXUXUXUXUXUXUXUXUXUXUXUXUXUXUXUXUXUXUXUXUXUXUXUXUXUXUXUXUXUXUXUXUXUXUXUXUXUXUXUXUXUXUXUXUX",
"UXUXUXUXUXUXUXUXUXUXUXUXUXUXUXUXUXUXUXUXUXUXUXUXUXUXUXUXUXUXUXUXUXUXUXUXUXUXUXUXUXUXUXUXUXUXUXUXUXUXUXUXUXUXUXUXUXUXUXUXUXUXUXUXUXUXUXUXUXUXUXUXUXUXUXUXUXUXUXUXUXUXUXUXUXUXUXUXUXUXUXUXUXUXUXUXUXUXUXUXUXUXUXUXUXUXUXUXUXUXUXUXUXUXUXUXUXUXUXUXUXUXUXUXUXUXUXUXUXUXUXUXUXUXUXUXUXUXUXUXUXUXUXUXUXUXUXUXUXUXUXUXUXUXUXUXUXUXUXUXUXUXUXUXUXUXUXUXUXUXUXUXUXUXUXUXUXUXUXUXUXUXUXUXUXUXUXUXUXUXUXUXUXUXUXUXUXUXUXUXUXUXUXUXUXUXUXUXUXUXUXUXUXUXUXUXUXUXUXUXUXUXUXUXUXUXUXUXUXUXUXUXUXUXUXUXUXUXUXUXUXUXUXUXUXUXUXUXUXUXUXUXUXUXUXUXUXUXUXUXUXUXUXUXUXUXUXUXUXUXUXUXUXUXUXUXUXUXUXUX",
"UXUXUXUXUXUXUXUXUXUXUXUXUXUXUXUXUXUXUXUXUXUXUXUXUXUXUXUXUXUXUXUXUXUXUXUXUXUXUXUXUXUXUXUXUXUXUXUXUXUXUXUXUXUXUXUXUXUXUXUXUXUXUXUXUXUXUXUXUXUXUXUXUXUXUXUXUXUXUXUXUXUXUXUXUXUXUXUXUXUXUXUXUXUXUXUXUXUXUXUXUXUXUXUXUXUXUXUXUXUXUXUXUXUXUXUXUXUXUXUXUXUXUXUXUXUXUXUXUXUXUXUXUXUXUXUXUXUXUXUXUXUXUXUXUXUXUXUXUXUXUXUXUXUXUXUXUXUXUXUXUXUXUXUXUXUXUXUXUXUXUXUXUXUXUXUXUXUXUXUXUXUXUXUXUXUXUXUXUXUXUXUXUXUXUXUXUXUXUXUXUXUXUXUXUXUXUXUXUXUXUXUXUXUXUXUXUXUXUXUXUXUXUXUXUXUXUXUXUXUXUXUXUXUXUXUXUXUXUXUXUXUXUXUXUXUXUXUXUXUXUXUXUXUXUXUXUXUXUXUXUXUXUXUXUXUXUXUXUXUXUXUXUXUXUXUXUXUXUXUX",
"UXUXUXUXUXUXUXUXUXUXUXUXUXUXUXUXUXUXUXUXUXUXUXUXUXUXUXUXUXUXUXUXUXUXUXUXUXUXUXUXUXUXUXUXUXUXUXUXUXUXUXUXUXUXUXUXUXUXUXUXUXUXUXUXUXUXUXUXUXUXUXUXUXUXUXUXUXUXUXUXUXUXUXUXUXUXUXUXUXUXUXUXUXUXUXUXUXUXUXUXUXUXUXUXUXUXUXUXUXUXUXUXUXUXUXUXUXUXUXUXUXUXUXUXUXUXUXUXUXUXUXUXUXUXUXUXUXUXUXUXUXUXUXUXUXUXUXUXUXUXUXUXUXUXUXUXUXUXUXUXUXUXUXUXUXUXUXUXUXUXUXUXUXUXUXUXUXUXUXUXUXUXUXUXUXUXUXUXUXUXUXUXUXUXUXUXUXUXUXUXUXUXUXUXUXUXUXUXUXUXUXUXUXUXUXUXUXUXUXUXUXUXUXUXUXUXUXUXUXUXUXUXUXUXUXUXUXUXUXUXUXUXUXUXUXUXUXUXUXUXUXUXUXUXUXUXUXUXUXUXUXUXUXUXUXUXUXUXUXUXUXUXUXUXUXUXUXUXUXUX",
"UXUXUXUXUXUXUXUXUXUXUXUXUXUXUXUXUXUXUXUXUXUXUXUXUXUXUXUXUXUXUXUXUXUXUXUXUXUXUXUXUXUXUXUXUXUXUXUXUXUXUXUXUXUXUXUXUXUXUXUXUXUXUXUXUXUXUXUXUXUXUXUXUXUXUXUXUXUXUXUXUXUXUXUXUXUXUXUXUXUXUXUXUXUXUXUXUXUXUXUXUXUXUXUXUXUXUXUXUXUXUXUXUXUXUXUXUXUXUXUXUXUXUXUXUXUXUXUXUXUXUXUXUXUXUXUXUXUXUXUXUXUXUXUXUXUXUXUXUXUXUXUXUXUXUXUXUXUXUXUXUXUXUXUXUXUXUXUXUXUXUXUXUXUXUXUXUXUXUXUXUXUXUXUXUXUXUXUXUXUXUXUXUXUXUXUXUXUXUXUXUXUXUXUXUXUXUXUXUXUXUXUXUXUXUXUXUXUXUXUXUXUXUXUXUXUXUXUXUXUXUXUXUXUXUXUXUXUXUXUXUXUXUXUXUXUXUXUXUXUXUXUXUXUXUXUXUXUXUXUXUXUXUXUXUXUXUXUXUXUXUXUXUXUXUXUXUXUXUXUX",
"UXUXUXUXUXUXUXUXUXUXUXUXUXUXUXUXUXUXUXUXUXUXUXUXUXUXUXUXUXUXUXUXUXUXUXUXUXUXUXUXUXUXUXUXUXUXUXUXUXUXUXUXUXUXUXUXUXUXUXUXUXUXUXUXUXUXUXUXUXUXUXUXUXUXUXUXUXUXUXUXUXUXUXUXUXUXUXUXUXUXUXUXUXUXUXUXUXUXUXUXUXUXUXUXUXUXUXUXUXUXUXUXUXUXUXUXUXUXUXUXUXUXUXUXUXUXUXUXUXUXUXUXUXUXUXUXUXUXUXUXUXUXUXUXUXUXUXUXUXUXUXUXUXUXUXUXUXUXUXUXUXUXUXUXUXUXUXUXUXUXUXUXUXUXUXUXUXUXUXUXUXUXUXUXUXUXUXUXUXUXUXUXUXUXUXUXUXUXUXUXUXUXUXUXUXUXUXUXUXUXUXUXUXUXUXUXUXUXUXUXUXUXUXUXUXUXUXUXUXUXUXUXUXUXUXUXUXUXUXUXUXUXUXUXUXUXUXUXUXUXUXUXUXUXUXUXUXUXUXUXUXUXUXUXUXUXUXUXUXUXUXUXUXUXUXUXUXUXUXUX",
"UXUXUXUXUXUXUXUXUXUXUXUXUXUXUXUXUXUXUXUXUXUXUXUXUXUXUXUXUXUXUXUXUXUXUXUXUXUXUXUXUXUXUXUXUXUXUXUXUXUXUXUXUXUXUXUXUXUXUXUXUXUXUXUXUXUXUXUXUXUXUXUXUXUXUXUXUXUXUXUXUXUXUXUXUXUXUXUXUXUXUXUXUXUXUXUXUXUXUXUXUXUXUXUXUXUXUXUXUXUXUXUXUXUXUXUXUXUXUXUXUXUXUXUXUXUXUXUXUXUXUXUXUXUXUXUXUXUXUXUXUXUXUXUXUXUXUXUXUXUXUXUXUXUXUXUXUXUXUXUXUXUXUXUXUXUXUXUXUXUXUXUXUXUXUXUXUXUXUXUXUXUXUXUXUXUXUXUXUXUXUXUXUXUXUXUXUXUXUXUXUXUXUXUXUXUXUXUXUXUXUXUXUXUXUXUXUXUXUXUXUXUXUXUXUXUXUXUXUXUXUXUXUXUXUXUXUXUXUXUXUXUXUXUXUXUXUXUXUXUXUXUXUXUXUXUXUXUXUXUXUXUXUXUXUXUXUXUXUXUXUXUXUXUXUXUXUXUXUXUX",
"UXUXUXUXUXUXUXUXUXUXUXUXUXUXUXUXUXUXUXUXUXUXUXUXUXUXUXUXUXUXUXUXUXUXUXUXUXUXUXUXUXUXUXUXUXUXUXUXUXUXUXUXUXUXUXUXUXUXUXUXUXUXUXUXUXUXUXUXUXUXUXUXUXUXUXUXUXUXUXUXUXUXUXUXUXUXUXUXUXUXUXUXUXUXUXUXUXUXUXUXUXUXUXUXUXUXUXUXUXUXUXUXUXUXUXUXUXUXUXUXUXUXUXUXUXUXUXUXUXUXUXUXUXUXUXUXUXUXUXUXUXUXUXUXUXUXUXUXUXUXUXUXUXUXUXUXUXUXUXUXUXUXUXUXUXUXUXUXUXUXUXUXUXUXUXUXUXUXUXUXUXUXUXUXUXUXUXUXUXUXUXUXUXUXUXUXUXUXUXUXUXUXUXUXUXUXUXUXUXUXUXUXUXUXUXUXUXUXUXUXUXUXUXUXUXUXUXUXUXUXUXUXUXUXUXUXUXUXUXUXUXUXUXUXUXUXUXUXUXUXUXUXUXUXUXUXUXUXUXUXUXUXUXUXUXUXUXUXUXUXUXUXUXUXUXUXUXUXUXUX",
"UXUXUXUXUXUXUXUXUXUXUXUXUXUXUXUXUXUXUXUXUXUXUXUXUXUXUXUXUXUXUXUXUXUXUXUXUXUXUXUXUXUXUXUXUXUXUXUXUXUXUXUXUXUXUXUXUXUXUXUXUXUXUXUXUXUXUXUXUXUXUXUXUXUXUXUXUXUXUXUXUXUXUXUXUXUXUXUXUXUXUXUXUXUXUXUXUXUXUXUXUXUXUXUXUXUXUXUXUXUXUXUXUXUXUXUXUXUXUXUXUXUXUXUXUXUXUXUXUXUXUXUXUXUXUXUXUXUXUXUXUXUXUXUXUXUXUXUXUXUXUXUXUXUXUXUXUXUXUXUXUXUXUXUXUXUXUXUXUXUXUXUXUXUXUXUXUXUXUXUXUXUXUXUXUXUXUXUXUXUXUXUXUXUXUXUXUXUXUXUXUXUXUXUXUXUXUXUXUXUXUXUXUXUXUXUXUXUXUXUXUXUXUXUXUXUXUXUXUXUXUXUXUXUXUXUXUXUXUXUXUXUXUXUXUXUXUXUXUXUXUXUXUXUXUXUXUXUXUXUXUXUXUXUXUXUXUXUXUXUXUXUXUXUXUXUXUXUXUXUX",
"UXUXUXUXUXUXUXUXUXUXUXUXUXUXUXUXUXUXUXUXUXUXUXUXUXUXUXUXUXUXUXUXUXUXUXUXUXUXUXUXUXUXUXUXUXUXUXUXUXUXUXUXUXUXUXUXUXUXUXUXUXUXUXUXUXUXUXUXUXUXUXUXUXUXUXUXUXUXUXUXUXUXUXUXUXUXUXUXUXUXUXUXUXUXUXUXUXUXUXUXUXUXUXUXUXUXUXUXUXUXUXUXUXUXUXUXUXUXUXUXUXUXUXUXUXUXUXUXUXUXUXUXUXUXUXUXUXUXUXUXUXUXUXUXUXUXUXUXUXUXUXUXUXUXUXUXUXUXUXUXUXUXUXUXUXUXUXUXUXUXUXUXUXUXUXUXUXUXUXUXUXUXUXUXUXUXUXUXUXUXUXUXUXUXUXUXUXUXUXUXUXUXUXUXUXUXUXUXUXUXUXUXUXUXUXUXUXUXUXUXUXUXUXUXUXUXUXUXUXUXUXUXUXUXUXUXUXUXUXUXUXUXUXUXUXUXUXUXUXUXUXUXUXUXUXUXUXUXUXUXUXUXUXUXUXUXUXUXUXUXUXUXUXUXUXUXUXUXUXUX",
"UXUXUXUXUXUXUXUXUXUXUXUXUXUXUXUXUXUXUXUXUXUXUXUXUXUXUXUXUXUXUXUXUXUXUXUXUXUXUXUXUXUXUXUXUXUXUXUXUXUXUXUXUXUXUXUXUXUXUXUXUXUXUXUXUXUXUXUXUXUXUXUXUXUXUXUXUXUXUXUXUXUXUXUXUXUXUXUXUXUXUXUXUXUXUXUXUXUXUXUXUXUXUXUXUXUXUXUXUXUXUXUXUXUXUXUXUXUXUXUXUXUXUXUXUXUXUXUXUXUXUXUXUXUXUXUXUXUXUXUXUXUXUXUXUXUXUXUXUXUXUXUXUXUXUXUXUXUXUXUXUXUXUXUXUXUXUXUXUXUXUXUXUXUXUXUXUXUXUXUXUXUXUXUXUXUXUXUXUXUXUXUXUXUXUXUXUXUXUXUXUXUXUXUXUXUXUXUXUXUXUXUXUXUXUXUXUXUXUXUXUXUXUXUXUXUXUXUXUXUXUXUXUXUXUXUXUXUXUXUXUXUXUXUXUXUXUXUXUXUXUXUXUXUXUXUXUXUXUXUXUXUXUXUXUXUXUXUXUXUXUXUXUXUXUXUXUXUXUXUX",
"UXUXUXUXUXUXUXUXUXUXUXUXUXUXUXUXUXUXUXUXUXUXUXUXUXUXUXUXUXUXUXUXUXUXUXUXUXUXUXUXUXUXUXUXUXUXUXUXUXUXUXUXUXUXUXUXUXUXUXUXUXUXUXUXUXUXUXUXUXUXUXUXUXUXUXUXUXUXUXUXUXUXUXUXUXUXUXUXUXUXUXUXUXUXUXUXUXUXUXUXUXUXUXUXUXUXUXUXUXUXUXUXUXUXUXUXUXUXUXUXUXUXUXUXUXUXUXUXUXUXUXUXUXUXUXUXUXUXUXUXUXUXUXUXUXUXUXUXUXUXUXUXUXUXUXUXUXUXUXUXUXUXUXUXUXUXUXUXUXUXUXUXUXUXUXUXUXUXUXUXUXUXUXUXUXUXUXUXUXUXUXUXUXUXUXUXUXUXUXUXUXUXUXUXUXUXUXUXUXUXUXUXUXUXUXUXUXUXUXUXUXUXUXUXUXUXUXUXUXUXUXUXUXUXUXUXUXUXUXUXUXUXUXUXUXUXUXUXUXUXUXUXUXUXUXUXUXUXUXUXUXUXUXUXUXUXUXUXUXUXUXUXUXUXUXUXUXUXUXUX",
"UXUXUXUXUXUXUXUXUXUXUXUXUXUXUXUXUXUXUXUXUXUXUXUXUXUXUXUXUXUXUXUXUXUXUXUXUXUXUXUXUXUXUXUXUXUXUXUXUXUXUXUXUXUXUXUXUXUXUXUXUXUXUXUXUXUXUXUXUXUXUXUXUXUXUXUXUXUXUXUXUXUXUXUXUXUXUXUXUXUXUXUXUXUXUXUXUXUXUXUXUXUXUXUXUXUXUXUXUXUXUXUXUXUXUXUXUXUXUXUXUXUXUXUXUXUXUXUXUXUXUXUXUXUXUXUXUXUXUXUXUXUXUXUXUXUXUXUXUXUXUXUXUXUXUXUXUXUXUXUXUXUXUXUXUXUXUXUXUXUXUXUXUXUXUXUXUXUXUXUXUXUXUXUXUXUXUXUXUXUXUXUXUXUXUXUXUXUXUXUXUXUXUXUXUXUXUXUXUXUXUXUXUXUXUXUXUXUXUXUXUXUXUXUXUXUXUXUXUXUXUXUXUXUXUXUXUXUXUXUXUXUXUXUXUXUXUXUXUXUXUXUXUXUXUXUXUXUXUXUXUXUXUXUXUXUXUXUXUXUXUXUXUXUXUXUXUXUXUXUX",
"UXUXUXUXUXUXUXUXUXUXUXUXUXUXUXUXUXUXUXUXUXUXUXUXUXUXUXUXUXUXUXUXUXUXUXUXUXUXUXUXUXUXUXUXUXUXUXUXUXUXUXUXUXUXUXUXUXUXUXUXUXUXUXUXUXUXUXUXUXUXUXUXUXUXUXUXUXUXUXUXUXUXUXUXUXUXUXUXUXUXUXUXUXUXUXUXUXUXUXUXUXUXUXUXUXUXUXUXUXUXUXUXUXUXUXUXUXUXUXUXUXUXUXUXUXUXUXUXUXUXUXUXUXUXUXUXUXUXUXUXUXUXUXUXUXUXUXUXUXUXUXUXUXUXUXUXUXUXUXUXUXUXUXUXUXUXUXUXUXUXUXUXUXUXUXUXUXUXUXUXUXUXUXUXUXUXUXUXUXUXUXUXUXUXUXUXUXUXUXUXUXUXUXUXUXUXUXUXUXUXUXUXUXUXUXUXUXUXUXUXUXUXUXUXUXUXUXUXUXUXUXUXUXUXUXUXUXUXUXUXUXUXUXUXUXUXUXUXUXUXUXUXUXUXUXUXUXUXUXUXUXUXUXUXUXUXUXUXUXUXUXUXUXUXUXUXUXUXUXUX",
"UXUXUXUXUXUXUXUXUXUXUXUXUXUXUXUXUXUXUXUXUXUXUXUXUXUXUXUXUXUXUXUXUXUXUXUXUXUXUXUXUXUXUXUXUXUXUXUXUXUXUXUXUXUXUXUXUXUXUXUXUXUXUXUXUXUXUXUXUXUXUXUXUXUXUXUXUXUXUXUXUXUXUXUXUXUXUXUXUXUXUXUXUXUXUXUXUXUXUXUXUXUXUXUXUXUXUXUXUXUXUXUXUXUXUXUXUXUXUXUXUXUXUXUXUXUXUXUXUXUXUXUXUXUXUXUXUXUXUXUXUXUXUXUXUXUXUXUXUXUXUXUXUXUXUXUXUXUXUXUXUXUXUXUXUXUXUXUXUXUXUXUXUXUXUXUXUXUXUXUXUXUXUXUXUXUXUXUXUXUXUXUXUXUXUXUXUXUXUXUXUXUXUXUXUXUXUXUXUXUXUXUXUXUXUXUXUXUXUXUXUXUXUXUXUXUXUXUXUXUXUXUXUXUXUXUXUXUXUXUXUXUXUXUXUXUXUXUXUXUXUXUXUXUXUXUXUXUXUXUXUXUXUXUXUXUXUXUXUXUXUXUXUXUXUXUXUXUXUXUX",
"UXUXUXUXUXUXUXUXUXUXUXUXUXUXUXUXUXUXUXUXUXUXUXUXUXUXUXUXUXUXUXUXUXUXUXUXUXUXUXUXUXUXUXUXUXUXUXUXUXUXUXUXUXUXUXUXUXUXUXUXUXUXUXUXUXUXUXUXUXUXUXUXUXUXUXUXUXUXUXUXUXUXUXUXUXUXUXUXUXUXUXUXUXUXUXUXUXUXUXUXUXUXUXUXUXUXUXUXUXUXUXUXUXUXUXUXUXUXUXUXUXUXUXUXUXUXUXUXUXUXUXUXUXUXUXUXUXUXUXUXUXUXUXUXUXUXUXUXUXUXUXUXUXUXUXUXUXUXUXUXUXUXUXUXUXUXUXUXUXUXUXUXUXUXUXUXUXUXUXUXUXUXUXUXUXUXUXUXUXUXUXUXUXUXUXUXUXUXUXUXUXUXUXUXUXUXUXUXUXUXUXUXUXUXUXUXUXUXUXUXUXUXUXUXUXUXUXUXUXUXUXUXUXUXUXUXUXUXUXUXUXUXUXUXUXUXUXUXUXUXUXUXUXUXUXUXUXUXUXUXUXUXUXUXUXUXUXUXUXUXUXUXUXUXUXUXUXUXUXUX",
"UXUXUXUXUXUXUXUXUXUXUXUXUXUXUXUXUXUXUXUXUXUXUXUXUXUXUXUXUXUXUXUXUXUXUXUXUXUXUXUXUXUXUXUXUXUXUXUXUXUXUXUXUXUXUXUXUXUXUXUXUXUXUXUXUXUXUXUXUXUXUXUXUXUXUXUXUXUXUXUXUXUXUXUXUXUXUXUXUXUXUXUXUXUXUXUXUXUXUXUXUXUXUXUXUXUXUXUXUXUXUXUXUXUXUXUXUXUXUXUXUXUXUXUXUXUXUXUXUXUXUXUXUXUXUXUXUXUXUXUXUXUXUXUXUXUXUXUXUXUXUXUXUXUXUXUXUXUXUXUXUXUXUXUXUXUXUXUXUXUXUXUXUXUXUXUXUXUXUXUXUXUXUXUXUXUXUXUXUXUXUXUXUXUXUXUXUXUXUXUXUXUXUXUXUXUXUXUXUXUXUXUXUXUXUXUXUXUXUXUXUXUXUXUXUXUXUXUXUXUXUXUXUXUXUXUXUXUXUXUXUXUXUXUXUXUXUXUXUXUXUXUXUXUXUXUXUXUXUXUXUXUXUXUXUXUXUXUXUXUXUXUXUXUXUXUXUXUXUXUX",
"UXUXUXUXUXUXUXUXUXUXUXUXUXUXUXUXUXUXUXUXUXUXUXUXUXUXUXUXUXUXUXUXUXUXUXUXUXUXUXUXUXUXUXUXUXUXUXUXUXUXUXUXUXUXUXUXUXUXUXUXUXUXUXUXUXUXUXUXUXUXUXUXUXUXUXUXUXUXUXUXUXUXUXUXUXUXUXUXUXUXUXUXUXUXUXUXUXUXUXUXUXUXUXUXUXUXUXUXUXUXUXUXUXUXUXUXUXUXUXUXUXUXUXUXUXUXUXUXUXUXUXUXUXUXUXUXUXUXUXUXUXUXUXUXUXUXUXUXUXUXUXUXUXUXUXUXUXUXUXUXUXUXUXUXUXUXUXUXUXUXUXUXUXUXUXUXUXUXUXUXUXUXUXUXUXUXUXUXUXUXUXUXUXUXUXUXUXUXUXUXUXUXUXUXUXUXUXUXUXUXUXUXUXUXUXUXUXUXUXUXUXUXUXUXUXUXUXUXUXUXUXUXUXUXUXUXUXUXUXUXUXUXUXUXUXUXUXUXUXUXUXUXUXUXUXUXUXUXUXUXUXUXUXUXUXUXUXUXUXUXUXUXUXUXUXUXUXUXUXUX",
"UXUXUXUXUXUXUXUXUXUXUXUXUXUXUXUXUXUXUXUXUXUXUXUXUXUXUXUXUXUXUXUXUXUXUXUXUXUXUXUXUXUXUXUXUXUXUXUXUXUXUXUXUXUXUXUXUXUXUXUXUXUXUXUXUXUXUXUXUXUXUXUXUXUXUXUXUXUXUXUXUXUXUXUXUXUXUXUXUXUXUXUXUXUXUXUXUXUXUXUXUXUXUXUXUXUXUXUXUXUXUXUXUXUXUXUXUXUXUXUXUXUXUXUXUXUXUXUXUXUXUXUXUXUXUXUXUXUXUXUXUXUXUXUXUXUXUXUXUXUXUXUXUXUXUXUXUXUXUXUXUXUXUXUXUXUXUXUXUXUXUXUXUXUXUXUXUXUXUXUXUXUXUXUXUXUXUXUXUXUXUXUXUXUXUXUXUXUXUXUXUXUXUXUXUXUXUXUXUXUXUXUXUXUXUXUXUXUXUXUXUXUXUXUXUXUXUXUXUXUXUXUXUXUXUXUXUXUXUXUXUXUXUXUXUXUXUXUXUXUXUXUXUXUXUXUXUXUXUXUXUXUXUXUXUXUXUXUXUXUXUXUXUXUXUXUXUXUXUXUX",
"UXUXUXUXUXUXUXUXUXUXUXUXUXUXUXUXUXUXUXUXUXUXUXUXUXUXUXUXUXUXUXUXUXUXUXUXUXUXUXUXUXUXUXUXUXUXUXUXUXUXUXUXUXUXUXUXUXUXUXUXUXUXUXUXUXUXUXUXUXUXUXUXUXUXUXUXUXUXUXUXUXUXUXUXUXUXUXUXUXUXUXUXUXUXUXUXUXUXUXUXUXUXUXUXUXUXUXUXUXUXUXUXUXUXUXUXUXUXUXUXUXUXUXUXUXUXUXUXUXUXUXUXUXUXUXUXUXUXUXUXUXUXUXUXUXUXUXUXUXUXUXUXUXUXUXUXUXUXUXUXUXUXUXUXUXUXUXUXUXUXUXUXUXUXUXUXUXUXUXUXUXUXUXUXUXUXUXUXUXUXUXUXUXUXUXUXUXUXUXUXUXUXUXUXUXUXUXUXUXUXUXUXUXUXUXUXUXUXUXUXUXUXUXUXUXUXUXUXUXUXUXUXUXUXUXUXUXUXUXUXUXUXUXUXUXUXUXUXUXUXUXUXUXUXUXUXUXUXUXUXUXUXUXUXUXUXUXUXUXUXUXUXUXUXUXUXUXUXUXUX",
"UXUXUXUXUXUXUXUXUXUXUXUXUXUXUXUXUXUXUXUXUXUXUXUXUXUXUXUXUXUXUXUXUXUXUXUXUXUXUXUXUXUXUXUXUXUXUXUXUXUXUXUXUXUXUXUXUXUXUXUXUXUXUXUXUXUXUXUXUXUXUXUXUXUXUXUXUXUXUXUXUXUXUXUXUXUXUXUXUXUXUXUXUXUXUXUXUXUXUXUXUXUXUXUXUXUXUXUXUXUXUXUXUXUXUXUXUXUXUXUXUXUXUXUXUXUXUXUXUXUXUXUXUXUXUXUXUXUXUXUXUXUXUXUXUXUXUXUXUXUXUXUXUXUXUXUXUXUXUXUXUXUXUXUXUXUXUXUXUXUXUXUXUXUXUXUXUXUXUXUXUXUXUXUXUXUXUXUXUXUXUXUXUXUXUXUXUXUXUXUXUXUXUXUXUXUXUXUXUXUXUXUXUXUXUXUXUXUXUXUXUXUXUXUXUXUXUXUXUXUXUXUXUXUXUXUXUXUXUXUXUXUXUXUXUXUXUXUXUXUXUXUXUXUXUXUXUXUXUXUXUXUXUXUXUXUXUXUXUXUXUXUXUXUXUXUXUXUXUXUX",
"UXUXUXUXUXUXUXUXUXUXUXUXUXUXUXUXUXUXUXUXUXUXUXUXUXUXUXUXUXUXUXUXUXUXUXUXUXUXUXUXUXUXUXUXUXUXUXUXUXUXUXUXUXUXUXUXUXUXUXUXUXUXUXUXUXUXUXUXUXUXUXUXUXUXUXUXUXUXUXUXUXUXUXUXUXUXUXUXUXUXUXUXUXUXUXUXUXUXUXUXUXUXUXUXUXUXUXUXUXUXUXUXUXUXUXUXUXUXUXUXUXUXUXUXUXUXUXUXUXUXUXUXUXUXUXUXUXUXUXUXUXUXUXUXUXUXUXUXUXUXUXUXUXUXUXUXUXUXUXUXUXUXUXUXUXUXUXUXUXUXUXUXUXUXUXUXUXUXUXUXUXUXUXUXUXUXUXUXUXUXUXUXUXUXUXUXUXUXUXUXUXUXUXUXUXUXUXUXUXUXUXUXUXUXUXUXUXUXUXUXUXUXUXUXUXUXUXUXUXUXUXUXUXUXUXUXUXUXUXUXUXUXUXUXUXUXUXUXUXUXUXUXUXUXUXUXUXUXUXUXUXUXUXUXUXUXUXUXUXUXUXUXUXUXUXUXUXUXUXUX",
"UXUXUXUXUXUXUXUXUXUXUXUXUXUXUXUXUXUXUXUXUXUXUXUXUXUXUXUXUXUXUXUXUXUXUXUXUXUXUXUXUXUXUXUXUXUXUXUXUXUXUXUXUXUXUXUXUXUXUXUXUXUXUXUXUXUXUXUXUXUXUXUXUXUXUXUXUXUXUXUXUXUXUXUXUXUXUXUXUXUXUXUXUXUXUXUXUXUXUXUXUXUXUXUXUXUXUXUXUXUXUXUXUXUXUXUXUXUXUXUXUXUXUXUXUXUXUXUXUXUXUXUXUXUXUXUXUXUXUXUXUXUXUXUXUXUXUXUXUXUXUXUXUXUXUXUXUXUXUXUXUXUXUXUXUXUXUXUXUXUXUXUXUXUXUXUXUXUXUXUXUXUXUXUXUXUXUXUXUXUXUXUXUXUXUXUXUXUXUXUXUXUXUXUXUXUXUXUXUXUXUXUXUXUXUXUXUXUXUXUXUXUXUXUXUXUXUXUXUXUXUXUXUXUXUXUXUXUXUXUXUXUXUXUXUXUXUXUXUXUXUXUXUXUXUXUXUXUXUXUXUXUXUXUXUXUXUXUXUXUXUXUXUXUXUXUXUXUXUXUX",
"UXUXUXUXUXUXUXUXUXUXUXUXUXUXUXUXUXUXUXUXUXUXUXUXUXUXUXUXUXUXUXUXUXUXUXUXUXUXUXUXUXUXUXUXUXUXUXUXUXUXUXUXUXUXUXUXUXUXUXUXUXUXUXUXUXUXUXUXUXUXUXUXUXUXUXUXUXUXUXUXUXUXUXUXUXUXUXUXUXUXUXUXUXUXUXUXUXUXUXUXUXUXUXUXUXUXUXUXUXUXUXUXUXUXUXUXUXUXUXUXUXUXUXUXUXUXUXUXUXUXUXUXUXUXUXUXUXUXUXUXUXUXUXUXUXUXUXUXUXUXUXUXUXUXUXUXUXUXUXUXUXUXUXUXUXUXUXUXUXUXUXUXUXUXUXUXUXUXUXUXUXUXUXUXUXUXUXUXUXUXUXUXUXUXUXUXUXUXUXUXUXUXUXUXUXUXUXUXUXUXUXUXUXUXUXUXUXUXUXUXUXUXUXUXUXUXUXUXUXUXUXUXUXUXUXUXUXUXUXUXUXUXUXUXUXUXUXUXUXUXUXUXUXUXUXUXUXUXUXUXUXUXUXUXUXUXUXUXUXUXUXUXUXUXUXUXUXUXUXUX",
"UXUXUXUXUXUXUXUXUXUXUXUXUXUXUXUXUXUXUXUXUXUXUXUXUXUXUXUXUXUXUXUXUXUXUXUXUXUXUXUXUXUXUXUXUXUXUXUXUXUXUXUXUXUXUXUXUXUXUXUXUXUXUXUXUXUXUXUXUXUXUXUXUXUXUXUXUXUXUXUXUXUXUXUXUXUXUXUXUXUXUXUXUXUXUXUXUXUXUXUXUXUXUXUXUXUXUXUXUXUXUXUXUXUXUXUXUXUXUXUXUXUXUXUXUXUXUXUXUXUXUXUXUXUXUXUXUXUXUXUXUXUXUXUXUXUXUXUXUXUXUXUXUXUXUXUXUXUXUXUXUXUXUXUXUXUXUXUXUXUXUXUXUXUXUXUXUXUXUXUXUXUXUXUXUXUXUXUXUXUXUXUXUXUXUXUXUXUXUXUXUXUXUXUXUXUXUXUXUXUXUXUXUXUXUXUXUXUXUXUXUXUXUXUXUXUXUXUXUXUXUXUXUXUXUXUXUXUXUXUXUXUXUXUXUXUXUXUXUXUXUXUXUXUXUXUXUXUXUXUXUXUXUXUXUXUXUXUXUXUXUXUXUXUXUXUXUXUXUXUX",
"UXUXUXUXUXUXUXUXUXUXUXUXUXUXUXUXUXUXUXUXUXUXUXUXUXUXUXUXUXUXUXUXUXUXUXUXUXUXUXUXUXUXUXUXUXUXUXUXUXUXUXUXUXUXUXUXUXUXUXUXUXUXUXUXUXUXUXUXUXUXUXUXUXUXUXUXUXUXUXUXUXUXUXUXUXUXUXUXUXUXUXUXUXUXUXUXUXUXUXUXUXUXUXUXUXUXUXUXUXUXUXUXUXUXUXUXUXUXUXUXUXUXUXUXUXUXUXUXUXUXUXUXUXUXUXUXUXUXUXUXUXUXUXUXUXUXUXUXUXUXUXUXUXUXUXUXUXUXUXUXUXUXUXUXUXUXUXUXUXUXUXUXUXUXUXUXUXUXUXUXUXUXUXUXUXUXUXUXUXUXUXUXUXUXUXUXUXUXUXUXUXUXUXUXUXUXUXUXUXUXUXUXUXUXUXUXUXUXUXUXUXUXUXUXUXUXUXUXUXUXUXUXUXUXUXUXUXUXUXUXUXUXUXUXUXUXUXUXUXUXUXUXUXUXUXUXUXUXUXUXUXUXUXUXUXUXUXUXUXUXUXUXUXUXUXUXUXUXUXUX",
"JXJXDXDXJXDXDXJXDXFXJXDXDXDXSXSXSXSXDXDXDXSXDXDXDXSXSXDXDXDXDXDXDXFXDXDXSXSXSXDXDXDXSXSXSXDXAXdX1X<X+X|.%X X%X|.|.|.|.|.|.+X+X+X%X+X+X<X%X%X%X+X X+X|.%X+X|.|.%X%X%X|.|.|.+X+X%X+X%X%X+X|.+X%X%X%X%XnXJXJXJXSXDXDXJXSXJXSXDXJXDXDXJXJXJXJXJXDXDXJXJXJXJXJXFXFXKXJXJXJXJXJXJXDXJXJXDXJXJXJXJXJXJXDXJXJXJXJXJXKXJXJXJXJXJXJXJXJXLXJXJXJXJXJXDXFXDXDXDXDXFXFXDXDXJXDXDXJXDXDXJXDXJXDXJXJXDXDXFXFXFXDXJXDXJXDXDXDXJXJXJXFXFXFXJXDXJXFXDXFXFXFXJXJXFXFXFXFXFXJXJXJXDXDXFXFXJXJXFXDXFXFXFXFXFXDXFXFXFXFXJXFXFXFXFXFXFXFXFXFXLXFXLXJXJXJXJXJXJXJXJXLXJXLXFXFXFXFXLXLXLXFXFXJXLXLXJXLXFX",
"=X=X&X=X&X&X-X=X=X=X&X&X*X=X&X$X&XXX+X=X=XXX&X;X=XXXXXXX&X&X=X&X=X;X-X=X$X$X+X=X-X;X$X XY.8.>.=.' ` ) n g m n g i - & & s M ' ` [ ` ;.9.-.` M c m ` M m c 9 m R *.m i : i x N N W W W ' W m R =.=.[ 0.XX$X*X=X=X;XaX;X;X-X*XaX;X;X;X;X;X2X;X*X$XaX-X-XiX;X;X;X>X;X-X;X*X2X;X-X;XaX-X;X*X;X-X;XaXaXaXaX;X2X;XaX;X;X-XaXaXsXaX2X2XaX>XaX2X;X;X,X;X-X-X-X2XiX-X-X2X2X;X-X-X;XaX2X2X;XaXaXaX;X2X2X;X2X2X;XaX;X2XaX2X2X2X2X;X2XsX2X2XsX>X1X2X2X>XsX2X;X2X>X3X2X>X2X>X2XsX2X1X3X3X2X1X3X:X2X2X3X2X2X2X:X2X3X2X1X1X1X5X1X5X5X5XdXdX5X5X3XdXvX5XdXhXvXvX5XvXhXvXvXbXbXbXbXnXvXnXnXnXhXbX",
"=X&X&X&X@X@X;X;X;X&X&X=X*X&X&X=X;X-X&X&X=X=X-X=X&X$X=X@X$X$X-X&X=X&X-X;X-X-X&X&X-X=X X8.;.;.=.=.*.x x m ) N g p i : = 9 T ;.9.` ` ;.9.9._ T z ) s z T T ) 9 m N g s i i g ) ` ) W ` ` ' *.=.' R =.X.{ 5.5.8.8.e. XdXaX;X>X>X>X>XaX;X;X2X2X2X,X-XiX;X;XaXiX2X2XrX-XiX2X;XrX-X-XaXfX1XaXaX;X;X;X2X;X;XiXaX2X-XaX-X;X;X,XaX;X2XaX;X2X;X2XaXaX;XaX2X2X;X2XaXaXaXaX;XaXaX;X;XaXaXaXaX2XsXaXfXfXaX;XiXaXaXaX>X-XfX2XaXsX2X1X3X3XsX2X:XsXsX3X3X3X2X:X3X3X3X3X:X3X3X3X3X3XsX3X3X3X3X3X2X:X:X:X3X3XdX3X3X:X3X3X3XdX3X3XdXdXdXdX3XvXvXvX3XvXvXvXvXsXvXvXvXxXvXdXbXhXhXbXhXbXbXbXmXmXmXmXmX",
"&X=X&X=X=X=X&X=X=X&X&X&X*X&X&X*X>X*X;X-X-X-X;X;X-X&X=X=X&X-X&X&X=X-X=X*X;X*X;X-X-X&Xr.;.5.8.8.=.m x s N N i : : 9 i s T =.Y.;.T K 5.9.;.' T z z s z z ) N i x g : i i n ` m x m b l N *.W ' =.*.) ' [ ' ` c z x ' r.;XsXsX>XxXrXaXaX;X>X;XiXaXaXaXaXaX;X2X2XaXaX2XaXaXaXfXaX2XfXsXaXaXfXfXfXaXaX2X;X2XaXaXaXfX;XaXaXaX;X;X2XaX2X2X;XiXaX>XaXfXaXaXaX2XiXaXaXfXaXaXaX2XfXsXfXfX2XfX2X-X2XaX2XaX2XaXsXfXdXdXfX2XaX2XaX2X2X2X3X:X-X3XsX3XsX2XsX:X3X3XsX3X:X:X3X3X:X1XsX2X3XsX2X2X3XxX3X3XdXdXdX3X3X3X3XdX3X3XdX5XvXvX5X5XdXvXvX5XvXvXvXvX5X5X5XvX5XvXvX4XvXbXdXhXhX4XhXbXbXbXmXmXmX",
"&X=X&X@X@X&X&X&X&X&XXX&X=X@X@X&X-X&X=X=X-X;X-X;X;X=X&X&X&X-X-X&X=X=X-X-X=X=X-X=X=X^.8.8.w.8.=.N x g s p d i : i i x m ) >.Y.T T ` _ ;.O.{ T z s s x ) ) n p i i y y g N g g N n p u l M =.=.` -.' ` ` ` ' [ [ R g M r.-XrX:X3XsXiX>XaXiX;XaX2X2X2X;X2X;X2X;X>XaXiXaX;X2XaXaXaXfXaX2X2X;XaXaXaXaXaX2XaX;XaX;X2X;X;X2X2X;X-X;X-X2XaX2X2X,X1XsXaX2X;X;X2X2XaXaXiX-X2X1X2XfXfXdXaXaXaX2X-X2XaX2XaXaXrX2XfXdXdXdX2XsXsX2X2X3XdX>X-X2X>XsX2X3XsX3X3X3X3X:X:X:X:X3X3X3X2X2X2X>X3X3X2X3X:X3X3X3X3X:X3X3X3X3X3XsX3X3X3X3X3XdXdX5X3XdXdX5X3X5X5X3XvXvXvXvXhXbXnXbXhXfXhXhXbXhXnXmXmXmXbXvX",
"=X&X&X=X=X=X=X&X*X=X&X=X-X&X=X-X;X*X=X=X&X;X;X-X-X=X-X=X&X&X-X-X-X=X=X-X=X&X.XH.r.9.>.>.;.' ` m g g d p i : : i i 9 s x 8.9.z ` ` ` =.;.` K x s x z ` ) d i t t : i p p g ) g : f b M c W 5.=.=.5.' ` T ` X.9.9.=.x ' Y.sX:X3X3X;X;X-X;XaX;XrX-X;X;XiX2X2XaX2XaXaXaXaXaXfXsXaXsXrX2X2XaXaX;X2XaXaXfXaXaXaX*X;X2XaXaXaXaX2XfXaXaXaXaXaX;X;XaXiX2XaXaX;X2XaXaX2X2XiXaX2X;XaXaXfXsXaX2X2XfXaXaXaX2XdXsXaXsXsXfX2XsXsXsXaXsXdX2X2X3XsXsX3X:X3XsX3X3X3X3X3X3X3XsXxX3XsXsXvX>X2X2X:X2X3X3X3X3X3X3X3X3X:X3X3XxX3X3X3X3XvXvXdXdXdXvXvXvXvXvXvXvXvXvXvXvXhXbXbXbXnXhXbXnXnXbXbXbXmXbXbXbX",
"=X=X-X=X=X-X;X=X-X=X=X&X=X&X=X-X>X;X-X*X$X1X;X-X-X=X-X=X-X-X-X$X;X=X-X-X$XY.1.5.>.;.=.=.' ` N x d p n t - y : i 9 x x T ;.;.T ` ` T ` [ ' T x s x ) ) g p g n d g g p p m m 9 x R =.H l ` ;.>.=.8.8.` x x ' X.9.1.m N 5.:X3X3X:X-XaX2XrX;XaXaX;XaXaX>XaXiX2X2X2XaX>XaXiXsXfXfXfXaXfXaXaXaXiX2X;XaXaXaXaXsX,X;XiXaXfXaX2XaXfXaXfX;XaXfXdXaXfXaXaX2XaX2XaXhXaXaX>X2X2X;X;XaXaXaX2X2XaXaX2X-X2XaX-X;XaX;X2X2X>X>X2X2XsXsXaXsXsXaX>X>X>XsXsX:X3X3X3X3X:X:X3X3X3X3X3X3XsX3X3X3X3X:X2X3X3XsXxXsXdX3X3XxX3X3X3X3X3X3XdXvXvXdXdXvXvXvXdX5XvXvXxXxXvXvXvXdXhXdXhXbXbXnXhXhXbXvXmXmXmXvXbX",
"&X&X-X;X;X=X&X;X>X=X&X=X&X&X@X&X>X;X=X-X=X-X-X;X-X;X*X=X-X;XrX$X=X;X=X-X X3.;.;.=.=.=.` ) T x g i g i : - - : s s z ) z ` ;.` K z z z ` ` ` T M x x ) 9 i i d i i i p f ` g 0 T ' M h M ' ' ;.;.;.8.5.` h x ` { -.W n ` Y.3X:X:X2XaXaX,X2X-XaX2XfX2XaX;X;XfXfXfXaX-XaXaXaXsXfXaXaXaX;XfXfXaXaX2XaXaX;XfXaX2X;X2X;X2X;X;X2XfXaXaX-X;X2X2XfX2X;X;X-X;X;X2XaXaXaX;X;X2XaX2X2X;X-X;X;XiX>XaX2XiXaX;X2X2X2XaXaX2X2X1X>XsXsX2XsXdX>X-X>X:XsXsX3X3X:X3X3X3X:X:X3X:X:X:X3X:X:X3XdXsXsXsX3X3X3X3X3X3X3X3XxX3XxX3X3X3XvX3XdXdXdXdXvXdXvXdXvXxX5X5X5XvX5X5XdXdXhXhXvXhXhX5XjXbXbXhXvXmXvXjX",
"=X&X&X*X=X-X=X-X>X;X-X-X=X;X@X$X;X;X;X=X-XrX;X-X-X-X=X-X-X*X-X;X>X;X:X:XT.5.;.[ ` ) x x x x f p g g i i d g n x x x z T T ` ` K T z z T T z M x x m g i i - i ; y : p g =.0 s ` R H T W ` >.e.8.5.9.8.;.` M z ` ' ` x M 9.@X>X:XaX2X2X;XaXiXaX;X2X2XrX,X;X;X2X;XaX,XaXaX2XaXaXaXaX2X;X;XaXaX;X;X2X2X2X2X2XrX;X;XaXfXaX2X2XaXaXaX2X2XaXiX2XsXaXaX;XiX2X;XfXaX2X-X;XfXaXiX2X2X2XaX1XaXaXaXaX2XaXaXfXaXfXfXsXsXdXaX2XsXdXsX2XdXdXsXsXrXxXsX:X3XsXsX3X3X3X3X3X3X3X3X3X3X3XsX2X:X3X3X3X3XxX3XsXsXdX3X3X3X3X3XxXvX3XdXvXvXvXvXdX5XdXvXvX5XvX5XvXvX5XvXhXhXvXvXbX5XhXbXvXvXhXhXhXbXbXhX",
"$X&X-X=X=X=X=X=X*X=X&X=X$X&X@X&X;X-X;X-X-X*X;X;X;X;X=X=X-X;X;X-X>X>X:XT.e.>.;.;.T ) N N N g d i p g d g n m m N ) x x x z z z z x z z s s 9 : : 9 9 i i i - - : ; - i g =.c l T E *.' ' ' 8.;.T ' 8.8.8.' ' ` ` ` ` x m ' 7.#X:XaX;XaX;XaXaXaX;X;X;X2X;XaX;X2X;X;XrX2X;XaXsXaXfXfXaX;XaXaXfXaXaXfXfXfXaX2XaX2X;XaXfX2X-X;X,X>X2X;X;X2XaX2XaX2X;X;X;X2X;XfXaXaX;X2X;X2XaXaXaXsXfXaXsX;XaXaX2XaXaX2X;X1XaXdX2X2X2XsXsX2XsX2XaXsX2X3X>X3X3X3X3XsXsX:X3X:X3X3X3X3X3X3X:X:XvX3X3X:X:X:X3X3X3XsXdX3X3X3X3X3X3XdXdX3XvXdX5XvXdXvXdXdX3XvX5XvXvX5XvXvXvXdXvXdXdXbXhX4XhXhXhXbXnXbXbXbXbX",
"=X=X=X=X=X=X@X&X@X&X&X&X&X-X&X=X;X=X-X=X=X=X=X=X*X;X-X&X-X*X-X-X=X.XF.8.:.:.=.*.W m f f f u t y d d d d d f d d s 9 i g n ) m ) ) ) ) m 0 : = : : t t t : - ; ; ; ; i g *.N l H R =.=.;.;.=.` ) ' 5.5.8.;.[ ' ' ` T x m ' ' r.:XiX;X-X;XaX2X2X2XrX-X,X;XaX2XiX2X;X;X-X2X2XfXfXaXaX;X;XaX;XaX2XiXaX>X>XaX;X;X;X-X2XaX2X;X=X;X2XaX2XiXfXaX;XaX;X2X;X;X;XaXaXiX>XaXaX;X2XaXaXaX;X;X2X2X2XdXaX2X2X2X2X;X2X2XsX2X2X1X2XaX2XsX2X2X2X2X3X3X3X>X3X3X3XsX3X3X3X3X3X3X3X3X3XsX3XsX:XsX:X:X3X3X3X:X3X3X:X:XvX5XdXdXdX5X5X5X3X3X5X5X5X5X5X5X5X5XvX5X3X5X5X5X5XdXdXdXdXhXhX4XhXhXdXhXjXbXvXhX",
"=X;X;X=X-X&X=X&X@X=X&X$X@X;X&X$X*X&X-X@X@X&X&X=X&X%X$X$X&X&X$X-X#X^.OXG.1.%.*.*.m p i p m :.q.w.w.w.w.q.q.q.q.>.>.>.>.:.q.>.>.>.q.q.:.N ) x 9 : : t - : t p t : i p 9 9 ` ` s T R ' W -.*.[ ;.=.[ 5.5.8.r.;.;.' ' x g N { { 9.@X;X;X&X&X;XrXaX;X2X2X-X-X;X2X;XaX;X;X-X;X;X;XaXaX;X;XaXaXiXsX2XaXfXsXaXaXaXaX-X-X2XaX;XaX2X;XaXfX2X2XaXaXaXaXaX;X;X-X,X2XaXaX2X>X;X2X2XaXaXaX,X;X2XfXaXfXfXaX;X;XaX1X;X>XaXaX>X>X2XsXsXaX2X>X2X2X>X3X3X>XsX3X3XsX3X3X3X3X3X3X3X3X3XdXdX3X3XdXsX3X3X3X3X3X3X3X3X:X3XdX5X5XvXdX5XdXvX5XvXdXdXdX5XvXvXvXvXvXvX5XvX5XvXhXhXdXhXnXjXhXmXbXjXnXbXbXvXhX",
"=X&X=X=X=X&X&X&X-X-X&X$X&X&X@X=X=X$X&X=X=X=X&X&X=X=X*X*X&X-X&XwXpXlXlXtXK.5.=.*.m f n *.>.q.q.>.q.q.t.t.t.t.}.|.|.%X%X%X X}.w.>.&.n d y m *.x g a : ; : : : u u g g p g N ' W l R M H R T T ' 5.8.8.>.8.r.8.[ ` ;.) s ) ' ;.O.U.=X2X2XaX;XaX2X;X;X2X2X;XaX;X*XaXaX,X;X;X2X;X2XaXiX>X2XaXaXaXaXaXfXfXfXfXaX2X,X2X;X2X;X;X-X=X,XaX;X;X;X2X2X2X2X2X2X-X-X2XaX>X2X;X1X;X;XaXaX;X-X;X;XaXaXfXaX2X2XaX;X=X:X2X>X>X2X2X2XaXaXaXdX1X2X2X3XxX3XxXsXsX3XsX3X3X3X3X3X3X3X3X3XsXsX3XsX3X3X:X3X:X3X:X:X:X3X3X3X3X5X5XvXdX5XdX3X3XdXdX5X5X5X1X5XvXvX5X5XvXvXvXbXvXdXhXvXhXbXdXhXhXhXbXmXbXhXhX",
"=X=X&X&X=X;X;X&X&X&X&X&X&X@X@X&X>X*X-X&X&X&X&X&X-X&X&X+X&X*XwXpX7XK.N.eXwXD.-.*.m N $.*.%.;.:.m y y - - ; t u f m ) :.>.q.>.w.:.y y :.$.: ) ' M l s 9 p u 4 u b g 9 9 x m x ;.l c a 4 u x ) M s >.9.{ 5.e.9.;.' ' ' x x ) ' ;.O.0..X>XaX2XdXaXiXiX;XaX2XaXaXaXaX,XrX2X;X2XiX2X2X>X2X;XaXaXaXaX>XaXaX1X2XaXrX2X2X;XaX,X2X-X-X;XaXfXaXaX2XaXaX2XiX2X1X;X2XdXaXfXfXfXaXsXfXaXfX2XaX2X2X2XaX;X*X;X1X>X;X:X1X:XaX2X2X>XaXaXaXdX>X2X2X:X>X:X3X3X:X3X:X:X:X3X:X3X:X:X3X3X:X3X3X>X3XvX:X:X:X3X:X3X3X:X3X3X5X5X5X3X1X3X5X1X3X5X5XdX3XdX1X2X5X5XvX5X5X5XvXhXdX5XhXhXhXhXhXhXbXdXdXhXhXhXhX",
"&X-X=X$X$X&X&X=X@X#X&X$XXX&X&X=X;X*X-X=X=X&X@X=X*X*XOX$X8X8XP.P.j.y.K.8XlXK.,.*.W *.%.%.q.;.W f - - - - & % - u l R Q -.=.' ;.) - y :.w.y u R =.[ E H H R R R M M x s N x 9 s c l s p x ` N 9 s 5.;.' { 8.5.;.;.` ' { M x T { 5.9.3.^.@X2X,X;X2X;X;X;X*X>X>XrX>X-X&X;X2XaX;X;X2X-X-X-X;X;XaXrX-X-XaX;X;X-X=X-X,X*X2X2X,X;X;X2X*X&X-X2X-XiX2X2X;X;X;X-X;X2X;X2XaX;X;XaX2X,X;X-X2X-X;X=X1X;X;X;X;X2X:X>XsX1X2X>X>X2XaXaX2XsX:X3X3X:X3X:X3X:X:X:X:X@X:X:X:X3X:X:X3X3X3X:X3X:XsXsX3X:X3X3X3X3X3X3X3X1X3X3X3X1X3X3X5XdX3X3X1X1X1X5X5X1X3X1X5X2X1X3XdXdX5XhXbXhXhXhXhXbXbXdXdXhXhXbXhX",
"$X=X&X$XXX&X@XXX XXX@XXXXXXXXX&X=X&X=X&X&X-X=X=XOX7X7X7XP.P.i.y.i.j.P.lXlX!.6.Q *.*.-.5.5.R f y - : : : u l R -.,.1.5.5.8.1.;.p - : d w.*.y u ' ,.{ ! -.Q R j H ` ' x T ` : @ : h m c M g 9 9 ) 5.' ' ' 8.` ' ' { ` ;.[ x x ) 9.T.O.n.F.#XaX-X2X;X;X;X2XaX2X3XsXfX;X2XaXfXaXaXaX2XaXaXaXaXaXaX,X2XaX;XaX2X;X-X-X-X;X;X-X-X;X;X2X-X2XaX;X2XaX2X2X,XaX2X2XaXaXaX2X2XfXfX2XiX-X2X;XiX;X;X2XiX2X2X2X>X>X>XhX2X>X:X>X>X2X;X2X3X>X3X>X:X3X3X3X3XsXsXsX:X:X:X:X:X:X3X3X3X:X:X:X3X:X:X:X:X:X3X:X:X3X:X3X1X3X3X5X5XdXdX5XdXvXdXdXvX5XvXdX5X5X5XdXvX5X5XvXvXhXbXhXhXhXhXhXbXhXhXhXbXbXbXhX",
"&X=X@X@X@X&X$X@XXX$X&X$X$XXX&X@X-X=X=X-X*X&X&X&X8X8XP.P.i.y.y.i.j._.8XeXgX/.v.*.*.5.8.5.%.b h l x x N ` -.1.6.v.S.D.F.G.r.5.) = y y : v #.y y b ,.! ! E J H %.%.' T k M =.f : & : p a s 9 g x M z ) ` ` 5.[ ' ` ` ` [ 5.;.M z { F.7.n.U.F.*X2XaX>XaXsX1XsXaX>XxXfX-X;XaXaXaXaXaX;X;X2XaX>XaXaX2XaXiX2X;X2X2X-X;X2X2X2X;X,X-X2X2X-X2XfX1X2X2X-X2X;XaX2X-X;XaXaX;XaXaXaX2X>X;X2XaX2X;X2X-X-X;XaX2X-X2X2XxXsX>X2X2X3X2X>X3X3X:X:X:X:X:X3X:X:X3X3X3X:X:X3X:X3X:X3X3X3X3X3X3XsX3X3XsX3X3XdX3X3X3X:X3XdX5X5X3XdXdX3XdXdXvXdXdXvXvXvX5X5X5X5XvXvXvXvXvXhXhXhXbXhXhXdXhXhXhXbXnXbXhXnXhX",
"&X-X@X@XXX&X@X$XXX@X&X&X$X@X&X=X-X&X=X*X;X=XXXoXP.P.i.y.y.y.j.B.P.8X0XeXtXoX0.-.;.8.:.%.M c H Q { ,.3.v.F.G.J.!.J.!.R.R.r.) : - : : y y y y y y %.6.6.6.,.,.<.5.' ` c s *.R l : = - ; i s p 0 g s s ) =.r.{ ` z x z z ' ;.;.` ` ;.O.9.!.7.T.2X;X;X2XfXrXaXaXrX>X2X;X=X;X2X,X;X2X*X;XaX;X=XiX;X=X;X2X;X;X,X;X*X-X;XaXaXaX2X2XaXfXaX2XfX2X2XfX=X;XaXaXiX;X2X2XaXaX;XaXaXaXaX2X2X2X*X2XaX;XaX2X-X1X-X2XsXdX2X2XsXdXsXsX3X3X3X-X=X:X3X:X3X3X:X3X:X3X3X:X3X3X3X:X:X3X3X3X:X3X3X3X3X:XsX3X3X3X3X3X3XsXdX1X3X3X5XdX1XdXdXdXdX5XdX5XvX5X2X5X5X5X5X5X5XhXvXhXhX5XdXhXhXnXbXhXhXhXhXbXmXmX",
"&X&X&X=X$X&XXX$X@X&X&X&X$X$X=X-X=X-X&X&X&X=X6X7XP.i.y.y.i.j.P.P.L.L.K.0XtX6XG.9.5.1.[ ` K { 1.v.n.S.m.J.R.~.~./.oX/.oXr.M : ; y y y y y y u y y d ,.6.h.h.0.6.-.E =.M 9 N T R s ; = i 4 i : 9 i 9 9 ` >.8.;.` [ =.) c z ` 5.;.' { { 9.:Xn.9.:X:X:X:X:X:X3XrX3XsXaXaX2X2XaXaX;XaXaXfXfXaXrX2X2X;XaXaXaXaX2X;X-X-X;X,X>XaX&X-X2XaX2X;X2X;XaXaX;X-X-X;X2XaX;XaX;X,X;XaX2X2XaX;X;X>X-X2XaXaXaXaX2XaX:XdX2XsX2XdXsXsX2X>X2XdXdX>XsXsX3X3X3X3X3X3X:X3X3X3X:X3X3X3X:X3X3X:X:X:X3X3X1X1X3X3X3X:X3X1X3X3X3X3X3X3XvXdX5XdXvX3X5X5X5X5X5X5X5X5XbXvXvXvXvXvXdXdXhX5XhXhXhXhXbXmXbXvXdXmXmXnX",
"&X=X&X&X=X-X$X&XXX$X$X&X@X$X$X&X-X-X;X-X-XoX7X].j.y.j.P.P.A.P.j.j.g.N.eXtXoX^.H.v.8.7.7.n.Q./.^.W.R.J.J.R.~./.oXwXoX0.g : : : y u u v v d d d y y b 5.h.S.h.6.-.W [ T 9 x z R M s 9 4 9 9 f 9 s x M =.;.[ ;.' ;.;.' ` M M ' 8.1.=.=.9.^.^.7.@X:X:X#X:X:X2X3X>XxXfXaXaX2XaX2XaXjXsXfXdXsX2XfXfX;X,XaXfXfXaXaXaX2X;XaXaX>X;X;XaXaXaXaXaX2X;XaX;X-X@X2X>X2X;XaXaXaXaXaX,X;X2X-X2XaX2XaX;XaX1XiX;X;X-X3X2X3X2X2X1X2X>XsX2X2XdXsXdXsX3X3X:X:X3X3X3X:X:X3X:X3X3X3X:X3X3X3X1X3X3XdXdX5X3X3X3X3X1X3XdX3X1XdXdXvXvXvXdXvXvX5X5X5X5X3X5X5XdX5X5XvXvXdXvXvXdXhXbXvXhXnXbXhXmXmXbXbXhXmXhXbX",
"&X&X@XXX@X$X$X@X.X.X.X&X@X@X@X@X*X-X;X;X-X7X_.j.i.P.P.j.j.N.B.K.L.C.~.eXwX9X^./.^././.#X9XqX[.[.9X/.R.R.R.~./.wX.X;.a y y u f v b v v d v v u y d u %.h.h.S.h.,.' T T s s h l H T c s g g x x N x z ' ;.;.;.' ) ` T z c ` ` [ 8.O.;.{ 9.n.O.^.:X:X:X:X#X>XrX>X>X;X*X;XiXaX;X;XfX;X;XaX;X;X2X&XXX&X;XaXaX,XaX2X2X;X2X2X;X;X;X2XaX&X;X,X2X&XaX2X;X&X,X2X>X2X;X2XaXaX2XaXiXaX;X2XaX2XaX;X2X2XaX;X-X-X&X>X2X>X2X>X>X&X3X2X2XsX>X2XsX3X3X3X3X3X3X3X3X3X3X3X3X:X3X3X3X3X3X3X1X3X5XdX3X3X3X3X3X3X3X3X5X1X1X1X3X1X1X1X5X3X1X3X5X1X1X1X1X4X2XdXvXvXvX5XvXvXjXvXhXhXhXhXhXhXbXbXmXbXmXnXhX",
"$X$X$X$X@X@XXX@XXXXX@X$X@X@X$X$X=X=X;X*X*X7XB.P.P.P.j.i.i.d.j.B.L.K.7X0X9XwXeXrXtXgXtXzXtXqXqX9X[././.R.R.R.oXU.' p : p b R $.b u y y 2 y y d d y y f ,.h.h.6.%.=.l ` h 9 x 9 x l h s s 9 s g x x s ` ) ) ` ' [ ' ) x x z ' ` ;.;.=.;.;.O.O.Y.:X:X:X:X#X:X>X>X>X2X;X2X2X;X;XaXfX2X2XiXaX;X2X;X&X=X-XaX;X2XaX;X;X;XiX,X-X;X;XaXaX*X-X2X;X-X,X2X&X;X&X-X-X;XaX;X2X-X;X;X;X-X;XaX2X2X2XiXaXaXaXaX;X3XdXsXdXvXsX2XsX2XxXdX2XsX2XsX>X:X3X3X3X3X3X3X3X:X:X:X3X3X:X3X3X3X3X3X1X3XvX1X3X1X1X1X3X3X3X3XvX1X3X3X3X3X3X3X3X5X3X1X3XdX5XvX5X5X5XdX5X3X5X5X5X4X4X4X5XhX4X5XhXhXdXhXbXjXbXhXbX",
"&X$XXXXX@X$X@X@XXX@X&X@X@X$X$X$X%X*X&XiXeXP.P._.P.y.y.y.y.y.y.d.g.K.6X7XtXcXcXNXNXNXzXzXtXtX9X[.[./.~.R.R.!.F.T d y f %.%.%.%.%.b y ; y ; y y u y y y R 6.6.6.R %.h x x 9 s 9 9 s h a s 9 : 9 9 s 9 p m m p p ) [ ` T c z ` ` ;.r.=.;.O.` 9.U.Y.#X3X:X:X:X3XrX:XaXaXfXaXsXaXaXfX2X2X;XaX;X2XaX;XaXhXhXaX;XaXaX2X-X2XaX&X;XaXaXaX;X;X2X2XaX;XaXaXaX2X2XiX;XaXiXaXaXaXaXaXfX2XaXaX;XaX2X;X;X2X;X2XxX2XsXsXdXxXaXsX>XxXvX2X2X3XaX>X3X3X3X3X3X3X:X3X:X3X:X:X3X3X3X3X:XdX3X:XdXdX5X5X3X1X3X3XdX3XdX3X3XvX5XdXvX5XvXdX5X5X3X5X3X5X3X5X5XdX5X5X5XhX5X5X5X5XhXhXhX4XhXbXhXhXhXbXhXhXhXhX",
"&X&XXXXX$X$X$X&X@X@X-X$X$X&X$X$XOX*X%XpXP.B._.j.y.y.y.B y.y.B.L.L.L.7XeXcXcXNXNXNXtXtXqXqXqX[.9X[./.!.R.G.n.R p d D %.! %.%.%.%.%.f u y 2 - ; y y u d u -.h.h.%.W c 0 c a 4 4 d 9 a a s f f p 9 : : : g i 9 9 x ` ` ) T M T c ' r.;.=.;._ O.n.^.^.^.:X3X3X3X3X3XaXaXaXaXaXaX2XfXaXaXaXaX;X;XfXaXfXfXaXaXaXfXaX;X2XaX2X-X;X;X,X;X;X;X;X2XaX2X2X2X1XiXaX2X2X2X;XaXaX2XaXaXaX;X2X2X2X2XaXaXaXaXaX2XsX2X1X;X3XfXsXdXsXsXxX3XdXsXsXsX:X3X:X3X3XxX3X3X3X3XxX3X3X3X3X3X:X3XdX3XdXdX5XvX3X3X3X3X1X1X3X1X1XdXvX5X5X3X1X3X5X3X3XvX5X1X3XdX5XhX4X5XdX5X5X1X4XhXnX4XhXhXhXhXhXbXhXbXhXhXhXdX",
"$X$X$X$X$XXX$X&X@XXX$X@X@X-X@X@XOX%XjX8XB.P._.d.y.y.y.y.y.j.8XW.~.9XpXgXgXzXzXzXzXtXqXqX9X[.9X[./.R.R.m.S.=.9 d %.%.%.%.%.R %.%.%.%.#.d y y ; y u u u y b 6.6.-.M W a a x i 4 i a p 9 : i i p i p : i p i p p p s x M c z M z ` ;.9.{ ;.;.O.9.9.@X@X^.:X:X:X3X:XrX-X;XaX;X;X>XaX,X2X;X2X;X2X,X2XaXsXaX;X,X2X-X;X2XaXaX;X;X2X2X;X2X2X2XiX2X2XaXaXaXaXaX;X;X2X2X;XaX2XaXaX2X2XiXaX2X;XaXdXaX2XaXaXdX3X3XsX2X2X3XsX3XsXvX2XsXvXsXsX3X3X3X3X3X3X3X3X3X3XxX3X3X3XxXxX3X5XvXdXdX5X1XdXdX3X5X3X3X5XdX1X1X3X3X3X5X5X5X5XdXvXdXvX5X1X5X5X4X5X4X4XhX4X4X4XbXbXnXhXhXhXhXhXhXhXdXhXhXhXhXnX",
"&XXXXX$X@XXXXX$X@X.X$X@X@X$X.X@X+X*XkX_.j.P.L.g.y.y.y.y.y.B._.~.0XtXgXgXgXtXgXtXqX9X9X[.[.`.Q./.!.R.m.n.r.g 4 M / %.%.R R %.R R #.%.R b u - - y y y y y u %.6.,.R M R 4 a d i y : p f 4 : ; : 4 p i : i : i i = = g x T T M h h ` ;.9.` =.9.Y.n.9.^.^.^.:X3X3XrXfX;XaXaX;X;XaXaX;XiX;X2X-X*XrX2XrXaXaX,XrXaXaXaX2X2XiX2X;X;X;X2X2X;X;X2X;X2XaXiX2XaXaXaX2XaX2X2XfXaXaXaXaX2XaXaXfX;X2XfXiX2XaX2X2X2X2X2X>X>X2X3X2X3X3X:X3X2X2X>X:X3X3X3X3X3X3X3X3X:X:X3X3X:X3X3X1X3X3X1X3X3X3X3X3X1XdXdX3X1X3X5X3XvX5X5X5X5X5XvX5XvXdXvX5XdX5XdXhX4XhXhXhXhXhXhXhX4X5X4XhX4XhXhXbXhX4XhXhXhXhXhX",
"$X$X$X$X$X$X$X.X X@X@X@X@X@X@X@X+X,XkX_.B.L._.7XP.i.y.y.j.W.6XwXgXgXgXgXtXcXtXqX9X[.[.Q.Q.Q.Q.~.~.J.D.F.5.; u %.%.%.R R b b b %.R b b b d y y - t t t t y f ,.6.Q h R b u t t t t : t : t t : i y : : : : : i : : 4 s s c T m s z ` 9.=.=.O.7.^.U.n.T.Y.=XsX3XrXfXaXaXaX>X;XaXdX1XaXaX;X;X;XaX;X-XaXaX;X,XaX2X;XaXiX1X>X2X2X;XaXaX;X*X,X;X;X;X;X2XaXaX2X2XaXiX2XaXaXaX2XaX;X2X2XfX2X-XaX2XaXaX2X2X2X:X2XsX3X>XvX3XsXsX1XsX3XsXsXdX3X3X3X3X3X3X3X3X3X3XdX1X3X5X5X3X3X3X1X3XvXdXdX5X5X5X3X5X1X5XvX3X5X1X3X5X5X5X5XdX5X1X3X5XdXdX5X5XdXhXhXhXhXhXhXhX4X4X4X4XhXhXbXbXbXbXhXhXhXhXhX",
"&X$X&X$X$XXX$X$X@X@X=X=X=X@X@X@XOX,XBXuX8XP.8XqXP.P.i.j.L.6XwXeXpXgXgXgXgXuXqX9X[.`.Q.Q.Q.Q.Q.R.R.J.D.H.-.- R %.b j b %.%.D b f b %.v d d y y 2 ; y y u y y %.1.-.R b M l u : ; t t ; y ; ; ; ; - - y : i : : s d p : 4 9 g T ' ` ` ` ;.=.` ` 9.n.^.T.n.^.sX>X3XdXaXaXsXaX>XaXrX;X2X2X;X;X;XaX2X,X2X;X-X2XaX-X;X2XaXaXaX,XaXaX;XfX2X2X;X>XaXaX2X;X;X;X;XaXaX2X2X2XiX2X2X2X;X2X-X2XaX2X2X2XaX2XiX2X3X2X3X3X>X:X3X2XsXdXsXsXdX3XsX3X:X:X3X3X3X3X3X3X:X3X3X3X3X5XdXdX5X1X1X3X3XdXdXdX5X5X3X3X5X5X5X1X5X3X5X5XdX5X5XdX5X1XvXdX5XvX5X5XvXhXdXbXvXbXhXdXbXnX4XhXvXbXjXbXbXbXhXnXmXvXbX",
"@X$X=X$X$X$X$X=X=X@X&X=X&X=X&X&XXXaXGXNXeX0X7X7X7XP._./.6XwXeXrXrXgXgXlXzXqX9X9X[.Q.W.Q.W.R.I.R.J.m.v.F.N y R N j f 6 j %.%.%.D u f b u u y - ; t y y y y y l -.,.%.R u s f u : ; - - ; - ; : : : p p s p i i : p g s 9 : 9 s ` ;.;.` ;.` ;.O.{ ` 7.T.U.U.sX:X:XrX;XrX2X>X2XaX;XaXaXaXaX;XaX;XaXaXaXaXaX2XaX2XaXaXfXfX2XaXaXaX2XaX;X2X2XaXaXaXfX;XaXfX,X;XaXaXaX>XaX2XiXaXiX;X2X2XaX2XaXaX2X;X;X>X>X2X2X:X=X>X2X>X;X2X3X3X2X>X>X3X:X3X:X3X3X3X3XdX3XdX3X1X3X3X5X1X1X1X1X3X1X3XdXvXvXdX5X1X3X5X5X3XvXvX5X5X5X5X5XdX5X5XvX5X5X5X5XdXdXvX5XbX5X4X5X4XnXhX4XdXhXhXhXnXbXhXvXhXhXhXjX",
"$X$X$XXX@X$X=X$X@X&X&X&X$X$X&X:X*XiXKXGXuX_.K.N.N.6X9X0XwXtXrXrXeXgXgXgXrX9X[.[./.Q.W.(.W.R.C.m.J.m.h.S.M : N H f j v d u b %.%.R a a u u y - - ; ; t y t y u W ,.,.%.H a 4 p t t 4 u 4 a a f f i i 0 0 g 0 9 : : 9 s i : : 9 z z ;.;.=.` ;.` { ` ` O.U.U.rXrX:X:X;X2X1X;X>X2X-X2X2XiXaX2X;XiXaX;X;XaXaXrX,X;X2X2X2XaX;XaXaX2XiX;X2XaX;X2X>X,X;X2XaXaX2X2XaXaX2XaX2XaX1XaX2X2X2X2XfX2X2XdXiX2X;X3X2X3X3XsX2XsX2X:XsXsX2X3X2X2X2X3X3X3X3X3X3X3X3X3X3X3X3X3X3X1X3X3X3X3X3XdX3X5X3X1XdX5XvXdX5XdXvX1X5X1X1X3X5X5X3X5X3XdX5XvX5X5X3X5X5X5XdXbX5XhXhX4XhXhX5XhXdXhXhXbXbXhXjXdXhXdXhX",
"&X=X&X=X$X$X&X=X@X@X$X=X&X=X$X-X;X$XmXHXpXL.g.d.N.oXwXeXgXrXeXrXtXcXcXrXqX[.[./.Q.W.Q.W.L.C.V.J.m.b.c.0.R - b b b b b f d u f b %.#.u u 4 : & - ; ; ; y u y y b -.,.<.{ R b h h f u 4 f s s 9 1 9 9 0 s x s 9 9 : : s p : : = 9 z ` ;.=.` ` ` =.{ ` _ O.T.:X3X3X2X2XaX>X>X>XrX1X;X2X;X;X-XaX;X;X*X-X2XrX-X-X-X-X;X;X;X;X2X2X;X;X;X2XaX;X2X2X;X2XaXaX;XaXaX2XaXaXaX2X2X;XfXaX2X;X1XaXaX4X2X-X;XaXdXsX2XsX3X>X3X3XsXdX3X3X2X3X:X3X3X3X3X3X3X3X3X3X3X3X3X3X3X3X3X3X5X1X1X5XvX5X5X5X5X1X3X5X5X5XdXvX5X5X3XdX5X5X5XvXdX5XvX5X5X5X5X5X5X5X5XdXhXhXhXhX4XhXhXdXhXhXhXbXbXmXhXnXhXhXhXnX",
"&X=X&X-X=X$X$X$X@X@X=X$X=X$X$X=X&X&X*XkXlX_.M.K.7XwXwXrXeXtXrXgXgXgXrXqX9X[.[.Q.~._.Q.W.Z.J.C.V.m.v.x.6.R - b H f D b b d b b f f b b u t : - - ; y ; ; t y u f %.-.<.,.,.Q J R H c h 3 4 1 9 s h s 0 h z M s 9 i 9 9 p 9 : = : 9 z ` ;.` z ` ' ` _ =.=.F.3X3X3XaX2XaXsX2XrX>XaX2X2X2X2X;XiX;X;X;X;X2X*X2X,X-X-X-X;XaX2X2X;X2X2X2XaXaX;X2XiXaX2XaX2X2X;XaX;X2XiXaX;X2XaXfX;X2X;X2XsXaXaX;X2X;X2XdXdX2XsX3X:X>X3X3X:X2X3X3X:X2X3XdX3X:X3X3X3X3X3X3X:X3X3X3X3X3X3X3X1X3XdXdX1X1X3X3X1X5XdX5X3X3X3X1X5X5XdX5X5XvX5X3XvXdX5X5X5X5X3X5XdXvXsXhXhXhXhXhX4XhXhXhXhXhXnXmXmXhXhXhX5XhXhX",
"$X$X$X$X$X$X=X$X@X@X-X&X@X&X&X&X=X+X*XXX*X7X6X7XwXrXeXwXrXrXrXgXtXrX9X9X[.[./.Q.Q.Q.E.L.Z.C.m.b.c.c.h.6.R - f b 6 #.%.%.6 b %.#.f u f d u ; - - - ; t ; y u u f b %.,.6.,.-.! %.%.! R J H z h x h 9 9 z z M ) x 9 i 9 i i p i = = s ` ;.1.` z { ;.{ { ` 9.^.:X3X;XrX1XaX>X2X2X>XaX2X-XaX2X>X;X;XaX;XaX;X2X2X-X-X;X>XaX;X-X-X;X;X2XaX2X;X2X2X2XiXaX2XaX;XfX2XaX2XaX2X;X;XaX;XaX;XaXaX-X;X;X2X2X2XsXsX2XdX3X:X3X:X3X3X3X3X3X3X3X3X3X3X3X3X3X3X3XvXvX3X3X3X3X3XvX1X3X5XdXdXdX5X5X5X5X5X5XvX5X5XdXvXdX5X5X3X3X5X5XvX5XdXdX3X5X1X1X5X5XhX5XhXhXhX4X4X4X4X4X4X5XhXhXbXbXjXhXhXhXdXhXbX",
"=X$X=X=X$X$X$X@X$XXX$X&X&X&X&X&X-X=X*XXXOXwXwXwXeXeXwXrXrXrXgXgXcXtXtX9X[.Q.[.Q.Q.E.A.L.C.m.z.b.c.h.4.6.%.2 u b 6 b %.#.d u b #.b f y u y ; - - & - y t y u u u j %.,.h.4.<.,./ Q ! ! Q Q R s 0 9 9 s h h h ) ' s = = 9 9 9 9 9 9 9 z =.9.1.z ` { 1.O.` 1.T.:X:X;X;X;X>X>X>XsXaXiX2X;XaXaXfXsXaXaXaXaXaXiXdX2X;X,XaXaX;X;X2X;X;XiX2X-X;X2X;XaX2XiX;X2X2X2X;X2X;X;X;X2X;XaX,XaX;X2X;X;X;X-X2X2X;X2X>X>XsX3X:X3X3X3X3X3X3X3X3X3X3X3XvX3X3XdX3X3X3X3X3X3X3X3X3X1X5X3X5X1X5XdXvXdX1X3X3X1X1X3XdX1X3X1X1X1X1X1X3X3X1X3X5X5X1X1X3X5X5X5X5X5XdX5X4X,X4XdXdX4XhXhXhXbXvXvXhXhXdX4XhXhXbX",
"&X$X&X$XXX=X$X+X&X@XXX@X$X@X+X&X$X-X$XoXwXwXwXwXwXwXrXtXgXtXgXgXcXtX9X[.`././.).W.E.A.Z.B.m.b.c.f.2.4.2.,.u 4 a u f R %.u ; d %.v y ; y y ; ; - & - y y ; : t t f R -.2.h.2.2.-.J A j H c j 4 4 4 l j j h a 9 ) ` g : 4 s c c l s 0 s ` ;.r.T T ` U.r.K n.r.3X3XaXaXrXaXaX>X2X3XaX>X>XaX2XaXaXaXaXaXaXaXiX2X;X;X,XiXfXaX;X2X;X2XsXaX2XaXaX-X2X;X;X;X2X-X2X;X;XaXfX2XaXsXhX2X1X;X;X2X-X2X;X>XaX2X>X-X>X3X:X:X3X:X:X3X3X3X3X3XsX3X3X3X:X:X3X3X5X3X3X3XdX3X1XdX3X5X1X3X1X3X5X5X1X3XdX1X1X3X3X3X3X3X1X5X3X5X3X5X5X5XdX5X5X3X5X5XnXvXdXhXhXhXhXhX4X4X4XhX4X4XhXdX4XhXhX4X5XhX4XhXhXhX",
"=X=X$XXXXXXX&X&XXXXX&X-X.X.X$X=X&XXXOXwXwXwXwXwXwXwXrXrXrXgXgXgXrXqX9X[.`.Q.).W.W.I.Z.B.N.z.l.c.f.<.<.2.,.j u f 6 u d b j u - %.#.y y y y y ; - & - : : : u u : d M -.<.h.4.2.2.,.Q S j a j c c j a j a 0 4 4 s c ` x = 0 x R R M z h H [ 9.[ c ` n.n.` r.n.^.3XaX3X2XaXaXsXsXrXfX>X2XsXaXaX2XaXiXaX;XaX2XaX2X;X>X2X2X2X-XiX;X2XaX1XaXsX2X;XaX;X1X-XiX2X;X2XaXaXaX2X>XsXsX>XsX-XaXaX;XaXsX2X2X2X2X2X>X:X:X:X:X3X:X>X3X3XsX3X3X:X:X%X:X3X3X:X:X3X3X3X5X1X3X5X3X3X5X1X3X1X1X5X5X1X1X1X1X3XdXdX3XvXdXvXdXvXvXvXvX5XvXvXvX3X5XvXdXdXdXhX5XdXhXbXdX4X4XhX4XhXhXhXhXhXhXdXdXhXhX4XhXnX",
"%X&X+X$X+XXX-X&X&XXX&X=X$X$X=X-XXX*XiXwXwXwXrXwXqXwXrXrXgXgXtXrX9X#X`.[.Q.Q.Q.W.A.Z.B.V.b.M.l.l.f.2.2.2.,.Q u u b u u j f u u u d y y y y y - O % - : : u u t y u v %.1.6.x.4.f.2.,.{ %.%.! Q R H f h 4 : 4 4 s l c *.h a z z ` [ ` H T ` { ' ` T 9.9._ n.n.^.:XaXsXaX>XaXaXsXfXdXaX3XsXaXfXfX2X>XaX2X2X;XaX;X2X;X;X2XaX-X2X2X2X-X;X2X>X,X;X2X2XaX;X2XaX2XiXaXaX2X2X:X2XsXaXsX>X2X2X;X>X>X>X:X>X2X>X2X:X:X:X-X:X3X:X:X:X:X:X:X:X3X:X:X:X3X:X:X1X1X5XdX:X1X5X3X1X3X3X3X3X5XvXdXdX5X3X1X1X1X3X1X3X1X3X3X3X5X5X5X3X5X5XvX5XdX5XvXvXhX4XhX4XhXbX4X4X4XhXhXhXdXbXbXdXhXhXnXhXhXhXhXhX",
"&XXX&X&X=X-XXXXX$X&X&X&X$X=X-X&X*XaXpXiXrXwXwXwXwXrXrXtXtXrXeX9X[.[.Q.Q.Q.Q.Q.I.C.B.V.M.N.M.g.k.f.2.d.<.,.! k ; f w a u 2 u u ; - - - y - - - % % & - - : 4 u t y d %.<.h.c.c.c.h.3.<.,.,.%.! P J H c a : 9 a g M a *.T s x h 0 x ` ` ` z z ` ` ` ;.O.O.n.9.^.:XrX>XsX2X2XrXaXaXrXaXrXsX>X2X2X;X>XaXiX2X;X;X-X-X;X2XaX2X-X;X;X-X;X;X2X>X2X>X;X>XaX2X;X-X;X2X;XaXaX1X>XaX2XaX>X2X-X*X1X2X2X2X>X>X2X2XsX2XsX3X3X3XsX3XsX3XvXvX3X3X3X5X5XdXvXdX5X3X5X5XvXdX3XvXvX5XdX5XdXdXvXvXvXvXdXdXdXvXdXvXvXvX5XvXdX5X5X5X5X5X5X5X5XdXvXdXvX5XhXhXhXhXhXhX4XdXhXhXhXhXhXhXhXhXhXhXjXhXhXnXbXhX",
"$X=X&XXXXX&X&X+XXX+X$X&X$X$X*XiXjXpXpXaXrXrXrXrXrXtXrXtXrXwX[.[.[.Q.Q.Q.(.I.I.I.V.B.B.M.M.M.g.f.f.f.2.<.o./ R : u f w a u 6 u u - - - ; - ; ; O % % ; y u 2 u u u f b ,.h.v.b.h.k.x.4.2.<.,.Q Q Q R j u 4 9 x c M s M =.s s s 9 9 s ` ' H ` ` ` ' O.9.7.n.Y.:X3X2XsXaXaX2X;X>XaX:XsX>XsXaXaX>X2XaXaXfXaXiX2X2X2X2XaXfXaX-X-X=X,XaX;X3X1X:X>X;X=X;X;X;X,XaX2XaXaXaXsX2X2X1X>X3X2X2X2X-XfXmXsXsX>X3X2X>X>XsXsXxX3X3X3X3X3XxXdX3X3X5X3X5XvXdXdX5XdXvXdXvXvX5X5XvXvXvX5XdXvXdXvXvXdXvX5XvXvX5XvXvXvXvXvXvXvX5XvXvX5X5XdXvXdXvXdXvX5XhXhXhXhXhXhX4XhXhXhX4XhXhX4XjXnXhXhXnXjXhXmXvXbX",
"$XXX$X&XXXXXXX&X&XXX$X&X*X*X+XjXjXfXpXiXrXrXrXrXrXrXrXrXwX[.[./.Q.[.`.Q.I.I.I.V.B.M.M.B.M.M.l.g.f.f.s.<.,./ ! j ; v j u u u u a u ; - ; - ; ; ; % % ; 2 u u u u u d b ,.h.c.b.c.c.c.c.x.h.2.,.{ ! K j a 4 9 z z x 0 x =.x s g 9 0 z c [ H ` ` _ ` ;.9.7.9.[.3X:X3X3X3XrX>XrX>XaX3X3X>X;X2X2X>XrX>XaXrXaX2XaX;XaXaX2XfXaX*X;X-X2XaX;XaX2X:X>X>X2X2X2X2X2XaX;X2X2X2X2X2X>X>X-X2X>X2X2X1X2XxX2XfXsXdXsX>XsXxX3X3XsX3XxXdXxX3XsX3X3XvX5X5X5XdXdX5X5X3X3XvX5X5X5XvX5XdX5XdXvXvXvXdXvX5X5XdXvXvX5X5XvX5XvXdXvXvX3X5XdXdXvXdXdXvXdXhX5XhX4XhXhXhXhXhXhX5X4XhX4XhXhXhXnXdXhXhXhXhXmXdXhX",
"=X=X+XXXXX&X$X&X+XXXXX+X+XOXjXkXjXpXiXiXiXgXgXrXrXrX>X[.[.[.`./.`.).).(.I.A.I.M.M.M.M.M.M.M.l.l.f.f.<.@.<.! ! R u u j j j u u f v ; ; ; ; ; ; 2 - O - u 2 u f f u d f -.h.b.b.b.b.m.c.c.4.4.<.,.{ J c 9 i 9 0 N x 9 s M M f g g g M c ' ` ` ` X.` =.1.{ O.^.3X3XsX3X>X>X>XaX>X2XrX>X>X>XaX2X-X>X>XsXdX,X2X2X;X1XaXfX2XaX;XaXaX;X2X2XsX2X:X>XsXfXmXdXsXsXdXsXaXsXaXdXsXsXdXsXxXfXsXsXhXsXdXdXxX2XdXdXdXdXxX3XvX3X:XxXdXdX3X3XvX3XdXdX5X5XvX5X5X5X3X3X5XvXvX5X5X5XvX5X5X5X3XvXdXdX5X1X3X5X5XvX5XdXdX5X5XdX5X3X5X5XdXvX5XvXhXhXhX5X4XhXhXhXhXdXhXhXhX4XhX4X4XhX4X4X4X4XdXhXdXhXhXhX",
"XX%X=X=X=X$X&X&X&X*X&X+X.XjXAXZXjXwXiXfXgXkXfXgXrXqX[.[./.Q.Q.`.Q.Q.W.I.V.B.M.i.M.M.M.M.M.i.M.l.g.f.d.<.,.( / ! A u u b b v f f R b ; ; * ; ; ; * - * 2 u u a f u d u W 6.c.m.m.m.m.b.c.h.4.3.<.X.J c s 9 p 9 a s 9 9 x x p s f p z z c z ' [ 8.` T ;.` { =.r.@XsX2X2XrXaXaXsXsX2XaXaXaXdX>XrX>X>X2XfX2XaXaX2XrXsXxXhX2X2X;X2XaXaXdX2X2X>X:X>X>XdXdXaXsXfXaXaXsXsXsXaXsXsXsXsX2X2X2XaX2X3XsX3X2XdXsX>X>X2X:XxXvX3X:X3X3XsX3X3X3X3X1X1X3XdX5X5XdX5X1X5X3X3X1X5X3X3X3X5X5X1X5X5XvXvX1X5X5X3X3XdX5X5XvXdX5X5X5X5XdXvX5X5XdX<X4XhX5X4XhXhX4XhX4X4XhX4XhXhXhXhXhXhXhXhXhXhXdXhXhXdXhX",
"XXXX&X&XXXXX+X&XXX$X$XXX<XFXGXMXfXiXfXkXcXxXcXrXrX[./.Q.Q.Q.Q.Q.Q.Q.I.Z.M.M.M.M.M.M.M.M.l.g.l.l.g.h.s.s.o.o.( / Q j u f b b v f v #.f - - * * * ; - ; u u j u j f y u W h.c.N.m.b.m.b.c.x.4.4.+.X.J j c u p 4 : : 4 : p g p p f p s s x ' ' ;.;.` T ;.9.r.9.1.;..XsX2XaXaX;X>XrXrX2X3XsXsX;X>X;XrX3XaXaXaX2XaX;X>XfXaX>X;X>X;XaXaX2X:X>X-X1X>X-X2X>X-X2X>X2X-X2X2X>X2X2X2X;X>X>X2XaX;X1XaX1X2X:X2X>X:X:X3X:X:X3X3X:X:X:XsX3X3X:X3XvX3X5XdX3X1X5X1X1X1X1X1X1X3X1X3X3X5X5X3XdXdXdXdXdXdXdX5X5X5X5XdX5X1X3XdX5X1X5XvX5XvX5XvX5X5XdX4XhX5X5XhX4XhXhXdXhXdX4XdX4XhX4XhXhXhXhXhXhXhXhX",
"-XXX+X&X-XXXXXXX$XXX+X+XAXAXZXkXiXfXMXkXxXrXrX#X[./.Q.Q.Q.Q.Q.Q.).I.Z.M.M.M.l.M.M.M.g.M.M.M.l.g.f.g.f.f.<.o.,.( { R u u b %.#.b v b b f ; ; - * 2 2 6 f u j b f f d u R 4.b.D.m.N.b.b.b.c.x.4.3.,.H j b u a 9 s s i = = i f f f g 9 s z ` T ` ` ` ` ;.1.^.3X&X9.1.@X2X>XaX-X:X>XsX>X3XsXaX;X>X>X1X2X>X1X;X;X2X;X2XhXaX;X-X;XaXaXaX2X2X2X:X2X:X>X2X2X1XsX2X2X>X2XaX2X;X>X1X>XhXaX2XfXaXaXfX>X-X-X>X3X3X>X3X:X3X3X3X3X3X3XxX3X3X3X5XvX1XdXdX5X1X3X3X3X3X3X3XvX5XdX5X3X1X5X5XvX1X5X5XdX1X5X5X5XvX5X5X5X5XdXdX5X1X<XdX5X5X3X5X5X5XdX4X5X4XhXhXhXhX4X4XhXhXhXhX4XhXhX4XhXdXhXhX4XhX4X",
"&X$X&X&X=X&X&XXX$XXX+XmXJXAXZXiXfXMXMXkXgXrX9X[.^.Q.Q.Q.Q.Q.Q.Q.I.B.M.M.M.M.M.M.l.g.l.g.g.l.g.g.d.f.d.f.<.+.o./ o.%.J u u b %.#.#.b R b u u u u u a b b c b b b f d f R 3.h.b.b.J.m.N.b.k.h.4.2.,.R j W a s p l x T x i ; ; i t g g s z x x z T { ' ;.` ;.^.3X=X9.n.2X3XxX>X3X>X>X>X>XsX>X;X>X>XsXaX2XaXaX;X2X;X2XfXaXaX;X,XaX>XaXaX2X2X>X:X2X2X2X2X2XsX>X2X>X1X2X>X-X1X>X=XfXaX;X2X;X2XsX1X-X:X2X:X:X>X:X:X=X:X:X3X3X3X:X:X3X3X1XvX5X5XdX3X1X5X3X1X1X1X1X3X1X5X5X5X5X5X1X5X5X5XdXdXdXdX5XdX5XdX5X5X3XdX3X5X5XdX5XvXvXvXdX5X5XdX4X4X4X4X4X4XhXhXdXjXhXhX4XhXhXhXhX4XdXjXhX4X4XhX",
"&XXX&X&X+X-X&X-XXX+X<XJXDXMXjXjXkXMXmXfXrXwX/.^.Q.Q.Q.Q.Q.Q.I.I.B.M.l.M.M.M.l.i.g.l.l.k.g.d.s.d.f.d.s.s.d.s.<.o.( ( / S y u b %.%.#.b b b a a u 6 a u f b b b b d d f f ,.c.b.N.b.m.D.C.b.c.4.2.2.! j ! c s 4 a s x N m p i y d i g x x z s s ` 8.' ' z z ;.^.xXT.r.$XxXdXvXvXrX3X2XrXsXsXfXaXfXfXaXaXfXaXaXaXfXaXfXaXaXaXaXsXaXfX2X2X2X>X:X2X2X>X:X>X1X>X3X2X2X3X2X3XsXsX>XaX>X;X;X2XaXsX2X2X>X3XxXxX>X:X:X:X3X3X3X3XdX3X3X3X3X3X3X3X1X5X5X5XdX3X1X3X3X3X1X5XvX3XdX5XdX5X5XdXdXvX5X5XdX5XvX5X5XvXdX1XdXdXdX5XdX5X<X5XvXvXdXdXvXhX4XhXhXhXhXhXhX4XhX4XhX4X4X4X4X4XhX5XnXhXhXnXhX",
"&X&XXX-X$X&XXXXXOX+XZXJXAXZXpXkXMXZXkXfX9X/./.Q.Q./.Q.Q.Q.I.I.z.M.l.M.g.M.l.l.g.g.g.f.k.s.s.f.s.s.s.d.o.o.2.<.@.<...o./ H u ; f #.%.#.b b b u 2 u u u b b b b d u d d ; R h.l.b.C.D.K.b.b.c.k.4.<.-.A R E l a 9 s s s p p d t d x g M T x s x 5.8.` ` { ' ` 9.^.T.n..XxXsX3X>XsX2X>X>XsX$XrXaXaXiX2X2X2XaX2X2XiXaXsXaX2XfXsXaX>X>X2X>X2X2X:X>X3X3X3X2X2XsXvXdX3X2XsX2X2XaXaXaX>X>X>X;X>X;X;X-X-X>X3X3X>X3X:X3X3X:X:X1X5X3X3X3X1X3X3X5X5X3X5X5X3X3X3X5X1XdX3X5X5X3X5XdX5X3X5XdX3XvX3X1X5X5XdXvXvXvXvX1X5XvXdX5XvX5XdX5X5X5X5X5XdX4X4X4XhXhX4X4X4X4X4XhX4X4XhXhX4X4XhXhXhX4XhX4X4X",
"+X&X&X-X$X-X+X.X+XnXFXAXAXjXjXjXkXjXjXwX#X!.W.Q.Q./.Q.W.I.I.z.M.M.l.l.l.l.s.f.f.f.s.f.p.<.d.u.f.s.o.s.2.@.<.@.<.<.<./ <.,.P u u y u d v f f f u 6 f d d f u : : d d ; - f 2.b.c.b.N.m.b.m.b.c.4.,.,.%.J E c s g g 9 4 s f g d : g ` N ' ` ` ' Y.;.` ' 9.T.7.;.9.n.Y..XxXsXrX>X>X>X>X*X>X>XaXaX>XaXaX2X;XaXaX2X;X>X2XaXaX3XsXaX>X>X>X2X1X2X3X1X2X2X2X;X:X2X2X>X>X>X2X2X>X-X2X2X;X1X;X1XsXdXaX;X-X2XxX>X>X3X:X:X3X1X:X3X3X3X:X3X:X1X3X5X5X3X3X3X1X3X1X5X1X5X1X5X5X3X5X5X5X5X1X5X5X5X5X5X3X5XdX1X5X5X3X1XvXdXdXdXvXdXdXdXdXdXdX5XvXhX4X5XhXhXhXhXdXhXnXjXhXhX4XhX4XhXnX4XnXhXhXhXhX",
"XX+X&XXXXXXXOX,XZXFXFXAXjXfXjXjXjXfXaXoX/.W.Q.Q./.`.W.R.Z.z.l.l.l.k.g.k.s.p.s.s.u.s.u.@.o.u.o.o.( o...o.o.o.<.s.4.s.o.o.<.<.( R u y y u u y y y y y - - y - y u u - % y y { h.c.b.D.m.K.N.m.c.h.1.,.,.R j h i i d p : p g m p p i m *.' 8.8.Y.9.` { ` O.9.9.` 5.U.Y.$X3X3X>X>X>X2X2XaXaX2X2XaXaXaXaXaXaXaXaXdXaX2X2X2X2X1XaXsXsX>XdXxXaXsX2X2X2X2X:X2X>X2X2X>XaX2X2X2XsX>XdX5X:XaX2XaX2XaXaXaX2XsXxX3X3XxX3X3X3X3X3X3XdX5X3X3X3X3X5X1X3X3X3X3X3X5X3X5X5X5X5X5X3X5X5X1X1XdXdXvXvX5X5XvX5X5X5X3XdXdX1XdXdX<XdXdX5X<X5X5XvXdXhXvXvXhXhXhXhXhXhXnX4X4X5X4XbXhXhXhXhXjXhXhXjXhXhX4XhX",
"-XXXXXXX+X%XjXZXAXFXZXjXiXiXjXjXjXfX#XoX/./.oX#X/.W.E.C.z.z.p.l.s.p.p.@.u.@.u.@.+.o.o.o.o.o.o...o.( / / / ^ / o.f.h.h.f.<.<.4.2.<.! A u u - - - y - - - - - ; ; - - % - u R h.b.b.N.m.C.D.m.c.k.2.<.,.E j u : ; - y - 4 ` N d t p p ) ;.9.r.5.` { 1._ _ 7.[.8.;.9.T.rXdXsXrX>XsXrXfXaXsXaXaX1XrX;XaX2X2XaX;X;XaXsX2XsX2X-X>XdXsX>XdXsX2X2X2X2XsX2X>X>X>X2X2X1X3X2X3X2X2X>XsXsX1X2X>X2X2X2X2X2X2X3XsX3XsX3X:X3X3XdX3X3X5XdXdX1X5X3X5X3X3X5X1X3X3X3X1XvX5X5X5X1X5X5XdXdXdX5X5XvXdX5X5XvX5X3X5X5XvXvXvX3XvX5XvX5XvX5XdX<XvX5X5X4XdX4X4XhXhX4X4XhX4X4XhXnX4XhXhXhXhXnXhXhXhXhXhXhXhX",
"+XOXOX<XZXAXZXZXFXZXZXiX*X,XfXiXfX*XoX/./.#X9X/./.E.Z.m.l.k.s.u.@.@.@.+.@.@.+.@.@.@.@.@.@.o.o.( o.o.( | ( / / / o.f.f.f.<.<.o.f.h.c.h.,.! H k 0 u w a h j j c c f - - : m N ,.v.b.D.J.b.b.b.b.h.4.1.,.%.b 4 - - - y y 4 %.` d y s s x ) ) ` ) ;.` 9.1.{ 7.^.r.;.9.#XsX3X>X>X>X;X>XrXrX>X>X:XrX:X>XsX-X;X>X>X;X2XrX>X2X2X>X2XsXsX3XsXsXsXsXsX2X2X2X>X2X:X-X:X-X2X2X2X:X2X>XsXsX>X>X=X-X2X2X1X>X:X>X2XsXsXsX>X2X3XxX3X3X3X3X3X3X3X:X3X3X:X3X3X3X3X1X5XvX5X5XdX5XvXdXvXdXdXdXdXdXdX5X5XvXdXdXdXvXvXvXdX5X5XvXvX5XvX5X5X4X5X5XdXhXhXhX4XhXhXhXhXhXhXhXnXhXdXhXhXdXhXhXbXnXjXhXhXhXhX",
"+X<XjXAXZXZXZXZXFXZXiX*X,XjXiXiXwX#X/.oX6X#X6X/.W.J.m.l.k.@.o.@.@.p.l.k.k.@.k.7.k.7.k.2.<.+.d.f.<.<...( ..<.s.o.| o.f.c.h.2.o.<.g.c.k.f.<.o. ./ ....,.,.<.,.,.-.R u d v n v W 3.h.b.D.N.C.b.b.c.6.<./ %.f - y - - y y ; l W s p x x x ) =.;.8.9.9.9.{ X.9.9.Y.8.n.:XsXsX>X:X;X-X>X>X:XxXxX:X3X3X2X3X>XsX2XrXaX2X1X1X2X2X1XsX2X2X2XsXaXsXsXsX>X1XsXsXdXsXsX2X2X2XaXsX2XsX2XsXsX2X2X3X3X3X3X2XfXsXsX3X>X>X3X:X3X3X3X3XxX3XxX3XvXvXdXvXdXdXvXdXdX5X5X5X5X5X3XvX5X5X3XdX5X1X1XvXvXvXdXvXdX5X3X5XdXvX3X3X3XvX5XdX5XvX4X5XdXdXdXdXdXhXhX4XhXhXhX4XhXhX4XhXdXhXhXhX4XhXhXhXhXhXhXdXdXdX",
"jXZXAXZXjXiX<XZXZXjX,XOXiXiXiX,XoXoX.X6XwX[.~.R.G.b.f.@.+.+.@.k.k.z.l.k.k.k.k.n.v.v.k.v.c.f.s.f.d.o./ o.N.L.L.C.h.o.o.h.b.z.h.f.f.b.z.l.g.f.l.l.l.b.g.c.h.c.h.2.E f d f y - : H { 1.h.D.b.b.b.l.4.<.{ R u ; y y : - - : g M m 4 s ) x z ;.) ;.r.9.8.{ O.9.1.;.{ r.T.sXsX>X>X3X>XxX>X>X>X>X>X>XrXrX2X:X2X2X2X>XaX2X2X2X2X2X2XsXaX2X2X1X2XsX2X>X>X2X2X3X2X>X2X3XsXsXsXsX2X2X3X3X2X>X2XsX1X2X3X2X2XsXdX1X2X2X:X3X2X3X3X3X3X3X3XxXdXdX3XdXdXvX1X1X5X5X5X5X3X5X5X5X5X5XdXdXdX5XdXhX<X4X4X5X5X5X3X5XdXdX5X5XdXdXvX5XdXdXdXhXdXdX4X<XnXhXhXhX4XhX4XhX4X4XhXdXdXhXhXdXhXbXhXhXhXhXhXhXhX",
"FXAXjXjX<X%XZXFXZXjXOX<XjXiX,X*XOX!.oXwXwX~.R.m.k.s.@.| +.@.@.p.7.z.k.k.k.7.7.k.x.k.x.k.4.f.f.<.o./ u.~.7X6X~.W.K.l.@.f.b.C.C.C.m.z.V.C.M.M.z.M.M.M.N.M.b.l.h.<.R : - - - - : d l H ,.h.b.b.b.c.4.6./ H u y - y t t t y p x M x s x ` z 8.` ` 9.9.5._ 9.9.;.9.9.@XT.&XrXxX>X:XrXsXrX3X3XxX3X3X3XdX>X:X2X3X>X2XaXaX2X2X2X2X2XsX2X2X3X>XaXdXdX2XsXfX2X2XsX>X2XsXdX2XdXsXsXxXfXdXdXsXdXdXaX>X3X2X2XsX2XaXsX3X2X3X:X:X3X3X3X3X3X3XxXdX3XdXdX3X3XdX3X3X5XvX5X5XvX5XdX3XvX5X5X3XdX5X5X5X<XdXdX5XdXdXdXvXvXvXdXdXvXdXnXdXdXvXdX5X4XhXvXhXhX4XhXnXdXhXdX4X4XnXjXhXhXhXhXbXhXnXhXhXhXbXbX",
"ZXiXiXiXOXOXZXZXjX,XOXiXiX,X*XOX~.!.wXwX/.J.z.k.@.| +.+.@.@.+.@.s.l.z.n.z.n.x.k.7.k.k.s.4.2.<.s.u.( g.6X7XpX0X_.W.C.l.d.f.V.C.C.C.N.l.M.M.M.M.M.N.V.N.V.N.c.h.-.f t : t t t t p d a c { 4.c.v.h.2.<.-.c u - y ; t y i y y g ) x ) T ' ` ` z K O.` K O.9.;.9.@XT.sXT.#X3X:X=X:X>XsXaXsX3X>XsXrXxXdXaXrXrX2X>X;X>X-X;X-X2X2X2XsX1X>X2X:X2X2X2X>X2X3X2X2X2X2X2X3XsXsXsXdX2XsXaXsXsX2XdX3X2X>X3X;X-X:X:X3X:X2X2X3X3X3X3X3X:X3X3X3XvX5X3X3X3X5X3X1X1X1X5X5X3X3XdX1X5X1X5X5X5X5X1X5X3X1X1XdX3X1X1XdXdX5XdX5X5XvXvX1X5X5XvXvX5X5X5XvXhXhXhX4XhXhXhXhXhXjXhXnXvXbXhXdX4XhXhXhXbXhXbXbXhX",
"iX,XiXOXH.OXjX<X<XOXOX<X,X=XOX!.R.oXwXoXG.v.s.+.+.+.+.+.@.+.@.@.k.m.I.I.R.m.m.n.k.7.7.7.4.s.s.<.<.| d.L.L.7XeXeX6X_.L.V.l.l.z.M.M.l.g.g.g.g.l.M.b.N.K.m.b.h./ l : p d u t : t t p f u c ! 2.b.h.4.<./ b u t f t y y d y y p x m s ) ;.z K ` ` z ` ;.;.9.9.^.^.^.$X^.:X>X:X&X&X:X;X>XsX>X>X>X>X>X>X>X:X:X>X>X;X>X;X2X-X-X;X2X2X>X2X>X2X2X2X3X3X>X2X>X2X2X>X2X2X2X>X>X2XaX>X;XsXdX2X2X2X2X:X>X2X>X:X:X:X3X:X:X:X3X3X3X3X:X:XvXdX3XvX5X1X3XvX1X1X3X3X5X5X5X5X3X1X5X5X3X5X1X5X5X5X5X1X5X3X3XdXdXdXdXvXdXdXdXdXnX5X<XvXvX5XnXnXdXvXhXhX4XhX4X4XhX5XhXhXhXhXnXhXnXnX5XbXbXhXhXdXjXhXnX",
"OX7XOXOXK.+XjXjX<XOXiX<X*XXX^.!.!.oXoXG.k.+.o...+.+.+.+.@.@.k.k.n.m.R.Q.R.R.C.m.m.k.7.2.@.2.2.2.<.( ^ g.d.2.~.eXuXeX`.L.B.l.a.a.a.a.a.a.g.l.m.D.G.J.J.b.h.<.l u p d t - - ; ; t t d f u b { <.h.4.<.! j p f f t y : d i : y i g x x [ ;.=.;.` z ` { { 9.Y.@Xr.^.3X3X3XsX3XrX=X:XrX3XdXrX3X>X3XsXsXaX2X2XsX>X3X3XaXaXfX-X2X>X2X2X>X>X>X:X>X2X2X1X2X2X>X:X;X>X2X2X>X1X-X1X:X>X>X2X>X>X2X>X>X2X3X2X:X:X:XsXsX3X3X3X3X3X3X3X3X3X3X3XvX5X3X3XvX3X1X3X5X5XdX5XdX3X1X5XdXvX5X3X5X3X3X5X1XdX1XdXdXdX5XdXvX3XdXdXdXnXvXvXnXvXhX5XdX5XhXhXhX5XhXhXhX5XhXhX4X4XhXhXhXdXhXhXhXmXbXhX4XhXdXhX",
"K.OXOXH.H.%X<X<XOXOXiX,XOXoX!.R.oXoXR.x.@.o.+.+.+.+.7.@.@.@.@.7.k.m.m.R.R.Q.R.J.m.v.k.7.<.O.O.<.../ Y o./ B / oXlXlX7X~.I.B.a.u.u.a.a.l.l.b.J.J.J.K.c.f.,.H u t t t - - - - t u : u g f p M ! ,.2.,.{ c t t y ; f p - - : y : p x s x [ ;.;.` z K ` ;.n.Y.T.^.>X3X3X3XxXsXsX3XrXsX>XxXsX>X:X3XrX>X>X2X>X2XrX3X2XaX2XaX-X;X,XaX2X1X2X2X-X2X3X>X:X:X2X2X>X1X>XsX3XsXsX2X3X2X2XsXdXxXsX2X2X>XdXxXdXsXsX3X:XvXsXvXvX3XxXdX3XdX3X3X3X3XvX3XdXnXdX1X3X5XvX5X5XdX3XdXvXdXdX5X5XdXvX5XdXdXdX5XdXdXdX5XdX3X5XdX5X5XvXdXdX1X5X5X5XvX<XhXvXhXhXhXhXhXhXhXhX4XhXhX4XhXhXfXhXhXhXhXbXdXnXbXdX",
"H.OX!.F.G.<X<X-XOXOX,XOX.X!.G.^./.R.z.+.+.+.7.7.@.@.@.@.k.+.+._ B ~ ..2.b.J.K.K.J.G.n.h.3.2.,.,.,. .! L D J B x.lXlX7X_.L.l.d.u.a.a.l.N.m.!.J.G.D.h.<.X.c 4 u u u - - - % - y 4 p p d v p u R ! ,.,.! j y - : ; i i y - - - : g x p x ) [ z T ` _ [ 9.^.Y.&XsXrX3X3X3X3X:X@X@X&X>XwXxX>X>XrX:X>X>X>X:X>XsX>X>XrXsX2X2X=XsXsX2XsX2X3X3X2X3X2XsX3X2X3X2X2X2X:X2X:X>XxXvX2X3X2X2XsXdX2X2XdXsXsX2X2X:XsX3X3X3X3X:X3X3X3X3X3X3X3X3X3X1X5X3X3XdX3X5X5X3X5X5XdXdX5X1X5XdX5X5XdX5XdX5X5X3X3X3X5X5X5XdXdX5XdXdXvX5XbXhXhX4X5X5XvXvX5XvXvXvX5XhXhX4XbXnXnX4XhXhXhXhXhXhXvXhXhX4XnX5XhXhXhX",
"G.OXR.n.H.&X%X+X X*XOX.X!.G.!.oX^.U.+.+.+.7.z.z.k.p.@.7.z.+._ 7 , 6 D / d.h.D.c.c.m.m.m.k.2.,.X.{ X.{ ] G ! Y 2.lXkXeX_.L.M.a.a.g.z.N.G.J.J.D.c.f.<./ j & y u t u - % - - ; ; y t d p v m p f R ! ,.! R u y y - i y - - - & i g g i x ) ) s ` ;.` ` 1.F.r.@X:X:X^.^.Y.n.9.1.9.n.U..X&X=X:X:X=X-X=X#X&X;XsX>X>XsX2X2X2X:XaXsX1X3XsX2X2X2X3X3X>X1X1X:X>X>X2X:X3X3X:X3X3X>X>X:X>X2XsX2X2X2X2X3X2X:X3XsX3X3X3X:X3X3X3X:X3X3X3X3X3XxXvX5X3X5X3X3X3XdX3X:X1X3X5X5X5XdX5XvX3X4X5X5XdXdX2X2X5X3XdX5X5XdXvX5X5XdX5XnX4XhX5XvX5X5X5X5XvX5XdX5XhXhXhX5X5X4X4XdXhXdXhXhXhXnXhXhXhXnXbXhXhXnX",
"D.!.G.x.H.%X*X X XOX.X!.H.J.OX!.U.s.+.| s.z.k.k.k.+.z.U.z.@.Z 7 > > 6 ~ <.h.D.d.d.f.f.f.b.v.2.,.X.,.X.{ ! / <.b.eXlX0XW.N.b.d.g.g.l.m.K.G.c.f.f.<.! j : - u y t - - % - ; - y y y t d p v N p s R ! ! R j u y - - i - - - - i i = & g x s z { ' z ` ;.1.X.5.9.e.9.=.=.` T ` ` =.8.r.r.U.T.U.Y.n.9.9.e.F.^.@X>XxXsX>X2X2X>X1X2X3X2X2X2X-X3X2X3XsXsX2X>X2XsX3X3X3X2X3X3X2X2X>X3XsXsXsX2XsX2XsX2X>X3XvXsX3X3X3X3X3X:X3X3XdXxX3X3X3X5X3X5X5X3X3X5XdXdX5XvX5XdXvX5XvXvXvXdXdX5X5XdXvX5XvXvXbXdXdXhXvXvXdX5XdXbXnXbXbXhXnXvXvXvXvXvXvXvXhXbXvXhX4XhXbXhXhXnXbXnXhXZXmXnXjXjXZXnXbXmXnX",
"S.J.G.4.T.+XOXH..XOXT.!.G.!.~.G.k.@.+.+.z.z.I.k.p.z.U.z.l.^ V V , O & B ~ ( ( d.K.g.u.( o.h.h.<.,.,.,.X.,.,.s.J.eX7X~.Z.N.l.g.g.g.b.N.D.f.d.<.o.! A u - u u y ; y - - - - - - u : t d f u N g p H Q ! R j u y - - - & - & - - : & i p s 9 T T h H 5.r.8.' x s x z z z s x z M T =.8.r.Y.e.Y.r.X.[ [ { { 1.9.F.XXsX>X>X:X-X>X-X-X-X>X2X2X3X>X2X2XaX2X2XsXsX3X2X3X3X2X3X3X3X2XsXdXfXsXsX2XsXaX2X3XsXdXsX3XdX3XdX3XsX3X3X3X3X3X3X3X5X5X5X3X3X5X5XdX5X1X5XdX5X5X3X3XdXvX5X5XdXdX5X5XvXvXvX5X5XdX5X5XvX5X5X5XdXdXhX4XdXdX5X5XvX5XvX5XdXhX5XhXhXhX4XjXhXhXjX4XhXhXjXhXnXdXhXhXhXbXdXfX",
"v.G.c.2.H. XOXH.!.^.U.G.U.!.U.z.k.p.o.k.z.n.z.k.k.m.J.J.f.~ D D , O X > / ~ D ( d.d.b.d.( ( d.f.,.,.,...,.,.f.K.6XL.L.L.N.b.c.g.g.c.b.f.d.u.o.{ H a ; ; v d u ; ; ; ; - - y - - t y t v d d g p c R ! J z g : y i - - % & - - : & i 9 s s x s z ` T l p p i p p s i p g s x x ) =.>.>.8.{ [ ' ) T T T R ` [ ;.7.T.@X2X:X3X>X>XsX2XsX2X2X:X2X2X2X3X:X-X2X2X3X3X3X3XvX3X:X2X>X2X2X2X2X2X2X2X3X2X2X:X3X3X3X3X3X3XsX3XsX3XxX3X3X3X3X5XdXdX3X3XdXdX5XdXdXdXvXdXdX5X5XdXvX5X5XvX5XdXdXvX5XvX5X5X5X5X5XvXvX3X5XhX5XvXhXhX5XhXhXhX5X5X5X5X5XdX5X4XhX4XhXhX2X4XhXhXhXhXnXjXdXhXhX5XhXdXhX",
"7.v.k.,.D.|.H.D.U.U.G.G.U.R.m.k.p.+.@.l.z.z.k.k.b.m.R.J.f.^ / B 6 > O O A ! ~ ~ ~ ( d.d.( ~ ~ <.<.,./ %.! ..@.K.W.B.l.N.j.b.j.g.g.g.d.s.o.o.( ! h 9 * d n b y - - & & - - - - y : : t d g t f p a H P R l g i d i y - - - - - - : = i g x x s x s p : - ; ; - - : : : : i 9 p m ) [ ;.[ [ ' T x g p p a h z ` ;.1.9. X:X>XaX:XsX3X2X-X2X2X-X:X$X$X-X&X:X:X:X:X:X3X3X3X2X2XaXsXsXsX3X>XsX>X2X3X2X3XsXsX3X3X3X3X3X3XxX3X3X3XxX3XxX3XdX3XdXdXvXdXvXvX5XvXvXdXvXdXdXvXdXvX5XdX5XvXvXvX5XvXvX5XvX5XdX5X5X5X5XvXvXvXvX5XhX5X5XhXdXvXdXdXvXvXvXhX4XdXhXhXhXhXhXhX4XhXhXnXnXhXmXnXbXbXjX",
"@.f.f.O.S.H.H.J.G.G.G.U.R.U.z.p.p.@.p.z.m.k.k.k.m.R.!.J.d.( ( ~ B %.6 O > > Q h.<.~ d.d.<.( ~ ( o...! ! Q ! +.J.L.b.g.g.f.g.d.d.d.u.u.u.d.<.,.j 0 4 ; v #.n y - - - ; u y d d u t u t d v v t f u H E k h 0 i i i d i - - - & : i i 9 p s p i i : : - - - - - - = = i p s z F ` { 5.3.3.9.1.=.` x s i ; : t s x [ X.1.T.;XsX2XsX2X2X:X2X3X:X:X$X%X:X:X:X2X:X2X2X2X3X3XvXsX2X2XsX2XsX1XsX3X2X2X2X:X3X3X3X:XsX3X3X3X3XxX3X3X3X3X3XdX3X3X3XdXdXdXdX5X3XvXdX3XdXdXdXvX5X5XvX5X3XvXvXvX5XvXvXvXdX5XvXvXvXvX5X4XvX4X4X5XbXhX5XnXvXvXvXbXvXbXjXhXdXhXhXhXnXnXhXdXhXhXbXhXnXnXnXnXbXbXnX",
"+.+.4.<.6.H.H.J.U.m.U.U.m.n.k.p.p.@.s.n.k.s.k.m.m.R.~.K.<.6.<.~ B D 6 > 6 , ! !.D.( ( <.d.( ( / / ( ! P ! / <.f.~.J.l.p.d.u.u.u.u.@.<.d.<.<.R w 0 ; y #.#.#.#.u y y u u v v #.#.n #.v v N N : d u h H j h p y - - i d d i i : = i i : i i : : = - - - - - - : 9 x z { ;.+.k.U.U.U.R.U.R.U.U.m.9.1.[ x a ; ; i i x [ ;.;.r.=XsXdXsX3X3X2X3X2X:X2X2X>X:X&X:X:X:X3X3X3X3X2X2X-X:X2X3XxX2X>X2X2X:X2X3X3X:X:X:XsX3X3X3XsX3XdX:X3X3X3XdXdX3X3XdXdXdXdX5XdXdXdXvXdX3XvXvXvXvXvX5XvXvX5XxX5XvXvX5XdX5XvXvXdXvXvX4XbXnXnX5X4XhX5XvX5XvXdXdX5XdXdXdXdXhXdXhX4XhXdXdXhXbXnXjXnXjXbXdXbXdXhX",
"<...2.+.3.F.G.U.H.G.U.m.m.k.k.k.p.+.p.z.p.p.n.z.U.I.Q.U.d.6.( ( B B b 6 6 j S S.D.h.2.( o.d.( / / ,.D Q ( ,./ ! h.K.J.D.j.h.c.h.d.u.f.f.<.Q w 0 u ; d #.#.#.#.#.y y y y #.#.v #.v #.d #.#.v - - u u j j f 4 : - - - y y ; y y ; - : : - ; - & & - - - : 8 k [ O.7.k.U.I.I.Q.Q.[.[.[.[.#X[.[.#X^.Q.U.9.;.x s = i i g ' ;.{ 9.Y.:XxX:X:X:X:X>X>X>X3X:X>X&X=X:X:X2X2X3XvX>X:X:X=X:X=X3X3X3X:X:X>XsX3X3X3X:X3X3X3X3X3XdX3XdX3XvXdX3XvX3X1XvXvXdXvX3X3X3XdX3XvX3X3XvXvXdXdXvXvXvXvX5XvXdXdXdXdX3XdXvXvXdXdXvXvXvXdXvXvXhX4XhXhXvX4XdXhXbXbXhXhXhXhX4XhXdXhXhX5XhXnXmXnXmXnXhXhXhXnXhX",
"2. .<.O.X.x.G.U.G.G.m.n.k.k.s.p.p.@.p.z.s.s.z.z.I.U.R.z.h.h.( ( ~ D D 2 6 B 6 S S.J.G.f.d.d.d.( ~ ,.! D / ! P R J ! h.H.OXiXkXpX.Xc.h.<.! j 6 a 2 - y #.#.#.#.#.#.y y #.y #.#.#.y v d y y - - - y 4 u a : t ; t y - % % % - - % & - & & % & & - - * 4 H X.@.k.V.I.E.E.Q.Q.Q.[.[.[.[.qXqXqXqXqXqXqXqX[.^.n.O.x 9 i : x ' ;._ X.r.$X>X:X>X>X>XsX>X3XsXdX3X3XsX3X3X3X3XsXsXvXsX:X:X3X:X:X3X3X3X3XxX3X3X3XxX3XxXxX3X3XxXxXvX3X3X3X3XvX3X3XvX3X3XdXvXdX3XdXdX3X3X3X3X3XvX3X5X5X5XdXvXvX3XdXvXdXdX5XdXvXvXdXvX5X5X4XhXhXhXhX4XhXvX5XdXdXhXdXhXhXhXhXhXhX4XhXhX5XhXnXbXjXhXhXnXhXjXhXnX",
"f. ...+.] 7.n.U.n.n.m.n.k.7.p.s.k.@.p.p.s.p.z.I.U.I.Q.U.h.h.d.( ~ ~ D b 6 6 6 / oX#XQ.m.d.u.( ( D / ( D / P ! D S A F J %.D.iXGXkXH.h.,.A j j w 4 - u y v #.v #.#.#.#.#.#.#.y y y > y y - % - - % 4 u u - t y u f t - - - % % - - o % % % & - & 4 F X.2.k.z.I.I.E.Q.Q.Q.[.[.[.Q.[.Q.[.[.qXqXqXqXqXqXqXqXrX^.F.=.s = 9 x ` ;.{ { e.@XdXsXxXsXsXsX2XaX3X3X3XvX3XsXsX3XvXvXvXdXxXdXvXxXsXxXvXxX3X3XxX3X3X3X3X3XdX3X3XxXvXvX3X3XdX3X3X3X3X3X3X3X3X3XdXdXdXdXvXvXxXvX5XvX3XdX5X3X5XvXdX3X3XvXvXvX3XvX3X3XdXvXvXhXvXvX4X4XvXvXhX4XvXvXdXhX4XhXbXhXhXhXhXhXhXhXhXfXvXmXbXhXhXjX4XnXhXhX",
"h.../ X._ 2.x.n.x.n.m.k.+.+.+.@.k.p.p.l.p.k.k.z.z.I.U.I.d.h.h.( ~ ~ ~ <.,.6 B %..X9X/.!.d.~ ( <.( D / ,./ ! ! R S j k J j D H.*XiXD.2.Q J D S w 2 - y - y y v #.#.#.#.#.#.#.y y - - - - % % % - % - ; ; t u u - v t t d - - % - - & % o & - & 0 E X.s.k.z.V.I.I.E.R.Q.Q.Q.Q./.Q.Q.[.Q.[.[.[.qXqXzXzXzXzXzXzXtX[.r.` s s N ' 5.{ ' 8.@X3XxX>XsX3X2XsXsXsX2X3X>X3X3X3X3X>X3X3X3X3XsX3X3X>XsXsX>X>X3X3X3X3X3X3X:X3X3X3X3X3X:X:X3X:X3X3X3X5X3X3XvX3XvXdXxXvXnXvXnXxX5XnX5XbXvXvXvXvXvX3XvXvXdXvX5XvXvXdXdXdXvXhXnXvXhXhXhXhXhXdXhXdXdXhXhXhX5XhXbXhXdXhXnXhXbXhXmXbXnXbXhXhX4XZXhXjX",
"2.O.Y / ! ,.x.k.k.n.n.7.O.O.O.+.k.p.p.p.p.s.@.I.I.m.m.Z.2.f.<.~ ~ ~ B ( <.D 6 D v.^.!.G.4.| d.g.<./ D / ( / Q H A j 5 H Q P D.OXK.h.<.Q P P S k y - y % - - y #.#.#.#.:.%.#.d y > - - - % - % % - - ; - u f u y p y - u y - - % % % % - - = w ] <.4.s.z.V.V.V.I.I.I.Q.Q.Q.Q./.[.[.[.[.Q.[.[.[.qXqXqXqXzXzXzXNXzXzX^.1.x x T ' ;.;.[ 8.@X>X:X>XsXsX2X2XdX2X2X2X3X3XxX3X>X3X3X3XxXsXsX3X2XsXsX2X2XxX3X3X3XdX3X:X3X3X3XxXvXdX3XdX3XdXvXvXvXdXxXdXvX3X$X^.Y.^. X X=X3X1X:X@X+X$X3XvXvX3XvXdX3XvXdXvXvXdX5XvXvXvXvX5XdXdXvXdXvXnXdXdXbXbXhXbXhXbXjXhXhXhXmXbXhXhXvXmXnXbXnXbXhXnXnXhX",
"..o./ P ! ..7.7.7.k.k.+.O.O.O.+.@.p.p.l.p.p.s.k.z.z.k.m.d.<.,.( ~ ~ ~ ~ ( <.6 B Y n.m.n.D.h.( d.( ~ D D / %.D B 6 k 6 A ( h.D.OXOXh.o.P ^ ! P A u - y - - - y #.:.:.#.#.#.u y > y , > - % % - - - - - - y u y u i : - : g u & - - % - @ * k ] O.+.p.l.z.M.V.I.I.I.I.Q.Q.Q.Q.[.[.[.[.[.[.[.[.[.9XqX[.qXqXqXzXzXNXNXzXrXn.z x ` { ;.;.[ 9.&X3XsXsXfXsX2X2X2X3X>X3X3XsX3XxX3X3X>XxXxXsXvX3XhXsXsXsX3X3X3X3X3X3X3X3X3X3XxX3XdX:XdX1X%X:X:X3X3X:X:XY.t.q.>.>.;.:.>.w.t.r.8.>.>.>.9.Y.1X3XvXvXvXbXvXxXvXvXvXvXvXvXvXvXvXvXvXbXvXvXvXnXbXbXhXhXbXdXbXnXhXhXhXhXhXhXhXmXbXhXhXhX4XZXhXhX",
"U ....P Y X.2.3.7.7.7.O.O.O.O.O.+.7.p.p.p.p.p.s.7.k.k.z.f.( / ( ( ~ ~ ~ %.6.%.6 V S n.U.R.m.<.( ( ( ~ D P / D j A S S A %.D.OXkXOX<.D / / / ! J 6 - y - - - y d %.#.%.b y - u 2 , , - - % - - % - - % - - - - - i y - p =.u & % & % - & h Q O.@.s.s.l.z.V.V.I.I.Q.Q.Q.Q.[.[.[.[.qX[.[.[.[.qX9X0XqX[.qX:XqXqXzXzXNXNXNXrXn.` M ' [ ;.;.{ r.:X>X:X:X2X2X2X2X2X>X>X3XsX>X3X3X3X:X>X3X3X3XsXaX2X2XsX:X3X3X3X:X:XdX3X3X3X3X3X:X:X Xw.8.w.t.}.Y.}.r.>.>.;.:.*.*.` ) ' >.>.>.>.;.;.>.;.r.$XdX3XdXvXvX3XvXdXdXdX5XvXvXvXvXvX<XvXvXhX4XvXhXdX4XhXdXhXbXdX4XhX4XhXbXdXnXmXbXbXhXbX4XhXhXhX",
"^ } ..Q I  .O.+.@.7.7.O.O.O.O.O.+.p.p.p.p.p.p.@.+.+.@.k.f.o./ ( ( ( ~ ~ ~ <.<.S 6 e 0.!.R.G.f.~ ( <.( ! D / %.B S S S J P / <.h.,.~ / / o.( / P B u - y - % - y y #.#.b - > u 6 , ; ; - - - % - - - % y - - - u - % - N x & - % @ & & 0 I ..+.p.k.l.z.V.I.I.I.(.Q.Q.Q.[.[.[.[.[.[.[.qXqXqX[.0XqXqXqXqXqXqXrXrXzXcXNXNXNXrXF.` ) =.' 5.;.;.@X3X3X3X3XsXsXdXsXsXsX3XsX3XxX3X>X:X3X2XsX3X>XaXsXdX2X3X3XxX3X3X3XxXxXxX3X3X3X%XY.8.q.>.q.w.w.w.w.q.>.;.) ) >.t.>.) ) >.8.>.>.>.*.*.;.8.r.1XdX3XvX3XvXdXdXvXvX5XvXvXvXvXvXhXvXvXvXnXhXnXhXhXbXhXhXbXhXhXhXbXnXjXbXbXmXnXmXhXnXjXnXnXjX",
"v.Y  .! P  .O.O.+.7.O.O.O.O.O.O.O.+.p.p.p.p.p.+.o.o.@.@.2.<.~ / ( ( ( ~ B %.<.q.D 6 ~ H.D.v.2.~ ~ ( ( ~ %.~ / %.D J G S S Z Z B U ( o.o.o.o./ Q H u - y - % - - ; ; 2 2 2 2 6 2 u ; - y y - - % - - % - ; % : t ; - p N = & % % & = 9 K  .+.@.k.k.l.I.I.I.W.).[.[.[.{.qXqX9X0X0X0X0X9X0X0X0XeXqXtXtXrXzXzXtXzXtXzXzXNXNXNXrXe.T ' =.=.;.;.F.3X:X3X3X3X3X:X3X3X3X3XsXsXsX3X2XsX3X2XsXsX>XsXdXdXsX3X3X3X3X3X:X3X3X%X XY.}.t.q.q.:.>.q.q.>.*.>.>.:.N n *.q.w.>.*.) *.8.q.>.>.>.*.*.;.>.F.:XxXxXvXvXvXsXvXvX5XhX5XvXhXhXbX4XhXbXbXbXhXbXhXvXjXbXbXhXjXbXbXbXbXmXhXmXbXnXjXmXbXmXhXhX",
"!. .^ ] P ] 1.2.O.O.X.X.O.O.+.O.O.} @.l.l.p.+.+.} ..o.../ <.,.~ ~ ( ~ ~ ~ ~ ( <.,.V 6 %.e.,.4.d.~ ( ( ~ ~ %.( %.P Y G D D S Z ^ / ( o.o.u.o.o./ J 6 2 u y - - - ; - > - - 2 u u f v u y - % % - % - % - ; ; d : ; ; ; = & % @ & & 4 k ] O.+.k.k.l.k.I.I.Q.).[.[.[.qX{.qXqXqXqX0XeX9X9X0X0X9X9XtXtXzXzXzXcXcXzXcXzXtXzXcXNXNX9X1.M *.*.=.1.;.$X3X>X>XvX3X:X:X:X3X3X:XsX:X3X>X3X2X3X>X2X>X>X1X>X>X3X:X:X3X3X3X:XY.t.w.w.q.w.>.*.) ) *.>.) ) ;.*.) ) N *.>.>.' *.;.=.;.>.*.:.) ) ) *.;.>.r. X1X3XbX5XvXvXvXdXvXhXbXhXhX4XhX5X4X4XnXhXbXhXmXhXbXbXbXvXhXhXbXdXhXvXmXbXnXbXnXhXhXhXbX",
"@Xx.U / ! I ,.1.O._ _ _ X.O.O.O...O.k.k.l.p.@.| ..} ..^ P / <.D B ~ ~ ~ ~ ~ B ( ,.,.6 2 2 6 6.<.~ ~ <.<.( ( 5./ ! L L L S Z Y ..o.u.s.u.u.d.u./ J j u y y 2 - - - O O - 2 u b b b b y - o % % % % % % % : p a - & - & - @ % o @ & w Q O.2.@.k.k.I.I.Q.).).).[.[.[.qXqXqX0X9X9X[.9X6X9X'.6X`.9X9XqXqXtXzXzXzXNXNXNXcXcXNXNXNXcX^.[ ` *.` ;.;.r.:X3X:X>X>X:X>X>X3X:X3XsX3XsX>XsXsXsXsXsX2X2X2X>X2XxX3X3XxX3X%Xt.t.q.w.t.t.>.&.) &.) ) ) ) ) ) *.) ) ) *.:.:.) ) ;.;.>.8.;.>.' ) ) ) *.;.8.8.r.+XdXvXxXvXvXvXvXbXbXhXvXhX5XhXhXbXnXbXhXnXjXvXhXnXbXnXmXhXbXmXbXhXmXmXmXnXjXbXnXjXbX",
"&X.X..L / P ! 3.O._ ` _ X.O.7.+...O.p.p.@.p.@.| ..} ! Q J J / ( ~ ~ ( ~ ~ ~ ~ B / ,.w O * ; ! / ~ ~ d.h.<.6.6.<./ ! I D Z ^ ( ( u.u.u.u.u.u.o./ D H A 6 ; y u * * * ; u d v #.#.#.y % % % % % % - - - & : x c : : = - - % @ @ & 9 J ..2.k.k.b.m.R.R.Q.Q.Q.).Q.[.[.[.[.[.[.[.[.[.`.`.`.`.`.).`.`.`.[.9XqXrXzXzXcXNXVXNXVXNXNXNXrX9.` ' T [ 8.X.Y.sXsX3X2X3X3X:X3X3X3XsX3XsXxXsXsXsXdXxXsXdXsX2XsX3X3X:X:X$Xt.t.t.q.q.q.q.>.*.*.:.*.) ) ) x ) ) ) ) &.*.*.) ) >.w.8.=.;.9.8.>.' ) *.*.*.5.9.8.r.%XvXvXnXvXbX5XvXbX5XhXhXvXnX4XbXvXhXhXvXhXhXhXdXhXhXmXmXbXbXbXbXmXmXnXnXmXbXnXvXdX",
"$X=X!.] L Q Q ,.O.{ _ _ X.O.+.O.+.+.7.@.+.o.o.o.} } Y J J S J ,.~ D ~ ~ ~ ( ~ ~ ~ %.S O X X S ~ ~ ~ d.D.D.S.0.<.,./ U L U ^ | o.u.u.a.u.u.| u.| ! H k j 2 - u ; y u f f d #.#.#.- - % % % % % - & - N & = l 0 a : & : - % o @ : k X.2.7.k.7.9.k.9.U.U.U.U.z.U.U.Q.`.[.[.).`.).).).Q.).W.).W.W.(.Q.Q.`.`.[.>XzXzXzXVXVXVXVXNXNXNX^.;.T ) ` ;.8.;.$X3X>XsX>X2X>XsX3X3XsX3XsX3X3X3XsXsXdX2X>X3X3XdX3XvX:X X}.t.}.t.:.&.$.) ) :.) ) :.*.) ) ) ) ) ) n N &.&.&.*.*.:.) ) ) ;.8.5.>.;.=.:.;.>.8.8.9.Y.2XvXxXvXdX5XdXbXbX5XhX4X4X4XhX4XhX4XnXhXhXhXdX4XdXbXbXbXbXhXhXhXmXmXnXnXbXmXmXbX",
"&X=X*XH.Y L P X.X._ { ] _ O.O.O...O.+.+.o...o.| }  .P S J J B R ( ~ D ~ ~ y.y.~ B D / u O o u B ~ <.D.K. XH.0.6.,./ U D ^ | o.o.o.u.u.d.( ( | | / D A A j 2 2 u y y v b #.#.v y - - - - - - - % % - *.p & c c = & : & % o o = s { 7.7.3.;.' _ ` K _ _ L ` _ _ O.7.R.Q.).[.).).Q.(.W.W.(.W.I.E.E.E.E.W.R.Q.Q.[.rXzXNXNXVXVXNXNXVXzXr.c T M ` 5.X.r.>X3XsXsX3X3XvX3X3XvXsXvX>XxXsXdXaXsXdX>XsX3X2X3X:X X}.}.t.t.t.q.:.n n ) ) n ) ) ) n n x :.) n n &.N $.&.*.N m m m N ) >.;.=.8.8.8.8.8.8.8.w.9. X2XvXvXdXdX5XvXhXhXhX5XnX5XhXhXhXdXmXbXhXhXhXhXhXdXhXhXhXbXbXnXnXjXbXmXhXhXvXvX",
"&X&X=X&XF.G G { X.[ I _ _ } O.}  .............../ / Y S S J S S %.( D ~ ~ ~ ~ y.B B B 6 2 O O B ~ h.D.|.OXH.x.6.../ D ^ } | | u.u.u.u.u.u.u.( ( ~ R S S R %.; u v v #.$.%.v y y y y y - % - % o % o f p = s 4 & & & % o o @ 9 ' 1.9.{ T z s s s s z s z z T ` { X.O.U.Q.).).).Q.W.E.E.E.I.A.Z.Z.I.I.I.m.U.7.U.U.^.sXxXNXVXVXVXNXNXwX{ s x T [ 5.;.@X3XsXsX>X3X>X:X3X3X3X3X:X3X3XsX-X:XdX;X2X2X1X:X@X}.}.t.t.w.w.q.N n ) $.$.n g n g n n ) :.) ) n $.$.$.*.&.N v n ) N ) ;.5.) ' >.8.9.8.e.8.e.8.e.@XdXvXbX5X5XhXvXhXbXhXbXhXhXhXhXhXhXhXdXhXhXdXhXbXhXhXhXbXhXbXbXnXjXmXjXmXmXmX",
"=X;X=X@X&X0.Z G X.{ ` { _ _ _ O. . .X. . . ... ./ / P P S S S S %.( %.~ ~ B ~ ~ B B B 6 , O O 6 D ( h.OX*X!.S.2.,.Y U } | | u.| u.u.u.o.| u.( / / / R D J ,.%.y v %.:.q.#.v v y y - - % % o & * & & 9 = = = * & 4 * & o & = T 3.9.' z s 9 9 9 9 z z z h z ` K _ X.7.k.Q.`.[.).).W.(.(.A.E.A.L.E.I.I.m.7.O.X._ { 5.n.U.T.^.rXcXNXNXcX^.` g m T ;.;.F.1XrX>X:X>X-X:X3XdX3X>X3X3X3XfX2X2X3X2XsXaX&X X}.t.t.w.q.q.q.q.:.) n g n g n n x g n &.&.) n n N N N $.N #.n n N n ) ) ;.) ) ) ` ;.8.e.r.8.e.8.Y.2XvXdXhX5XhXdXdXhXhXbXnX4XbXmXhXhXhXhXhXhXhXbXhXmXbXhXbXbXbXbXbXnXbXbXmXmXbX",
"&X;X;X&X=XXX7.C Q X.J J Q ! _ ]  .] ] Y  .]  . . ./ P L J S J J ~ <.<.~ / ~ ( ~ ~ ~ B B 6 ; > , 6 D S.OX|.D.6.6...^ ^ ^ | | u.u.u.u.o.| | ( ( ..^ P P R ! ! 5.5.u b >.:.#.u y y - % % : ) 5.r.r.8.-.[ 9 * * & 9 f & o o - a 1.6.R l s 0 9 8 0 0 z z ` z z z ` K X.7.9.R.).).[.).).(.(.E.E.J.Z.E.U.m.v.O.{ { ` z x z z { 5.r.^.#XzXNXzXU.s g x ` [ ;.@XxXsX>XsXsX3X3X3XxX3X3X3XxXvX3X3X3X3X<X5X|.t.q.>.:.q.q.>.&.&.&.&.n n g n g v g g N :.$.N n N n n n m $.N b W $.$.b m m v g f n ` >.5.r.F.r.e.r.@X3XvX5X5X5XhXhXhXvXvXhX4XnXmXhXvXvXbXbXhXhXhXhXmXbXbXhXhXhXvXmXmXhXnXbXbXbX",
"=X=X-X&X=X&X@X,.C { Q S I ] I I Y _ I Y ! ! !  ./ Y P P P P P Q %.<.<.<.,.<.D.D.D.<.( D B 6 > 6 B <.K. XD.6.<.,.^ ^ ^ | | u.@.u.u.| | ( | o.o./ ^ / / ! %./ 1.T.r.l 4 t y - - % & 0 ;.Y.3XsXsXxXXX{ 9 & @ & : x s + o - 4 { S.[ h c T { 1.3.7.7.O._ X.X.` ` K _ { O.k.Q.).[.).).).(.W.I.C.C.C.Z.C.z.7.X.{ [ c h g g s h M ' 1.n.U.=XNX>X;.s x m ` ' 5.&XsX>XsXsX:X3X3X3X3X3X3X3X3X3X3X3X3X<X|.}.w.>.) ) :.:.:.&.&.) n n n n g n n m $.&.$.N n v v v v N N %.=.=.;.;.;.%.%.N m b n n x :.=.5.Y.t.e.e.r.%XvXvXvXvXhXhXhXvX5XhX4X4XhXdXhXjXhXhXhXdXhXdXbXhXdXhXhXhXhXbXhXdXhXhXhXvX",
"&X&X&X&X;X-X;XOX] A { H H I K I I P I ! ! ! Y ! ! Y !  ./ X./ / ( <.6.D.h.h.D.D.D.D.h.<.B B 6 B / 6.D.6.5.<.<./ ^ ^ | o.u.u.u.u.u.o.o.+.<.2.<.<.,.<.<.,.h.S. XOX XF.*.l l l R ;.Y..XxXxXxXxXsX$X[ @ 4 s @ & : x a o o : z 0.1.F { 2.k.m.z.I.V.V.z.z.p.@.O.+.O.+.7.7.k.I.Q.Q.).).).W.I.Z.C.C.C.m.m.z.7.{ ' ` M T M z z h h h z { 5.U.#XzX^.` s x T [ [ ^.sXsXxXvX3XxX3XxXxXxX3XxX3X3X3X3X%X}.t.q.w.q.q.:.&.) ) &.&.) &.&.&.&.&.&.*.$.$.N n v g g v n m N N W *.=.,.5.8.5.;.*.%.$.N N n N *.*.e.F.9.r.r.Y.1XnXnXvXvXnXhXvXnXvXnXnXmXvXnXmXhXbXbXbXmXbXbXnXbXmXmXnXmXmXmXmXmXbXmXmX",
"-X=X=X&X*X;X-X&X!.I K _ J J J G G G P U U Y Y ! ] ] <.h.4.4.<.1.<.S.D.D.OXOX|.OXOXOX XD.6.h.<.,.,.( ,.,.<.<.o./ | | u.u.u.p.p.@.@.p.s.f.h.h.c.x.v.v.h.D.K.OXOXXX$X-X$X+X+XXX,X4XsXsX>X>XxX>X&X[ @ 0 =.0 @ & : g p o & 0 ,.v.] 3.G.C.I.Z.I.I.z.I.z.z.z.l.k.7.@.k.k.z.z.I.I.I.).).).I.I.C.C.V.V.m.m.m.2.1.{ _ ` { ` ` H ` ` ` ` [ { 1.9.#XcXY.` s x ` ` 8.:X:X:XrX3X3X:XxXxX3X3X3X3X1X3X1X}.t.t.t.}.t.t.w.q.&.&.&.:.:.:.&.:.&.) ) m n m v n v v v v n n N R *.=.=.5.0.D.H.H.S.5.-.*.) N N &.*.;.e.w.e.Y.9.^.nXxXvXvXvXvXnXnXvXvXdXmXmXbXbXhXhXnXmXmXbXmXbXbXnXjXhXvXmXvXmXmXmXbXbX",
"=X*X-XXX$X$X$X@X=XU.I I K I K I G D P P P P Q !  .1.x.v.n.D.c.4.2.h.D.G.K.OX*XiXiXfXpXwXOX.Xv...^ ^ ..@.<.| ^ ( o.u.p.s.f.c.k.c.b.G.G.G.G.G.H.J.H.!.!.OXoX&X$X=X;X-XaXaXaXfXaX;X>XrX3XxXsX$X;.$ 0 ` s o % ; d x & % : E n.,.k.U.I.I.I.z.l.z.z.z.z.z.z.z.l.k.k.l.k.z.z.z.U.I.I.).).Q.I.I.C.I.m.C.C.m.k.9.7.O.O.O.O.O.7.7.7.7.k.9.9.r.7.U.rX#X9.' ` T ` { ^.3XsXsX3X3X:X3X3X3X3X3X3X3X1X}.t.q.t.t.t.t.t.q.) ) ) ) ) ) ) n n n n n n v n v n n n N N *.%.=.-.-.,.6.h.S.G..X.XOX!.F.8.;.=.%.$.N %.:.8.5.r.r.r.3XvXvXdXvXnXvXvX5XvX5XmXvXdXhXhXnXhXhXhXaXbXnXjXnXmXjXmXmXhXhXbXhXhXhX",
"-X-X-X-X-X&X$X$X-X#XS.K I K Q I P S J L P Y ! ..3.4.v.v.n.m.m.f.2.2.f.k.K.OXOXOX*XwX*XOXG.x.<./ ^ ..o.| ^ ^ | u.p.k.c.m.J.J.!.^.OXOXoX#XoXoXOXOXOX&X*X*X;X;X1XrXaX-XrX;X;XaX2X2X>X3X3X>X@X1.= 8 0 $ o % o i g s & & 9 0.0.7.R.I.z.z.l.l.l.I.I.I.I.M.M.z.l.l.l.k.k.z.k.k.I.I.).'.[.'.).Q.I.C.R.m.m.m.k.z.k.7.7.+.7.k.z.z.z.z.U.I./.^.^.n.!.rXU.8.{ ' z ` Y.2X>X3X3X3X3X3X:X3X3X3X3X1X Xt.q.t.q.:.:.q.:.) n n n n d g g n n n n n g v v g m n N N ` =.-.,.1.1.6.S.S.D.~.#XwXwXwXoX.XG.5.;.=.*.W *.:.;.>.r.8.Y.3XxX5X4X4XhX5XvXvXvXbXvXdXvXhX5XhX4XdXhXbXhXhXbXmXmXbXmXmXmXnXbXbXhX",
"-X-X-XXX&X=X=X&X=X;X=XS.I I K ] Q L L L L !  .,.4.6.0.v.D.G.D.x.4.f.x.b.D.K.K.~.~..X!.G.v.6.2.......| ^ | | u.p.l.G.!.oXoX*X*XwXwXiXaXiXwX*XiXfXrX&X#X&X-X;X>X;XaX2XaXaXaXiX;XaXrX>X3X&X3.= @ = @ . o % = : s i o & c F.v.!.W.R.l.k.l.l.z.I.I.I.I.I.z.l.l.k.l.k.k.k.k.U.I.I.).'.{.{.[.`.W.Z.Z.m.v.k.k.k.7.7.s.s.k.z.l.k.k.z.z.I.R.[.zX#XU.#X/.9.>.8.` ` 9.:X:X:X3X3X3XsX3X3X3X3X3X:X}.w.q.q.q.:.:.:.q.&.n n i g i d i g n n g i g f g v b N N %.*.=.{ -.,.1.1.1.2.D.OX7XwXeXeXrXwX#X.XF.6.,.;.=.:.;.:.>.8.8.^.vXnXvX5XvXvX5XvXvXvXbXdXnXbXhXbX4XhXhXhXhXhXhXhXnXfXvXfXhXvXdXvXsX",
"-X-X-X&X=X&X=X=X&X=X-X=XF.{ I K Q ] Q Q Q Q { ,.1.3.3.6.7.h.h.h.x.c.D.G.G.H.K.H.!.U.H.G.S.h.<.../ ^ ^ | @.l.m.R.oX*XiXiXiXwXiXMXkXkXkXMXMXkXfX*X@X@X&X=X-X&X>X2XaX>X;X;X2X;X2X;X:X>X=X9.s # @ @ o . . o % : p : & = -.G.T./.R.m.l.l.z.I.I.I.I.I.V.I.M.M.l.p.a.k.k.p.k.k.z.I.).'.{.0XqX[./.I.m.c.k.s.7.s.s.7.s.s.k.k.l.k.U.k.z.z.R.R.9XcXwX^.#Xr.;.;.;.{ { ^.3X:XsXxX3XxXvX3X3XvX:X}.t.t.t.t.q.q.t.) ) n n n g i i d i g i g g n m N N W N *.W W ' 5.2.1.6.1.<.<.x.G.oX#XwXwXrXrXtXrXrXwX XH.5.;.=.:.:.;.8.8.w.:XbXvXvXvXbX5X5XvXbXbXvXdXbX4XhXdXhXhXbXhXbXnXbXnXbXbXnXmXmXvXbXvX",
"-X&X&XXX=X=X=X&X&X&X=X=X=XU.{ ] ] { X.-.,.1.1.1.1.1.,.1.6.v.S.H.T.!.oX^.T.!.G.U.G.G.F.h.<.....^ | | u.k.J.oX#XfXkXkXAXAXMXMXAXGXDXGXSXmXaX*X=X&X*X=X;X=X-X&X;X>XrX;X;X2XrX>X>X;X;X-XT.` # 9 = o .   . o - : p : : 0 8.U.^./.J.z.l.I.I.I.V.z.z.z.l.l.p.a.u.p.u.p.p.k.@.z.U.I.).).].{.uXuX{.I.z.s.s.@.@.+.7.@.@.s.k.z.l.I.U.I.U.k.n.R.Q.tXNX#X#XU.;.;.' =.;.r.3X3X3X3X3X3XxX3X3X:XY.t.t.>.>.>.t.t.q.n g g n n g d i g p g p g n n W W =.=.-.{ -.{ -.<.3.3.4.2.4.4.D.R.~.oX9XrXrXrXgXgXtXgXwXXXH.0.1.:.*.>.>.5.8.|.vXvXbXbXbXnXbXvXmXbXbXbXmXdXhXvXhXdXbXdXbXbXbXmXbXbXbXhXbXbXhXhX",
"-X&X-X=X&XXX&X&X-X-X-X&X;X=XT.1.{ 1.1.1.1.1.1.1.1.X.3.0.D.G.T.!.!.H.D.c.h.h.h.2.2.<.,./ ! / o.<.f.m.!.wXfXcXMXHXHXHXKXKXKXKXPXHXAXfX-X*X-X;X>X>X;X=X;X>X>X;XrX>X;X-X;X;X>X>X>X>X-X#X3.< = 0 @ X     o & = : - : : h S././.~.m.l.z.I.U.k.k.k.+.O.O.+.@.@.@.| | @.p.@.k.7.z.I.'.].{.uXCXzXtXE.k.+.@.7.7.+.+.@.p.l.z.z.U.I.Q.[./.I.z.z.U.#XcXzX#X^.=.=.` ` ` 5.^.xX3XxX3X3XrX3X3X=Xt.t.>.*.q.}.}.}.w.>.$.g i p d d d d p p g g g n R %.-.,.<.2.1.3.6.4.4.2.f.f.x.b.G.!.!./.6XwXtXpXgXgXNXcXNXgX*XT.e.>.-.>.5.:.w.H.1XvXdXdX;X;XdXfXjXhXdXvXvXvXdXvXhXhXmXhXhXbXvXbXbXnXvXvXmXbXhXmX",
";X-X;X-X=X&X&XXX-X&X*X=X=X=X;X.Xv.1.1.2.3.1.3.5.1.6.0.F.H.H.H.H.F.x.2.2.o.o.../ / / / ,.4.b.R.^.wXgXMXAXHXJXKXLXPXKXKXIXPXJXmXaX;X&X=X>X>X-X:XrX:X=X;XrX2X>XaX>X2XrX>X;X>X>X>XrX-XU.z + 8 9 o       . . & & o i : R T.#XoXR.z.l.z.R.k.+.X.` c 0 0 k F L Y } | ( +.@.l.I.V.).).].{.uXNXNXNX/.k.@.7.@.+.o.@.p.p.k.k.z.U.I.Q.#XqX#XI.z.U.R.rXNXrX^.;.;.` T T ` r.3X3X3X:X:X:X:X:X^.t.w.:.q.}.}.t.q.>.q.w.*.n g d d g g n g x N ) ) -.%.-.1.3.4.h.h.h.h.h.f.h.v.G.J.R.!.~.oX9XeXeXtXtXgXNXgXNXBXgXrXT.8.5.>.>.q.5.e.@X4XhX&X|.OXOXoXiXfXjXjXbXxXxXxXvXjXmXhXhXbXbXmXnXmXbXbXmXmXmXmX",
"-X=X&XXX&X&X=X&X&X&X&X=X&X&X=X;XXXF.3.3.0.S.v.x.0.0.0.n.H.H.T.!.G.J.!.J.G.m.b.n.G.J.OXwXaXgXMXBXGXHXKXKXKXLXKXKXKXPXKXAXfX;X=X&X;X-X-X=X-X-X-X>X:X=X3XrX>XwX>XaXaX;XaXaX>X>X>X>X^.{ = # 0 = o . . . . o o . & i = ,.oX#X^.J.l.b.m.n.X.z 8 9 9 : = : c [ H Z Y ..} +.k.z.I.).).{.{.uXNXNXCXuXm.2.7.+...| } +.@.4.@.7.7.I./.[.9XqXQ.U.z.I.[.cXtX#X;.` ` ` ` K 8.:X3X3X3X:X=X:X:X^.q.>.>.w.}.t.q.:.) ) :.>.:.m x x n m ) ) ' [ ;.;.-.,.,.2.6.6.6.h.4.h.c.m.G.J.R.W.~././.6X9XwXwXrXgXkXNXBXBXcXBXBXpX X0.5.q.5.q.8.r.+X%XF.G.K.b.c.N.OXiXkXmXbXdXbXvXhXmXnXbXmXhXbXbXmXmXmXmXmXmXnX",
"&X-X-XXX&X&X-X-X&X&X&X&X&X&X-X&X=X*XU.v.0.n.G.T.U.G.H.!..XOXXXoX*X*XwXwXwXwXgXcXMXMXBXGXGXHXHXJXLXKXKXKXKXPXPXKXHXhXaX&X$X=X=X=X*X=X-X-X=X*X*X=X&X=X;X;X=X=X*X>X2X-X>X;X;X;X;X.XX.9 * @ 9 # . . . . . . . . & p 1 0.oX6X^.J.k.c.n.{ 9 x N s g x s 4 h 8.8.[ A S } | p.z.).).].{.yXuXNXCXNXCX`.2.+.} _ _ ! { E K T E [ 3.F.oXwXtXzX^.z.U./.rXzXrX9.) =.` ` z ` ^.3XxXxX3X3X3X=XY.>.*.>.q.}.}.w.>.) n m ) =.*.m m M M M M N ` ` ` [ -.<.6.h.6.4.4.4.h.c.J.R.~.W.~.~.oX/.oXOXoXwX*X*XwXgXNXBXVXVXVXBXgX X0.8.5.>.q.5.8.t.S.F.D.j.j.j.j.j.*XfXMXvXvXdXhXbXbXnXbXfXnXbXbXjXnXmXmXjXnX",
"&X*X&X$X=X$X-X&X&X&X=X@X&X@X@X@X@X-X&X#X!.G.G.G.!.!.!.OX^.OXoX*XrXrXfXgXcXxXcXMXMXBXAXVXGXGXHXHXLXKXPXKXJXGXmXaX$XXX=X=X&X&X=X;X;X=X;XaX>XaX;XaX;X>X2X3X;X>X>XaXaX-X>XaXaXaX=X9.z s @ # = @ . . &   . .   . : i w H.oXoX~.m.k.2.` 4 g 8.>.4 4 4 : : 9 5.8.1.Q L | p.V.).).].].{.uXuXNXCXNXVXcXm...U P J z M l 4 9 9 s c z { n.;XcXqXU.z.^.[.zXsX9.` ;.` ) T T Y.xX3XxX3X3X:X^.8.*.) >.t.t.:.:.) &.n g g M *.) T M M M R ` ` [ [ =.,.6.h.7.h.h.h.h.c.m.J.R.~.!.~.~.!.U.G.H.G.H.F.r.F.^.rXNXVXHXCXGXVXgX Xw.5.>.5.:.:.5.e.S.D.j.j.j.j.j.j.~.iXxXvX5XhXhXhXhXhXhXbXhXbXhXhXmXmXnXbX",
"$X-X&XXX&X=X-X$X&X&X&X@X$X&X&X&X@X=X@X&X@X.X!.~.~.~.^.oXoXoXoXoX*XwXpXcXMXgXMXMXGXGXGXGXHXGXHXHXBXnXmXsX-X&X&X&X&X=X;X=X;X;X;X-X=X&X-X>X-X>X2X>X>X>X>XrX;X>XrXaX;XrX,X2XaXrXT.[ ` { # = = @ . % - . .     o i i c !.OX^.R.m.4. .F 0 h T T 1 = : 9 9 8 ' ] ] o.p.l.I.).).).].{.{.uXuXuXNXCXNXNXwXh.I z c *.;.g x W 9 9 c >.=.E 1.^.tXQ.z.I./.rXzX9.) ;.) ` ` z 9.:X3XxX3X3X:XY.>.*.) &.q.&.#.n n g ) m x x N T M T ` =.%.-.-.,.,.<.6.2.h.h.4.h.c.c.m.R.R.W.K.R.~.R.H.S.0.0.6.1.-.1.6.F..XwXcXBXCXCXHXVXMXOXe.5.q.5.:.>.6.S.D.h.j.j.i.j.j.g.K.iXxXdXdXnXhXmXhXdXhXhXbXhXdXbXbXhXhX",
"XX&X&X&X&X&X-X$X-X&X=X=X&X&X&X=X#X-X-X=X=X@XoX^.oX7X7XwXeXeXwXwXoX.X#X&X*X*XaXfXfXxXxXxX3X>X-X$X&X&X=X=X-X*X=X&X&X&X&X&X&X=X=X=X;X;X;X*X=X#X>XaXrX:X>X>X;X>X1X;X;XaX;X>X;XXX1.F O.3.= @ @ o   @ ; o .   . % : = [ ^.^.G.m.b.s.2.1..._ I _ [ I K K I _ } @.g.N.Z.I.).].).].].{.{._.'.0XyXNXNXzXlX/.<.R H -.' 9 9 g g 9 x 8.r.;.H X.U.^.U.I.^.qXcXr.) =.=.` ) T ` r.:X3X3X3X:Xr.8.:.) &.) $.&.) n g m m ) m x N ` [ ;.1.,.<.,.2.2.2.2.4.4.h.h.h.b.m.J.R.L.R.R.J.R.D.0.1.5.=.R *.=.1.8.S.G./.9XrXcXVXCXHXHXAXOXH.e.e.w.q.q.S.D.j.K.j.j.j.j.j.j.J.iXdXdXnXbXmXhXbXhXhXnXnXhXmXZXjXnX",
"$X&X$X@X&X=X-XXX&X$X&X&X&X&X&X&X$X-X&X&X&X&X&X^..X9XeXeXtXgXrXwX#X=X-X=X#X#X@X#X=X=X>X#X@X&X-X;X;X-X;X>X>X=X;X;X&X&X-X=X&X;X=X=XwX>X;X-X;X=X>X>X>X&X-X-X;X;X2X;X>X3X>X>X#X9.z ` F.1.# * - . o - % %     . o + & 5.^.U.m.c.g.s.p.p.p.p.p.p.p.a.l.l.l.z.I.I.).).).).).'.).[.{.yX]._.P.P._.0XNXuXtXlXR.O.I H x 0 9 9 s 0 x 5.9.5.` z { U.m.I.Q.rXzXY.x ` ' ' ) T ` { ^.xX3XxX%Xe.8.;.' :.>.) ) $.n n n n n m x ` =.1.1.2.2.6.4.4.4.4.h.h.h.x.c.b.c.b.J.L.R.R.!.J.S.6.,.=.&.N %.=.-.5.v.F.!.!.OXoX6XwXrXBXCXHXVX>XY.e.e.8.8.S.D.K.K.K.K.j.j.j.j.j.OXZXpXZXZXmXbXmXmXmXAXnXnXmXmXnXmX",
"$X&X-X&X&X$X=X&X&X&X@X$X$X&X-X=X-X=X#X&X:X=X@X@X.XoXwXtXgXwX=X&X#X&X@X@X$XXX@X@X#X@X&X&X#X&X>X;XrX;X;XaXrX;X-X=X&X&X&X=X&X-X=X&X>X=X;X;X=X&X=X=X;XrX>X;X;X=X=X;X>XrX3X#XF.G z X.n.K = o o . - %           o . 4 v.!.m.c.k.l.l.l.l.M.M.M.V.A.I.(.I.).).).).).].).].].'.[.{.zX{.'.P.B.L.L._.eXlX9XtXtX!.2.Y K K T H H z ` ` ` ` { 9.8.7.n.U.^.9XtXT.x M ` { ' N z T 8.&X3XdX%X>.8.w.:.*.q.t.q.&.n n n g g m ` [ =.-.3.6.h.4.h.4.h.c.h.x.c.k.c.c.b.N.K.J.R.J.G.S.1.-.*.N N W =.1.0.D.H.J.J.G.G.J.R.!.6XwXgXCXHXVXdXY.e.8.0.S.D.K.D.K.K.8XP.j.j.j.K.pXZXZX<XvXvXhXmXbXmXhXbXmXnXbXjX",
"XX&X=X&X=X&X&X&X=X&X&X&X$X&X$X&X-X=X&X&X=X#X@X@XXXXX.XXX#X*X*X#X@X$X$X@X=X@X=X@X#X$X-X=X&X;X;X=X-X-X*X2X1XaX-X=X-X-X*X-X&X-X&X=X>X;X;X-X=X=X>X*X>X>X>X*X*X>XrX2XsX>X>XT.` r [ 7.F # @ o o . % o     . . % . o c F.H.m.b.V.V.V.A.A.A.A.A.(.).].].].].].).).].].].].{.).{.yX'.'.).L.B.L.L.L.`.eX6X`.wX0X/.v.} _ ] X.X.X. .O.O.7.n.^.[.!.R.R.^.9XqX^.x x ) ` { [ ` z ;.Y.3X3X@X8.9.r.8.*.` q.t.t.:.N n n N N x ' [ 1.6.x.c.c.v.h.c.c.v.b.c.c.c.b.b.J.J.!.J.J.S.5.=.%.$.N *.=.3.S.F.H.K.G.D.b.b.v.D.G.L.~.6XtXNXCXHXfX.XS.e.S.D.D.K.j.K.K.K.8XK.j.K.OXjXiXZXhXhXdXmXhXmXdXhXmXnXmXnX",
"$X&X&X=X&X&X=X@X$XXX@XXX$X=X&X&X=X-X&X@X$X=X#X&X&X*X&XXXXX*X;X=X$X$X&X&X&X$X&X&X&X&X&X&X@X&X&X$X$X$X@X=X;X;X=X=X=X&X&X-X=X-X&X&X;X>X;X-X=X&X;X;X>X;X>X=X;X>X;X;X:X>X=Xn.` F { F # o o   % . .     .   . & . + -.H.J.G.R.L.L.P.(.(.I.(.).].].{.{.'.].).).).].].].'.'.).{.0X'._.(.P.L.L.L.L.P.eX'.E.).`.9X9XW.m.@...} ..O.+.+.7.l.R.#XqX#X[.[.#XqX^.x s T ` [ ;.;.{ ` 9.XXvX:Xr.w.8.t.>.*.&.&.q.>.) N N ) ` [ ,.1.6.7.x.v.h.h.b.S.b.b.h.h.b.b.K.J.R.J.J.G.S.3.-.*.$.&.*.5.0.F.G.D.F.h.6.6.6.3.6.h.v.m.R./.9XtXMXVXHXBX$XY.S.D.D.j.K.j.K.j.j.K.8XK.7XjXjXjXmXmXmXnXmXmXbXbXmXnXmXmX",
"&X&X=X&X=X&X=X&X&X&X=X$X$X=X-X&X$X=X@X@X#X=X=X-X@X=X=X=X&X&X=X=X=X$X=X=X=X@X=X&X&X&X-X$X@X=X=X=X&X$X$X=X&X&X>X-X-X=X&X=X&X=X=X=X>X;X*X>X-X;X*X=X-X;XrX=X;X>X;X;X:XrX^.1.k k z 1 + X . .           %   % % o 4 1.!.J.!.L.E.(.(.(.).].].].{.{.{.].).).).).(.].).(._.).'.0X_.P.(.L.P.L.L.L.L.W.'.0XZ.A.E.(.`.9X0X9X/.R.m.l.k.v.m.R.^.[.tXcXzXrXqXqX&XT s g x ` ' ;.5.{ [ Y.:X:Xt.;.' >.8.>.) N N *.) m T ' { ;.1.-.1.6.x.h.v.D.D.b.b.c.c.b.m.G.R.R.J.D.G.v.6.-.*.N %.%.5.e.S.S.x.6.1.;.,.;.-.,.,.2.h.c.C.R./.7XtXBXCXHXVX;X}.6.D.d.j.j.j.j.j.K.K.K.K.pXZXjXZXkXbXnXmXmXmXbXmXmXjXnX",
"&X&X&X-X-X$X&X@X$X&X&X$XXX&XXXXX&X$X@X&X@X@X@X@X@X&X=X@X$X&X;X;X=X=X-X=X-X&X&X=X$X&X-X&X&X-X=X&X-X&X&X&X@X$X=X=X&X&X=X=X&X;X;X=X;X=X=X>X=X=X-X=X>X;X=X=X>X>X>X>X>X-XU._ h 0 1 + X X .             .   o . + h S.H.OXOX/._._._._.].].{.{.{.{.{.].].].].(.(.(.(.(.(._.'._.A.A.L.B.L.L.L.P._._._.0XL.l.N.A.E.).'.qXuXuXlXuXqXtXqXqXqXzXzXNXNXNXzXzXrX' s g s x ` { { { ` 8.:X:Xw.;.[ ` ` >.*.N x n m m ` ' { ' [ X.6.6.x.D.D.G.D.v.v.b.b.J.D.J.G.G.m.G.S.0.,.*.N $.*.5.S.D.S.3.;.;.-.;.:.R R -.5.0.c.m.J.K.~./.wXtXNXHXCXVXiXH.D.j.j.j.j.j.d.K.K.K.K.pXjXjXjXjXfXhXvXmXbXhXjXnXjXnX",
"&X$XXX&X&X&X&X&XXX@X&X$XXX-XXXXX=X=X$X$X@X=X&X&X$X&X=XXXXX=X-X=X=X-X=X-X=X&X$X=X$X@X$X-X&X=X=X@X;X-X&X=X=X@X=X&X@X@X@X&X=X=X&X@X&X#X=X=X=X=X-X-X;X-X-X1XsXrX>X3X>X=X9.r 0 # @ o @ @ o . .             % . % E H.H.OX6X_.`._.'.'.{.{.{.{.].{.].].].].(.(.P.A.P.I.E._.'.B.o./ K.B.N.K.L.L.K.N.L.7X_.l.M.M.B.A.).'.qXuXuXzXNXCXVXNXCXCXCXVXVXVXzXzXtX;.9 x g x x ` ;.1.X.{ ^.3XY.8.8.:.T ;.:.` N *.) ` ' ;.{ { ;.1.6.D.G.J.G.D.v.b.m.J.D.J.J.m.n.m.G.D.0.1.=.W $.*.;.e.S.6.,.;.-.%.%.>.:.%.-.6.h.D.J.G.J.R.~.6X9XrXcXVXCXHXGXwXH.OX_.j.j.j.j.d.K.K.K.7XpXjXZXnXbXmXbXmXmXmXnXbXhXnX",
"-X&X&X;X;X&X&X&X&X=X&X@XXX-X&X&X&X=X&X@X@X&X$XXXXX$X=X@X&X@X=X&X@X=X&X=X$X$X$X&X&X@X=X$X@X@X=X@X=X=X=X-X@X;X-X$X$X*X=X;X;X;X;X=X-X;X;X;X=X*X;X;X>X;X;X;XsX>X>XrX>X^.` 1 1 $ @ 9 8 = @   .             . . = ,.K.OX7X6X6X'.'.'.{.yXyXyX{.].].].].].].P.P.A.A.B.B.(._.P.g.S 3 / L.B.B.L.c.S o.B.L.`.b.g.j.B.(.(.'.'.0XuXuXzXNXVXCXCXCXCXCXVXVXCXNXNXr.g g g s x x ` { { T r.3X:Xr.9.;.) =.:.) N *.' ` { { ' ' 7.v.D.G.H.J.G.b.D.G.G.J.J.G.m.n.b.b.v.x.0.;.*.*.=.-.5.h.6.;.=.%.N #.*.w.;.5.6.v.b.G.J.J.J./.6X6XeXgXcXcXVXHXHXcXwXOXK.7Xj.j.j.d.N.K.D.K.pXZXhXnXbXmXvXmXmXbXhXAXmXnX",
"=X&X&X-X-X&X&X$X=X=X$X+X&X$XXX&X@X&X$X@X@X$X@X&XXX@X&X@X&X&X=X&X&X=X=X&X@X=X=X&X#X$X&X&X@X$X&X@X&X=X;X&X=X-X>X-X;X;X=X;X;X;X>X;XaXaXaXaX>X>X>XaXrXrX3X:X:X>X>X=Xr.` 1 = # * 9 ` 1 $ o       .       .   o u 6.H.OXwX8X7X7X0XyXyXyXyXyXyXyX{.].].].(.P.P.P.B.B.A.(.(.P.u.A 2 U C.N.N.L./ 2 P d.B.(.z.a.l.B.P.).).).'.yXuXuXNXCXNXCXCXCXCXCXCXCXCXVXT.g g x s x g M ` ' ` ;.3X$Xw.5.5.;.=.=.*.) M N W *.! %.6.D.D.T.!.!.G.G.G.K.H.G.G.m.n.D.m.b.v.h.5.5.;.:.-.;.6.6.5.-.:.%.N $.&.&.=.1.S.h.v.D.J.J.J.~./.6X6X7X9XrXzXcXVXVXHXVXrX^.K.L.j.j.j.D.K.N.~.pXvXhXhXbXbXhXmXmXhXxXAXmXmX",
"-X&X-X=X&X$X=X-X=X$X&X=X=X=X=X&X$X&X@X@X$X-X;X-XXX=X=X&X-X&X=X&X=X=X=X-X#X:X-X-X*X=X-X>X&X>X=X&X;X;X=X&X-X*X-X;X;X&X@X=X@X#X-X$X;X=X;X=X*X=X=X;X=X-X&X&X>X>X@X1.` F = @ $ 1 9 * X .       . %       . . % z h.J.oXwXpXeX8X0X{.{.yXyXyXyX{.{.].].].].].(.(.B.B.E.A.P.B.o.C G N.P.B.l.N.<.w A d.N.L.l.@.g.M.A.(.'.'.0X0XqXyXuXlXNXCXCXCXCXPXCXCXNXVX:Xm g m x s s x T ` _ ' ^. X8.8.8.>.;.=.;.*.w.8.5.1.5.D.T.!.OXOX!.K.J.K..XJ.J.D.m.m.b.n.b.c.c.4.,.,.;.,.5.6.6.6.-.=.%.$.$.$.#.*.;.S.6.v.b.m.m.J.J.E.~./.6XoX6X/.9XtXcXcXVXVXcXiX~.K.j.j.~.7X~.K.oXiXbXvXbXbXmXmXmXmXvXmXSXnXnX",
"&XXX&X$X-X&X&X-X&X=X-X&X&X&X=X=X$X#X$X@X@X@X=X;X$X-X-X=X;X-X;X-X-X-X;X=X;X>X-X-X;X;X>X;X=X-X;X=X;X;X;X=X-X=X>X>X=X=X&X;X@X$X&X$X&X$X=X-X=X-X*X=X-X:X=X=XsX-X3.` 3.s # @ * $ @ o           o %     .   . @ R 0.!.7XiXpXeX0X0X'.8XyXyX{.{.].].].].(.(.(.(.(.(.P.A.A.P.M.| | N.(.(.N.l.b.b./ A o.N.N.f.@.g.Z.I.(._.'.'.{.{.yXyXuXNXNXNXNXCXCXCXCXCXzXrX=.g m n x z z M ` ` ` U.@X9.8.8.r.8.>.>.5.|.+X.X X.XOXOXOXOXOXOX!.!..X!.!.G.G.b.n.v.b.b.h.k.6.,.;.;.5.h.6.1.,.%.=.%.:.b N %.>.6.6.v.x.b.G.N.J.J.L.!.R.~.W.~.~./.oXwXcXcXVXMXcXwXm.g.D.OX6X~.oX7XfXmXhXhXvXbXbXmXmXbXbXmXmXmX",
"+X$X&X&X;X&X-XXX=X*X-X&X&X=X-X-X:X;X=X&X&X=X;X;X&X&X$XXX@X@X=X@X=X;X-X@X&X=X-X=X-X>X-X=X&X&X;X=X=X=X&X=X=X&X*X&X@X@X&X@X$X$X@X@X=X&X=X;X=X=X=X;X:X:X:X:X=X9.{ r.K + # @ . . o             .     .   . o & Q h.H.*XpXeXeXeX0X0X{.{.{.].].].].(.(.E.P.(.(.).'.'.A.M.M.j.g.A.P.M.j.l.g.u.d./ S ( g.l.p.l.Z.A.(.P.(.(._.`.'.'.yXyXuXuXNXNXCXCXCXCXNXNXzX9.g x m T z x T z _ ` Y.3X$XY.e.r.8.5.5.Y.;X,XOXOX*X,XiX*X<XOXOXOXOXK.K.J.K.D.b.b.b.c.c.h.h.6.,.-.1.6.0.6.<.-.-.-.:.;.-.%.-.<.6.6.c.b.J.b.b.J.J.J.J.C.K.~.oXoX`.`.wXrXcXcXVXgXMX7Xl.D.K.D.K.K.wXgXbXvXbXbXmXhXmXmXmXmXmXbXbX",
"-X&X-X=X;X-X=X&X$X&X;X&X@X&X=X>X@X=X=X=X&X=X;X=X=X=X&X$X-X*X-XXX=X=X&X@X@X@X@X@X&X&X&X@X.X=X-X-X=X=X=X>X>X=X-X-X-X-X;X=X-X>X-X-X;X;X2X;X;X:X>X;X:X>X>X@X9.X.9.` # @ @   X .               o         . . > ] 6.G.6XpXeXeX{.].].].].).].(.P.(.P.A.A.A.(._.7X'.`.W.B.V.B.A.L.(.A.B.g.u.a.g.f. .^ o.d.g.E.`.W.A.A.A.P.(.)._._.'.{.yXyXuXNXCXCXCXCXNXzXzXU.x g n ) ) ` T z ` { 9.3XxX:XY.Y.r.8.8. XxXkX,XiXjXpXjXiXiXiX*X*XOX.XH.K.K.b.b.c.c.h.h.h.6.1.1.-.5.6.v.3.,.%.,.W W -.-.-.,.1.6.h.D.G.b.b.b.D.m.D.J.J.E.~././.9XtXtXqXrXcXVXcXcXMX^.D.D.K.K.OXwXkXfXhXbXnXmXmXMXmXmXbXmXmXmX",
"-X=X%X=X*X-X=X-X&X$X2XXXXXXX@X&X@X@X=X=X@X@X&X=X$X=X=X@X;X-X;X=X&X&X;X=X#X=X&X&X=X=X=X&X=X-X=X@X-X>X*X>X>X&X-X*X@X@X@X&X;X-X-X-X*X&X-X;X>XrXaX>X:X:X:XU.{ { w < = @ X X : @             o o         . o * ] 3.G.oXrXrXeX{.].].).].].).(.(.A.A.A.W.).'.0X{.'.`.).).).`.`.'._._.E.C.B.E.'.qX9XR.b.m.W.0X0X(.A.B.A.P.P.(.(.)._.'.'.0XyXuXNXNXCXNXNXzXqXU.M s g x N ` ` ` { { 1.>X3X3X=XY.r.8.e..XmXSXkXMXkXZXkXZXkXpXpXiX*XOXK.K.D.D.b.h.h.h.4.4.1.<.6.6.h.v.c.,.-.%.-.%.! -.! -.,.2.h.m.m.c.k.b.b.J.W.`.6X9X7X6X6X9X/.rXtXzXcXcXcXcXcXVXsXJ.J.~.~.~.OXgXhXhXvXbXdXbXmXmXmXmXmXmXmX",
"&X&X*X=X,X-X+X-X&X=X1X&X@X&X&X=X&X;X-X=X=X&X&X=X@X@X@X&X&X&X-X&X=X&X-X$X&X=X&X&X=X@X@X@X@X=X@X@X=X;X-X-X=X@X@X&X$X@XXX&X=X&X&X&X&X@X&X$X&X&X&X-X@X=X^.O.F r 8 1 * o o o o .             - o         . o = ] 3.S.oXwXqX{.{.].).(.(.).(.(.A.(.(.P.(.`.0X0X[.[.`.[.0X0X{.'.'._.(.W.A.E._.0XuXuXuXuXuXuXuXuX`.E.B.A.A.(.L.(.(.(.(._.{.0XyXqXzXNXNXzXuXqXU.` m g g x x ) { { ' O.:X3XxXxX^.r.8.8.+XSXKXAXAXAXAXGXZXkXjXiXiXOXOX XG.S.h.6.6.<.<.,.1.1.3.6.h.D.n.c.<.,.,.E ! %.%.-.,.<.h.c.x.2.f.k.m.J.`.9X0X0XeXeXtX9XeX9X0XqXzXNXcXsXcXgXcXMXwX!.OX!.J.!.fXnXbXbXmXvXmXmXmXxXbXmXmXnX",
"&X$X&X$X-X&XXX-X&X=X>X$X@X$X$X&X$X&X=X&X@X&X-X&XXX@X&X&X=X;X=X=X-X$X&X&X&X-X&X$X&X@X@X>X=X-X*X&X-X;X;X-X&X=X-X#X$X$XXX&X=X&X&X&X&XXX=X&X&X&X=X;X=X@X9.G z r r 8 X X o o X               .           . o 1 ! o.v.oXwXqX[.'.].].).).(.(.(.A.A.I.A.W.'.[.'.[.9X{.0X0X'.`.[.Q.W.Z.B.Z.E.).[.'.`.qXtXlXuXlXuXqX).A.B.A.P.(.P.P.(.(.(.).].uXyXyXzXzXzXqXqX^.[ m g d s x M z ` [ ` Y.:X3XsX@X}.8.e. XSXKXKXGXGXGXGXGXkXZXjX,XOX!.D.S.6.6.1.,.-.-.-.,.1.6.6.x.S.D.c.3.,.,.,.,.-.<.<.,.2.6.f.h.h.h.b.L./.6X6X7X7X7X0XeXeXqXeXrXcXzXcXNXzXgXcXMXVXcXoX~.J.H..XfXbXvXbXmXmXmXmXmXmXmXMXmXbX",
"$X&X-X*X;X-X-X-XXX;X;X-X&X&X$X$X=X=X=X$X=X=X&X=X=X=X=XXX&X-X=X&X=X=X=X=X@X@X$X&X;X$X@X&X&X=X&X@X-X-X=X=X&X&X>X;X@X@X&X&X*X=X=X&X;X&X=X;X:X-X-X>X@X9._ h ` 9.` #   o o o               .             . o 1 L ..v.oX9X9X7X'._.)._.(.(.A.A.A.A.I.A.).'.[.[.`.[.[.0X`.Q.`.`.W.B.M.M.N.W.`.0XQ.Q.`.9X0XqXtXqXqX0X(.A.N.A.A.L.P.L.(.P.(._.0XyXeXuXuXlX0X0X!.=.m g g s s x x T ' K 1.:X3XdX:XY.8.w.Y.SXIXKXKXFXGXAXGXZXjX<X%X|.D.6.1.;.=.Q [ Q =.5.S.S.D.D.h.h.D.D.h.<.<.2.2.4.4.f.h.c.b.c.b.c.b.K.~._.~._.~.~.~.`.6X6X7X0X0XtXNXBXNXlXgXgXxXcXVXcX^.^.#XxXxXxXdXvXnXnXmXmXmXmXbXbXmXmX",
"&X;X-X+X-X*X-X-X+X*X;X-X-X&X-X&X=X=X=X&X=X-X=X=X&X&X&XXX=X&X&XXX=X=X=X=X@X&X$X&X&X&X&X=X$X=X=X&X*X&X;X>X>X*X>X2X-X;X*X;X;X>X>XrXaX;XrX>X>X>XrX&X9. .r h Y.7.r @ @ %           . @ % & o             o % # S ] v./.6X6X9X`.`.).).(.(.(.A.A.A.M.I.).).[.).`.`.`.`.).).'._.(.(.B.W.(.'.0XuX[.E.E.).).`.9X0X9X0X`.(.B.N.Z.A.A.(.(.(.(._.`.0XuX8XuXuX0X0XJ.[ m p s g s x ) z ` ` 1.r.:XvX3X$X9.w.Y.SXIXIXKXKXKXGXGXZXiX,X XD.6.%.T x l W *.,.e.H..XOXOXK.D.D.D.h.D.h.4.<.2.f.h.b.b.b.D.N.D.b.m.K.~./.~.L.~.L.L.!.L.~.~.6X6X7XeXNXNXNXcXgXrXcXVXHXxX3XxXmXmXxXvXvXmXmXmXmXmXbXbXbXvXmX",
"=X-X$X+X&X;X-X-X-X=X;X-X-X*X&X&X&X;X-X$X$X=X;X;X=X=X-X=X=X=X&X@X;X=X=X-X@X&X$X-X-X$X&X=X&X=X-X-X-X=X;X;X=X=X-X>X-X;X=X;X;X;X>X>X;X>X;X:X:X>X&XY.O.O.0 [ Y.` < @ = o       . : @ o o .               o o @ C _ v.~./.9X9X'.`.'.).).(.I.I.M.z.M.).).W.Q.I.W.Q.'.'.`.'.(.B.P.(._._.(.A.B.(.qX6XE.E.E.E.Q.`.`.`.`.`.E.N.B.A.A.P.A.P.(.(._.0X0XyXeXyX0X0XG.=.x g g g x x ) z K K O.9.XXdX3X:Xr.w.Y.nXIXLXLXKXKXKXAXZX<X+Xr.1.%.M b M M [ 5.0.S.H. X*XpXiXK.j.D.D.j.D.m.h.s.<.2.f.f.b.b.b.D.N.N.J.R.W.L.L.L.L.L.L.L.K.W.~.6X6X6X9XcXNXNXcXrXcXcXHXHXVXbXdXxXvX5XbXvXmXmXmXbXhXmXmXmXmX",
"&X=X=XXX+X;X-X=X$X&X-X-X$XXXXXXX$X$X&X$X%X$X=X-X&XXXXX&XXX=X=X=X;X&X&X&X.X@XXX@X&X&X@X@X@X=X&X&X&X@X&X&X@XXX#X$X@X&X@X@X&X&X&X=X&X-X;X:X-X:XT.3.n.` 8 T 8 < # @ $ . . . . o o .                 . o o o @ w I b.W.~.Q.`.6X`.'.).).(.A.V.M.M.V.I.I.V.I.Q.).`.'._.(.N.i.g.a.j.j.j.a.u.u.d._.yXqX`.W.C.C.I.E.Q.).`.Q.Z.V.B.A.A.A.I.W.(.`.7X0XeX0X0X7X9XF.*.x g s g x x x T z K 1.1.r.3X3X:Xr.8.w.3XKXLXIXKXKXKXAXjX+Xe.:.W b N m T =.1.3.5.5.5.5.S.<XkXOXK.D.D.K.K.J.m.c.f.f.2.<.2.f.d.c.b.N.D.N.J.J.C.L.K.L.L.R.L.L.L.L.6X6XoX0XcXcXcXgXtXcXVXHXHXSXvXvXvXvXbXbXmXvXmXhXnXbXjXnXmX",
"-X$X&X=X-X,X,X*X+X&X&X&X$X$X=X&X&X&X&X$X$X#X=X=X$XXXXX$X&X&X-X-X-X&X&X=XXX&X=X&X@X&X@X&X&X&X&X@X@X=X=X;X=X&X&X&X=X-X=X&X$X$X@X=X;X;X>X-X-X@Xn.7.` = + @ . # = # * . . . o o .                         . % 5 Y b.!.W.Q./.`.'.`.'.).).I.I.z.p.z.I.z.I.).[.'.W.j.g.u.y.d.d.u.( d.( ~ ( ( u.d.j._.0XtXQ.V.V.V.Z.E.W.W.L.V.N.C.L.L.A.L.(._.'.9X0X0X0X9X`.9.N m g i s s s g x z ` Y.9.5.:X3XsX Xw.8. XZXIXIXIXKXKXZX<Xt.;.W M c T [ -.1.3.,.[ R %.%.-.D.ZXpXOXK.j.D.K.J.J.G.D.b.c.h.f.f.f.d.b.b.N.J.V.b.b.N.b.b.N.K.L.L.L.L.W.`./.oXwXgXNXgXrXgXcXCXHXHXHXvXdXnXvXbXnXmXmXmXmXbXmXnXbX",
"&X$XXX+X&X;X;X&XXXXXXX=X&XXX$X$X@X&X@X.X@X&X-X-X&X&X$X&X@XXX$X&X&X&X&X=XXX@X&X&X=X-X=X=X=X&X;X&X=X;X;X>X=X-X;X&X=X;X;X;X=X;X;X>X-X>X-X-X&XT.5.r # 8 z s + = * @ * X o @ .                               o a ! l.E.W.Q.Q.`.6X`.`.).I.I.M.l.l.z.p.l.V.W.(.M.a.( u.u.u.j.d.u.u.y.( ( ( ( u.u.u.d.N.`.tX0XQ.E.Z.Z.I.C.C.N.V.N.Z.L.L.W._.`.6X7X0X7X9X9X~.3.m g x 9 9 9 9 x m z T U.Y.X.&XxXxX3XY.w.Y.<XKXKXIXKXKXZX|.w.&.N c W 1.6.6.3.,.` T H H R Q q.iXZXpXOXK.K.K.~.L.~.K.J.D.m.C.K.!.K.b.h.g.h.h.h.f.f.h.g.c.b.N.J.L.J.J././././.rXgXcXgXrXcXVXHXCXPXVXvXdXvXbXnXmXvXmXhXbXmXmXhX",
"&X&X$X&X-X&X-X$X&X&X=X&X&X&X-X-X=X-X&X$X$X&X-X-X&X@X&X&X&X&X&X&X&X&X&X=XXX&X=X&X&X&X&X=X=X=X-X&X&X&X=X=X-X=X-X*X#X&X$X-X=X-X=X&X=X>X=X.X9.H 8 r ;.1.X.0 @ + X @ * o @ o                             . . X 3 / b.E.R.E./.Q.`.`.`.).).I.I.l.p.p.p.l.l.z.p.d.d.<.( ( d.( d.d.d.( ( ( ( ( ( ( u.( <.g.J.9X0X`.Q.E.C.C.z.M.N.Z.C.A.E.W.~.`.'.0X7X0X9X9X!.X.x x g : i i 9 g x m ) ;.9.X.^.xXxXvX:XY.}.+XZXKXIXKXGX<X}.;.` E -.x.v.h.h.,.' M x R W M R q.7XGXZXiXK.j.K.L.7X7X0X7X6X7X7XeXpXeXoXb.h.f.2.d.2.<.<.4.4.h.b.D.L.L.J.~./.9X^.#XtXgXgXgXrXgXVXVXHXHXVXnXvXbXbXmXbXbXbXmXmXmXvX",
"$X&X*X-X;X-X-X&XXX&X-X-X-X=X-X-X$X;X>X&X&X>X-X=X=X&X&X-X=X-X-X=X&X&X&X=XXX$X-X=X&X&X=X&X=X=X-X&X=X-X&X-X=X=X;X;X&X-X-X;X=X>X-X@X=XXX9.{ r k H ;.;.z 1 @ @ o X o @ o o o                                 X 5  .z.R.W.Q./.Q./.`.`.).).I.z.l.l.p.p.p.p.u.u.d.j.j.d.u.( ~ ( ( ( ( ( / ( ( ~ / ( ( o.( | g.C.R.W.R.C.C.z.m.V.Z.L.E.W.W._.6X0X'.0X0X9X/.U.` s v g s d 9 : i p x m z ` 1.Y.3X3X3X3XXXY.|.<XZXIXIXKX<Xw.=.=.5.S.D.v.v.1.W M m b W %.R -.w.+XGXAXpXK.K.K.K.~.6X7XpXpX7X6XL.L.K.L.J.v.b.c.h.4.4.4.<.,.,.<.h.b.C.J.Z.~.9X/.!.9XrXgXcXrXrXMXVXVXHXPXVXbXbXbXmXmXmXmXmXMXmXjX",
"+X.XXX.X$X=X.X.X.XXX-X-X=X&X=X=X@X&X-X@X=X&X=X=X&X@X=X&X$X&X-X-X=X:XrX>X@X=X=X=X$X&X=X&X=X-X-X#X&X&X@X=X$XXX&X@X=X#X-X>X&X&X=X@XF.X.K G { [ k * @ + X . . .   . . . o @ @ @ X                 .     .   o 3 ..V.I.E.W.Q.^.Q.Q.`.Q.).Q.I.p.p.p.l.g.c.d.d.N.L.L.B.d.y.( ( ( ~ ~ D D D ~ ~ ( d.g.j.K.d./ ( s.k.m.m.z.l.z.V.C.E.E.W./.`.9X9X9X0X0X9X^.n.) n g x n g i = i i 9 s m ) 1.Y.xX3X3X3X:X^.}.|.<XJXIXFX%Xt.q.r.U.U.G.D.5.%.l m *.n M [ -.-.S.=XAXGXkXOXK.D.D.K.K.6X7X7XK.K.K.D.D.K.D.D.K.OXK.K.D.S.6.6.6.<.,.h.b.L.J.R./.#XR./.wXrXgXrX#XrXBXVXBXHXHXMXMXmXmXvXmXvXxXmXmXmX",
"XX$X&X&X=X-X-X=X&X&X-X-X&X@X=X=X@X@X&X$X&X&X@X&X&X@X&X&X&X$X=X-X&X=X=X=X@X$X-X$X@X&X=X@X@X=X-X&X@X&X&X=X=X@X&X&X=X=X=X-X=X&X@Xn.] I ] 1.E # o @ o X . . .           X o $ 8 *             . o X     .   * 5 +.V.I.R.W.W.W.Q.Q.Q.).).Q.I.z.p.p.l.l.N.l.j.j.j.j.M.d.d.d.y.d.d.d.u.u.o.u.u.d.j.j.g.N.6XOXh.....+.4.k.k.z.V.V.I.W.Q.`.`.0X0XeXyXqX9X[.9.x g g g m g 9 i = = i 9 x =.9.^.:XxX3X:X3X:X|.|.|.ZXIXJX<X|.|.+X/.^.K.e.8.%.N g g l W ;.,.,.H.,XkXAXkX7XK.j.N.N.K.K.K.K.K.K.<.<.h.K.h.b.K.6XOX~.!.!.D.S.h.h.6.3.h.K.J.E.~.oX^.!.#X9XrXrXoX9XcXcXxXVXPXHXBXmXmXMXnXbXmXnXmXnX",
"$X&X=X$X-X,X-X&X@X$X&X&X$X$X&X=X$X=X&X@X@X-X=X$X=X=X=X-X=X=X-X-X=X=X-X-X@X$X;X#X@X=X-X=X&X;X-X>X=X=X;X;X;X&X&X=X-X>X=X;X-X@Xn._ Y { 9.H @ X @ X X . X X X . X     X X X o w 8 X         . o o   . . o - @ w @.V.I.W.R.W.E.W.Q.Q.Q.Q.Q.I.z.+.p.p.l.N.K.N.j.j.i.j.j.K.j.d.j.g.j.j.j.j.g.j.j.j.j.d.d.B.L.7XoXf...+.@.p.z.V.V.J.W./.6X6X9XeXeXyXeX0X^.8.g i i g n g p 9 = i 9 s x z ;.^.@X3XxX3X3X3X+X|.}.%XZXJXnXvXjXfX#X/.H.F.8.5.r.*.m ' ,.,.,.5..XiXjXGXkXpXOXK.j.D.N.K.L.K.K.,.%.h.6.<.f.K.oX_.OXK.!.K.D.D.S.D.D.S.h.D.J.R.R./.~.!./.oX#XwXoXoXrXBXrXfXVXVXSXHXmXxXmXxXmXmXmXmX",
";X;X-X&X;X2X-X-X=X=X=X-X1XrX;X;X-X=X-X-X>X>X;X*X;X=X-X=X=X&X=X&X&X&X-X-X X.X$X&X#X$X-X-X=X=X=X-X&X&X@X=X=X=X;X=X=X;X:X=X@XU._ Z ] 1.k O X @ X X o o X . . o o   X X   X o h 1 @     . . & o     o . * : @ q @.z.I.W.W.W.R.E.W.W.Q.Q.Q.I.z.+.p.z.B.M.j.N.N.N.M.B.B.j.j.j.g.j.j.j.j.g.j.j.j.d.a.y.u.j.N.L.~.C.@.o.@.p.z.C.Z.I.W./.`.`.8XqXeXqXqX9X/.;.g i g n g p i i : : 9 g x z =.@X@X3X3X3XxX3XiX|.}.}.<XFXDXFXHXcXrX#XD.T.>.>.;.' ;.,.,.,.<.S.*XiXiXkXkXkX7XK.D.d.j.K.K.L.h.%.,.5.<.<.D.~./.OX!.K.D.D.D.D.K.H.D.D.S.c.Z.R.!./.^.!.!.^.#X#X^.^.;XcXrXrXxXBXcXHXHXMXMXmXmXmXmXxX",
"&X@X$X@X&X;X=X=X&X$X@X$X&X;X&X&X@XXX$X$X&X=X@X@X@X@X@X@X@X.X@X@X@X$X&X=X&X@X@X-X=X#X=X-X-X=X=X>X=X=X=X;X>X;XsX>X>X>XrX:X@XO.Z Z { s o X @ & O X X O + # @ o   . & .     X = 8 $ X X o @ & X     o . o o @ C @.z.I.W.E.Q.I.I.R.W.).Q.Q.I.l.p.l.I.A.M.M.M.M.i.M.M.i.i.i.a.d.g.g.i.a.a.a.i.a.i.a.i.j.B.E.L.C.b.@.+.p.p.l.V.I.R.Q./.6X9X0X0XtXtXqX9X^.' s 9 i n i i i : : i i g x ) T n.^.xX3X3X3X3XjX<XY.t.|.ZXLXIXLXBXgX#XG.r.%.,.5.6.6.<.3.6.4.H.*X*XiXkXAXGXpXK.D.d.d.K.K.K.<.6.,.,.4.c.K.!.!.D.D.D.S.D.D.K.T.K.H.D.D.x.m.R.~.^.~.U.!.^.^.oXT.!.#XgXrX#XwXcXfXMXPXVXMXxXmXmXMXnX",
"&X&X&XXX&X;X-X=X@X$X$X$X$X&X$X.XXX@X@X@X@X#X&X@X&X&X@X@X#X=X=X-X&X&X-X-X&X.X@X=X=X-X;X*X;X-X=X-X-X=X;X>X>X=X>X-X;X;X>X:XU._ F ` w $ @ @ 1 4 h 1 # z { { 8 o X X * .       @ 9 = @ + o $ o o . . % - % . @ F @.z.I.E.E.I.R.I.R.I.I.Q.I.I.l.p.M.I.I.A.M.M.B.M.i.i.a.u.a.y.y.u.u.y.y.u.u.u.a.g.M.M.K.L.J.V.z.k.s.@.@.s.l.V.I.W.Q.`.9X9X9X0XqXqXqX9X^.` g i i i i : i = i i g g s ` { X.Y.3X3X3X3X3X4X4X@XY.}.%XFXIXPXHXMX;XF.0.|.%X.XH.S.6.v.0.h..XoXOXiXjXGXGXkX7XK.j.D.j.L.K.h.h.<.6.h.D.J.J.D.D.D.D.D.D.H.K.K.H.D.v.S.x.D.J.~./.^.J.G.!.!.!.U.G.^.rXwX#X*XgXrXgXBXPXPXmXxXxXnXnX",
"$X&X$X&X$X;X;X-X&X&X&X-X-X&X&X&X&X=X&X&X@X&X-X=X=X=X-X=X=X=X>X;X=X&X;X=X#X&X=X>X-X=X;X>X-X*X*X>X2X=X&X-X*X=X>XrX>X-X>X&X9.Z r r # 9 @ $ 0 1.9.[ 3 H z = X o @ @ o         o 4 * @ # 9 * o & . . o % % . $ _ @.l.z.I.I.I.I.I.I.R.I.Q.I.V.l.l.V.I.I.P.A.M.M.M.M.M.M.l.a.a.u.u.u.a.a.a.a.u.u.a.a.z.N.V.M.l.m.z.k.s.p.k.z.V.R.W.Q./.9X0X9XeXqXeXqXqX^.N g s : : : : = : = : s s z ` { { O.Y.sX3X3X3X,X4XsX+Xr.Y.1XJXLXKXBXwXT.+XMXZX*X!.S.D.D.b.G.OX7XOXOXiXZXKXKXkXOXK.K.K.P.K.K.h.2.h.h.v.v.D.D.G.D.D.D.D.D.S.6.5.<.<.x.D.v.C.R.~.^.G.G.!.U.U.G.F.!.wXoXoX#XrX#XrXxXVXJXPXVXxXmXnX",
"$X$XXX.XXX;X=X=X&X@X&X-X&X&X@X$X-X&X>X&X=X&X&X-X;X-X=X&X=X;X;X=X=X=X=X=X-X-X=X-X-X-X-X=X-X>X>X>X-X-X-X-XrX=X-X-X-X-X>X#XO.Z r 1 8 = # < K 9.,.r 1 + X X @ @ @ X   . .     X = = # 9 @ o @ o o o . o o o # _ p.k.z.I.I.I.U.I.U.I.I.).I.V.z.z.M.I.(.I.I.I.I.I.M.M.l.l.l.l.g.a.a.u.a.p.a.a.a.a.g.g.l.M.l.V.I.m.z.@.p.l.z.C.I.W.Q./.[.9XqX0XqXeXqXrXU.x g g : & i i : & @ i s s x T { K 9.O.Y.xX3X3XaXdXsX2XY.}.|.nXIXLXHXfX*XkXDXMXiX!.!.!.G.H.OXoXOXK.!.iXkXGXGXKXGXpX7X7X7XOXD.6.4.f.h.v.D.D.J.H.D.D.D.h.<.<.<.<.6.h.b.G.v.U.R.!.!.G.G.U.U.G.G.F.U.oX.X/.oXwXoX*XrXcXVXJXLXSXmXmX",
"$X&X&X$X.X&X-X&XXXXX@X=X=X-X;X=X=X$X;X=X=X=X=X=X=X=X=X=X=X=X;X=X#X=X:X:X=X#X=X=X&X@X=X=X:X:X:X:X:X=X:X:X:X:X:X;X:X:X:XT._ F z # = # h H ,.` # o o o @ & @ X       . .     X @ * * @ o @ + @ @ * @ & & @ # _ @.l.l.I.I.I.I.z.z.z.I.I.I.I.z.z.M.V.I.I.I.I.I.(.A.B.M.M.a.l.g.p.a.p.a.l.a.l.a.l.l.i.M.M.V.I.E.Z.k.p.k.l.z.I.I.E.Q./.[.9XqX0XqXeXqXwXU.c p g p ; i ; & - - : i n x z T ` K 7.7.Y.xX3X3X3XdXdX%X}.}.+XKXIXKXkXkXAXGXkXpXOX7XOX!.~.7XOX!.K.K.kXAXkXkXiXiXpXkXpXpX!.h.h.h.6.h.D.K.H.D.h.h.h.:.( f.c.D.v.b.c.m.J.n.G.J.!.!.G.G.U.G.G.D.G.U.^.!.oX6X*X^.oXwXeXcXGXKXPXHXnX",
"&X&X-X$XXX@X-X-X@X&X&X-X=X=X-X;X;X;X>X-X>X;X>X>X;X*X;X;X-X=X=X;X:X:X=X=X&X&X=X&X:X:X>X=X[.^.T.^.^.^.^.^.:X:X>X;X:X:X=XU.Z K z = # w { H s @ o @ & & @ o . .       X o . o o   @ * @ * * $ @ # 9 & @ & @ 1 K p.k.l.V.I.I.I.I.U.z.I.I.I.I.V.M.M.I.I.(.I.(.(.I.(.A.M.M.a.a.g.p.p.g.a.p.a.l.p.M.M.M.N.C.Z.W.E.C.k.k.k.k.z.V.I.R.E.Q./.[.9XeXtXeXeXeXF.c p d f y - & : : - : i p x ) ` _ K { 9.1.@XxXvX3X3X3X3X|.|.|.<XIXKXKXZXAXGXZXiXiX*XOXOXOX~.OXK.K.H.kXGXpXK.<.D.H.+XOXK.S.h.h.h.6.D.D.D.D.D.h.<.<.<.D.D.J.K.K.C.D.G.G.b.G.R.R.R.U.U.U.G.F.F.n.G.^.!.!.oXoX!.~.oXwXpXBXBXHXPXJX",
"&X&X$XXX&X;X>X-X@X&X-X>X&X&X&X&X-X&X>X*X$X$X&X=X=X-X=X=X;X=X=X&X&X=X&X&X=X=X&X=X:X=X^.T.U.T.T.R.T.U.U.U.9.U.^.^.[.:X^.O.K _ 1 # # H K = o @ @ o o * .           o o = o @ @   X @ @ = * = = = = & & & & 1 L +.p.l.M.V.I.U.z.U.z.U.I.I.I.I.M.I.V.I.I.I.W.I.(.A.A.B.M.M.M.g.a.g.a.p.p.a.p.a.l.M.M.C.C.I.W.I.C.k.z.k.k.l.I.I.R.R.Q.`.[.9X0XqXeXqXwXF.h p t p - : i i - % - n i m m ` ` { _ 9.9.8.:XdX3X3X3XdX%X|.|.+XFXIXKXGXGXGXGXpXiXOXpXpX7XOXK.K.K.D.iXkX8XD.h.D.OX<XK.D.h.6.h.D.h.D.D.h.h.h.<.<.h.K.K.~.K.K.m.J.R.R.G.n.G.G.G.U.G.G.U.G.G.n.F.G.!.U.!.!.H.G.!.~.6XwXgXcXBXVXPX",
"&X&X&X@X@X-X;X=X&X&X=X-X=X&X&X$X$X&X;X;X&X@X$X$X&X@X@X&X=X=X=X@X=X$X=X:X$X:X:X#X^.T.^.#X#X#X^.U.9.7.+.+.O._ O.9.^.^.U.O.I z # # 3 k 1 @ @ & o   . = . .         o o @ & + o X   X o o @ # @ # = = & * & # K | p.l.z.V.V.I.I.z.z.z.I.I.I.I.M.I.I.I.I.W.W.(.I.I.I.I.I.I.I.Z.B.B.M.M.a.p.a.a.a.M.z.z.I.E.E.J.z.k.k.k.k.z.z.I.R.E.Q.Q.[.9X9XqXeXeX9XF.h f p p - i d i & & : n s ) s z ` { O._ O.9.^.vX3X3X3XdX3X2X<X|.<XKXIXKXKXGXGXkXkXiXpXpXiX7X~.K.D.d.h.OX7XK.OXOXiXiXOXS.h.6.S.h.6.h.h.h.<.( <.D.K.K.K.J.J.D.J.R.!.!.R.G.G.G.G.G.m.G.G.F.F.v.n.G.T.G.!.!.G.G.!.~.oX6XeXgXNXBXVX",
"$X&X&X&X=X=X-X;X&X&X$X&X>X-X&X@XXX&X-X;X&X@X&X$X#X@X&X=X=X*X;X&X&X:X&X&X@X:X:X^.^.&X#X^.U.7.} } } | } } } _ _ r 9.U.+.O.K 7 1 < 8 r = = & o   . . * . . . . . . . . o @ @ o o o o & o . o = = = * & & @ $ F | @.p.l.l.I.I.I.z.I.z.I.I.I.I.A.I.I.W.).Q.Q.W.Q.)._.).).).(.W.W.A.B.B.z.l.z.z.l.z.z.I.E.E.W.I.z.k.n.l.z.z.z.R.R.W.Q./.`.[.9XqXeXeXwX9.x x i i i & & & - - - i s g s z z ` O.{ _ O.F.xX3X3X3XhXaXMXGX<X+XZXIXIXKXKXGXZXkXkXkXkXpXwXK.K.D.d.<.D.OXOXpXjXiX<XOXD.h.6.<.6.h.h.h.( <.d.D.K.K.K.K.D.D.J.R.R.R.R.J.m.n.G.G.G.m.G.n.D.F.n.v.F.U.R.!.U.n.G.R.~.6XoX9XeXtXlXBX",
"$X@X=X@X@X&X=X=X@X&X&X&X-X-X;X=X=X&X,X-X=X$X&X=X-X*X&X&X&X&X;X&X@X:X&X$X&X:X^.^.@X$XR.7.} } Z } } } Z U _ _ O.Z _ n._ O._ 8 < 8 z 8 + o X o .   . = @ . o X X o + o o o o o = 9 * = o . o = # = & = = & # F } +.@.l.l.I.U.z.U.z.I.I.I.I.I.I.I.).Q.Q.).).).`.[.[.[.{.[.`.).).(.(.I.I.I.).(.W.W.).Q.)././.R.I.l.k.z.m.z.z.m.C.R.E.)././.9XeX9X0X9Xr.x x x i : & & i i & o % i g x x z K _ O._ K 7.:XsX3X3XaXiXkXGXkXjX<XAXKXIXIXKXGXGXAXGXAXkXiX~.D.j.h.h.D.,XkXkXZXkXiXOXH.S.6.6.<.h.h.( <.h.D.D.K.K.K.D.D.J.J.!.~.!.G.G.m.b.G.m.m.G.F.G.G.F.v.n.G.G.G.T.G.v.x.R./.6XoX6XwXwXtXgX",
"=X$X$X.XXX=X=X=X&X&X$X#X=X=X@X@X@X&X;X-X$XXX@X&X$X$X&X;X;X-X&X&X@X&X:X[.&X^.^.@X^.U.O._ Z V V V V V C r q F C < K _ _ _ I < # 8 F 1 X X @ o o . X = @ + = @ 8 s l w z z = X @ = = = @ o @ = # ` * @ * & = e Z U } s.l.z.z.z.z.z.z.I.I.I.I.I.(.).).`.`.'.9X0X0X0X0X0X{.'.).'.).).).'.{.{.uX{.{.{.[.0X[.[.[.Q.I.z.z.m.z.z.m.I.R.Q.Q.Q.9X6X9X0X9XoX7.z s s N i - % : i % o = p s g m ) ` K O.7._ 7.:XsXdXdX4X,XjX8XP.8XiX4XKXIXIXKXGXAXGXGXGXkX7XOXK.j.d.6.K.iXkXkXGXZXiXiXOXK.h.h.h.6.( <.S.D.h.c.D.j.K.K.K.!.~.!.!.R.G.m.m.m.m.m.G.U.G.n.G.F.v.F.F.G.G.!.G.h.v.!./././.6XoX9XwXeX",
"&X=X$X.XXX=X&X=X$X&X&X&X=X-X=X=X=X=X2XrX;X&X&X=X-X-X-X-X>X>X;X-X:X&X:X:X:X^.^.^.U.{ _ Z Z I _ r 8 < 1 8 = # 1 # 7 _ Z O.r # # q r 8 @ # o . X o o # # 8 z q q s 1 # 1 w 0 * o o @ @ @ @ = = = X.h o * $ * 0 F L U Z O.k.l.I.I.z.z.z.I.I.).).I.).`.`.`.[.9X0XqXqXqX{.{.).).).(.).'.{.{.qXuXuXuXuXqXuXuXqXqX[.`.W.m.z.k.z.V.C.I.W.Q./.`.9X9X9X9X/.1.k x s r.) - - - : & : 9 p s s x ' T ` ;.n.O.X.@XxXsXdXjXjXiXpXP.B.7XiXkXIXIXKXKXKXKXKXKXkXpXOXD.c.h.h.OXkXAXAXkXkX<XiXOXOX|.h.<.<.D.D.D.h.f.c.D.D.K.OX/.6X/.~.!.J.m.G.b.b.z.m.m.!.!.G.F.D.n.n.G.F.G.G.H.6.D.~.~.~.~./.oX6X6X6X",
"&X=X=X@X@X;X;X-X=X=X-X=X=X-X=X-X-X-X2X2X=X=X;X-X=X-X>X*X-X-X-X-X=X:X:X:X/.^.^.U.] X._ Z _ _ < > # # # O @ @ @ # # F _ _ r < # 8 F z q 1 + X X @ $ 1 8 8 F r r # # = $ # = = + @ % = @ o @ & : h h @ = = = 3 G } O.+._ ..z.m.V.V.z.I.I.I.Q.Q.Q.Q.[.[.[.[.qXyXuXuX{.].].).(.(.(.(.).).].].{.yXuXuXuXzXuXuXuX{.[.Q.I.z.z.z.z.I.U.Q.Q././.9X6X9X[./.X.h 9 z &X) : = & : - : p g s x T T T c _ O.+. .O.^.sXdXxXsX>XxX8XP.P.lXpXKXIXIXKXKXKXKXKXZXpX7XK.K.h.h.*XjXAXAXkXiXiXiXOXOXH.d.D.K.OXK.h.2.h.h.c.G.W.~./.oX/.!.R.J.m.m.c.b.c.z.m.!.T.G.G.n.n.F.F.D.H.G.S.4.G.!.~.J.!./././.oXoX",
"=X-X=X@X=X&X-X=X*X>X;X-X;X>X=X*X-X=X>X:X=X&X=X=X-X-X;X=X=X=X;X=X=X:X=X:X^.^.U.7.+.} U Z 5 < < q V C q 3 8 # @ @ @ 8 F _ z 8 8 7 Z Z 8 # > # O # 9 1 s q z 8 1 H z @ = * # = + o % % @ o o @ = = 9 = = = = 1 F _ } @.@._ +.z.z.m.I.z.z.I.I.Q.Q.Q.[.[.qXqX0XqXyX0X].).).(.(.(.P.(.(.(.(.(.].{.yXyXqXzXuXuXuXqX[.[.I.z.U.z.z.z.I.I.W./.6X`.`.#X/.R.{ s 9 r.XXp : & : p i : p ) z x ` z ` _ _ +.7...{ O.n.>XxXsX3XrXkXP.P.8XpXjXKXIXIXIXIXKXGXkXkX8XL.m.h.D.,XjXkXjXjX<XiXOXOXK.OXOXiXOX|.D.h.4.h.h.b.N.J.R./.!.R.J.R.J.J.v.c.b.m.m.R.!.!.U.G.n.v.n.n.F.G.G.e.2.J.W.J.C.R.~.~.~.~.~.",
"&X&X&X=X=X;X>X$X@X>X>X-X-X-X-X>X;X=X>XrX;X&X&X=X-X=X-X=X;X-X>X;X:X#X:X&X^.n.O.9..._ C < > q q V C Z r < 8 1 = # # 1 < 8 q 8 8 7 7 Z 7 8 1 @ X . o 1 8 z r @ 8 h z @ $ = 0 h # X o @ o o X . o = = 9 1 = # = q Z ^ | @.O._ k.V.V.I.z.I.I.I.I.Q.Q.[.qX[.qX0XyX0X`.].).(.(.P.A.P.A.I.(.P.(.).).{.{.uXqXuXzXuXqX{.[.Q.U.I.z.U.z.I.I.R././.6X6X/./.U.E 0 s $Xr.= & i p p p s s M x s T z [ X.{ 7.+.O.n.c.7.n.@X3X5XvXiXpXP.7XkX7XkXIXIXIXIXIXKXkXpXpX~.K.c.v.iXfXiXfXiXOXOXH.D.*XkXjXiXOXK.D.h.h.h.h.b.N.D.J.R.J.D.J.G.G.G.m.c.c.c.m.R.^.!.U.F.n.v.v.v.G.T.F.6.h.J.R.m.J.E.R.!.R.R.~.",
"=X$X@X@X&X=X=X@X#X&X@X&X=X#X-X-X#X=X-X-X-X#X=X&X=X=X;X;X;X;X>X>X:X:X:X^.9.O.7._ r 7 > 1 7 F _ Z L _ K 1 = 9 = @ 1 1 < 8 q < # 8 8 r Z r 8 # * # 1 8 r q # w 0 # F F 0 r 8 9 9 & 9 : o o @ X . @ = 1 = $ @ = 8 r I } o.@.U +.l.V.z.z.z.I.I.I.Q.Q.[.[.[.qXqX0X[.`.).).(.(.(.P.P.A.P.I.B.A.I.I.).[.{.{.qXqX{.uXqX[.I.I.z.I.z.I.U.I./././.oX`./.Q.9.h = -.=X) : p s s 9 i g x M z x c z X.} 7.s.@.} n.U.n.T.U.^.3XxXiXpX8XP.8X7XOXGXIXIXIXIXKXZXjXpX7XK.b.4.OXjX,XiXiXOX|.D.iXGXkXpX<XOXK.D.S.D.c.c.m.D.C.m.G.D.m.n.G.G.m.m.m.n.m.m.R.^.!.U.F.v.v.F.x.G.G.S.1.c.J.J.b.R.L.J.R.L.R.K.",
"=X-X&X@X$X=X=X&X&X=X$X&X&X&X;X-X-X=X-X;X>X;X;X;X;X=X-X:X;X-X;X=X=X:X&XU.O.9.O.7 8 1 < q q C X._ } I 7 # @ = @ = 1 8 8 7 8 8 8 r r F K G F z A F z r 8 7 z F 3 $ z O.F 8 1 * 1 = * o o o o o . o = = = 4 = @ 1 w A U } o.Y  .k.l.z.z.z.I.I.U.I.Q.Q.[.[.[.[.[.).).).(.I.A.P.(.P.P.A.A.A.V.I.I.(.).[.[.{.qXqXqX[.Q.Q.I.U.z.U.z.I.Q./././././.^.R.X.9 9 n.r.x ) T T c s s g s c z F K _ O.O.O.+.+.| k.c.T.U.#XU.T.&XfX,XpXP.8X8Xj.7XKXIXIXIXIXGXkXkXwX~.b.4.OXjX&XoXiXOXH.iXkXkXkXkXpXOX!.K.D.D.J.G.D.b.b.h.h.c.x.c.c.n.D.D.n.n.m.n.G.!.T.G.F.n.S.v.n.G.H.0.,.D.J.c.D.J.J.J.J.L.K.J.",
":X-X&X@X@X&X=X&X&X=X$X=X&X&X;X*X-X=X=X;X;X&X=X;X:X;X-X$X.X^.^.T.^.^.^.7.O.7.K r 7 q r F I Z 7 5 Z _ z 8 # 9 8 8 1 8 8 q 8 7 q q q C F _ I G F A r r r ` r 1 1 # q X.L 1 = * 8 0 @ & : & . % o o 9 = 8 8 o o @ 1 w G Y ] U Y s.k.z.z.z.z.z.z.I.Q.Q.).`.`.[.).).(.I.(.(.A.I.A.B.A.A.A.V.z.V.I.I.I.Q.[.[.[.[.[.[.Q.Q.I.I.I.I.Q.Q.^././.Q./.R.I.U.` 9 { r.` [ ;.' z h s s 0 0 0 z F ] 7.@.7.+.} } _ +.n.U.U.^.>X.XU.H.iX2XeXP.8X8XP.8XLXIXIXIXKXGXkXgX6XK.f.H.fX#XOX!.D.OXkXGXkXpXpXpX7X7XOX!.H.K.K.K.h.f.2.2.6.4.h.h.6.v.x.v.v.n.G.U.!.!.U.n.n.S.n.n.H.F.6.3.D.c.c.C.J.V.J.J.J.C.J.",
"=X@X@X&X;X=X=X&X=X-X&X;X-X-X;X>XrX;X;X>X&X@X@X&X-X-X&X@X@X^.U.U.U.7.7.U } I F r Z _ C O.O.G O. .7 8 8 1 8 8 r 8 < r 8 7 r r 7 z _ ] X.O.3.1...G < q r z 8 # 1 # # _ H 1 + = ` 0 = & @ @ o . . @ 1 1 9 s * o @ * 4 A I L U U +.p.n.z.z.z.z.z.I.I.I.Q.Q.E.W.W.I.(.I.P.A.(.I.I.A.A.A.A.V.A.I.V.V.I.Q.Q.[.[.[.Q.Q.Q.Q.I.I.Q.Q.Q.Q.^.Q.^.~.!.R.U.O.z ` Y.X.;.X.` s 9 9 9 : 4 0 z H ` G F _  .O.} } _ O.U.n.^.U.3X3X2X|.H.<XiXpX8XlX8X~.pXIXIXIXIXKXAXBXpX~.c.v.iX&XH.D.h.*XAXkXkXpXpXiXiX7XOXOXK. XK.G.v.2.2.2.2.2.4.h.6.6.e.6.0.S.F.G.U.!.G.n.0.n.n.n.G.S.1.4.m.x.b.C.J.C.J.J.J.V.C.",
"=X&X&X&X&X&X&X&X&X-X@X=X*X-X;X-X&X=X-X>X=X&X=X=X#X@X@X^.^.U.9.k.I.U.+.V K r F 7 U _ I U.U.G ..U.O.K < # = 1 < < 7 q 7 r 7 r z _ _ ` G _  .1.0.2.X._ G r z 8 > @ $ e F # o z h = = 0 o o = * X @ = * $ 1 l & o @ * 3 A C ] P ..@.7.z.k.z.z.I.U.z.I.I.I.I.I.I.I.I.A.A.A.A.A.A.V.A.A.V.A.I.z.V.I.I.Q.Q.Q.Q.Q.Q.Q.Q.I.Q.U.Q.U.Q.Q.Q.!.Q.R.R.U.7.{ s 1.X.` { x 9 9 9 = & : 9 z c H z K ` H _ _ _ +.| n.n.x.#XU.=X3X3XjXOXT.,XjXkXpXkX8XpXKXIXIXIXKXGXAXMXwXJ.h.G.*X!.D.e.*XkXkXkXlXpX*X7X*X*X7XOXOXoXK.v.6.<.2.<.,.,.4.0.6.6.0.0.v.S.G.T.T.U.F.0.n.F.S.F.0.,.x.c.h.D.b.C.J.J.C.V.m.J.",
"-X-X&X@X@X@X&X@X@X@X@X&X=X&X#X:X$X&X&X:X:X$X$X^.^.Y.Y.U.9.X.X.n.n.7.O.I Z q r Z _ 7.+._ 7._ Z +.7.7.r # # q q q 5 q e V e r e 6 V J ,.<.2.4.n.v.2.O. .F r F r > * 8 z O # x 1 = 9 s 9 X @ 9 = * 9 = = @ 9 9 X @ @ = 8 F ! P  .o.+.k.k.l.l.z.z.z.z.z.z.z.M.z.M.V.A.A.I.M.A.V.V.V.B.Z.C.V.Z.A.E.E.W.E.W.W.E.R.W.W.Q.Q.R.Q.R.Q.I.R.R.R.R.m.7.X.F ` ` ` ` z s 9 i & = : = 9 s z z z _ _ _ 7._ _ +.7.^.U.@.^.^.^.3X3X3X3X@X^.:XxXMXgXpXlXkXKXIXIXIXFXSXBXcXwXR.4.F.G.c.v.wXkXlXkXBXgXpXwX*X#XoX#X7XOXOXF.4.2.<.1.1.2.3.6.5.6.8.5.0.v.F.T.T.U.F.9.F.F.F.S.3.1.x.x.c.m.b.K.J.C.b.K.m.J.",
"=X&X&X@X&X@X&X@X@X@X@X=X=X&X=X:X=X&X&X$X^.^.^.@X^.^.U.U.O._ U.U.U.k.+.L _ Z C Z O.U.+.U U L V Z +._ 7 # 8 F q 7 7 G C e e Z S Q X.,.1.X.X.X.2.2.+.o.O. .C r G K r 8 r # 9 r 8 = 0 1 0 @ @ * s 9 : = : & & 9 & o o & 9 r G L  ...+.@.s.z.l.p.z.z.z.z.l.l.l.l.M.M.M.M.M.z.M.M.M.A.C.A.Z.Z.Z.I.Z.Z.I.Z.R.Z.I.E.I.R.R.I.I.R.I.U.U.I.I.U.b.x.1._ K c z z r 8 9 9 = & & 9 = 9 s z z ` z _ O.+.+.7.+.s.R.+.m.!.U.^.>X3X3X>X:X@X@X:XfXBXpXeXlXkXKXIXIXIXJXSXMXkX#XR.c.4.2.6.OXkXMXBXkXkXkXpXiX*XOX*XwX*XOXH.0.<.1.<.2.1.3.5.6.8.6.5.5.0.n.U.U.U.F.r.F.F.r.0.,.2.v.x.c.b.b.m.b.b.b.b.m.m.",
"-X=X=X-X:X&X&X&X&X@X^.:X=X:X:X:X;X=X$X9.7.U.U.U.U.U.^.U._ ;.@X:X#Xk.+.Z r 7 7 7 Z _ } } Z V r r V 7 7 = # 5 7 C I C q V G ]  .] ! P S V C V V V I _  .O.O._ L F r 8 8 h q z = = 0 8 9 0 & o : 0 $ = i o @ = : o o @ $ 8 w S I } } +.+.p.k.l.p.p.a.z.l.a.a.a.a.p.i.a.p.a.i.l.M.M.N.C.C.Z.V.V.C.C.m.C.C.C.U.I.I.R.R.R.R.E.I.U.I.I.z.k.k.O.Q H c 0 z x s p 9 9 = : : : = 9 s x x z z X.+.+.o.O.} k.@.O.U.^.R.^.3X3X3XxX:X:X&X&XaX4XgXkXgXgXkXKXIXIXLXFXHXSXcX;XR.U.h.2.6.H.wXkXBXkXkXBXkXpXwX*XwXiXOXG.S.6.2.1.2.,.,.1.6.6.6.5.0.0.F.U.Y.U.F.F.F.S.e.3.,.3.x.x.b.b.b.b.l.b.b.b.b.m.",
"-X=X&X=X-X&X=X-X&X=X:X:X#X=X:X:X>X&X9.X.k.7.+.7.Y.U.U.U.K 5.:X[.!.2.U Y Z F _ I 7 Z Z Z 7 7 7 7 < 7 < < < q Z _ C 7 e G ! Y S S V r A , > 5 V e q q C I  .} .. .F r q q r z # 9 8 9 8 = @ @ & = & * & o o % = - o o @ = 4 k A L } } +.@.k.p.p.p.p.p.l.a.p.p.p.| p.p.p.a.p.l.l.M.M.l.M.l.l.l.z.l.z.m.z.z.z.I.R.I.I.z.R.m.U.z.k.7.7.O.X.[ k 0 9 s x 9 9 : & = : 9 p 9 9 s x x z 9 _ O.+.O._ X.} +.s.+.+.U.3X^.:X3X:X>XsX>XaX2X1XdX2XaXMXSXGXHXIXIXIXLXHXJXJXVXsX#X!.G.v.x.S.^.aXBXMXkXkXkXpX*XiXiX*X XF.S.0.0.,.-.-.5.5.0.0.5.9.S.F.F.H.H.H.F.r.9.6.,.,.6.6.x.c.c.b.b.c.b.b.c.k.v.",
"-X-X&X=X#X@X=X@X@X=X=X=X:X$X@X^.T.x.U X.U } 7.n.U.n.U.U.X._ 9.7.O.^ I I G S G Z Z _ _ I _ U _ Z Z C e 7 7 V L V 7 V _ ] I S q V k e A e > 7 C G 5 > < q C I  .O.+._ 1 8 ` r 8 8 r h 1 8 = & = & & * o & @ * = : % @ @ * 9 8 r F Z } } +.@.p.p.p.a.p.a.p.p.u.u.u.u.| | y.p.p.p.p.p.a.k.f.g.l.l.z.z.l.l.V.I.I.I.z.m.C.z.z.z.k.f.s.+.X.` h 1 = : s p 9 = & & = = = 9 x s s x s 9 s { +.7._ _  .o.7.U.R.7.+.^.:X=X:X2X:X2X5XdX5X1X5X3X1X3XdXnXSXSXJXIXLXFXFXFXLXJXVXfX*XoX^.!.!..XiXMXMXgXMXBXfXiXfX*X XF.6.5.1.-.-.5.6.5.e.e.6.8.S.H.H.H.U.H.F.S.6.1.,.1.6.6.h.c.l.c.c.c.c.v.k.x.x.",
"=X#X&X-X:X@X-X@X@X&X&X:X=X@XU.O.7.Z U Z U } 1.n.U.U.7.O._ Z _ O.Z 7 , 3 3 3 < , 8 < < 7 r I _ Z F _ I I Z Z Z V L _ ,.] C V e q 6 , V J r r q I q O $ # 8 q K { O.O._ 3 z # @ = 9 z s s = o & & o & & & * * : @ & & : = * 4 8 k Z I _ } +.+.p.p.p.p.p.p.u.p.| u.u.p.p.p.p.u.u.u.p.a.g.l.l.l.l.l.l.l.z.V.z.I.m.z.z.l.k.k.4.2.<...] K e * @ & 9 f : & & & = = : 9 = s x 9 9 = s x _ 7.X.` [ O.k.o.^.:X^.U.9.U.#X&XsXdX1X2X2X5X2X3X3X3X:X3XdX5X1XvXJXIXLXLXSXSXFXHXHXVXMXgXrX#XoXoXwXpXiXfXBXMXiXOXOX.XH.6.5.,.1.6.6.0.6.r.S.e.e.F.F.T.Y.H.H.F.e.5.-.,.3.6.2.x.c.c.c.c.c.v.x.x.x.x.",
"&X&X=X=X=X=X=X@X@X#X@X=X#XU.O.U._ V V Z Z _ O.n.O._ O.7.+._ _ Z q q q q q 5 w e 7 8 < # < 8 7 r q 7 < 7 L U V Z _ 2. .F G G S Z S V S P L q q ] z * o o @ # 3 k X._ X._ r @ @ = # 1 s 9 9 = * @ o o o @ @ = 9 & & & & & & = 1 8 r r Z U } } | | p.p.p.p.p.a.p.p.| p.p.p.a.p.p.p.u.p.s.g.l.g.l.l.l.M.V.z.z.z.k.k.k.@.@.2.+.O.X.Q H w & % & & 4 4 = & = = = = 9 9 9 s s s 9 = p x { { K K ] X.n.+.^.xX>X#X@X9.U.^.=XxX3X5X5X5X5X5XdX3X3X3XdXdX1X5X3XnXIXIXLXJXSXSXSXSXFXHXHXMXfXwXoXwXwXwXcXMXiXH.F.|.H.F.e.0.e.0.0.e.r.S.e.e.0.S.H.T. XY.H.r.6.,.! ,.6.3.3.x.x.x.v.k.k.x.x.k.7.x.",
";X$X$X=X=X&X:X&X=X=X:X2X#X9.U.n.7 C V V 7 Z _ 7._ } 7.O._ _ Z 7 V C 7 C 5 < 5 5 8 7 7 8 < # < 8 r e 5 < U Z V U 1.] r e G L Z V Z L D Y _ F A _ A 8 $ $ 8 w # > r _ _ .._ # @ 0 = = 1 @ * = : @ o o o & & @ = s = = 9 & @ = : 9 0 w r Z Z Z } } | | p.p.p.p.p.a.p.p.p.a.p.p.p.a.g.l.l.l.M.z.z.z.V.M.z.z.l.l.k.s.p.2.+...X.! Q F 0 = @ & & & = - = & = p p p 9 s s s x s 9 9 9 x { K E T O.X.c.n.#XxXxX-X#XT.7.U.^.>X3X3XvX5X5X5X3X1X1X5X3X3X1XhXsX3XbXJXIXLXLXSXSXSXnXSXJXKXHXMXfX*X*XwXfXMXiXH.S.S.S.F.F.F.F.H.F.F.S.S.e.6.8.F.T.!..XT.F.9.1.-.,.3.6.2.3.h.x.x.7.x.x.7.7.4.4.x.",
"-X=X=X;X>X=X=X>X=X:X:X:X#Xz.U.O.7 V Z 7 C L Z L _ _ _ _ _ Z r V Z U V r < 3 3 5 e 6 5 > < < 3 6 q q r Z L V Z 2.{ J 5 8 I P U V 7 V V Z Z S C r w r 8 = 8 8 8 > 1 6 A ! X.3 @ h 8 = 8 9 $ @ * * = @ o & * & @ 9 0 * 9 : * 4 4 4 0 0 w e A S P Y / ..o.o.@.p.p.p.l.z.z.M.z.z.M.M.M.M.z.M.M.z.M.M.z.l.l.k.s.s.p.@.+...] ] Q I c 0 * & o & & = = & : = 9 9 s s s 9 s x 9 x s s s ` _ ` _ { 1.3.O.v.>XxXsX3X>X^.9.O.F..XxX>XsXsX3X3XdX3X4XdXdX5X3X5XdX5X3X5XDXLXIXLXLXHXSXSXSXFXJXPXVXbXxXrXfXMXfX XF.0.S.0.e.S.F.F.F.e.0.8.0.e.S.F.T..X XY.F.5.,.! ,.3.3.1.6.4.h.x.x.7.x.7.4.7.6.3.",
"&X=X$X@X=X=X@X@X@X@X@X@XU.O.7.Z 7 Z V e U Z _ C r r r ` _ F Z U S Z C q 3 3 < < q e V A F G I K C e e Z V Z X.X.k r w 3 r q V S V 6 V V U P G C 3 w z # * # @ 8 5 < 3 S ! J > a = = 9 9 @ o @ @ = : o @ & * + 9 l 4 2 1 1 4 1 4 9 8 9 3 w e S L P / ^ | o.o.@.@.p.p.l.p.M.l.l.l.l.l.l.l.l.l.l.p.s.g.p.p.s.<.+... .] Q I H k 4 * & & % % = = & = = : 9 9 s x s 9 s s 9 9 s s z ` T { X.{ { 6. .,.#XxXdX3X3X:X#XU.k.n.@X3X3XsX:X:X5X5X5X5X3X5X1X5XdX1X5X5X5XnXFXIXIXLXJXFXSXSXSXLXLXHXMXmXfXxXjXOXH.S.0.0.0.8.5.3.5.1.5.6.e.S.H.T.T.T.T.F.6.,.-.X.3.2.1.1.4.4.7.x.7.x.7.7.4.4.4.3.",
"@X@X@X@X&X-X@X^.@X&X=X&Xn.} I < q C 7 Z U I S q r r r q q G _ r r e 5 3 3 3 3 q w e e Z G K S G K G G V V Y 1.H * 4 H H F S q q V 6 , q A Y Y P A 7 F 8 # 9 # q h 3 1 3 F Q 4 4 = @ # = o o o o @ s = @ @ = & 9 k 0 w 1 : 9 = a 0 0 9 1 3 8 w C L P P P ^ ..| o.@.p.p.p.p.p.l.s.p.p.p.p.s.p.p.s.p.@.@.@.<.,./ ! Q Q H H z 9 @ & % % & & = @ = 9 : 9 9 9 s x ` z x s s s h x s z F ` ` ` E 1.] G n.>XxXsXxXsX3X^.k.m.F.>XsXsX3X:X3X5X5X5X3X4X1X3X5X5X5XdXvX5XhXSXPXIXLXLXJXFXHXLXLXLXFXSXMXMXxX-XT.F.0.5.1.1.5.5.5.1.5.6.e.H.H. X XT.H.9.,.{ X.1.4.6.1.2.4.h.h.7.x.7.7.h.4.3.3.6.",
"@X&X=X&X&X=X&X@X=X&X@X^.O.X.Z < r q 7 I I 7 3 w q r q r e Z _ < 3 6 5 5 3 3 3 1 < 5 7 q q q q 5 e C Z V Z X.{ 1 + > w e A G A q 6 e , 5 6 C P U _ C C I h > 8 z 3 A 3 > 0 E H 1 @ @ 8 & o o o % o 4 s * @ = = 9 h 0 w j 4 0 0 a s 0 H w 1 4 4 6 6 S J D L Y ^ | | | | p.@.p.@.p.p.p.p.p.@.@.@.@.+.o.O. ./ ! P J H F k l 0 4 & & @ @ & = @ = = = 9 9 0 9 = 9 { ` x s s x s M h h _ ` _ _ I -.] I @.@XxXxX3X3X:X&Xm.T.m.@X3X3X3XdXdXvXdXdXdX5X3X3XvXdX5X3X5XdX4X5XvXDXLXIXPXLXFXFXJXLXJXFXDXnXdXaX&XH.D.0.5.1.6.6.6.6.e.e.F.!..X XT.U.r.1.{ -.,.3.6.3.,.3.4.7.6.x.7.7.6.6.3.3.4.3.",
"$X$X@X&X:X&X$X@X@X@X^.U.L  .C 3 r > e U C 5 3 < 3 3 6 w q 5 L P e C e 5 1 > # 1 5 q q q 5 5 e w 7 e V V U ,.s o $ > 1 3 3 5 w 6 5 5 5 < 3 q C U _ } _ } e 1 z < 5 F 3 # 1 z Q 5 9 3 z = @ @ o @ @ * x 9 @ 4 0 4 3 k A k k 4 h h c w k Q 3 4 3 h e e A V S D P U } } } } ......| | | | +.} O. .^ Y Y P J J J S R A c j 6 u 4 o o % & = : 9 x s s 0 : & = = s T ` ` x s s h x x x z ` ] O.O.' _ ] 7.^.rXsX:X@X3X^.U.R.^.U.sX3X3X3X1X5X3X1X3X3X:X%X5XdX3X1X1X1X5X5X5X5XbXFXLXLXIXLXFXJXJXFXSXSXmXfXiX$XT.H.S.0.6.0.0.v.F.F. XOX.XT.H.S.5.,.,.,.6.6.6.2.,.4.4.x.7.7.7.6.6.4.3.3.3.3.",
"&X&X$X-X-X=X@X.X&X^.U.+.V X.7 q < # F V , 3 > 1 > > 3 6 7 q C _ ! A < $ O $ < 5 q q q q 5 e A 5 8 q 7 V I =.@ @ 1 1 $ O > 2 2 2 2 2 3 > # < e C G } } V C r w 1 e r 1 = 1 4 E j w 3 z 9 9 = 1 1 & $ s 0 * 4 h a 4 k F J H A k w u h k H J w 6 w e e A C C V S S Z Z C Z Z Z D L Z Z U Z Z Z Z Z S S S D J S H A H j j a a ; @ @ = ; @ & 9 x z M 9 = @ @ = s x z ` ` s s z x z s h _ { X.2.1.] K _ 7.#XvX&X^.3X@XU.U.^.U.3XsX3X3X5X5X5X5X1X1X:X1XdXdXdXdX4X3X3X5X5X5X1XdXxXDXLXLXLXJXJXSXAXnXmXvXdX,X&X.XT.H.F.H.T.T. X XOX.X XH.S.1.,.,.,.2.0.6.4.1.3.6.h.x.x.h.6.4.4.3.3.3.3.3.",
"&X&X@X@X@X@X^.F.^.U.+.U V I < 7 < O 5 e , > > O O @ > C V q e L J < > * 1 < e 5 3 3 6 q e H 3 @ # w q C { T X @ & > * > 2 2 > < 3 5 3 > $ $ 8 S C _ U V Z q < < r w $ $ * 1 E J q 8 r 8 3 8 w h w 3 h 3 1 9 1 0 j F H ] J E K k j 3 j A P S k k k A A V A S S J Z Z Z Z Z S Z S Z Z Z Z Z L L Z P P P J D S S A A j 6 j 0 = & - % % o = 9 9 s ` z : = @ = s s 0 z T 9 9 ) N h x x z X.{ O.4.1.] ` _ U.:X3XT.2X#X^.z.!.n.=X3X3X3X5X5XdXdXdXdXdXvXdX5X5XdX5X4X5X3X5XvX5X5X4X4XvXAXLXLXPXJXFXSXmXbX4X4XiX;X&X.X.XXXXXOXOX.X.X.XT.S.1.1.3.1.1.h.0.x.3.2.2.h.6.x.x.7.4.3.4.3.3.3.2.3.",
"&X&X@X$X$X@X^.e.T.U.} Z V V < q < X # C , > > > > 5 6 A V V S S P 2 > 3 e S S q < 5 q r H h O O # 8 q r 1.s X X o + + O > e e e C A e 3 < > j r q r Z C C q 1 < q H $ $ * = H ` q k 0 r r F r z F F J z w 8 1 1 h R H E J K Q J A k w H S Q A S S A S S S S D P Z Z Z I L U D U _ U U U _ _ } } Y Y Y Y P J J H H b j f 0 & @ o % o % @ @ = 9 s ' x * @ p s s 9 8 h 9 9 ` T T M x z ` 1...O.4. ._ _ O.n.^.^.#X2X^.U.R.n.=X5X:X1X3XdXdX3X3XdX5XdX5X5X5X1X3X5X5X3X1XvX5X3X5X3X5X3X5XmXSXLXLXPXDXZXjXhXdXiXiX,X*X*X&X+XOX.XT.T.F.4.6.v.6.2.0.v.x.h.1.3.x.7.x.7.h.6.3.4.3.1.2.3.3.3.",
"&X&X@X$X@X@X^.n.^.7.} Z V 7 7 < O X O k S > > S S G S e q q S S S A 1 e S G r 6 6 S H H z > $ = 2 5 6 A 1.w + o o o o + > 8 8 q e e 8 3 3 3 3 3 5 w C S 7 8 7 _ F h + $ = * c ` F ` < z z 5 w w q e F H J F 4 # 0 H R K ] K ] I H F A F A G S S J J D P U P P D P Y U U } U } _ _ } } } } } } } ^ / Y P P P D J A j h h 9 : & ; & @ @ & & & = s ` ` = 9 s s 9 s s s 0 s =.c x x x M R -.] { 2.,. .]  .+.O.n.^.#X^.n.!.U.=XxX:X3X1XdX3X3X3X1X1X3X1X3X3X3X1XvXvXdX3XvX5XdXvX5XdX5X5X1X1XhXSXJXLXJXVXmXbXxXaXaX>X;X&X$X+X.X^.H.0.v.n.n.h.v.v.v.v.6.6.x.x.v.x.x.6.4.4.4.3.3.2.3.3.3.",
"-X-X=X-X=X#X^.7.U.O.Z Z 7 7 7 < > X O > S , > ] L 7 < , , e V V S J < q G q > 3 A A H w > > 2 6 6 5 5 F 1.J w + . X o $ 0 8 $ # > # > # 1 1 2 5 w 5 w 6 q _ _ ] r # + * = $ z ` z 1 # 8 z 1 = # # # 3 8 C G Q k = 0 H I E K ] [ [ G J A A S P J J S S D P ! P P P U U ^ U U } } } } } } } } } } Y U U P P P R R H k h h 9 : & : & @ @ & & & = 9 z { z s s s 9 s s s s T x s s s l c K [ E ] Y  ._ { K ..+...7.^.^.k.#XU.rX3X3XxXdXdXvX3X3X3X3X3X3X1XdXdX5XvX5X5X5XvX3X3XvX5XvXvX5X2X5X1X%XhXDXHXFXFXVXMXmXmXfXrX;X&XOX!.G.H.H.G.D.v.n.D.v.v.v.4.7.v.x.v.v.h.h.4.7.4.2.4.4.7.4.3.",
";X>X-X&X:X>X^.+.O.U Z 7 < 7 q , O O + < , 6 V } C , # , > 6 r V e S S e C < 3 A J k < 1 > > 6 > 1 < 5 H 1.e 3 $ @ $ 4 9 $ X o @ $ @ @ # $ O $ 1 h w 3 3 w 8 8 1 o @ # 1 * = s h = @ @ @ z 0 = 1 1 1 8 < 1 w J ] z 1 4 [ G H ] _ K { { ] J L I Y ! / ^ Y U  ._ U P U U U } ^ } } } } } | } } } } Y ^ Y ! ! Q Q J A j h s 0 i & & & & & & & & & & 9 ` ` z s s 9 9 x s z h h s h g l c T I E  . .,.I  .I I } o.| n.U.U.#X^.>XsX3XvXvXdXdXdX3X3X3XdX5X5X5XdXvXvXdXvXvX5X5X3XvX5X5XdXvX5XdX5X5X1XhXDXHXSXSXSXSXMXMXkXfXrX*XwX*XoXoXJ.D.G.G.b.D.D.x.x.b.c.n.b.n.c.x.h.h.4.4.4.f.x.h.4.",
"-X>X-X&X:X=X^.7._ Z Z V # < V , O O O 3 > , D Y S ] q < 3 5 5 C V 6 e C q 5 S e 6 3 < > $ * a $ > > 3 E 3.1 + @ $ = $ o + @ @ # 1 4 1 3 3 4 4 $ $ 1 * @ $ = @ @ @ = 1 9 = 4 9 $ o o o o 4 9 9 3 w w H A e 8 w S X.k 1 =.K G K H G H K I ] { S G /  ... .} } ..} ^ ^ ^ U ^ } } | | | | +.| | } } ^ / / / ! ! P J j j z s 9 9 ; % & & : & & & = & = s { z z z z z z z H z z ` z c z z E I ] ,.X. .X. . .G } +.@.+.7.^.:X/.>XvX:XvX3XvX3X3X3X3X3X3XdXdXdX3X5XdX5X5X5X5XvXvXdX5XvXvXvX5X5X5XdXdX1X4XSXFXFXVXBXMXMXBXBXGXMXMXgXtXoX!.^.J.G.J.G.v.v.G.G.G.G.G.D.v.v.c.4.h.h.x.x.x.x.x.",
";X;X&X&X-XXX^.+._ V Z Z > > 7 7 > O O O 3 < V Z L X.V A A 5 > 6 C e 5 e q C 6 3 3 $ O O + o O + * # 3 R ,.w = 4 9 1 1 4 w w h w w 4 3 0 5 w 0 = $ o o   o o @ * 1 = 9 4 o & & o % o @ @ = 1 # 1 3 3 r S L A w F 1.{ z c z z F K K H K I J { { S J ........| } ......| } O.| +.| +.o.@.| | | +.| ....} / / Q J A j j j j s i & & & & & : @ @ @ = 9 s z z x z s s s h z _ H z z K J { E E Q X.1...7.+.X.P Y | @.@.k.#XxX=X:XxX>XxXbXvXdXvXxXxXsXvXvX1X5XvX3X5XvX5X5X5XvXdXvX5XdXvXvX1XdX5X2XvXvX1X3XSXPXHXGXBXBXMXMXMXcXgXgXrXeXwX/.R.!.!.m.G.R.K.J.R.J.J.D.D.v.c.h.h.c.h.x.c.c.c.",
"@X@X&X&X=X^.T.k.U 7 q K > # > q , O O O > q 6 V C V e L C < > > e 5 5 k r 3 3 > # * * $ + o o X O @ 5 w { 0 O @ @ $ 1 # # < 3 1 2 3 3 1 0 a 1 * = $ @ o . o o o @ @ * o . o o o o o % @ * * 1 1 w 0 3 r S A k Q Q X.1.w e r F G K k r H A A X.Q S X...| ....| ..| o.| o.| @.| +.+.o.+.| | +.+.+.o... . .P J A j j A j a s : & & & & & : & @ @ p s s x 9 9 9 9 9 9 s h ` ] H z z ` ` c H Q ] 2...2.x. .I ^ } +...U.R.-X:X#XxX>X>X3XvX3XdXsXsXsXdXdX3X3XvX5X5X5XvXvX3X3X5XvXvXdX5X5X3X5XvX5X5XvXvX:X&XnXKXHXMXBXgXgXgXgXkXkXBXgXwXoXoXOXJ.!.~.OX^./.!.^.J.G.G.D.v.v.b.v.v.v.c.x.D.",
"=X&X&X@X-XT.n.U._ 7 5 C 5 > O , 5 O O O O > , , q e S I C < > > 6 e 5 6 e > 1 $ + O # 0 # + + @ @ $ 5 5 K j O + + $ $ $ 1 3 3 0 2 1 > 3 w 1 + o . & @ & @ o o @ @ * $ o o o   . o o @ @ = = * 1 K 0 1 0 A A A E r Q 0.F r F z z 0 = 4 h h 8 I ,.F P X.O.o.....+.O.| o.o.| | o.| | +.@.@.@.@.@.+.o. .^ Y Y P S H S j j j s s : & & @ : = = & @ 9 s s s 9 9 9 9 9 9 s h h [ X.[ H k l M H E ! X.2.2.7.2.} 2...+. .V.m.^.rX&X3XxX>X:XdXvX3X3XsXsXvXvX5X3X5X5XvX3X5XvX5XdX3XdXvXvX5XvX5X5X5X3X5X5XhXvX:X:XnXKXKXGXBXBXBXBXBXkXgXeXwXwX6XoX/.6XoXoX/.oX~.~.J.G.G.m.b.D.v.m.D.D.b.D.D.",
"&X&X&XXX=XF.O.F.n.C , e 5 5 > > 6 > > > O O , , < , C S e 3 1 > 3 e 6 6 5 3 $ + @ O @ # = $ + X + @ 4 5 A P 3 * # 1 3 w r k w 1 $ @ 2 k 1 $ $ = @ o o @ o % % & = = * & & @ o & @ @ * 9 0 = = 8 [ 0 # h F Q S A F [ 7.] A z w 9 = = 0 0 w w A X.] C  .o.+...o.o.o.@.o.+.@.@.@.p.@.@.p.@.p.+.+.+...| ..../ ! R S H A j b g 9 i & @ & 9 : & = @ @ i 9 9 s 9 = s s s s h h s H 1.{ H M N W H Q I X.2.2.m.+.k.+. .2.z.+.n.rX-XvXvXsX3XdX3X3X3X3X3XvXdX3X3XdXvX5X5X5X5X5XvX5X5XvXvXvX5XvXvXdX5XvXbXhXvX3XdX3XhXKXPXHXGXBXNXkXgXpXpXeXwX6X7XwX6X6X`.oX^.~.!.!.R.G.G.n.b.D.D.G.D.n.D.D.",
"=X$X&X@X[.U._ 7.^...7 8 7 7 8 # > 5 > > > O O O > < e A r , 1 1 $ < e e 6 $ @ + + o o o X $ * * @ @ # 8 w J w 3 1 3 3 w k 0 $ o o 2 j w 1 3 j 3 = & o o % % o o o o % & $ * = : 1 : 1 0 9 9 s z k h 1 0 k F J k K E Q O.J w 1 = = : l k F G K ] O.L _ } o.o.+.| +.o.o.@.p.p.p.@.s.s.p.s.@.@.@.+.+.o.O.} } _ I K H j H c u 4 g i & = 9 9 = = = @ 9 p s 9 = 9 z z z h s s x s c 1.,.z m W R H K ] O.+.7.+.U.+.} U.k.k.+.^.sXxXxXxX3XxX3X3X3XsX:XxXdX5X3X5XvX3X5X5XvXdXdXdXaXhXhXhXvXdXvXdX5XdXhX5XhX4X5X5X4XhXGXKXHXGXBXlXlXlXgXpXeXwXeXeXwX7XoXoXoX^.~.!.!.J.G.G.D.D.G.G.D.G.D.D.",
"@X&X$X=XY.9._ 7.^.n.Z 7 q < 8 # X > 5 > , , , O > 3 6 e G 6 > $ > O 1 6 2 2 $ % + O o X o o + @ $ * 1 0 w r e 8 3 3 6 k 1 O o + * 5 C 5 w K A 1 9 o X . % o @ @ o o o & & + % = = = 0 z 0 0 0 9 8 h 9 9 8 w G e J H A 2.! k * : 4 = r E { I ..! 1._ V } O.+.o.+.@.@.@.@.p.@.s.p.s.s.@.s.s.@.@.+.+.o.| O.} _ Y L H j c j 4 p x g i & 9 9 s s = i 9 9 9 : : 9 s z ` z z z h s s h { { l c W R J Q _ } +.@.I.z.z.Q.+.s.+.R.3XxXxX>X2XxX3X3X3X3X3XsXdX3X5X5X3XvX5XvXdXdXdX5XdXdXdXdXdX2X5X5X5X5X4XhXhX4X4XhXjXhXdXAXKXKXHXGXGXBXBXlXlXgXpXrXwXwX7XoXoX/.~.K.J.!.!.G.J.G.G.D.D.J.G.G.",
"@X$X@X^.U.7.Z O.U.T.O.8 q 7 7 1 O O 3 < > , 6 > O > < 5 e w h > @ > 1 < > > * % + & + + o X X X . o * 1 8 8 r w w e w 3 o & & $ 1 A F A P Q r w = @ X o @ 9 : * % o & o & o X & $ $ h z 8 9 * = $ * $ 9 9 k w 0 H H C X.K h = 4 9 1 w J O.X.1.] .. .V _ } +.O.+.@.| +.p.@.p.p.7.s.@.@.@.s.@.@.@.o.o.O.| .._ I P S c H j l l x x s 9 & = 9 9 = i = = 9 9 9 9 s s h H z z T x s s l ` T s x T E -._ _ +.@.@.I.I.k.} k.7.^.=X3X3X3XsXvXxXsX3X3X3XvX3X3X5X5X5XvX5X5X5X5XdX3XdXdX5XvXvXsXbX5X5X5XhX5X4X4XhX5XhXhXdXdXkXKXKXHXGXBXBXkXlXgXpXtXeX9XwX6XoX~.~.!.!.~.^.~.~.R.J.G.G.G.J.H.",
"@X=X:X^.T.7.Z _ U.T.U.I 5 r 7 < 2 O O 3 > > > > > > > < 5 5 5 > O * 3 3 2 > @ + + + $ + + o X o X @ $ > 1 < 8 F 8 3 4 $ $ * @ $ k { G F ,.X.A 1 s @ % o % g p & : & % & @ o o & * 8 H z 9 * * 9 9 4 * = 3 z 3 k -.E F  .G r 4 9 9 0 r I ,.0.O.O.] ..L } U | | +.@.@.@.@.p.@.p.p.p.@.p.k.s.s.@.@.+.| } ..} ^ I K H S c j H R s 9 i 9 : & = = 9 = : 9 : : 9 p x p 0 z ` X.X.` s g 9 x W x s x T E _ Z } p.k.I.p.} } p.U.>X;X>XxXxX3X3X3XxXxX>X>XdXdXdX5X3XvXvX5XvXvX5X5X5XdXdX5X3XvXdXvXdXvX5X5XhX4X4X4X4XhX4XvXvXfXkXGXKXKXGXGXBXcXlXpXpXwX7X6XoX6XoX^.!.~.!.~.~.OX~.!.G.J.H.J.J.",
"@X^.:X@X^.+._ C 7.U.U.7.7 7 q 5 3 > O $ 6 , O O O O O , 3 3 5 3 $ O O * > $ + + + o o + + @ + + @ + + # 1 1 > 8 z 8 @ * @ o @ 8 1.{ I I 7.3.H 9 = @ & o @ x 9 & 4 : + & & & @ 1 h k K h 1 # 9 s 0 9 * 1 k k H ;.e.[ ] ] r h 0 9 9 0 G X.X.n._ X._ .. .} } } | o...| @.@.@.@.s.k.k.k.p.p.k.p.k.@.@.+.o...}  .I J H z h H w H c 9 9 = = = 9 9 9 = : : & 9 : @ p s s h _ { 3.8.M g a f M ` c W E { { _ ..l.l.p.| } @.@./.;X#X:XxXxXxX2X3XvXxX1X1XdX3XdXdX3XvXvXdX3X3X5X2X5XhXdXhX5X1XsXdX5X5X2X5XdX4X5X5X5XdX5XdX5XdXaXjXAXKXKXGXCXlXlXlXlXeXwXwXoXoXoX~.~.!.~.~.~.~.~.~.!.G.J.J.!.",
"$X@X@X:XU.+._ 7 _ U.^.U.X.q q q , > $ + % 2 6 > O O O O > > > 5 1 + + + + % o o . . o o o o @ $ @ @ @ 1 = 1 9 O 0 h = @ . o # ` 9.X.7.X.7.1.s 9 @ o = @ : x & i : 9 + o = * = w A F [ w 9 = = 9 : = 1 w A k c E [ [ X.] 3 w h 0 8 w I O.X.3.G _ _ } }  .} _ } U } } +.o.| @.@.p.p.p.k.k.k.k.7.@.+.o...} }  .P G A k h k z k h s 9 8 s 8 9 9 = = @ ; = ` x & p 0 f 0 l [ X.1.;.0 s s c R %.W R %.` _ _ | p.| @.} Z } 9.3.O.k.U.=XxX3XvXvXxX:X:XvXdX5XdX5X5XdXdX5X5X5XdXdXdXdX5X5X1X5XvX5X5X5X5X5X2X5X5X5X5X2X5X5X4XdXaXjXGXHXKXGXGXGXkXlXpXtXwX7X6X6XoXoXoX~.^.~.~.^.~.!.J.J.J.!.",
":X:X&X&X^.7._ 7 8 O.T.T.9._ < q q < , O O X * 2 2 $ X O + O $ < 6 1 @ O + + % + o o o o o o o X + + + * # 9 9 @ + 1 s 9 @ * 8 1.O.9.9.3.9.{ 9 = o % % o : 9 @ & 9 a 1 @ 9 1 8 k J Q E h K h = $ * = 8 w H F H I Q 8.1.H 1 4 w k 8 C I I I X.I U U _ L U } | } | o.+.s.@.@.@.@.k.p.k.k.k.k.p.+.| o.| | ....+.] ] ] H k h k K K H z ` ` z 9 = = @ @ @ : ` c 9 s : & : 9 x [ 1.X.` s h l c R c h H K K V Z +.@.k.@.Z U O.x.k.7.O.U.:XxX3X:XvX:X1XdXdXvXvX3X3XdXdXvX5X5X5X5XdXfX5X4XvX5XdXsX5X3XdXvX5X5X1X5X5X1X2X1X4X4XdXdXdXMXKXKXHXGXBXkXlXgXtXwX7X6X/.oXoX~.~.~.~.~.~.~.!.J.J.^.",
":X$X:X&X^.U.O.Z 8 z 9.U.k.+.C 5 e 6 , > # + X + $ * 1 O $ O O $ 3 2 3 * = + O o + % % + o + o o + + $ & o : = o o o * 9 w 0 w 9._ r.X.1.1.w = & % : 9 @ : : o = s M x 1 0 0 0 F I ] k w c E K 0 w r z H J F k Q 1.1.-.3 * 4 5 A F H C G G X.I Z _ V Z ..o.+.+.+.@.@.+.p.p.s.p.s.k.k.s.k.p.+.+.O.+.+.k.n..X*XXX.X@X.X5._ F z F z z r z s 9 i = 9 = : 9 x x 9 g : & = f s h { { { c x a l R c h H _ F q 7 @.s._ _ U U U U _ } O.+.n.^.^.@X3XvX3X5XvXvXvX5XdX5XvX5X5X5X5X5XdXdX2X5X3X5XdX5X5X5X5X5XdXdXdX4XdX4X4X1X2X4X4X,XdXiXkXGXPXKXHXBXBXkXgXpXwX7XoX/.~.OX~.~.~.^.!.OXOX!.!.~.",
"@X$X$X$X=X^.n._ 8 < _ ^.U.X.Z 7 8 7 7 < < # # o X O + # # # $ O O O & 2 0 = + o X o o o o o o o o @ = @ o 9 @ o o o o o 9 0 z X.z { H ] H 9 : & & 9 : = 9 : = 9 h 9 c 9 z 0 3 K _ H 8 8 = 8 0 0 s s w w 0 0 k { { -.H 1 $ = r H w r 0 z C _ I _ L Z U +.+.+.o.....U | +.@.@.p.p.s.k.s.s.@.+.+.k.U.#X*XxXxXsXxXfXxX3X2X=XH.F.H.F.X.T z 8 : : = g N 9 9 x 9 9 p : : : p s g z { { T c 0 h T H h T [ H r e S K q e A S Q P P X.I G Y 2.-XxXxX3X3X3X3XdXvXvX3XvXvXvX3XvXvXdX5XdXdX5XdXsXvX5X5XdXvX5X5X5XvX5X5XvX5X5X5X5X5XvXvX5X4X4XAXKXKXGXGXBXlXlXpXwX6XoXoX/.oX~.oX/././.~.~.~.^.",
":X#X:X&XXX^.U.O.r # 8 { 9.7._ I 7 < 8 8 8 < # @ + X X X + @ $ @ + O X O @ 1 1 * @ + o o o @ o o o - @ o @ @ o o @ o % % = 8 L ` e e F K 9 * 9 @ @ & % @ ; @ @ 0 w 1 ` 0 h 3 r { ] 8 8 = $ & @ $ $ $ 1 = 3 k H { K Q z 0 1 1 F K 8 = 9 r r L U _ U } } } .. .} U U } o.@.@.@.} o.@.@.@.@.@.n.!.;XdXxXrXxXxXaXfXdXaXrX2XsXrX=X1X3X:X:X@X5.9 s s : : 9 9 9 : : 9 9 9 : 9 : s c [ I E c 0 l T T j R [ Q J A w w k K A k A S A X.1.] G O.U.sXxXsX3XsXvXdXdXvXvXdXdXvX2XdXdXvX5XdXdX5XvXsX5X1XvX5X5XvXdX3X5X5XvX5X3X5X5XvXdX5XvX5XbXdXaXmXHXKXHXGXGXkXkXpXwX6X6XoXoXoX6XoXoXoXoXoXoX/.",
"$X=X$X&X^.T.U.7._ 7 # r _ _ _ I K 7 < < < < # # + + X O X X O + + + + o X O O * 1 : : @ @ @ o @ & o o . o o X X @ @ o o # w K C e q r w + @ = @ @ ; o @ % o @ s 9 8 ` z 1 8 { X.{ 8 9 = * @ @ @ @ $ 0 h k K ] ` E [ c k k w F _ 8 & = 0 8 Z _ Z Z L U Z U L Z U } +.@.@.+.U U +.@.p.k.U.[.>XsXxXfXdXdXvXdXdXxXxX2X2XsXaXaX-X-X2XsX3X3Xr.h = 4 9 9 0 s 9 = 9 9 i : = : s p s ` K K H h h c E c K K I J A A A G S j H J [ H [ { ..I L 2.#XdXdX1XdXvXdX3XvXvXvX3X3X5X5X5XdXdXhX5X5XdXdX3X1XvXvX3X5X5X5X5X5XvXvX1X2X5XdX5X5XhXdXhXdXhX4XfXAXKXGXGXBXBXgXrXwX6XoXoX6XoX6XoXoXoXoXoX/.",
"@X^.^.$X^.^.U.z.7._ 8 # _ 9._ _ _ 7 7 8 < < # # O O + @ O @ @ @ + + + + + + + + + O @ @ & = * $ @ o @ o @ = o o @ @ @ = 9 k F r r q F 9 @ @ = 9 o ; & & @ o @ s = 9 c z 1 K { _ T 9 = * @ * * $ * = w H H F H H =.H w A { C F X.h = = h F I Z V V Z U U U U U } O.+.+...L U 4.k.U.^.:XrXsXrXsXsXfXfXhXfXaXaXfXsXaXsXfXaXaXaX&X-XxX3XdX^.{ h s z z h s 9 p i 9 9 = = & 9 g s F { Q J h h l T H z k A z A J K k z k P ] O.1.Q A X.X.L } U.xXfX2XdXdXdXvX3XdXvXdX5X5X5XdXdXvXxXvXvX5XdX5X3X3XvXvX5X5XvX5X2X5X5X3X3XvX5XhX5X5XvXdX5XdXhX,XhXGXGXGXAXBXkXgXeXwXwX6XoX6XoX6XoX6X6XoXoX",
"@X$X=X=X:X%X^.U.7.+._ 8 8 _ 7.+.+.Z 7 7 3 < < > @ X @ + + @ @ @ @ @ @ @ + + + + + o + + @ + o o o o o @ @ @ o @ @ @ @ * 1 z e r w e w $ & o & 9 & @ : & & @ & 9 * s 0 z w ` I [ 0 = $ @ * = * = 2 w w J k k k 5 0 h w F O.C K { = = * A _ +. .} U U } U U U U Y _ _ U L L H.#X#XrXfXaXaX3XsXsXsXfX2XsXsXsXdXfXfXaXsX2X;X2X;XXX;X-X:X>X>XT.{ F r r r h 8 s s s 9 9 9 9 s s l H ] X.P j h l H H k A H k J K k 6 h G ....2.6.{ J H X.I } k.sX3X3XsXvXvXvXvXdX5X3XdX5X2X5X5X5XvXdX5XdX5XdX5XvXsXvXvXvX5XvX3X5X5X3X1XhX5XhXhXdX5XdXdX5XhXhXfXfXAXGXGXAXkXlXlXpXwX6X6XoXoXoX6XoX6XoXoX",
"$X^.:X:X^.%X&X@XU.7.+._ # 1 Z ..7.+.r 8 < < < # # + X X + X X @ + + + $ & $ & + @ @ + + o o + $ & @ + X X X @ 1 & @ @ * w r 8 e w e 8 @ & @ o : & = : & * = = = = 0 8 H F G G H = = * $ $ * = 8 4 3 w F e w h w 3 w k G  .I X.] = = * A } 7.G.3.I } ..} } U ^  .} } _ I n.>XsX2X3XsXfXaX:X>XaXaX2XrXaXfXaX2XfXaXaX2X;X*X2XaX=X-X-X>X>XU.,.{ { 3._ _ F r s s s s s g g s s h H ] ] Q A h l c H c H z k F h u a h K ..| O.,.Q R e I  ._ p.#XxXsXsXvXvX3X3X3X3X3X3X2X5X1X5X5X2X5X5X5X4XsXdX5XvX5X5X5XvX5X5X5XdX1X3X5X5X5X5X4XhXdX5X5XhXhXhXaX4XMXGXGXGXBXkXkXgXpXwX7X6XoX6X6XoX7X6X",
"@X&X$X$X@X^.:X$X#XT.7._ K 7 # 8 _ O.X.7 < < 3 > # + X o @ @ o X o + + + + + + + X + + + = 9 s 4 + o o o X $ z = & * * $ r w 3 w w 8 = & & o @ @ @ ; = % & * * * $ 0 0 J F F z 1 * = = @ @ # # 8 e k A H j w 6 H r w r K } } ..H = = 9 C } O.9._ ] 7.x.} } +.2.O.O.1.4.^.sXsXsX3X2XfXsXaXsX3XxXfXsXfXfXsXsXsXfX2X-X;XaX2XiXhX2X>X3X:XrX=X.X@X&X#XU.O.7.U.1.z x s 0 g s s s z K I ! I S h l k h k h h l h 9 9 a j J J / X.P R k J K X._ @./.-XdXsXvX3XdX3X1X3X3X3X5X5X5X5X5X5X5XvX5X2XdXdX5XvXvXvXvXvXvX5XvXvX5XdXhX4XdXhX5XvXvX5XdXbXhXbXjXnXaXjXGXGXGXkXkXlXpXeXeXwX7XwX6XwX9X6X",
"$X&X$X:X$X=X=X&X:X#X^.n.O._ r < < 8 Z r < < < 3 # # @ X o = @ X o o + X . o X X o o @ = 9 = * & @ o @ o # s s = & = $ 3 k 8 8 k w 9 = & = & - * @ : = = = @ = * * 8 r H G z 9 $ * = = 8 1 8 w r F F k e k w e H H w r ] _ } ] h 9 1 8 L U _ F.@X=XT.G.O..X#XoXXX#X-XwX3XfXsXrXsXdXxXdX2XaXrXsXfXaXsXdXfXfXfXaXaXaXaX2X2XaXfXaXaX3XrX>X3XsX>XaXaX[.U.^.rX=XU.7.{ k 9 9 s z z K I I Q H j h l l z c c s 0 f a f h h w I P J F C { _ _ _ k.!.#XdXbXvXvXvX3XvX1XdXdXdXdX5X5XdXdX5XvX5X5XdXvX3XvX5XvXbX5X5X5XdX5XvXvX5X5XhXdXvXhXvXdX4XhXhXjXhXhXhX2XiXkXGXBXBXkXgXtXpXeXwXeXwX6XwX#X",
"$X:X&X:X:X&X@X$X:X&X@X@X^.7.} L 7 < # # # < 8 # 1 = @ @ + @ 9 o X X . . . X X o o @ @ o o o o @ @ o X @ 9 9 9 & $ = = e w 1 3 k 3 4 * * - * * 1 1 * * = = @ = # 9 w r K F 8 * * = 1 8 r k w w h 0 8 0 0 h r 8 r r w k K ]  .I = * 9 8 O.} 2.*X3X>X^.7.U.fXfX;XaX2X3XsXaX2XaX;XaXaXaX2X,X>X2XaXaX2XaXaXfXsXsXaXaXaX2XaXaXsXfXsXaX2X;XaX2XaXaXfXfXdX:XU.^.;XtX#XU.7.` r h z z H K P Q A j j j c c M l f p u p 4 4 5 S Q j k k G  .I P Y T.^.^.rXxX3XxX3XxXvX3XvXvX5XdXdX5XvXvXdXhXvX5X5X3X5XvX5X5XvXvX5XvXvX5X2X5X5XhXdX5XdX5XdX5X5XhXhXhXdXbXbXbXaX2XfXkXkXMXgXgXpXwXwXwX6X#X6XoX",
"^.:X:X:X=X=X&X=X=X=X:X>X>X&XT.n.O._ 7 8 1 # # # # # @ @ + @ * = o   . . o o @ @ o o o o o o X o o o @ = = * * @ = # 0 r 8 # w w 1 4 * * : 9 * 1 0 @ * = = = = 1 e r r z 8 $ * $ = = 0 e w 8 8 = * # 1 3 w 8 r r 8 8 A G ]  .A @ @ 1 Z 7...n.>XrXaX#X2.#XaXaX1XaXsX3XfXfX2X2X-XaXsXaXrX>X2X2XaXaX-XaXaXaXaXaXaXaX2XaXaXaX>XfXfXsX>X;XaXfXaX2X2XsX3XsX^.U.n.U.^.^.U.X.F r z H F K P P A H l l M R W l p 4 ; 1 3 k J X.A H k e I ] G I  ..X;XU.#X3XxX3X3X3X3X3X3X3X5X5XhX5XdXdXdXdX5X3XvXvX5X5XvX5X5X5XvX5X5X3X5XvX5XdX5X5X5XvXdX5X4XhXhXnXvXnXnXhXjXfX,X,XfXiXfXaXaXaX;XwX,XwX;X*X",
"@X$X:X=X$X$X=X=X=X@X=X-X=X:X=X&XT.U.+.K 7 8 1 # # # @ @ @ @ @ = = @ o o o o o o o o X o o o . o o @ 9 = $ @ @ $ $ 1 k r 1 1 k 0 * l h 0 1 1 0 8 h = = 1 8 0 r r z r z 8 8 & = * $ 9 8 1 0 9 9 = & $ 1 0 8 8 r z 8 w H F ]  .0 @ : 8 ] k.O.^.sX3X>X^.m.#XaXaX;XaXfXsXaXaXaXfXaXfXfXaX>XaXfXfXaXfXfXfXaXaXfXaXaXaXiX>X>X;X>XsXsXdXaXaXfXaXaX2X2XdXdXxX:Xn.O.+.7.7.} Z Z z z H H G J L Q c l j l M c l h w k k I X.X.J 0 k e I U G A Q _ S.>XU.T.xXsXxXxX3X3XvXdX3X5X5XdXsXdX5X2XxXdX5XvXvXvX5XvX5X5X5X5X5X3X3XvXvXdX5X5XvXvX5X5X5XhX4XhXhXbXbXbXhXdXhXhX4XjXfXjXfXfXfXhXaXfXjXfXfX",
"@X@X&X&X$X^.$X&X$X.X@X&X$X$X@X-X#XU.7.O.Z r 7 8 8 1 @ @ & = & * & @ @ & o o o o o o o & o o o o @ 9 9 @ @ @ @ @ # w r 8 < w k 1 1 a H k c h k k q z 8 8 r 0 r r C k 3 # 9 & = = 8 l s 0 0 0 8 $ & = 4 8 8 8 z 8 0 r K r I { 8 & 1 r 9.k.k.*X2X2X@XU.#X^.;XaX2X>XaXsXdXfXaX;X1XaXaXsXaXaX2XsX2XfXdXfXaXaXaXaXaXaX2X2XsXaXaXfXfXfXiX-XaXaXaXaX2X5X3X3XsX^.X.O.U.^.n.+._ K H K K I S A F u h R M h h j K ] X.,.X.! A u j H J I F C G _ _ K X.n.F.dXxXsXdXxXdX3X3X3X5X5X5X5X5X2X5XdXvX5X5XvX5X5X5XvXvXvX5X5X5X5X1X5XvX5XdXdXdXvX5XvX5XhXhXhXbXbXbXdXdXdXhXdXaXdXhXnXhXhXhXbXhXhXhXmX",
"@X=X:X:X=X#X:X:X>X&X&X;X=X;X^.^.:X#XU.7.I 7 7 r 8 # 1 @ o @ @ X o @ @ @ @ @ & : & o @ & = * @ * $ @ @ @ @ @ o # 3 k k 3 2 w h < * 4 R k 0 w r H K F r F F z r C z 8 $ # = @ * = 0 z h 9 4 4 * * @ $ * = 8 K q 8 3 k H w ] H $ 4 9 K n...U.wX3X=X.X#X;X^.>XsXaX;XaX;XaXaXaX-X;XaXaXaXaXaXaXsXaX2XfXhXaXfXdXaXfXaXaXaXfX2XaXhXfXfX2X>XaXhXsXaX-XrX3XsX3X3X@Xn.X.7.n.O._ H G 9.7.G A k h a a c R c l j A P ,.-.k w h k k Q ! A F I J I I 1.1.] { .XxXxXsXxXxXdXvXdX3X5X3X3X3XvX3XsX5X5X5X5X5X1XvX5X5X5XdX5X5XdXvXvX5X5XvXdX5XvX5X5X4X5XhXhX4XjXjXhXhX4X4XdXhXdXhXbXbXbXdXbXjXjXhXbX",
"@X=X=X:X:X$X=X=X&X&X&X=X&X&X-X.X^.:X&XU.O.C 7 8 7 < # # + + o @ o = = = = @ @ @ & @ & @ & & * = & $ @ & & + # 3 r H 5 1 2 k e a w 1 k E h 5 8 e r F F F C r r z 8 = * = * & = = 9 s 1 9 0 # = 1 1 * @ = r Z F < 1 k r w H 0 $ 0 3 G +...!.-X-X.X=X2X>X.X-XrXaX;X2XaXaX;X2XaX2XiX2X2XaX2X>X2X;X;XaXaX2XaXaXfXaXaX;X;XaX2X2XfXaX>XaX>XaXaXfXsXaX>X>X>X:X:X3X:X^.9.X.L r ] 9.@XU.] J h 0 a h l h s a h k A J S H S J R S S C A  ...L Y } 1.Y.9.k 3.:XxXdXxX3XxX3X3X3X5XvX5X3XxX5X5X5X5X5XvXvX1X5X5X5X5X5X5XvX5XdXvX5X5X5X5X5XvX3X5X5X5XhXhXhXhXhXhXhXdXdXdXhXhXbXhXnXnXbXhXbXbXjXhX",
"@X&X@X&X#X@X&X=X&X&X@X-X=X-X-X=X@X^.Y.n._ Z r Z X._ q < # = @ o @ @ @ = 9 = @ @ @ @ @ @ & * # # = * * * * 3 r r J k 3 3 w w 1 2 0 1 3 R z 6 3 3 8 r r r r F z 8 9 1 = 1 8 = = 9 = w z k c H q I 1.F < 1 r Z F 8 < k k h 0 = * 0 q _ } O.^.@X^.=X>X>XsX*X>XsXaX2XaXaXaX2XaXaX;X;X*X2XaX-X;X;XaX2XaXaXaX2XaXaXaXaXaX;XaX2XaXaX2X2XaX1X>XaXdX>X:X$X$X=X:X3X:X:XxX:Xk._ 3.^.aXxX&Xx.,.c h h l c j H S J I Y ..! P R E J A A S _ o.Y G ^ m.T.3.9.{ G T.3X3XdX3X3X3XvXdX5X3X3X5X3X3X3X5X5X5X3X5XvX5XvX5X5X3X5XvX5X5XvX5X5X5X5X5X5XdX5XhXhX4XhX4XnXhX4XhX4X4XhXdXhXbXbXhXjXbXhXbXvXmXhX",
"=X$X&X@X=X=X$X=X-X&X&X=X=X=X&X&X$X=X@XU.O.Z C r _ 7._ 8 7 w w = o @ @ = 9 1 $ & & & $ * = = = = = * $ # w G S A A w 3 w H j 3 1 # 1 3 h H j 0 w w r r k z F 8 1 h 9 ` w 0 3 = 1 9 8 h z z ] I G _ _ C q r q q 8 0 w w a * * 9 w r O.} +.#X>XrX2X;X;XaX>X2X>XaX>X2X-X2XaX;X,X2XaX;X2X2X2XiX2X2X;X2X2XaXaXfXaX2XaX2X;XfXaX2XfXaX;X1X-X;XrX>X:X-X=X$XT.T.^. X^.U.7.1.!.;XxXxXfXaXXX3.h l h H H k I ....O.X.! S H S S S S U ^ o.k.J L 2.k.XX$X9.1.Q 7.=X:XsXxX3XdXdX5X5X3X2X5X3X3X5XdXvX5X5X2X5XdX5XvXvXvX5XvX5X3XvX5X5X3X5X5X3X5X5X1XhXhXhX4XhXhXhX4X4XhXhXhXhXjXbXvXhXfXmXvXhXhXmX",
"@X@X&X&X@X@X.X@X@X X.XXX$X$X&X$X@X-X-X.Xv.U I O.V L } S e w e e 9 # O O w 8 O X   . O O $ # O > < 3 3 6 V V A A 6 3 6 6 k a 3 4 0 0 k w h e k 5 5 5 h k 3 3 @ 1 0 3 A r e 5 0 1 + * 1 1 3 H P F C V L e 5 3 3 8 0 3 h 1 $ # 3 5 C 2.4.n.wXaXaX2X;X>X2XaXaX>XsXaXaXaXaX;XiX2X;XaXfX2X>X2X;X2X2X2X2XaXaX-X;X,XaXaXaX;XfX2X>XfXfXaX,X2X;XaXaXaXfXdXsX*X^.9.6.1.1.F.=X2XfXaXdXfXdXdXF.T ' w.r.R l A L Y U J e 5 3 6 V  .| } ^ +.k.L Y m.oX=XXXH.2...X.2XdX5X5XvXvX5X5X5XvXsXvXvX3XdX5X5X5X5X3X1X1X5X5X5XvX5X5X5X5X5X1X3X1XvX5X5X5X3X3X1X5XbX5XhXhXhX5X4X4XhXhXhXhXhXhXhXdXhXbXnXhXhX",
"AXnXZXZXZXAXAXZXAXDXAXSXAXSXDXSXZXSXDXAXvX+X,XnX+X.X+XXXXX.X.X X X X|.|. X X|.|.|.Y.|.|.Y.|.|. X.X X.X+X X X.X|.|.|.|.|.+X X X+X X X+X X X|. X|.|.|. X|.|.|.|.|.|.|. X+X+X|. X|.|.|.|.|.|.|.|.+X+X%X$X.X|.|.|.|.|.|. X|.|.|. X|.+XfXhXmXDXFXFXFXJXJXJXFXJXJXKXFXJXJXJXDXFXFXSXJXJXFXDXFXDXDXJXJXJXDXJXDXSXDXJXJXDXDXFXFXFXJXJXJXJXDXJXJXJXJXJXJXJXLXLXJXDXAXSXDXJXFXJXJXFXJXJXJXSXAXDXJXSX%X|. X.X+X X|.|.|. X+X;X2XiX*X&X$X+X+X@XhXDXJXJXnX,X+X&XFXJXFXFXFXLXFXFXLXFXFXJXJXFXJXJXFXFXFXFXFXFXFXFXFXFXJXFXFXJXFXDXFXFXJXFXFXJXFXFXFXJXJXFXJXFXFXFXFXJXFXJXJXJXJXJXJXJXJXFXLXLXJX",
"UXUXUXUXUXUXUXUXUXUXUXUXUXUXUXUXUXUXUXUXUXUXUXUXUXUXUXUXUXUXUXUXUXUXUXUXUXUXUXUXUXUXUXUXUXUXUXUXUXUXUXUXUXUXUXUXUXUXUXUXUXUXUXUXUXUXUXUXUXUXUXUXUXUXUXUXUXUXUXUXUXUXUXUXUXUXUXUXUXUXUXUXUXUXUXUXUXUXUXUXUXUXUXUXUXUXUXUXUXUXUXUXUXUXUXUXUXUXUXUXUXUXUXUXUXUXUXUXUXUXUXUXUXUXUXUXUXUXUXUXUXUXUXUXUXUXUXUXUXUXUXUXUXUXUXUXUXUXUXUXUXUXUXUXUXUXUXUXUXUXUXUXUXUXUXUXUXUXUXUXUXUXUXUXUXUXUXUXUXUXUXUXUXUXUXUXUXUXUXUXUXUXUXUXUXUXUXUXUXUXUXUXUXUXUXUXUXUXUXUXUXUXUXUXUXUXUXUXUXUXUXUXUXUXUXUXUXUXUXUXUXUXUXUXUXUXUXUXUXUXUXUXUXUXUXUXUXUXUXUXUXUXUXUXUXUXUXUXUXUXUXUXUXUXUXUXUXUXUXUX",
"UXUXUXUXUXUXUXUXUXUXUXUXUXUXUXUXUXUXUXUXUXUXUXUXUXUXUXUXUXUXUXUXUXUXUXUXUXUXUXUXUXUXUXUXUXUXUXUXUXUXUXUXUXUXUXUXUXUXUXUXUXUXUXUXUXUXUXUXUXUXUXUXUXUXUXUXUXUXUXUXUXUXUXUXUXUXUXUXUXUXUXUXUXUXUXUXUXUXUXUXUXUXUXUXUXUXUXUXUXUXUXUXUXUXUXUXUXUXUXUXUXUXUXUXUXUXUXUXUXUXUXUXUXUXUXUXUXUXUXUXUXUXUXUXUXUXUXUXUXUXUXUXUXUXUXUXUXUXUXUXUXUXUXUXUXUXUXUXUXUXUXUXUXUXUXUXUXUXUXUXUXUXUXUXUXUXUXUXUXUXUXUXUXUXUXUXUXUXUXUXUXUXUXUXUXUXUXUXUXUXUXUXUXUXUXUXUXUXUXUXUXUXUXUXUXUXUXUXUXUXUXUXUXUXUXUXUXUXUXUXUXUXUXUXUXUXUXUXUXUXUXUXUXUXUXUXUXUXUXUXUXUXUXUXUXUXUXUXUXUXUXUXUXUXUXUXUXUXUXUX",
"UXUXUXUXUXUXUXUXUXUXUXUXUXUXUXUXUXUXUXUXUXUXUXUXUXUXUXUXUXUXUXUXUXUXUXUXUXUXUXUXUXUXUXUXUXUXUXUXUXUXUXUXUXUXUXUXUXUXUXUXUXUXUXUXUXUXUXUXUXUXUXUXUXUXUXUXUXUXUXUXUXUXUXUXUXUXUXUXUXUXUXUXUXUXUXUXUXUXUXUXUXUXUXUXUXUXUXUXUXUXUXUXUXUXUXUXUXUXUXUXUXUXUXUXUXUXUXUXUXUXUXUXUXUXUXUXUXUXUXUXUXUXUXUXUXUXUXUXUXUXUXUXUXUXUXUXUXUXUXUXUXUXUXUXUXUXUXUXUXUXUXUXUXUXUXUXUXUXUXUXUXUXUXUXUXUXUXUXUXUXUXUXUXUXUXUXUXUXUXUXUXUXUXUXUXUXUXUXUXUXUXUXUXUXUXUXUXUXUXUXUXUXUXUXUXUXUXUXUXUXUXUXUXUXUXUXUXUXUXUXUXUXUXUXUXUXUXUXUXUXUXUXUXUXUXUXUXUXUXUXUXUXUXUXUXUXUXUXUXUXUXUXUXUXUXUXUXUXUXUX",
"UXUXUXUXUXUXUXUXUXUXUXUXUXUXUXUXUXUXUXUXUXUXUXUXUXUXUXUXUXUXUXUXUXUXUXUXUXUXUXUXUXUXUXUXUXUXUXUXUXUXUXUXUXUXUXUXUXUXUXUXUXUXUXUXUXUXUXUXUXUXUXUXUXUXUXUXUXUXUXUXUXUXUXUXUXUXUXUXUXUXUXUXUXUXUXUXUXUXUXUXUXUXUXUXUXUXUXUXUXUXUXUXUXUXUXUXUXUXUXUXUXUXUXUXUXUXUXUXUXUXUXUXUXUXUXUXUXUXUXUXUXUXUXUXUXUXUXUXUXUXUXUXUXUXUXUXUXUXUXUXUXUXUXUXUXUXUXUXUXUXUXUXUXUXUXUXUXUXUXUXUXUXUXUXUXUXUXUXUXUXUXUXUXUXUXUXUXUXUXUXUXUXUXUXUXUXUXUXUXUXUXUXUXUXUXUXUXUXUXUXUXUXUXUXUXUXUXUXUXUXUXUXUXUXUXUXUXUXUXUXUXUXUXUXUXUXUXUXUXUXUXUXUXUXUXUXUXUXUXUXUXUXUXUXUXUXUXUXUXUXUXUXUXUXUXUXUXUXUXUX",
"UXUXUXUXUXUXUXUXUXUXUXUXUXUXUXUXUXUXUXUXUXUXUXUXUXUXUXUXUXUXUXUXUXUXUXUXUXUXUXUXUXUXUXUXUXUXUXUXUXUXUXUXUXUXUXUXUXUXUXUXUXUXUXUXUXUXUXUXUXUXUXUXUXUXUXUXUXUXUXUXUXUXUXUXUXUXUXUXUXUXUXUXUXUXUXUXUXUXUXUXUXUXUXUXUXUXUXUXUXUXUXUXUXUXUXUXUXUXUXUXUXUXUXUXUXUXUXUXUXUXUXUXUXUXUXUXUXUXUXUXUXUXUXUXUXUXUXUXUXUXUXUXUXUXUXUXUXUXUXUXUXUXUXUXUXUXUXUXUXUXUXUXUXUXUXUXUXUXUXUXUXUXUXUXUXUXUXUXUXUXUXUXUXUXUXUXUXUXUXUXUXUXUXUXUXUXUXUXUXUXUXUXUXUXUXUXUXUXUXUXUXUXUXUXUXUXUXUXUXUXUXUXUXUXUXUXUXUXUXUXUXUXUXUXUXUXUXUXUXUXUXUXUXUXUXUXUXUXUXUXUXUXUXUXUXUXUXUXUXUXUXUXUXUXUXUXUXUXUXUX",
"UXUXUXUXUXUXUXUXUXUXUXUXUXUXUXUXUXUXUXUXUXUXUXUXUXUXUXUXUXUXUXUXUXUXUXUXUXUXUXUXUXUXUXUXUXUXUXUXUXUXUXUXUXUXUXUXUXUXUXUXUXUXUXUXUXUXUXUXUXUXUXUXUXUXUXUXUXUXUXUXUXUXUXUXUXUXUXUXUXUXUXUXUXUXUXUXUXUXUXUXUXUXUXUXUXUXUXUXUXUXUXUXUXUXUXUXUXUXUXUXUXUXUXUXUXUXUXUXUXUXUXUXUXUXUXUXUXUXUXUXUXUXUXUXUXUXUXUXUXUXUXUXUXUXUXUXUXUXUXUXUXUXUXUXUXUXUXUXUXUXUXUXUXUXUXUXUXUXUXUXUXUXUXUXUXUXUXUXUXUXUXUXUXUXUXUXUXUXUXUXUXUXUXUXUXUXUXUXUXUXUXUXUXUXUXUXUXUXUXUXUXUXUXUXUXUXUXUXUXUXUXUXUXUXUXUXUXUXUXUXUXUXUXUXUXUXUXUXUXUXUXUXUXUXUXUXUXUXUXUXUXUXUXUXUXUXUXUXUXUXUXUXUXUXUXUXUXUXUXUX",
"UXUXUXUXUXUXUXUXUXUXUXUXUXUXUXUXUXUXUXUXUXUXUXUXUXUXUXUXUXUXUXUXUXUXUXUXUXUXUXUXUXUXUXUXUXUXUXUXUXUXUXUXUXUXUXUXUXUXUXUXUXUXUXUXUXUXUXUXUXUXUXUXUXUXUXUXUXUXUXUXUXUXUXUXUXUXUXUXUXUXUXUXUXUXUXUXUXUXUXUXUXUXUXUXUXUXUXUXUXUXUXUXUXUXUXUXUXUXUXUXUXUXUXUXUXUXUXUXUXUXUXUXUXUXUXUXUXUXUXUXUXUXUXUXUXUXUXUXUXUXUXUXUXUXUXUXUXUXUXUXUXUXUXUXUXUXUXUXUXUXUXUXUXUXUXUXUXUXUXUXUXUXUXUXUXUXUXUXUXUXUXUXUXUXUXUXUXUXUXUXUXUXUXUXUXUXUXUXUXUXUXUXUXUXUXUXUXUXUXUXUXUXUXUXUXUXUXUXUXUXUXUXUXUXUXUXUXUXUXUXUXUXUXUXUXUXUXUXUXUXUXUXUXUXUXUXUXUXUXUXUXUXUXUXUXUXUXUXUXUXUXUXUXUXUXUXUXUXUXUX",
"UXUXUXUXUXUXUXUXUXUXUXUXUXUXUXUXUXUXUXUXUXUXUXUXUXUXUXUXUXUXUXUXUXUXUXUXUXUXUXUXUXUXUXUXUXUXUXUXUXUXUXUXUXUXUXUXUXUXUXUXUXUXUXUXUXUXUXUXUXUXUXUXUXUXUXUXUXUXUXUXUXUXUXUXUXUXUXUXUXUXUXUXUXUXUXUXUXUXUXUXUXUXUXUXUXUXUXUXUXUXUXUXUXUXUXUXUXUXUXUXUXUXUXUXUXUXUXUXUXUXUXUXUXUXUXUXUXUXUXUXUXUXUXUXUXUXUXUXUXUXUXUXUXUXUXUXUXUXUXUXUXUXUXUXUXUXUXUXUXUXUXUXUXUXUXUXUXUXUXUXUXUXUXUXUXUXUXUXUXUXUXUXUXUXUXUXUXUXUXUXUXUXUXUXUXUXUXUXUXUXUXUXUXUXUXUXUXUXUXUXUXUXUXUXUXUXUXUXUXUXUXUXUXUXUXUXUXUXUXUXUXUXUXUXUXUXUXUXUXUXUXUXUXUXUXUXUXUXUXUXUXUXUXUXUXUXUXUXUXUXUXUXUXUXUXUXUXUXUXUX",
"UXUXUXUXUXUXUXUXUXUXUXUXUXUXUXUXUXUXUXUXUXUXUXUXUXUXUXUXUXUXUXUXUXUXUXUXUXUXUXUXUXUXUXUXUXUXUXUXUXUXUXUXUXUXUXUXUXUXUXUXUXUXUXUXUXUXUXUXUXUXUXUXUXUXUXUXUXUXUXUXUXUXUXUXUXUXUXUXUXUXUXUXUXUXUXUXUXUXUXUXUXUXUXUXUXUXUXUXUXUXUXUXUXUXUXUXUXUXUXUXUXUXUXUXUXUXUXUXUXUXUXUXUXUXUXUXUXUXUXUXUXUXUXUXUXUXUXUXUXUXUXUXUXUXUXUXUXUXUXUXUXUXUXUXUXUXUXUXUXUXUXUXUXUXUXUXUXUXUXUXUXUXUXUXUXUXUXUXUXUXUXUXUXUXUXUXUXUXUXUXUXUXUXUXUXUXUXUXUXUXUXUXUXUXUXUXUXUXUXUXUXUXUXUXUXUXUXUXUXUXUXUXUXUXUXUXUXUXUXUXUXUXUXUXUXUXUXUXUXUXUXUXUXUXUXUXUXUXUXUXUXUXUXUXUXUXUXUXUXUXUXUXUXUXUXUXUXUXUXUX",
"UXUXUXUXUXUXUXUXUXUXUXUXUXUXUXUXUXUXUXUXUXUXUXUXUXUXUXUXUXUXUXUXUXUXUXUXUXUXUXUXUXUXUXUXUXUXUXUXUXUXUXUXUXUXUXUXUXUXUXUXUXUXUXUXUXUXUXUXUXUXUXUXUXUXUXUXUXUXUXUXUXUXUXUXUXUXUXUXUXUXUXUXUXUXUXUXUXUXUXUXUXUXUXUXUXUXUXUXUXUXUXUXUXUXUXUXUXUXUXUXUXUXUXUXUXUXUXUXUXUXUXUXUXUXUXUXUXUXUXUXUXUXUXUXUXUXUXUXUXUXUXUXUXUXUXUXUXUXUXUXUXUXUXUXUXUXUXUXUXUXUXUXUXUXUXUXUXUXUXUXUXUXUXUXUXUXUXUXUXUXUXUXUXUXUXUXUXUXUXUXUXUXUXUXUXUXUXUXUXUXUXUXUXUXUXUXUXUXUXUXUXUXUXUXUXUXUXUXUXUXUXUXUXUXUXUXUXUXUXUXUXUXUXUXUXUXUXUXUXUXUXUXUXUXUXUXUXUXUXUXUXUXUXUXUXUXUXUXUXUXUXUXUXUXUXUXUXUXUXUX",
"UXUXUXUXUXUXUXUXUXUXUXUXUXUXUXUXUXUXUXUXUXUXUXUXUXUXUXUXUXUXUXUXUXUXUXUXUXUXUXUXUXUXUXUXUXUXUXUXUXUXUXUXUXUXUXUXUXUXUXUXUXUXUXUXUXUXUXUXUXUXUXUXUXUXUXUXUXUXUXUXUXUXUXUXUXUXUXUXUXUXUXUXUXUXUXUXUXUXUXUXUXUXUXUXUXUXUXUXUXUXUXUXUXUXUXUXUXUXUXUXUXUXUXUXUXUXUXUXUXUXUXUXUXUXUXUXUXUXUXUXUXUXUXUXUXUXUXUXUXUXUXUXUXUXUXUXUXUXUXUXUXUXUXUXUXUXUXUXUXUXUXUXUXUXUXUXUXUXUXUXUXUXUXUXUXUXUXUXUXUXUXUXUXUXUXUXUXUXUXUXUXUXUXUXUXUXUXUXUXUXUXUXUXUXUXUXUXUXUXUXUXUXUXUXUXUXUXUXUXUXUXUXUXUXUXUXUXUXUXUXUXUXUXUXUXUXUXUXUXUXUXUXUXUXUXUXUXUXUXUXUXUXUXUXUXUXUXUXUXUXUXUXUXUXUXUXUXUXUXUX",
"UXUXUXUXUXUXUXUXUXUXUXUXUXUXUXUXUXUXUXUXUXUXUXUXUXUXUXUXUXUXUXUXUXUXUXUXUXUXUXUXUXUXUXUXUXUXUXUXUXUXUXUXUXUXUXUXUXUXUXUXUXUXUXUXUXUXUXUXUXUXUXUXUXUXUXUXUXUXUXUXUXUXUXUXUXUXUXUXUXUXUXUXUXUXUXUXUXUXUXUXUXUXUXUXUXUXUXUXUXUXUXUXUXUXUXUXUXUXUXUXUXUXUXUXUXUXUXUXUXUXUXUXUXUXUXUXUXUXUXUXUXUXUXUXUXUXUXUXUXUXUXUXUXUXUXUXUXUXUXUXUXUXUXUXUXUXUXUXUXUXUXUXUXUXUXUXUXUXUXUXUXUXUXUXUXUXUXUXUXUXUXUXUXUXUXUXUXUXUXUXUXUXUXUXUXUXUXUXUXUXUXUXUXUXUXUXUXUXUXUXUXUXUXUXUXUXUXUXUXUXUXUXUXUXUXUXUXUXUXUXUXUXUXUXUXUXUXUXUXUXUXUXUXUXUXUXUXUXUXUXUXUXUXUXUXUXUXUXUXUXUXUXUXUXUXUXUXUXUXUX",
"UXUXUXUXUXUXUXUXUXUXUXUXUXUXUXUXUXUXUXUXUXUXUXUXUXUXUXUXUXUXUXUXUXUXUXUXUXUXUXUXUXUXUXUXUXUXUXUXUXUXUXUXUXUXUXUXUXUXUXUXUXUXUXUXUXUXUXUXUXUXUXUXUXUXUXUXUXUXUXUXUXUXUXUXUXUXUXUXUXUXUXUXUXUXUXUXUXUXUXUXUXUXUXUXUXUXUXUXUXUXUXUXUXUXUXUXUXUXUXUXUXUXUXUXUXUXUXUXUXUXUXUXUXUXUXUXUXUXUXUXUXUXUXUXUXUXUXUXUXUXUXUXUXUXUXUXUXUXUXUXUXUXUXUXUXUXUXUXUXUXUXUXUXUXUXUXUXUXUXUXUXUXUXUXUXUXUXUXUXUXUXUXUXUXUXUXUXUXUXUXUXUXUXUXUXUXUXUXUXUXUXUXUXUXUXUXUXUXUXUXUXUXUXUXUXUXUXUXUXUXUXUXUXUXUXUXUXUXUXUXUXUXUXUXUXUXUXUXUXUXUXUXUXUXUXUXUXUXUXUXUXUXUXUXUXUXUXUXUXUXUXUXUXUXUXUXUXUXUXUX",
"UXUXUXUXUXUXUXUXUXUXUXUXUXUXUXUXUXUXUXUXUXUXUXUXUXUXUXUXUXUXUXUXUXUXUXUXUXUXUXUXUXUXUXUXUXUXUXUXUXUXUXUXUXUXUXUXUXUXUXUXUXUXUXUXUXUXUXUXUXUXUXUXUXUXUXUXUXUXUXUXUXUXUXUXUXUXUXUXUXUXUXUXUXUXUXUXUXUXUXUXUXUXUXUXUXUXUXUXUXUXUXUXUXUXUXUXUXUXUXUXUXUXUXUXUXUXUXUXUXUXUXUXUXUXUXUXUXUXUXUXUXUXUXUXUXUXUXUXUXUXUXUXUXUXUXUXUXUXUXUXUXUXUXUXUXUXUXUXUXUXUXUXUXUXUXUXUXUXUXUXUXUXUXUXUXUXUXUXUXUXUXUXUXUXUXUXUXUXUXUXUXUXUXUXUXUXUXUXUXUXUXUXUXUXUXUXUXUXUXUXUXUXUXUXUXUXUXUXUXUXUXUXUXUXUXUXUXUXUXUXUXUXUXUXUXUXUXUXUXUXUXUXUXUXUXUXUXUXUXUXUXUXUXUXUXUXUXUXUXUXUXUXUXUXUXUXUXUXUXUX",
"UXUXUXUXUXUXUXUXUXUXUXUXUXUXUXUXUXUXUXUXUXUXUXUXUXUXUXUXUXUXUXUXUXUXUXUXUXUXUXUXUXUXUXUXUXUXUXUXUXUXUXUXUXUXUXUXUXUXUXUXUXUXUXUXUXUXUXUXUXUXUXUXUXUXUXUXUXUXUXUXUXUXUXUXUXUXUXUXUXUXUXUXUXUXUXUXUXUXUXUXUXUXUXUXUXUXUXUXUXUXUXUXUXUXUXUXUXUXUXUXUXUXUXUXUXUXUXUXUXUXUXUXUXUXUXUXUXUXUXUXUXUXUXUXUXUXUXUXUXUXUXUXUXUXUXUXUXUXUXUXUXUXUXUXUXUXUXUXUXUXUXUXUXUXUXUXUXUXUXUXUXUXUXUXUXUXUXUXUXUXUXUXUXUXUXUXUXUXUXUXUXUXUXUXUXUXUXUXUXUXUXUXUXUXUXUXUXUXUXUXUXUXUXUXUXUXUXUXUXUXUXUXUXUXUXUXUXUXUXUXUXUXUXUXUXUXUXUXUXUXUXUXUXUXUXUXUXUXUXUXUXUXUXUXUXUXUXUXUXUXUXUXUXUXUXUXUXUXUXUX",
"UXUXUXUXUXUXUXUXUXUXUXUXUXUXUXUXUXUXUXUXUXUXUXUXUXUXUXUXUXUXUXUXUXUXUXUXUXUXUXUXUXUXUXUXUXUXUXUXUXUXUXUXUXUXUXUXUXUXUXUXUXUXUXUXUXUXUXUXUXUXUXUXUXUXUXUXUXUXUXUXUXUXUXUXUXUXUXUXUXUXUXUXUXUXUXUXUXUXUXUXUXUXUXUXUXUXUXUXUXUXUXUXUXUXUXUXUXUXUXUXUXUXUXUXUXUXUXUXUXUXUXUXUXUXUXUXUXUXUXUXUXUXUXUXUXUXUXUXUXUXUXUXUXUXUXUXUXUXUXUXUXUXUXUXUXUXUXUXUXUXUXUXUXUXUXUXUXUXUXUXUXUXUXUXUXUXUXUXUXUXUXUXUXUXUXUXUXUXUXUXUXUXUXUXUXUXUXUXUXUXUXUXUXUXUXUXUXUXUXUXUXUXUXUXUXUXUXUXUXUXUXUXUXUXUXUXUXUXUXUXUXUXUXUXUXUXUXUXUXUXUXUXUXUXUXUXUXUXUXUXUXUXUXUXUXUXUXUXUXUXUXUXUXUXUXUXUXUXUXUX",
"UXUXUXUXUXUXUXUXUXUXUXUXUXUXUXUXUXUXUXUXUXUXUXUXUXUXUXUXUXUXUXUXUXUXUXUXUXUXUXUXUXUXUXUXUXUXUXUXUXUXUXUXUXUXUXUXUXUXUXUXUXUXUXUXUXUXUXUXUXUXUXUXUXUXUXUXUXUXUXUXUXUXUXUXUXUXUXUXUXUXUXUXUXUXUXUXUXUXUXUXUXUXUXUXUXUXUXUXUXUXUXUXUXUXUXUXUXUXUXUXUXUXUXUXUXUXUXUXUXUXUXUXUXUXUXUXUXUXUXUXUXUXUXUXUXUXUXUXUXUXUXUXUXUXUXUXUXUXUXUXUXUXUXUXUXUXUXUXUXUXUXUXUXUXUXUXUXUXUXUXUXUXUXUXUXUXUXUXUXUXUXUXUXUXUXUXUXUXUXUXUXUXUXUXUXUXUXUXUXUXUXUXUXUXUXUXUXUXUXUXUXUXUXUXUXUXUXUXUXUXUXUXUXUXUXUXUXUXUXUXUXUXUXUXUXUXUXUXUXUXUXUXUXUXUXUXUXUXUXUXUXUXUXUXUXUXUXUXUXUXUXUXUXUXUXUXUXUXUXUX",
"UXUXUXUXUXUXUXUXUXUXUXUXUXUXUXUXUXUXUXUXUXUXUXUXUXUXUXUXUXUXUXUXUXUXUXUXUXUXUXUXUXUXUXUXUXUXUXUXUXUXUXUXUXUXUXUXUXUXUXUXUXUXUXUXUXUXUXUXUXUXUXUXUXUXUXUXUXUXUXUXUXUXUXUXUXUXUXUXUXUXUXUXUXUXUXUXUXUXUXUXUXUXUXUXUXUXUXUXUXUXUXUXUXUXUXUXUXUXUXUXUXUXUXUXUXUXUXUXUXUXUXUXUXUXUXUXUXUXUXUXUXUXUXUXUXUXUXUXUXUXUXUXUXUXUXUXUXUXUXUXUXUXUXUXUXUXUXUXUXUXUXUXUXUXUXUXUXUXUXUXUXUXUXUXUXUXUXUXUXUXUXUXUXUXUXUXUXUXUXUXUXUXUXUXUXUXUXUXUXUXUXUXUXUXUXUXUXUXUXUXUXUXUXUXUXUXUXUXUXUXUXUXUXUXUXUXUXUXUXUXUXUXUXUXUXUXUXUXUXUXUXUXUXUXUXUXUXUXUXUXUXUXUXUXUXUXUXUXUXUXUXUXUXUXUXUXUXUXUXUX",
"UXUXUXUXUXUXUXUXUXUXUXUXUXUXUXUXUXUXUXUXUXUXUXUXUXUXUXUXUXUXUXUXUXUXUXUXUXUXUXUXUXUXUXUXUXUXUXUXUXUXUXUXUXUXUXUXUXUXUXUXUXUXUXUXUXUXUXUXUXUXUXUXUXUXUXUXUXUXUXUXUXUXUXUXUXUXUXUXUXUXUXUXUXUXUXUXUXUXUXUXUXUXUXUXUXUXUXUXUXUXUXUXUXUXUXUXUXUXUXUXUXUXUXUXUXUXUXUXUXUXUXUXUXUXUXUXUXUXUXUXUXUXUXUXUXUXUXUXUXUXUXUXUXUXUXUXUXUXUXUXUXUXUXUXUXUXUXUXUXUXUXUXUXUXUXUXUXUXUXUXUXUXUXUXUXUXUXUXUXUXUXUXUXUXUXUXUXUXUXUXUXUXUXUXUXUXUXUXUXUXUXUXUXUXUXUXUXUXUXUXUXUXUXUXUXUXUXUXUXUXUXUXUXUXUXUXUXUXUXUXUXUXUXUXUXUXUXUXUXUXUXUXUXUXUXUXUXUXUXUXUXUXUXUXUXUXUXUXUXUXUXUXUXUXUXUXUXUXUXUX",
"UXUXUXUXUXUXUXUXUXUXUXUXUXUXUXUXUXUXUXUXUXUXUXUXUXUXUXUXUXUXUXUXUXUXUXUXUXUXUXUXUXUXUXUXUXUXUXUXUXUXUXUXUXUXUXUXUXUXUXUXUXUXUXUXUXUXUXUXUXUXUXUXUXUXUXUXUXUXUXUXUXUXUXUXUXUXUXUXUXUXUXUXUXUXUXUXUXUXUXUXUXUXUXUXUXUXUXUXUXUXUXUXUXUXUXUXUXUXUXUXUXUXUXUXUXUXUXUXUXUXUXUXUXUXUXUXUXUXUXUXUXUXUXUXUXUXUXUXUXUXUXUXUXUXUXUXUXUXUXUXUXUXUXUXUXUXUXUXUXUXUXUXUXUXUXUXUXUXUXUXUXUXUXUXUXUXUXUXUXUXUXUXUXUXUXUXUXUXUXUXUXUXUXUXUXUXUXUXUXUXUXUXUXUXUXUXUXUXUXUXUXUXUXUXUXUXUXUXUXUXUXUXUXUXUXUXUXUXUXUXUXUXUXUXUXUXUXUXUXUXUXUXUXUXUXUXUXUXUXUXUXUXUXUXUXUXUXUXUXUXUXUXUXUXUXUXUXUXUXUX",
"UXUXUXUXUXUXUXUXUXUXUXUXUXUXUXUXUXUXUXUXUXUXUXUXUXUXUXUXUXUXUXUXUXUXUXUXUXUXUXUXUXUXUXUXUXUXUXUXUXUXUXUXUXUXUXUXUXUXUXUXUXUXUXUXUXUXUXUXUXUXUXUXUXUXUXUXUXUXUXUXUXUXUXUXUXUXUXUXUXUXUXUXUXUXUXUXUXUXUXUXUXUXUXUXUXUXUXUXUXUXUXUXUXUXUXUXUXUXUXUXUXUXUXUXUXUXUXUXUXUXUXUXUXUXUXUXUXUXUXUXUXUXUXUXUXUXUXUXUXUXUXUXUXUXUXUXUXUXUXUXUXUXUXUXUXUXUXUXUXUXUXUXUXUXUXUXUXUXUXUXUXUXUXUXUXUXUXUXUXUXUXUXUXUXUXUXUXUXUXUXUXUXUXUXUXUXUXUXUXUXUXUXUXUXUXUXUXUXUXUXUXUXUXUXUXUXUXUXUXUXUXUXUXUXUXUXUXUXUXUXUXUXUXUXUXUXUXUXUXUXUXUXUXUXUXUXUXUXUXUXUXUXUXUXUXUXUXUXUXUXUXUXUXUXUXUXUXUXUXUX",
"UXUXUXUXUXUXUXUXUXUXUXUXUXUXUXUXUXUXUXUXUXUXUXUXUXUXUXUXUXUXUXUXUXUXUXUXUXUXUXUXUXUXUXUXUXUXUXUXUXUXUXUXUXUXUXUXUXUXUXUXUXUXUXUXUXUXUXUXUXUXUXUXUXUXUXUXUXUXUXUXUXUXUXUXUXUXUXUXUXUXUXUXUXUXUXUXUXUXUXUXUXUXUXUXUXUXUXUXUXUXUXUXUXUXUXUXUXUXUXUXUXUXUXUXUXUXUXUXUXUXUXUXUXUXUXUXUXUXUXUXUXUXUXUXUXUXUXUXUXUXUXUXUXUXUXUXUXUXUXUXUXUXUXUXUXUXUXUXUXUXUXUXUXUXUXUXUXUXUXUXUXUXUXUXUXUXUXUXUXUXUXUXUXUXUXUXUXUXUXUXUXUXUXUXUXUXUXUXUXUXUXUXUXUXUXUXUXUXUXUXUXUXUXUXUXUXUXUXUXUXUXUXUXUXUXUXUXUXUXUXUXUXUXUXUXUXUXUXUXUXUXUXUXUXUXUXUXUXUXUXUXUXUXUXUXUXUXUXUXUXUXUXUXUXUXUXUXUXUXUX",
"UXUXUXUXUXUXUXUXUXUXUXUXUXUXUXUXUXUXUXUXUXUXUXUXUXUXUXUXUXUXUXUXUXUXUXUXUXUXUXUXUXUXUXUXUXUXUXUXUXUXUXUXUXUXUXUXUXUXUXUXUXUXUXUXUXUXUXUXUXUXUXUXUXUXUXUXUXUXUXUXUXUXUXUXUXUXUXUXUXUXUXUXUXUXUXUXUXUXUXUXUXUXUXUXUXUXUXUXUXUXUXUXUXUXUXUXUXUXUXUXUXUXUXUXUXUXUXUXUXUXUXUXUXUXUXUXUXUXUXUXUXUXUXUXUXUXUXUXUXUXUXUXUXUXUXUXUXUXUXUXUXUXUXUXUXUXUXUXUXUXUXUXUXUXUXUXUXUXUXUXUXUXUXUXUXUXUXUXUXUXUXUXUXUXUXUXUXUXUXUXUXUXUXUXUXUXUXUXUXUXUXUXUXUXUXUXUXUXUXUXUXUXUXUXUXUXUXUXUXUXUXUXUXUXUXUXUXUXUXUXUXUXUXUXUXUXUXUXUXUXUXUXUXUXUXUXUXUXUXUXUXUXUXUXUXUXUXUXUXUXUXUXUXUXUXUXUXUXUXUX",
"UXUXUXUXUXUXUXUXUXUXUXUXUXUXUXUXUXUXUXUXUXUXUXUXUXUXUXUXUXUXUXUXUXUXUXUXUXUXUXUXUXUXUXUXUXUXUXUXUXUXUXUXUXUXUXUXUXUXUXUXUXUXUXUXUXUXUXUXUXUXUXUXUXUXUXUXUXUXUXUXUXUXUXUXUXUXUXUXUXUXUXUXUXUXUXUXUXUXUXUXUXUXUXUXUXUXUXUXUXUXUXUXUXUXUXUXUXUXUXUXUXUXUXUXUXUXUXUXUXUXUXUXUXUXUXUXUXUXUXUXUXUXUXUXUXUXUXUXUXUXUXUXUXUXUXUXUXUXUXUXUXUXUXUXUXUXUXUXUXUXUXUXUXUXUXUXUXUXUXUXUXUXUXUXUXUXUXUXUXUXUXUXUXUXUXUXUXUXUXUXUXUXUXUXUXUXUXUXUXUXUXUXUXUXUXUXUXUXUXUXUXUXUXUXUXUXUXUXUXUXUXUXUXUXUXUXUXUXUXUXUXUXUXUXUXUXUXUXUXUXUXUXUXUXUXUXUXUXUXUXUXUXUXUXUXUXUXUXUXUXUXUXUXUXUXUXUXUXUXUX",
"UXUXUXUXUXUXUXUXUXUXUXUXUXUXUXUXUXUXUXUXUXUXUXUXUXUXUXUXUXUXUXUXUXUXUXUXUXUXUXUXUXUXUXUXUXUXUXUXUXUXUXUXUXUXUXUXUXUXUXUXUXUXUXUXUXUXUXUXUXUXUXUXUXUXUXUXUXUXUXUXUXUXUXUXUXUXUXUXUXUXUXUXUXUXUXUXUXUXUXUXUXUXUXUXUXUXUXUXUXUXUXUXUXUXUXUXUXUXUXUXUXUXUXUXUXUXUXUXUXUXUXUXUXUXUXUXUXUXUXUXUXUXUXUXUXUXUXUXUXUXUXUXUXUXUXUXUXUXUXUXUXUXUXUXUXUXUXUXUXUXUXUXUXUXUXUXUXUXUXUXUXUXUXUXUXUXUXUXUXUXUXUXUXUXUXUXUXUXUXUXUXUXUXUXUXUXUXUXUXUXUXUXUXUXUXUXUXUXUXUXUXUXUXUXUXUXUXUXUXUXUXUXUXUXUXUXUXUXUXUXUXUXUXUXUXUXUXUXUXUXUXUXUXUXUXUXUXUXUXUXUXUXUXUXUXUXUXUXUXUXUXUXUXUXUXUXUXUXUXUX",
"UXUXUXUXUXUXUXUXUXUXUXUXUXUXUXUXUXUXUXUXUXUXUXUXUXUXUXUXUXUXUXUXUXUXUXUXUXUXUXUXUXUXUXUXUXUXUXUXUXUXUXUXUXUXUXUXUXUXUXUXUXUXUXUXUXUXUXUXUXUXUXUXUXUXUXUXUXUXUXUXUXUXUXUXUXUXUXUXUXUXUXUXUXUXUXUXUXUXUXUXUXUXUXUXUXUXUXUXUXUXUXUXUXUXUXUXUXUXUXUXUXUXUXUXUXUXUXUXUXUXUXUXUXUXUXUXUXUXUXUXUXUXUXUXUXUXUXUXUXUXUXUXUXUXUXUXUXUXUXUXUXUXUXUXUXUXUXUXUXUXUXUXUXUXUXUXUXUXUXUXUXUXUXUXUXUXUXUXUXUXUXUXUXUXUXUXUXUXUXUXUXUXUXUXUXUXUXUXUXUXUXUXUXUXUXUXUXUXUXUXUXUXUXUXUXUXUXUXUXUXUXUXUXUXUXUXUXUXUXUXUXUXUXUXUXUXUXUXUXUXUXUXUXUXUXUXUXUXUXUXUXUXUXUXUXUXUXUXUXUXUXUXUXUXUXUXUXUXUXUX",
"UXUXUXUXUXUXUXUXUXUXUXUXUXUXUXUXUXUXUXUXUXUXUXUXUXUXUXUXUXUXUXUXUXUXUXUXUXUXUXUXUXUXUXUXUXUXUXUXUXUXUXUXUXUXUXUXUXUXUXUXUXUXUXUXUXUXUXUXUXUXUXUXUXUXUXUXUXUXUXUXUXUXUXUXUXUXUXUXUXUXUXUXUXUXUXUXUXUXUXUXUXUXUXUXUXUXUXUXUXUXUXUXUXUXUXUXUXUXUXUXUXUXUXUXUXUXUXUXUXUXUXUXUXUXUXUXUXUXUXUXUXUXUXUXUXUXUXUXUXUXUXUXUXUXUXUXUXUXUXUXUXUXUXUXUXUXUXUXUXUXUXUXUXUXUXUXUXUXUXUXUXUXUXUXUXUXUXUXUXUXUXUXUXUXUXUXUXUXUXUXUXUXUXUXUXUXUXUXUXUXUXUXUXUXUXUXUXUXUXUXUXUXUXUXUXUXUXUXUXUXUXUXUXUXUXUXUXUXUXUXUXUXUXUXUXUXUXUXUXUXUXUXUXUXUXUXUXUXUXUXUXUXUXUXUXUXUXUXUXUXUXUXUXUXUXUXUXUXUXUX",
"UXUXUXUXUXUXUXUXUXUXUXUXUXUXUXUXUXUXUXUXUXUXUXUXUXUXUXUXUXUXUXUXUXUXUXUXUXUXUXUXUXUXUXUXUXUXUXUXUXUXUXUXUXUXUXUXUXUXUXUXUXUXUXUXUXUXUXUXUXUXUXUXUXUXUXUXUXUXUXUXUXUXUXUXUXUXUXUXUXUXUXUXUXUXUXUXUXUXUXUXUXUXUXUXUXUXUXUXUXUXUXUXUXUXUXUXUXUXUXUXUXUXUXUXUXUXUXUXUXUXUXUXUXUXUXUXUXUXUXUXUXUXUXUXUXUXUXUXUXUXUXUXUXUXUXUXUXUXUXUXUXUXUXUXUXUXUXUXUXUXUXUXUXUXUXUXUXUXUXUXUXUXUXUXUXUXUXUXUXUXUXUXUXUXUXUXUXUXUXUXUXUXUXUXUXUXUXUXUXUXUXUXUXUXUXUXUXUXUXUXUXUXUXUXUXUXUXUXUXUXUXUXUXUXUXUXUXUXUXUXUXUXUXUXUXUXUXUXUXUXUXUXUXUXUXUXUXUXUXUXUXUXUXUXUXUXUXUXUXUXUXUXUXUXUXUXUXUXUXUX",
"UXUXUXUXUXUXUXUXUXUXUXUXUXUXUXUXUXUXUXUXUXUXUXUXUXUXUXUXUXUXUXUXUXUXUXUXUXUXUXUXUXUXUXUXUXUXUXUXUXUXUXUXUXUXUXUXUXUXUXUXUXUXUXUXUXUXUXUXUXUXUXUXUXUXUXUXUXUXUXUXUXUXUXUXUXUXUXUXUXUXUXUXUXUXUXUXUXUXUXUXUXUXUXUXUXUXUXUXUXUXUXUXUXUXUXUXUXUXUXUXUXUXUXUXUXUXUXUXUXUXUXUXUXUXUXUXUXUXUXUXUXUXUXUXUXUXUXUXUXUXUXUXUXUXUXUXUXUXUXUXUXUXUXUXUXUXUXUXUXUXUXUXUXUXUXUXUXUXUXUXUXUXUXUXUXUXUXUXUXUXUXUXUXUXUXUXUXUXUXUXUXUXUXUXUXUXUXUXUXUXUXUXUXUXUXUXUXUXUXUXUXUXUXUXUXUXUXUXUXUXUXUXUXUXUXUXUXUXUXUXUXUXUXUXUXUXUXUXUXUXUXUXUXUXUXUXUXUXUXUXUXUXUXUXUXUXUXUXUXUXUXUXUXUXUXUXUXUXUXUX",
"UXUXUXUXUXUXUXUXUXUXUXUXUXUXUXUXUXUXUXUXUXUXUXUXUXUXUXUXUXUXUXUXUXUXUXUXUXUXUXUXUXUXUXUXUXUXUXUXUXUXUXUXUXUXUXUXUXUXUXUXUXUXUXUXUXUXUXUXUXUXUXUXUXUXUXUXUXUXUXUXUXUXUXUXUXUXUXUXUXUXUXUXUXUXUXUXUXUXUXUXUXUXUXUXUXUXUXUXUXUXUXUXUXUXUXUXUXUXUXUXUXUXUXUXUXUXUXUXUXUXUXUXUXUXUXUXUXUXUXUXUXUXUXUXUXUXUXUXUXUXUXUXUXUXUXUXUXUXUXUXUXUXUXUXUXUXUXUXUXUXUXUXUXUXUXUXUXUXUXUXUXUXUXUXUXUXUXUXUXUXUXUXUXUXUXUXUXUXUXUXUXUXUXUXUXUXUXUXUXUXUXUXUXUXUXUXUXUXUXUXUXUXUXUXUXUXUXUXUXUXUXUXUXUXUXUXUXUXUXUXUXUXUXUXUXUXUXUXUXUXUXUXUXUXUXUXUXUXUXUXUXUXUXUXUXUXUXUXUXUXUXUXUXUXUXUXUXUXUXUX"
};
