/* XPM */
static char * north_xpm[] = {
"64 64 18 1",
" 	c #000000",
".	c #010101",
"+	c #020202",
"@	c #040404",
"#	c #070707",
"$	c #080808",
"%	c #090909",
"&	c #060606",
"*	c #030303",
"=	c #050505",
"-	c #7F0000",
";	c #C30000",
">	c #A60000",
",	c #AE0000",
"'	c #510000",
")	c #9E0000",
"!	c #B80000",
"~	c #5C0000",
"   .+@#$%$&*+.                      ....                        ",
"   .+*=#$#=*+.                                                  ",
"   ..*@&&&@*..                                                  ",
"    .+@===*+..                                                  ",
"    .+*@@@*+.                                                   ",
"    ..+*@@*+.                                                   ",
"    ..+***+..                                                   ",
"     .++*++..                                                   ",
"     ..++++..                                                   ",
"     ...++...                                                   ",
"      ......                                                    ",
"      ......                                                    ",
"       ....                                                     ",
"        ..                                                      ",
"                                                                ",
"                                         --                     ",
"                                         --                     ",
"                    --                   --                     ",
"                    -;                   --                     ",
"                    ->-                  --                     ",
"                    ----                 ,                      ",
"                    -- ,                ')                      ",
"                    --  ,               --                      ",
"                    --  --              --                      ",
"                    --   --             )'                      ",
"                    --    --            ,                       ",
"                    --     )'          ')                       ",
"                    --     ')          ')                       ",
"                    --      --         ')                       ",
"                    --       )'        ')                       ",
"                    --        )'       ')                       ",
"                    --        ')       --                       ",
"                    --         --      --                       ",
"                    --          )'     --                       ",
"                    --           ,     --                       ",
"                    --           ')    --                       ",
"                    )'            --   --                       ",
"                    )'             )'  --                       ",
"                    ,               ,  )'                       ",
"                   ')               ') ,                        ",
"                   ')                '),                        ",
"                   --                 -!                        ",
"                   ~~                  '                        ",
"                   ~~                                           ",
"                                                                ",
"                                                                ",
"                                                                ",
"                                                                ",
"                                                                ",
"                                                                ",
"                                                                ",
"                                                                ",
"                                                                ",
"                                                                ",
"                                                                ",
"                                                                ",
"                                                                ",
"                                                                ",
"                                                                ",
"                                                                ",
"                                                                ",
"                                                                ",
"                                                                ",
"                                                                "};
