/* XPM */
static char *out[] = {
/* columns rows colors chars-per-pixel */
"256 256 256 2 ",
"   c #070704",
".  c #0D0C06",
"X  c #0E0E0C",
"o  c #130D05",
"O  c #1A0D05",
"+  c #110F0B",
"@  c #0D1007",
"#  c #0E110C",
"$  c #12120D",
"%  c #19150A",
"&  c #1B140C",
"*  c #0D0E13",
"=  c #110F13",
"-  c #0E1212",
";  c #0E131A",
":  c #0B1819",
">  c #131412",
",  c #191612",
"<  c #151914",
"1  c #1B1A14",
"2  c #12151A",
"3  c #1A171A",
"4  c #141B1B",
"5  c #1C1C19",
"6  c #25160B",
"7  c #231A0E",
"8  c #311B0E",
"9  c #231C13",
"0  c #2B1D13",
"q  c #281B16",
"w  c #231D1A",
"e  c #17221D",
"r  c #1D211C",
"t  c #262217",
"y  c #2C2115",
"u  c #24221C",
"i  c #2B231C",
"p  c #332315",
"a  c #392612",
"s  c #3C2315",
"d  c #3B2917",
"f  c #33251B",
"g  c #3C261A",
"h  c #34291D",
"j  c #3C2A1D",
"k  c #0D1326",
"l  c #141925",
"z  c #0D1735",
"x  c #171B36",
"c  c #201D32",
"v  c #192427",
"b  c #1C2635",
"n  c #182F34",
"m  c #272725",
"M  c #342B23",
"N  c #352A27",
"B  c #3C2D22",
"V  c #3B3228",
"C  c #272A36",
"Z  c #312E35",
"A  c #26353A",
"S  c #383638",
"D  c #432717",
"F  c #442B1D",
"G  c #4F2C1A",
"H  c #4B2D1D",
"J  c #4B311E",
"K  c #54331D",
"L  c #612F1A",
"P  c #442E22",
"I  c #4A2E21",
"U  c #422E28",
"Y  c #532E21",
"T  c #443224",
"R  c #4C3323",
"E  c #43342A",
"W  c #4B352A",
"Q  c #47392B",
"!  c #4C3A2C",
"~  c #533524",
"^  c #5A3624",
"/  c #543925",
"(  c #5C3A25",
")  c #533629",
"_  c #543B2B",
"`  c #5B3C2B",
"'  c #483B33",
"]  c #573D31",
"[  c #633C25",
"{  c #673B28",
"}  c #633D2B",
"|  c #6D3C33",
" . c #56402D",
".. c #5C412D",
"X. c #49423A",
"o. c #5C4333",
"O. c #584538",
"+. c #64422D",
"@. c #6A4329",
"#. c #6B432C",
"$. c #73462D",
"%. c #644432",
"&. c #6B4632",
"*. c #654836",
"=. c #6C4934",
"-. c #644A3A",
";. c #6C4C3A",
":. c #734B35",
">. c #764835",
",. c #734D3A",
"<. c #7A4E3A",
"1. c #6C513D",
"2. c #74523C",
"3. c #7B553A",
"4. c #7B533C",
"5. c #162254",
"6. c #2A2D4B",
"7. c #2A3846",
"8. c #373847",
"9. c #373A56",
"0. c #333B66",
"q. c #3C4046",
"w. c #35454F",
"e. c #3A466E",
"r. c #375F6C",
"t. c #474648",
"y. c #544E4A",
"u. c #464757",
"i. c #585659",
"p. c #674D42",
"a. c #6A5345",
"s. c #745442",
"d. c #7B5542",
"f. c #7C5A44",
"g. c #72564E",
"h. c #755948",
"j. c #7C5C4A",
"k. c #766256",
"l. c #474A67",
"z. c #4B536B",
"x. c #5E5E63",
"c. c #575868",
"v. c #454C77",
"b. c #4C5378",
"n. c #565979",
"m. c #586974",
"M. c #706C6B",
"N. c #686879",
"B. c #797678",
"V. c #843B38",
"C. c #8A4E3A",
"Z. c #82543D",
"A. c #86593D",
"S. c #855544",
"D. c #835B44",
"F. c #8B5C44",
"G. c #8C5048",
"H. c #845D4A",
"J. c #8B5E4A",
"K. c #955B47",
"L. c #A25C4E",
"P. c #8A6247",
"I. c #85624C",
"U. c #8C634C",
"Y. c #93644C",
"T. c #98654B",
"R. c #8C6552",
"E. c #876857",
"W. c #8D6A53",
"Q. c #936552",
"!. c #946B54",
"~. c #9B6C53",
"^. c #946D5A",
"/. c #9B6A58",
"(. c #8C715D",
"). c #97725A",
"_. c #9B735C",
"`. c #A4674D",
"'. c #A46C53",
"]. c #A66957",
"[. c #AB6C53",
"{. c #B36D56",
"}. c #A87359",
"|. c #B6755B",
" X c #8B7267",
".X c #9A7864",
"XX c #847B77",
"oX c #AC6F65",
"OX c #A77964",
"+X c #B87B64",
"@X c #C1765F",
"#X c #C37B65",
"$X c #6A827E",
"%X c #8F847B",
"&X c #B9836A",
"*X c #B48673",
"=X c #C6836B",
"-X c #C78B75",
";X c #3C718B",
":X c #4F5584",
">X c #575B86",
",X c #5D628A",
"<X c #5A6A8E",
"1X c #62658C",
"2X c #696988",
"3X c #6F708C",
"4X c #767487",
"5X c #7C7B8C",
"6X c #676994",
"7X c #737296",
"8X c #797995",
"9X c #817E89",
"0X c #817F93",
"qX c #807FA1",
"wX c #7195A2",
"eX c #75B6E1",
"rX c #888489",
"tX c #948C87",
"yX c #9A938C",
"uX c #858393",
"iX c #8A8796",
"pX c #8D8B9B",
"aX c #928C94",
"sX c #928D9C",
"dX c #899496",
"fX c #989499",
"gX c #A89489",
"hX c #A39B97",
"jX c #94A399",
"kX c #ACA19C",
"lX c #8B89A4",
"zX c #918EA3",
"xX c #8A96A7",
"cX c #9593A3",
"vX c #9996A6",
"bX c #9D9BAC",
"nX c #9C9CB3",
"mX c #A29DA8",
"MX c #A19EB3",
"NX c #96A5B4",
"BX c #A9A4A7",
"VX c #B2AAA9",
"CX c #A4A3B4",
"ZX c #A9A8B7",
"AX c #A4A4BA",
"SX c #ABABBB",
"DX c #B3B0B5",
"FX c #B9B3B6",
"GX c #C7ABA1",
"HX c #AEC1BF",
"JX c #8EB8C9",
"KX c #B1B0C3",
"LX c #A4D2E0",
"PX c #C4C3C9",
"IX c #D0F0F6",
"UX c #ECFDFE",
/* pixels */
"X X X X X X X X X X = X X X X X X X X X X X X X X X X X X X X X X X X X X X X X X X X X X X X X X X X X X X X X X X X X X X X X X X X X X X X X X X X X X X X X X X = X X X X X X X = = + = X X = + - + X X X = X > X = X $ X > X X X X X X X X X X X X X X X X X X X X X X X X X X X X X X X X X X X X X X X X X X X X X X X X X X X X X X X X X X X X X X X X X X X X X X X X X X X X X X X X X X X X X X X X X X X X X X X X = X X X X X X X X X X X X X X X X X X X X X X X X X X X X X X X X X X X X X X X X X X X X X X X ",
"X X X X X X X X X X X X X X X X X X X X X X X X X X X X X X X X X X X X X X X X = X X X X X X X X X X X X X X X X X X X X X X X X X X X X X X X X X X X X X X X X X X X X X X X X X = + X X + X X X X X X X X X X X X X X X X X X X X X X X X X X X X X X X X X X X X X X X X X X X X X X X X X X X X X X X X X X X X X X X X X X X X X X X X X X X X X X X X X X X X X = X X X X X X X X X X X X X X X X X X X = X X X X X X X X X X X X X X X X X X X X X X X X = X X X X X X X X X X X X X X X X X X X X X X X X X X X X X X ",
"X X X X X X X X X X X X X X X X X X X X X X X X X X X X X X X X X = X X X X X X X X X X X X X X X X X X X = X X X X X X X X X X X X X X X X X X X X X X X X X X X X X X X X X X X X X = X X X X X X X X X X X X X X X X X X X X X X X X X X X X X X X X X X X X X X X X X X X X X X X X X X X X X X X X X X X X X X X X X X X X X X X X X X X X X X X X X X X X X X X X X X X X X X X X = X X X X X X X X X X X X X X X X X X X X X X X X X X X X X X X X X X X X X X X X X X X X X X X X X X X X X X X X X X X X X X X X X X X ",
"X X X X X X X X X X X X X X X X X X X X X X = X X X X X X X X X X X X X X X X X X X X X X X X X X X X X X X X X X X X X X X X X X X X X X = X X X X X X X X X X X X X X X X X X X X X X X X X X X X X X X X X X X X X X X X X X X X X X X X X X X X X X X X X X X X X X X X X X X X X X X X X X X X X X X X X X X X X X X X X X X X X X X X X X X X X X X X X X X X X X X X X X X X X X X X X X X X X X X X X X X X X X X X X X X X X X X X X X X X X X X X X X X X X X X X X X X X X X X X X X X X X X X X X X X X X X X X X X ",
"X X X X X X X X X X X X X X X X X X X X X X X X X X X X X X X X X X X X X X X X X X X X X X X X X X X X X X X X X X X X X X X X X X X X X X X X X X X X X X X X X X X X X X X X X X X X X X X X X X X X X X X X X X X X X X X X X X X X X X X X X X X X X X X X X X X X X X = X X X X X X X X X X X X X X X X X X X X X X X X X X X X X X X X X X X X X X X X X X X X X X X X X X X X X X X X X X X X X X X X X X X X X X X X X X X X X X X X X X X X X X X X X X X X X X X X X X X X X X X X X X X X X X X = X X X X X X X X X ",
"X X X X X X X X X X X X X X X X X X X X X X X X X X X X X X X X X X X X X X X X X X X X X X X X X X X X X X X X X X X X X X X X X X X X X X X X X X X X X X X X X X X X X X X X X X X X X X X X X X X X X X X X X X X X X X X X X X X X X X X X X X X X X X X X X X X X X X X X X X X X X X X X X X X X X X X X X X X X X X X X X X X X X X X X X X X X X X X X X X X X X X X X X X X X X X X X X X X X X X X X X X X X X X X X X X X X X X X X X X X X X X X X X X X X X X X X X X X X X X X X X X X X X X X X X X X X X X X X ",
"X X X X X X X X X X X X X X X X X X X X X X X X X X X X X X X X X X X X X X X = X X X X X X X X X X X X X X X X X X X X X X X X X X X X X X X X X X X X X X X X X X X X X X X X X X X X X X X X X X X X X X X X X X X X X X X X X X X X X X X X X X X X X X X X X X X X X X X X X X X X X X X X = X X X X X X X X X X X X X X X X X X X X X X X X X X X X X X X X X X X X X X X X X X X X X X X X X X X X X X X X X X X X X X X X X X X X X X X X X X X X X X X X X X X X X X X X X X X X X X X X X X X X X X X X = X X X X X X ",
"X X X X X X X X X X X X X X X X X X X X X X X X X X X X X X X X X X X X X X X X X X X X X X X X X X X X X X X X X X X X X X X X X X X X X X X X X X X X X X X X X X X X X X X X X X X X X X X X X X X X X X X X X X X X X X . X X X X X X X X X X X X X X X X X X X X X X X X X X X X X X X X X X X X X X X X X X X X X X = X X X X X X X X X X X X X X X X X X X X X X X X X X X X X X X X X X X X X X X X X X X X X X X X X X X X X X X X X X X X X X X X X X X X X X X X X X X X X X X X X X X X X X X X X X X X X X X X X X ",
"X X X X X X X X X X X X X X X X X X X X X X X X X X X X X X X X X X X X X X X X X X X X X X X X X X X X X X X X X X X X X X X X X X X X X X X X X X X X X X X X X X X X X X X X X X X X X X X X X X X X X X X X X X X X X X X X X X X X X X X X X X X X X X X X X X X X X X X X X X X X X X = X X X X X X X X X X X X X X X X X X X X X X X X X X X X X X X X X X X X X X X X X X X X X X X X X X X X X X X X X X X X X X X X X X X X X X X X X X X X X X X X X X X X X X X X X X X X X X X X X X X X X X X X X X X X X X X X X ",
"X X X X X X X X X X X X X X X X X X X X X X X X X X X X X X X X X X X X X X X X X X X X X X X X X X X = X X X X X X X X X X X X X X X X X X X X X X X X X X X X X X X X X X X X X X X X X X X X X X X X X X X X X X X X X X X X X X X X X X X X X X X X X X X X X X X X X X X X X X = X X X X X X X X X X X X X X X X X X X X X X * X X X X X X X X X * X X X X X X X X X X X X X X X X X X X X X X X X X X X X X X X X = X X X X X X X X X X X X X X X X X X X X X X X X X X X X X X X X X X X X X X X X X X X X X X X X X X X ",
"X X X X X X X X X X X X X X X X X X X X X X X X X X X X X X X X X X X X X X X X X X X X X X X X X X X X X X X X X X X = X X X X X X X X X X X X X X X X X X X X X X X X X X X X X X X X X X X X X X X X X X X X X X X X X X X X X X X X X X X * X X X X X X X X X X X X X X = X X X X X X X X X X X X X X X X X X X X X X X X X X X X X X X X X X X X = X X X X X X X X X X X X X X X X X X X X X X X X X X X X X X X X X X X X X X X X X X X X X X X X X X X X X X X X X X X X X X X X X X X X X X X X X X X X X X X X X X X X ",
"X X X X X X X X X X X X X X X X X X X X X X X X X X X X X X X * X X = X X X X X X X X X X X X X X X X X X X X X X X X X X X X X X X X X X X X X X X X X X X X X X X X X X X X X X X X X X X X X X X X X X X X X X X X X X X X X X X X X X X X X X X X X X X X X X X X X X X X X X X X X X X X X X X X X X X X X X X X X X X X X X X X X X X X X X X X X X X X X X X X X X X X X X X X X X X X X X X X = X X X X X X X X X X X X X X X X X X X X X X X X X X X X X X X X X X X X X X X X X X X X X X X X X X X X X X X X X X X X ",
"X X X X X X X X X X X X X X X X X X X X X X X X X X X X X X X X X X X X X X X X X X X X X X X X X X X X X X X X X X X X X X X X X X X X X X X X X X X X X X X X X X X X * X X X X X X X X X X X X X X X X X X X X X X X X X X X X X X X X X X X X X X X X X X X X X X X X X X X X X X X X X X X X X X X X X X X X X X X X X X X X X X X X X X X X X X X X X X X X X X X = * X X X X X X X X X X X X X X X X X X X X X X X X X X X X X X X X X X X X X X X X X X X X X X X X X X X X X * X X X X X X X X X X = X X X X X X X X X ",
"X X X X X X X X X X X X X X X = X X X X X X X X X X X X X X X X X X X X X X X X X X X X X X X X X X X X X X X X X X X X X X X X X X X = X X X X X X X X X X X X X X X X X X X X X X X X X X X X X X X X X X X X X * X X X X X X X X X X X X X X X X X X X X X X X X X X X X X X X X X X X X X X X X X X X X X X X X X X X X X X X X X X X X X X X X X X X X X X X X X X X X X X X X X X X X X X X X X X X X X X X X X X X X X X X X X X X X X X X X X X X X X X X X X X X X X X X X X X X X X X X X X X X X = X X X X X X X X X ",
"= X X X X X X X X X X X X X X X X X X X X X X X X X X X X X X X X X X X X X X X X X X X X X X X X X X X X X X X X X X X X X X X X X X X X X X X * X X X X X X X X X X X X X X X X X X X X X X X X X X X X X X X X X X X X X X X X X X X X X X X X X X X X X X X X X X X X X X X X X X X X X X X X X X X X X X X X X X X X X X X X X X X X X X X X X X X X X X X X X X X X X X X X X X X X X X X X X X X X X X X X X X X X X X X X X = X X X X X X X X X = X X X X X X X X X X X X X X X X X X X X X X X X X X X X X X X X X X X ",
"X X X X X X X X X X X X X X X X X X X X X X X X X X X X X X X X X X X X X X X X X X X = X X X X X X X X X X X X X X X X X X X X X X X X X X X X X X X X X X X X X X X X X X X X X X X X X X X X X X X X X X X X X X X X X X X X X X * X X X X * = X X X X X X X X X X X X X X X X X X X X X X X X X X X X = X X X X X X X X X X X X X X X X X X X X X X X X X X X X X X X X X X X X X X X = X X X X X X X X X X X X X X X X X X X X X X X X X X X X X X * X X X X X X = X X X X X X X X X X X X X X X X X X X X X X X X X X X X ",
"X X X X X X X X X X X X X X X X X + X X X X X X X X X X X X X X X X X X X X X X X X X X X X X X X X X X X X = X X X X X X X X X X X X X X X X X X X X X X X X X X X X X X X X X X X X X X X X X X X X X X X X X X X X X X X X * X X X * X X X X X = * X X X * X X X X X X X X X X X X X X X X X X X X X X X X X X X X X X X X X X X X X X X X X X X X X X X X X X X X X X X X X X X X X X X X X X X X X X X X X X X X X X X X X X X X X = X X X X X X X X X X X X X X X X X X X X X X X X X X X X X X X X X X X X X X X X X X X ",
"X X X X X X X X X X X X X X X X X X X X X X X X X X X X X X X X X X X X X X X X X X X X X X X X X X X X X X X X X X X X X X X X X X X X X X X X X X X X X X X X X X X X X X X X X X X X X X X X X X X X X X X X X X X X X X X X X X X * X X X * X = X * X X X X X X X X X X X X X X X X X X X X X X X X X X X X X X X X X X X X X X X X X X X X X X X X X X X X X X = X X X X X X X X X X X X X X X X X X X X X X X X X X X X X X X X X X X X X X X X X X X X X X X X X X X X X X X X X X X X X X X X X X X X X X X X X X X X X ",
"X X X X X X X X X X X X X X X X X X X X X X X X X X X X X X X X X X X X X X X X X X X X X X X X X X X X X X X X X X X X X X X X X X X X X X X X X X X X X X X X X X X X X X X X X X X X X X X X X X * X X X X X X X X X X X X X * X X X X X X X X X X X X X = X X X = X X X X X X X X X X X X X X X X X X X X X X X X X X X X X X X X X X X X X X X X X X X X X X X X X X X X X X X X X X X X X X X X X X X X X X X X X X X X X X X X X X X X X X X X X X X X X X X X X X X X X X X X X X X X X X X X X X X X X X X X X X X X X ",
"X X X X X X X X X X X X X X X X X X X X X X X X X X X X * X X X X X X X X X X X X X X X X X X X X X X X X X X X X X X X X X X X X X X X X X X X X X X X X X X X X X X X X X X X X X X X X X X X X X X X X X X X X X X X X X X X X X X X X X X X X X X X X X * X X X X X X X X X X X X X X X X X X X X X X X X X X X X X X X X X X X X X X X X X X X X X X X X X X X X X X X X X X X X X X X X X X X X X X X X X X X X X X X X X X X X X X X X X X X X X X X X X X X X X X X X X X X X X X X X X X X X X X X X X X X X X = X X X ",
"X X X X X X X X X X X X = * X X X X X X X X X X X X X X = X X X X X X X * X X X X X X X X X X X X X X X X X X X X X X X X X X X X X X X X X X X X X X X X X X X X X X X X X X X X X X X X X X X X X X X X X X X X X X X X X X X X X X X X X X X X X X X X X X X X X X X X X X X X X X X X X X X X X X X X X X X X X X = X X X X X X X X X X X X X X X X X X X X X X X X X X X X X X X X X X X X X X X X X X X X X X X X X X X X X X X X X X X X X X X X X X X X X X X X X X X X X X X X X X X X = X X X X X X X X X X X X X X X ",
"X X X X X X X X X X X X X X X X X X X X X X X X X X X X X X X X X X X X X X X X X X X X X X X X X X X X X X X X X X X X X X X X X X X X X X X X X X X X X X X X X X X X X X X X X X X X X X X X X X X X X X X X X X X X X X X X X X X X X X X X X X X X X X X X X X X X X X X X X X X X X X X X X X = X X X X X X X X X X X X X X X X X X X X X X X X X X X X X X X X X X X X X X X X X X X X X X X X X X X X X X X X X X X X X X X X X X X X X X X X X X X X X X X X X X X X X X = X X X X X X X X X X X X X X X X X X X X X X ",
"X X X X X X X X X X X X X X X X X X X X X X X X X X X X X X X X X X X X X X X X X X X X X X X X X X X X X X X X X X X X X X X X X X X X X X X X X X X X X X X X X X X X X X X X X X X X X X X X X X X X X X X X X X X X X X X X + X X X = X X X X + X X X + + X X X X X X X X X X X X X X X X X X X X X X X X X X X X X X X X X X X X X X X X X = X X X X X X X X X X X X X X X X X X X X X X X X X X X X X X X X X X X X X X X X X X X X X X X X X X X X X X X X X X X X X X X X X X X X X X X X X X X X X X X X X X X X X X X ",
"X X X X X X X X X X X X X X X X X X X X X X X X X X X X X X X X X X X X X X X X X X X X X X X X X X X X X X X X X X X X X X X X * X X X X X X X X X X X X X X X X X X X X X X X X X X X X X * X X X X X X X X X X X X X X X X X X X + X X X = X X + X + X X X X X X X X X X X X X X X X X X X X X X X X X X X X X X X X X X X X X X X X X X X X X X X X X X X X X X X X X X X X X X X X X X X X X X X X = X X X X X X X X X X X X X X X X X X X X X X X X X X X X X X X X X X X X X X X X X X X X X X X X X X X X X X X X X X X ",
"X X X X X X X X X X X X X X X X X X X X X = X X X X X X X X X X X X X X X X X X X X X X X X X X X X X X X X X * X X X X X X = X X X X X X X X X X X X X X X X X X X X X X X X X X X X X X X X X X X X X X X X * X X X X * # X X + + X X X X X X X X X X X X = = X X X X X X X X X X X X X X X X X X X X X X X X X X X X X X X X X X X X X X X X X X X X X X X X X X X X X X X X X X X X X X X X X   X X X X X X X X X X X X X X X X X X X X X X X X X X X X X X X X X X X X X X X X X X X X X X X X X X X X X X X X X X X X X = ",
"X X X X X X X X X X X * X X X X X X X X X X X X X X X X X X X X X X X X X X X X X X X X X X X X X X X X X X X X X X X X X X X X X X X X X X X X X X X X X X X X X X X X X X X X X X X X X X X X X X X X X X X . X X # X . . . * X X + X # X X = X + + + + X X . X X X X X X X X X X X X X X X X X X X X X X X X X X X X X X X X X X X X X X X X X X X X X X X X X X X X X X X X X X X + X X + - X X X = X X X X X X X X X X X X X X X X X X X X X X X X X X X X X X X X X X X X X X X X X X X X X X X X X X X X X X X X X X X X ",
"X X X X X X X X X X X X X X X X X X X X X X X X X X X X X X X X X X X X X X X X X X X X X X X X X X X X X X X X X X X X X X X X X X X X X X X X X X X X X X X X X X X X X X X X X X # X X X X X = X X X # X # @ X X X X * X - * X X X X   X * X X X X X X X X X X X X X X X X = X X X X X X X X X X X X X X X X X X X X X X X X X X X X X X X X X X X X X X X X X X X X X X X X X X X X X X X X X X X X X X X X X X X X X X X X X X X X X X X X X X X X X X X X X X X X X X X X X X X X X X X X X X X X X X X X X X X X X X X X ",
"X X X X X X X X X X X X X X X X X X X X X X X X X X X X X X X X X X X X X X X X X X X X X X X * X X X X X X X X X X X X X X X X X X X X X X X X X X X X X X X X X X X X X X X X X X X X X X X X X X X X . * X X X X X X # # @ @ X X X X X X X X X X X X X X X = X X X X X X X X X X X X X X X X X X X X X X X X X X X X X X X X X X X X X X X X X X X X X X X X X X X X X X X X X X X X X X X X X X X X X X X X X X X X X X X X X X X X X X X X X X X X X X X X X X X = X X X X X X X X X X X X X X X X X X X X X X X X X X X X ",
"X X X X X X X X X X X X X X X X X X X X X X X X X X X X X X X X X X X X X X X X X X X X X X X X X X X X X X X X X X X X X X X X X X X X X X X X X X X X X X X X X X X X = X X = X X X X X X # # X X * . # # # * # # # X # # # # X X X X X X X X X X X X X X X X X X X X X X X X X X X X X X X X X X X X X X X X X X X X X X X X X X X X X X X X X X X X X X X X X X X X X X X X X X X X X X X + X X X X X X X X X + X X + X X X X X X X X X X X X X X X X X X X X X X X X X X X X X X X X X X X X = X X + X X = X X X X X X X X ",
"X X X X X X X X X X X X X X X X X X X X X X X X X X X X X X X X X X X X X X X X X X X X X X X X X X X X X X X X X X X X X X X X X X X X X X X X X X X X X X X X X X X X X X X X # X X X # X # @ X X # - * # # * * X * # X X # @ X X # - X X * * X X X > X X X X X X X X X X X X X X X X X X X X X X X X X X X X X X X X X X X X X X X X X X X X X X X X X X X X X X X X X X X X X X X X X X X X X X X X = + + = X X X X X X X X X X X X X X X X X X X X X X X X X X X X X X X X X X X X X X X X X X X X X X X X X X X X X X X X ",
"X X X X X X X X X X X X X X X X X X X X X X X X X X X X X X X X X X X X X X X X X X X X X X X X X X X X X X X X X X X X X X X X X X X X X X X X X X X X X X X X X X X X X X X X * . .   X X @ : X X X . . . #   # X         @   * # X X         = # X X * X X X * X o X X X X X X X X X X X X X X X X X = X X X X X X X X X X X X X X X X X X X X X X X X X X X X X X X X X X X X X X X X X + X X X X X X X = + * X X X X X X X X X X X X X X X X X X X X X X X X X X X X X X X X X X X X X X X + + X X + X X X X X = + X X X X ",
"X X X * X X X X X X X X * X X X = X X X X X X X X X X X X X X X X X X X X X X X X X X X * X X X X * X X X X X X X * X * X X X X X - X X X * * - X X - - - # # X - - - - * - - - - - : : - - : : - - - * : * : : : : : k z n z n z z v z n v n v l > - X = * X * X X * X * X * X * X X X X X X X X X X X X   X X X X X = * X X X X X * = X X X X X X = X * X X X X * X X X X X = X = X X = > = = o X X + + + + + + + + > > + > + = X + X X X X X X X X X X X X X X X X * X X X X X X X X X X X + = + = + + = + + + + + + + X X X ",
"> - - > > - > > X - > - X > > > * > > + $ > > X + > $ X > + + > = = X > - > X X - > # - # - : # - : # - > < - - - # # - - - - - 2 - - : ; : : : 4 : 4 : : e 4 : e v e v v n v v n n n n A A n A n n n z n n A n 7.r.;XeXeXeXeXeXeXeXeXeXeXeXeXIXSXv v 4 * 2 2 2 * ; = > < - - - - - X - > - # X $ $ $ + + + # X $ X # > = X > X 2 - 2 2 3 > > + = > - X X > * X = X = = > 3 5 w l 5 3 2 = 9 m q 9 & 9 0 t y 7 t e 7 t % % 7 r % & $ w 9 $ > $ # # > # @ @ : # @ # - < # @ $ < < > # > > X > > = 9 q q i q c q f N q 1 % @ @ 1 r ",
"- - - - - - - - - > > - - - - X > > X = > = X + > > > X X = > > > = $ X > - - - - # - - - - # * * # : # : < : > # : - : < < : e < : : 2 - 2 : : 4 v e e e : e k v v n v n v n n n n n n n A A A n n n n 5.n w.r.wXeXeXLXeXLXeXeXeXeXeXeXLXLXLXIXHXm l 3 * ; * * = * * ; 2 2 2 < 2 4 4 - # X . X X + + $ X $ # . $ $ > X > * ; = > - > > > = = $ = > > # - > > * 2 = - > > 3 3 3 N 5 + 3 = w q N U f f p y h i 7 7 < % e < 1 7 r & $ & < $ $ # # > > # # - # @ # # # $ # $ : < $ > # > # $ 3 > & q q N N f g g q q q , $ o % $ % ",
"- > > - - - - - > > > X X > # X 2 > + > > + > > > = > = > = > = X > = = > > > X - - - - # X * * - - # - - > > - < - - < 4 < < m 2 2 4 4 : 2 4 k : v l e : v : e v v n n v n n b n n n n A A 7.n A A n n n ;XwXLXLXLXIXLXLXLXLXeXeXJXLXIXIXLXJXIXLXM r 4 2 ; ; - ; - ; > 2 2 2 < 4 e 5 < < < > # $ # $ $ $ X # X X - = X X - > 2 2 - - > = > > > $ - > - - > > = X = w , = , , 1 w , , 1 o 9 f U T T ! Q j B h i 7 t 7 t 1 1 i i 1 & $ $ $ $ $ < - $ # $ : $ $ @ # $ : # @ < < : $ # > $ > > > 3 q N N q f N f q N i & % < % $ $ ",
"- 2 4 > > - > - > - - # > - - X $ = > = > > > > > X X > X > > = X > > $ # - # > # - $ : - - # # # - - - $ : - > - - - < < - > v 2 : 4 4 2 : e 4 : : l e e v v : e n l v n b n v n A n n A A A 7.7.A 7.7.7.wXLXJXIXIXIXLXLXLXJXLXIXIXUXUXUXIXIXUXHXn l l 2 ; ; 2 * - * ; > ; - ; < 2 < < < r r r < > $ > # $ $ # X $ > # - > 2 - - - - > = > > > X > - # > > > = = & = = & , & & q i m & q 7 N ' ] ] O.o.! T B d 7 t t t t t m M 9 9 1 $ # # # < < $ $ < < $ < $ # > < $ # # $ % $ $ > > + X $ , 3 q N q q q i f N w & < % < @ # ",
"# > > - > > - # X X > # > - $ > + > $ $ X > > $ + X X > X > > > - $ > > > > - > # - # # - # # - * # : * - - < : > - - > - - > 4 < ; 2 4 2 : v 4 l e k e e v v l v v v v C A C n A n A A n A n w.w.w.n n A wXIXIXUXUXIXPXIXIXIXUXUXUXUXUXUXIXUXIXdXe e e ; ; - - - * - ; > ; - > - > > > $ $ < r 5 3 < > > $ > > # $ $ - > > 2 < - - > > # > > $ # > > > - > = + , & , O & O O q N X.U O 6 q U O.] _ ] o.! J T V a 7 t 7 7 t 9 & q m u u 5 < 1 u 5 < 1 1 < $ $ # # # # $ $ @ $ $ # $ $ > + o + = 3 q q q q 3 q w t % % < # @ @ @ ",
"- - > $ - > > # X - > > + $ X $ X $ $ X X X = X X X X = = > > > $ > $ > > > $ > - # - # # - # # # # # # - - > - - > - - > - > 4 > - < 2 2 : 4 4 k e e e e : e v v v v v b C n C n A A A A n r.A A w.w.n A wXIXUXUXUXIXUXUXUXUXUXUXUXUXUXIXLXLXNXm.e v l ; 2 > > ; - - - ; > 2 - > > - > > X $ > 3 1 > 1 1 < < > $ > - > > > > < > < < $ # - > $ > $ - # X + > > & f B p q g U ) ' p.' P O 8 ! -.%.-.*.%... .O. .7 % 7 7 7 t 9 f V V N M w % t u q w w w % < < % < < % < < $ < @ $ $ $ $ > + + , = 3 q q 3 O O & 7 @ e < < @ : @ ",
"> > > > $ X $ $ # $ X $ $ # # $ # $ $ # X > > X X > - = > = > = $ $ $ $ > # # > - # - # # # @ @ # * @ * - # # - < - - X # - # > - > - > - : 2 4 4 4 e k l k e v k e v v v n v n n A n w.w.A w.w.w.w.7.n 7.$XUXUXIXUXUXUXUXUXUXUXIXIXKXJXJXJXJXwXr.k v ; 2 2 = 3 > - 2 ; - > - - - - - > < > > > > > > > > > > > - > # > > > > < e < r > > $ > > # - > # + , 1 q i U ] W ) p.a.p.p.] p.) 8 Y p.O.;.,.=.%.=.%. ./ Q d J Q B f B V B M h i 0 w i M w q 0 1 1 % % 1 < % < $ < < $ @ # $ + + > $ $ + 3 3 q q 6 O & , < < < < < < # @ ",
"> $ > > > X $ > > $ # $ # $ $ # # $ # $ > # = = X = > > > = X > > $ # $ $ $ # # # # # # # # # # @ * * # $ e < < 4 > # X # X X - - # > - - # : ; : v l e e v v : e v v v n v n n n A n n n w.n r.7.w.7.n 7.x.IXIXDXUXUXIXIXUXIXLXLXJXJXJXwXwXwXwXw.: l ; 3 l = = * * - - 2 - ; > - - # > $ $ < 1 3 > + $ > $ X > X # > > > - > 5 < r r < $ > > $ # $ $ > , 9 w i P W ] ] %.;.;.;.p.] ] 8 s >.*.| =.2.2.2.1.=...+.*.-.O.-.-.O.-. ._ W T P p 0 y 7 9 f t u t 1 < < % < % $ < $ $ - + $ + $ 1 > $ + 3 6 = = = = , , % < < @ < : @ < ",
"+ > $ $ $ - $ $ $ > $ $ > $ $ X # # # $ > > - - > - X X X - X - > $ # $ $ # # $ # $ $ # # # # # # . # # # 5 u r 1 > $ X # # $ $ # $ X @ X - - * - 4 4 v v 4 e v v l v n n n n n n A A A w.n w.n w.r.A n A r.HXIXJXJXLXJXLXIXLXJXNXwXwXwXwXwXr.;Xn 2 l l ; 2 2 = - - - - - - - < < - > > > < , 1 < > > $ X # # # - @ @ $ $ $ $ < < e < $ > > # $ # > $ 1 q m f M W ) -.p.*.&.,.p.;.` D s } p.s.| *.&.;.&.&.:.;.;.*.*.1.1.1.1.*...o.o. ._ T j j p i f f i q q r % < % < % $ $ $ # $ $ $ . $ w , $ > , = , , , 1 $ # < @ @ e e # $ ",
"$ > > > $ $ $ $ $ > $ # $ # $ # $ # # # > # X # X - - X - - - > $ # $ # # $ # $ # # # $ $ # # # # # $ # # e u r > $ # X $ . # # X # # X * X X - - 2 4 v v e v v e v n e e v n n n A A A A A w.w.n 7.A n n r.$XIXLXwXJXIXIXIXJXwXeXwXwX$Xr.r.m.r.A > : 2 ; ; 2 * 2 - - 2 > ; - - - > > > < > , > $ - # > > > - # - - $ - $ - @ $ # % $ $ > $ $ $ > , , 1 i B E T ] ] *.;.&.,.s.,.,.| ^ *.,.;.,.d.d.d.d.s.S.d.d.d.1.=.=.1.1.-.1.=.=.*.o..._ W T j P V V M i u t u e % % < < $ % $ $ $ $ # $ 1 > $ . > > 5 + , > $ # < @ @ < e < < ",
"$ > $ $ $ $ > $ $ > # $ # # $ # # @ # $ # # - X X X - X > > X # $ $ X # $ # $ $ # $ $ # $ # # # # # # # # < e 1 $ # # $ $ $ # $ $ $ $ # X # # - * - > 4 4 v v 4 m v v n n v v v e n n A w.A A w.w.w.n n n w.M.IXIXJXIXIXLXLXwXwXwXwXr.r.r.r.r.r.n > ; ; ; ; ; = - > > - 2 - - - - > > 1 1 < $ $ @ # # $ X $ X X $ @ $ $ @ - $ $ @ < # $ $ $ $ $ $ $ & 9 i N ' _ *.| &.;.,.>.d.d.d.,.*.S.j.d.j.H.D.h.S.S.j.j.d.D.3.s.s.f.2.1.1.;.;.=... . . ./ F U I U V M M N m 1 < < < < % $ $ $ $ $ < $ , 1 1 = > 3 , + > > , e % # e 1 < < 1 ",
"$ $ $ # < < < > $ $ # X # $ $ # # # # # - X - - - X - > - > X - # # $ $ # $ $ # $ $ # > # $ @ @ @ @ # # # < < < # $ $ # # # $ X X # $ # X X X * * X - > 4 5 e 2 e e S t.t.y.t.t.y.t.q.X.A A w.A w.A n n n A w.jXIXIXIXJXJXwXwXwXm.r.r.r.r.w.w.w.v - 2 ; ; ; ; = - ; > : 2 - ; > > > > 4 1 < , , < $ $ @ # $ $ # $ @ @ - $ @ @ # @ @ $ $ > < $ $ $ $ y M M I ] O.*.*.;.,.,.d.d.>.d.;.&.d.d.S.H.j.D.H.H.H.H.G.H.j.j.j.j.h.h.2.2.1.1.-.*.*.o.o.o. .I P T E E E V m 1 % < $ < < $ $ % $ @ $ < , , 1 w 5 5 w 2 w , w r r r u r 1 1 r ",
"$ $ $ # $ $ $ $ $ # # # # > # X X # - > > X - > > * - - > # # # # $ $ $ $ # $ $ > $ $ $ $ @ @ # @ X   # @ # $ $ $ $ # $ X $ $ . @ # $ # X + + X > X X - 2 < > - > # S V m S q.y.x.x.$XXXx.w.w.w.r.w.A e n n w.$XJXLXHXeXNXwXwXwXr.wXm.r.w.r.r.w.e - ; ; ; * - - > 2 > ; > - - > - > > > , 1 < < % < $ $ $ $ $ $ $ # # # $ @ @ # @ $ < $ > > $ , , w N E W ) o.O.*.-.,.,.,.,.<.d.<.} <.j.G.j.H.G.G.R.E.G.J.R.H.H.j.j.h.h.a.s.g.p.p.-.-.o.o.O.O.o.! T W E E Q E m 7 < & < > $ $ $ # $ $ $ $ > > > > > > , , 3 + = $ > 1 < $ $ < , ",
"$ $ $ $ $ $ $ > $ # # # # > # X # # > - - > - X X - X X # - # $ # > > > $ $ # $ $ # # $ # $ $ # # X @ # # @ @ $ $ $ @ @ . @ # + X # $ + $ = + = X X X - - > - # > > S r S q.m X.m V V q.x.w.X.r.X.w.A e S y.m.wXHXLXLXHXLXJXJXNXJXNXwXxXjXwXxXw.4 - ; ; ; : - - - 2 4 4 2 > - - > > 1 1 , 3 1 1 r % < % $ $ $ # - # # $ # # # $ @ < < @ , $ $ , 1 q N U W _ ] } | ,.p.d.<.<.S.H.S.| d.H.H.H.H.E.E.R.R.E.R.R.E.E.I.j.k.j.h.h.a.a.p.p.p.o. . .X. .] ! ! ! T E V i t 1 $ < < $ @ # # < < $ X $ > $ $ > > > = = > > X > > $ @ $ , , ",
"# $ $ $ $ $ < < # # - X - > # - $ > > X - - > X X * X # # # $ # $ > X # X $ # X # # # # @ $ $ # @ @ # # # # # # $ $ $ # . # $ o $ $ $ $ $ > + + X X X X > > - # + , N m XXjX$XjXM.dXM.v i.w.w.w.w.A A A A w.y.m.m.m.$Xm.m.m.m.r.r.y.r.w.w.A w.v e : : - - : - - > > 4 4 2 - - - - 2 < 3 1 1 w 1 % 1 < % % $ $ $ $ $ # $ $ @ @ $ @ < @ @ > , > , q M V E ] ] ] %.&.s.d.d.S.D.J.R.J.H.I.H.H.R.R.R.^.R.^.^./._.^. XE.g.a.a.a.O.O.O.O.O.O.! E _ ] O.] ] _ W E E B f t % $ $ $ $ # $ # < > < $ # $ $ X X + > o + > > > > $ + + + + , ",
"$ $ $ # # # $ $ $ # > # X # # # > # > X - > > - - - > - > > > $ X > + X X # # # # # $ @ X . . @ @ # # @ # @ @ # @ $ $ $ $ $ $ # $ & 1 , > , > > = > - X # # > > + > Z v $XjXjXjXjXHX$Xe i.w.w.w.w.w.n n e e e : e v n n n : e n e e v : : k : n l - * * - - - # - 2 4 > - - # - > < 1 5 w w 1 w r r % $ # $ # $ # @ $ # $ # @ @ @ # @ @ > , $ , $ M E E ] ] ] *.p.s.g.h.j.I.I.Q.E.Q.R.^.R.R.^.^.^..X/..X X XE.g.-.X.V h h V B f q i M f 0 f V ] ' ! ! T Q Q P f r < < % < % $ # $ $ # $ $ $ > $ X > + 3 > + 3 + > > + = 1 = + 7 ",
"$ $ $ $ $ $ > $ $ $ # # # X # $ # # - $ > - - > 2 > - > > # $ > $ $ > # # @ $ # @ # # # $ @ # @ : # @   # @ # @ @ - $ $ < $ < < < , , & , , , > , $ = $ > # > X @ @ V e m.jX$XjX$XjXjXn X.w.w.w.A A e n m v m m v C A m n m v A v v l b l l v l 4 2 v v > # - - 2 2 < ; - - > > > 3 u u 5 1 1 t 1 1 , % % @ @ $ $ $ # @ # # # $ @ @ # # $ > < $ 1 B V ] X.] ] p.p.p.g.g.j.j.k.W.W.^.Q.^.^./..X.XoX.X.X Xk.a.y.E N m m q q q , q 9 1 1 9 9 , q E ' ' ' ' E E B M t 1 < & $ > > + > > > > > X = = = $ > > $ > + > > = + > , = = 1 ",
"$ $ $ > > + $ + $ $ # # # # # # # # > : : > > < - - - > - X X > > $ $ $ $ $ # # # # # # $ @ $ # # # @ # X # # # $ $ $ $ $ $ $ $ $ , , > , > > , $ , $ $ $ # # > < : V e y.jXr.JX$XjX$Xm t.X.w.w.w.n e n l v v v v v A m m n v v v v v l l l l l : - > 5 e e - : 4 2 2 > - - - - 1 2 3 5 1 u w 1 w 1 < % $ $ $ $ $ $ $ # $ $ $ $ # # $ $ > > > & < V X.' ' E ' ! E ! ] O.O.a.g.I.E.^.^.^./..XoX.X.X X^.p.O.Q V m w w u m i w = w 1 5 9 3 O = 7 w N ' ' E E V M N i 9 < , < > > > > > > < > = + * > = > > = > > > + $ $ $ > > = > ",
"$ $ $ > $ $ # $ > $ # # $ # # X # # # : $ > : - - # # > # > + = # $ $ $ $ . # # < @ $ @ @ $ # # # # :   @ @ @ # $ < $ $ $ $ $ $ > > , & > $ , $ > > > $ # > # $ < < V e y.jX$XjX$XJX$Xe y.w.w.A w.A e e l m l v v e m n m m m m v C m v l l l l ; - : > 4 < 4 2 4 < ; - - - > > 5 3 5 1 1 1 w 1 9 1 < $ % @ # $ $ # # $ $ $ # @ % # # # > $ < $ t X.X.B 0 0 0 q q 7 7 q f h ! O.g.(.^.^._..XoXOX.X(.g.] T j t w w q w 1 1 w q q i M m i q q 7 O 6 M E ' E B M N i t < 1 , > 3 = > - 3 3 > = X X > > > = > X = > > = > = + > = + ",
"+ $ $ $ $ $ $ $ $ # X # # # # # # # $ @ # # $ # > - # - > > > X $ > > $ $ # # # # @ @ $ $ @ # # # # # @ @ # # # @ $ @ @ % < $ < 1 , > > > , , > & $ $ $ $ # # # @ < n e X.jXr.jX$XjXjXe X.A A w.A n e n v 5 v m v 4 v C n A A A C C b b l l 2 l ; - : - - - : 4 < 2 - - - - - > , , 5 1 1 1 w u u w w 1 $ $ $ # . $ X $ # # # # - # # # $ $ < < i X.V 7 O & O O , , , q q 0 p T -.I.^.E.^._._..X.XE.g.) j y 7 9 9 u N M V ' ] t.y.O.y.O.' ' N f 7 6 M ' E V V M i t w , & > = = 2 > 2 > = * * = > = = > $ = $ > + > > + X + 3 = ",
"$ + $ $ $ X $ . $ $ @ $ # # # # % - $ < : # # # - - > $ > > > X > > > > $ $ # > # $ @ < # # # # # # # # # # @ @ $ $ @ # $ $ $ < < < $ $ > , , > > $ > $ $ X # + < $ t 9 X.jXm.jX$XjXjXy.w.X.w.A A n : e n e v v v v m v v m A m C v v l l l l 2 ; - - * # - * X - > - > > - $ > > 1 > , > , 1 w u u u u u 1 > $ + $ $ + $ $ $ $ $ X X - > > > > M X.r O O & 6 7 + 5 w w 1 7 q s _ h.R.^./..X_._.^.E.;.) F f h E ' ' ' X.y.O.y.y.y.p.y.y.O.O.X.V N 0 h Q V V N i u t u < & 3 3 3 > = = = = * = 2 * X X > > = > X > $ + > = > > = ",
"$ $ + $ # o # . @ $ - @ # # # $ $ < < < < > > > $ $ - # $ > > + > > > > > $ # # # < - @ # # # # # # # # - # < $ $ $ $ # @ $ @ $ $ $ 1 < > $ > & > $ + $ # $ $ # @ @ M 7 t X.Q x.n y.$XX.X.A A n V n : e v m v m m v A v v Z A A m b l v v l 2 l ; - * : - : * * - - - - - > > # , > > > , 9 1 , 1 w u u u 1 1 , + $ + $ # # $ X + = - X X - $ , N M o 7 7 f V B V V N w i f f g ] s.R.R.^.^.^._.E.E.g.;.o. . .O.Q  .! E B E Q V '  .O.p.y.O.O. .! P V E Q V M M m i q 1 = , 3 = = 3 = 2 = = 3 = 2 * ; > > > = X = + = > > > 3 > ",
"$ + + + $ @ $ $ $ $ $ @ @ $ $ $ $ $ < < $ $ $ < > > $ > # > $ $ > > > > < $ : @ - - - $ # # # # # # # # : < < < < < $ $ # # @ # # $ < $ & > > > $ $ + + # # X X < @ m h Q V Q A M X.V h X.A A w.A n e n m v m v v m C m m C m C m C l m l 4 2 : 2 : X - * * : : : - - > > > - $ , , , , , 1 9 3 1 w w w w 9 1 $ $ $ + + # $ # X > X - - # > < > u 9 9 B E y.y.y.O.' E Q Q E W R %.s.H.I.R.^._.^.^.E.g.p.%.O.] T E E E E E V Q B B E Q  .O.o.X.o.] ' E E V B N M m w w 1 , = 3 = 2 2 = 2 = = 2 = 2 > = = = - > > $ > $ > > > = $ ",
"& $ + $ # $ X @ @ @ @ @ - $ % < $ # % < $ # $ : - > > $ # > > = > > > , < 5 > < $ $ $ $ $ # # > # # # # @ @ @ @ % < < $ > # @ # $ # X $ < 5 1 , + $ + $ $ $ $ $ # @ t t t h h X.V X.X.X.V w.A A A n : e v v v m v v m v C m v m b m v v l l l 2 2 * * - # * - X X # > - > > > < > , , , , 1 1 1 u u m w w 5 , & = + $ $ $ $ $ X X X X X - $ , < t w B Q y.X.' E ! Q Q ! R W _ _ ` -.d.H.^..X.X^.E.H.s.p._ _ R W ] T f B h u i i B E T j T X.O.O.O.] ! E B B N h M 9 , 9 , = 3 3 = = 2 ; ; 2 = 2 2 > * X - > 2 > = > > = > > $ X ",
"$ $ $ @ @ $ $ $ $ @ @ @ # $ $ $ $ $ $ $ $ @ $ > # $ # $ $ $ # < + > > > 1 < > > > $ $ > # # $ $ $ # # $ $ $ $ # $ < $ < < & $ # # # # # $ < 1 > $ $ $ @ # @ $ # # % 9 h h t 7 0 t i q 9 S A A A A n ; v C 5 l m m l v m v m v v v m v m l l 2 2 - - - - - - 2 * > - > > > 1 1 > 1 1 1 , , 9 1 9 q w m m q w w 3 + , , , 1 > > $ = > * X - X > , q M ' y.Q E V p U D g W ! ] ) ) ) ` <.I.!.)..XW.I.j.-.o.] E ) O.! B ' S &   + 9 S B i p p Q X.o.O.X.X.Q B M h V u 9 , , & > , > ; ; = k = = ; = * = > * X X - > > > > > $ $ > 1 ",
"< $ $ # $ # $ $ $ $ - $ # $ $ $ % $ $ $ @ @ $ $ $ > $ # $ X $ $ $ > > $ $ 1 < $ $ $ $ $ # > > $ # # $ $ $ $ $ $ $ $ $ $ < < < $ # $ # # $ $ < < > $ $ $ < < < # < # r M h V V ' S ' t.t.t.A A w.C n - l v v b m m m b m m l m v m v l l e l l 2 2 > - - - X > > - - > 1 < 1 3 5 5 5 w 1 , 1 w w m w M i m q w w q 3 3 9 1 1 $ $ X X X * $ = $ + u V V ] E p 0 i 6 O O 0 U ! ] ) ~ ( ,.I.W..X^.E.g.s.-._ R ] ] ] V a. X9 , y.m = X.g.T 6 p j !  .O.O. .Q B B B N i , $ & $ , 2 X = = ; = ; ; ; * * ; > = - > - # > $ > > $ $ $ < ",
"$ % $ $ $ . @ $ $ $ $ $ $ $ $ @ $ $ $ # $ # # $ $ $ $ o $ $ $ % & $ , $ $ 1 u > # X # $ < < > < $ $ $ $ $ @ $ $ $ # # $ > 1 1 1 $ # # $ $ $ $ < $ > > < 1 r < @ < # @ # @ $ $ $ # < m X.q.A A A n v : 4 m l l m 4 v m v v l l l v l v l 4 l 5 4 4 > > < > > 3 > > > 4 3 5 < w 5 u w w 1 w w q m m i m M m w w q w w w w w 3 > + = X X - = = = o i ' ' E 0 7 O.X.O f V q ] g.' ] ~ ^ ;.H.!._.^.I.s.*.*.) ~ ] ] ] g.%X Xq q S 9 + t.k.p.! p 8 Q o.O.o.O. .! B B h M 1 & 1 1 $ > $ = 2 ; ; ; ; * X 2 X * > > > X X > $ X > < % $ $ ",
"$ # $ @ $ # X @ @ # $ $ < < $ @ $ % @ $ @ @ # # $ $ $ @ $ $ % @ $ $ & , < u u < # . # < 5 < > $ $ $ # $ @ # # $ @ $ $ $ < > < > $ # # $ > $ $ $ < < $ < 1 1 < : @ @ @ @ . @ # # @ : v A S A 7.A A v 2 v v 4 4 l 2 4 l 2 > 2 l 5 2 2 < 2 4 4 4 3 < < > < 5 3 5 5 5 < < 5 5 5 5 5 5 u u q w u i u M m m m u i w q w w w w w 1 > + > X - * + = & o V Q Q f O j g.' O N B O M.tXp.] ` ` =.H.!._.!.H.,.*.} ` ` ) W ) g.M. XU O O + U k.p.' F a s R / o.o.O. .! E B h q 1 1 & % & $ > 2 2 ; = * * ; * 2 = = > 2 > = > $ $ $ $ < < < $ ",
"$ $ $ # $ $ @ # @ # @ $ $ % < $ $ $ @ $ @ # # @ $ $ $ $ $ % % $ $ $ % 1 & 1 u < $ $ $ w u $ # % $ $ # # $ $ $ $ $ $ > > $ > > < < $ $ $ > $ $ $ < < $ $ < @ - @ @ < $ # # @ : : # : n n A A A A m v : e v 3 2 4 2 4 l 2 > 4 l : 2 4 : ; ; 2 4 : < : $ < < < 5 1 > $ $ > < 1 w w w w w u u i M u i i m i w w c q w w u w w 3 > + + X X X X = = & V ' U p p ! p.O.8 O & N k.p.] W ] } :.J.^.^.Q.H.,.&.} ) %.-.` } | ) O.) Y ' U ] Q J J d J / /  .o.-.-.O.! E B i t % 9 % % % @ # > ; = ; * 2 - > > * > 2 > > = > $ > < $ $ o % < ",
"$ $ # $ @ $ $ $ $ @ # $ $ < $ $ $ $ $ . $ @ # $ $ $ $ % % % < % % % , , & > < & $ o & 5 1 $ X $ $ # $ $ $ $ @ @ < & < > < , 1 1 5 $ @ # # $ $ $ $ $ < $ < @ < # $ < < - - : : : : v n n A A C A A v : : 4 4 2 2 2 4 4 : 2 2 : ; 2 2 2 ; ; > 2 < < > < < > > < , > # $ < > < 5 u u u u q u m u i m i i i w w i q u u i w 9 = + + X X X X + + o & ' O.! p s g F W P W ] p.O.] p.O.` } <.R.!.!.U.F.,.| | } | p.p.p.p.p.] d.p.| ] ]  . .R F / .. ...%.-.-.O.! E B h y 7 t t t f t 1 3 = = ; ; > - - * = 2 > > - X + < % $ $ @ @ % $ ",
"$ @ $ # $ # . # $ @ # $ < < < $ $ o @ $ $ # @ $ $ $ r t 1 % % 1 7 t t < , < & & $ @ $ , % $ $ $ # $ # $ $ @ $ $ < $ < 1 < 5 3 3 5 < < # # # $ $ # $ $ > # < < < e e < 4 4 4 e e l v n v n A C A A v : - 2 l 3 > l 4 : 4 4 : ; 2 2 4 4 2 - 2 < < 1 < % < & < < $ > # > $ $ < 1 1 1 w w u q u u m i i m m q w q w w q q w 1 + + + X X > . = + o q ' ' ] _ R _ ) R } ;.p.;.p.p.| | } | S.!.!.!.Q.f.;.=.o.%.} ] ;.| | p.;.p.p.;.-.-.o.%.....@...=.+.+.-.-.O.! T V h t % t M V X.V S c 3 = ; = = X - X = = > > + $ $ 1 > # @ $ % $ % ",
"$ $ $ $ $ $ $ $ # @ @ $ % < $ @ $ @ $ @ $ $ $ @ $ % t t t % % % 1 u i t t w 1 & & % $ $ $ $ $ # @ @ $ $ $ % r t < 5 1 1 r u 5 1 1 r 1 $ $ # $ $ # # > $ $ - $ $ < e e 4 e e 2 e l v v n b b A A v e : l 4 2 ; v v 4 2 l 4 ; : l ; 2 : ; - - > > 1 < < 1 < , < > $ # < < > $ & 1 < w w w w u i M i u i i i w i w i c q w 1 , + + X # $ X > + o p O.]  .o.) ] -.a.;.j.<.:.s.| *.| ^ &.H.!./.^.R.4.;.1.%.%.-.%.;.p.s.p.s.s.d.s.;.s.3.1.3.:.2.1.1.*.*.-.O. .Q T V h y 6 h Q  .V V V ' m 3 = 2 = X > * = = = = > > $ $ $ % $ @ @ $ < ",
"# $ # < @ $ $ @ . $ $ $ $ $ $ $ $ $ $ $ $ # # $ o % h h V t 7 % % 7 t t 9 t t 7 % 7 e @ $ > $ > X > $ 1 7 t N m < e r e r r t w % < t % # # $ $ . $ $ $ $ > - @ : 4 < 4 e e k l v v v n v v v n v e : : 4 2 2 4 v 4 4 2 ; : 2 2 : 2 - ; < - < 4 5 < < < < < > $ $ $ > < < $ , 1 , 1 5 w w w u i i m u m i i w i q m u w 1 & + . . $ # X + + o V O.] %.*.%.%.p.s.d.d.d.d.d.s.,.} { ,.J./._./.G.<.2.;.:.;.;.;.,.s.s.j.I.E.j.E.j.j.j.j.s.s.d.d.,.=.-.-.] _ ] E M f 9 y T  .X.V T X.V w ; > = 2 = = = = > > = X $ > # # > < # @ # $ ",
"$ $ # # # # @ < # . @ $ $ < $ $ @ $ $ # # # # @ % y V V  .h a % % % 7 t 9 t t 7 h 1 % % $ @ $ > 1 $ & 9 f Q Q 7 % < M m 1 1 9 w 1 % r 1 < $ @ @ $ + $ < < $ - - < < < 2 4 e e e l v v v n v v v v e - : 4 2 ; 2 2 2 2 2 2 ; : ; ; 2 2 2 2 > > < 5 < > $ , $ > # > $ $ > < > $ & , 9 1 9 w w w u m m w w w w w q q i w 9 1 > $ # X $ # # # + + T -.%.&.,.,.d.D.S.H.J.D.j.s.h.,.} } d.Q./._.^.H.s.:.:.,.:.| s.d.d.d.H.R.E.E.Q.E.R.I.E.I.H.j.f.s.s.;.-.o.] ! E B f f B Q Q F J 1.O.i $ = = X = = 2 = > = 2 = > > > # # > < $ # @ @ ",
"$ # @ @ < @ @ # @ # $ $ $ $ $ $ $ $ @ @ @ # @ o t h T J  . .Q J y % % % 6 7 B X.X.M t 1 1 t t % O 0 j j -.a.V 7 % % t m r 1 0 t 0 % 1 1 1 $ $ # $ X < u m 1 # - < e e < : e l e e n e v v v v v v 4 - - : - ; - - 2 2 : : * : ; : ; 2 : > > - > > > $ - $ $ # # # # $ < 1 % , < 1 1 1 w w w w u w u w w 3 w w w u i w 9 , > + # + = # # $ X & ! O.&.,.d.S.S.H.H.J.H.D.j.H.j.;.{ #.S.Q._._./.H.d.;.,.p.:.&.d.j.j.D.I.E.Q.Q.^.^.E.W.Q.R.R.H.H.s.s.;.;.o.] ! T j f y j T Q J  .k.O.7 + $ > X X X = = X = > = > > - - X $ > $ # # # ",
"@ $ # # @ # # @ $ $ . @ $ $ $ $ @ @ # # @ @ o % 7 j Q J Q  .*.*.O.T a % 0 V  .M M M i t 9 y 7 6 g P I J 1.1.d 8 7 7 t 1 t 9 1 i u , , 9 1 < $ $ + + & < < < > > > < 4 2 4 e : 4 v : v n v n n v v e - - - - - - - - - - * : * : > - - - - - # > # # $ # # - - > # # $ > 1 1 , 1 1 1 1 3 5 u u w m u w q q w q w i u w 1 , $ @ X X + X X X . , ] *.*.<.S.H.H.H.H.F.S.D.H.H.<.&.} &.S.Q./.Q.R.G.>.>.,.,.;.&.s.j.H.I.R.R.R.Q.^.W./.W.^.W.W.I.H.H.j.a.p.o.! ! T M h y d J Q  .-.M.X.9 & , , > > = X 2 > = > = > > + > - # $ # # $ # ",
"# # @ $ @ # @ # $ . @ X $ $ $ $ $ @ $ # @ @ o % a B J / ( +.=.1.1.h.-.J t a a a Q Q d a y 7 a R 3.3.3.3.2.1.+./ a 7 % % t t e h i 0 7 1 1 , , $ # $ $ + X $ > > - 4 4 < : < : v : n e n v m v v v 4 - - * - - * ; * * * * * * * * * * X - - - > < > > > > # - > $ # > > > > , , , 1 1 9 3 w w 5 w w 5 w w w w w m i q w > $ # $ + . # X X . 9 O.*.s.S.G.K.Y.J.J.J.Y.P.J.D.:.} } >.F.Q.Q.R.J.S.s.p.>.,.;.;.,.S.H.E.W.!.^.E.Q.!./.W.^.^.E.W.R.H.H.s.;.o.! E T h p y f T _ T o.k.T % 7 % 1 5 w w 3 > = = > > = > X X > > - > > > # ",
"# @ $ @ # # @ # # # X @ # $ $ $ $ @ @ $ $ @ o O B J J / ( @.@.2.s.f.j.h. .a y y 7 7 a a K ( 3._.&XT.%X&X).).P.=.J 7 7 a 7 t t h N i 9 , > > > > 5 5 < > $ $ > > < < 4 > > : : e v : v v v n v v v e : - : - * * 2 > = - - - - * * * * - - # # < 3 > > > - > > - - # > < 1 > > 1 1 9 9 3 9 3 1 9 3 5 9 3 w w i m q m w w & $ . # $ # # # + o 0 O.%.s.H.J.T.Q.Q.Q.Y.Q.Y.H.d.>.} { <.J.Q.Q.Y.J.d.,.>.&.;.;.>.s.H.E.Q.Q.^.^.^.^./.^./.!.!./.W.R.j.j.s.-.O._ T B f y j h ] O.Q O.a.f 6 , 1 r 1 1 w 5 + X + = > + X X - > > > - < > # ",
"# # @ : # # # # X . # # $ $ $ > $ @ @ $ $ @ % 7 d Q / ..@.@.=.3.3.A.P.P.f.f.3.1.+.+.1.f.P.!.~._.P.&XT.T.T.&X).W.@.J d a t Q Q t V h 9 9 , & 1 1 u u 5 $ X . $ < < 4 > - 2 4 4 e e e v v e v v v v e : # - * : * - 2 > 2 2 2 : > - - X - > - - > > > # - > - - - - # > , , < 3 1 1 1 3 1 1 , 1 5 1 5 1 1 w w u i i i w q < % . $ @ $ $ . + O g O.-.S.J.K.K.Q.~.~.Y.~.Y.P.d.&.} | d.J.T.Q.Q.G.d.s.| | ;.;.| d.J.Q.!./.^.}.OX/.^._.^.!.W.Q.Q.R.f.s.s.-.O._ T B h p Q B T ] ! a.O.y 6 9 1 1 1 % , 1 > = > > > > > > > > X > - - > 2 ",
"# # @ # # @ # # # # @ # $ $ $ # $ $ @ - @ @ % 9 d J K ( ..:.:.3.A.3.P.T.W.P.).P.W.P.P.W.P.~.}.'.&XP.T.&XT.T.W.&X%Xf. .a a  .-.d B h 9 0 & + < 5 r m i 1 $ # # # > > > - < : : < : v : v e e e v e : : : # * # # X - - - - > > 4 : : > - - # - > < < > > > > - X # > > > , > , , , , , 3 , , 3 , , , 3 9 w w i i m m u u w > $ $ # . # X + o M O.;.S.T.Q./.`.Q./.'.~.!.Q.S.{ { ,.G.K.Q.K.G.G.| >.*.*.%.| &.j.Q.^.^.^./.OXOXOX.X}./.!.Q.^.W.R.H.s.p.%.O.! B j i y O.M % y V O.h % & 7 % 9 w 1 9 w , > + , X + = + 2 X X > > - - < ",
"# @ $ @ X @ # X X X # # # $ $ > > > $ . + $ & 0 d Q / ( ..@.3.3.A.A.P.P.T.T.P.T.P.T.T.T.T.}.`.`.P.`.`.}.`.}.}.).).).P.Q a 1.1.J d y y p o % t r 1 % t 1 $ # $ $ > > - > $ $ < : : e e e e v v e e : : : - - # : # - - X - > > - # > - > > > $ $ < < < > 2 > - - > - > > 3 1 3 1 , , $ + $ , , , > 1 9 5 w u m i M m i u 1 1 < $ @ $ $ # @ O M o.p.F.K./.`.].].OX}.~.~.~.<.{ { >.J.Q.Q.Q.G.S.d.| &.} | &.( d./..XOX}._.OXOXOXOX}.).).!.!.I.D.j.s.-.-. .T B d y V X.t o 7 i M & 7 7 , 7 1 9 1 9 q 3 & + > = > > = > = X > > = X ; ",
"# < - @ # # # # @ # X # # # $ > $ > > = $ $ , 0 a Q / ..@.=.3.3.A.P.P.T.T.T.T.T.).T.T.T.T.~.`.`.`.}.}.}.}.}.`.}.}.P.3.3.K / 3.Q s a  .j O 7 h i % 7 7 1 % $ # > > < > - : : < : : e 4 e e l : v : : - - : # # : - # * - # - # $ $ - > > > > $ > 1 < < > > X - > - > > , < 3 3 1 > , 1 1 , , > > 1 5 w l w m m M m i m 5 1 1 & $ $ $ # # @ o M -.s.S.Q.`.'.].}.}.}.}._.Y.&.[ >.J.Y.Q.]./.Q.d.d.,.&.%.*.&.K ;./.^..XOXOXOXOX&XOX}.}.~.!.Y.I.D.j.2.-.O. . .d h a V V 1 % 7 i 9 O & 1 7 , q w w 9 1 & , , $ > w 5 > > > = 2 ; ; * - ",
"# # @ @ # # # X # $ # # $ $ # $ + X $ > > > 1 h h Q  .....1.f.f.P.P.P.).T.T.T.T.T.T.T.}.}.`.P.`.}.`.}.}.`.}.}.}.}.}.).).3.K  .J D 1.O.6 6 j ! X.h y 7 % % $ X # > > - # $ : : < e e < e e e e : : : # : @ @ : # # @ . @ # # $ > < $ $ > $ > < < 1 > > 3 > * X 2 > > 2 3 1 3 1 5 5 5 w m m 5 3 1 3 5 w w w m m u M m u 9 1 & , < $ # # # o o g -.s.J.Y.].].].oX+XOX}._.S.{ { S.R././.}.Q.Q.S.s.,.&.*.s.&.[ | ^.}.OXOXOX&XOX}._.}.}.).!.!.U.j.f.2.-.o. .V h h y 7 % % 1 1 N w , w w 1 7 q q q 9 1 , & , 1 w w 5 5 > 2 = = = 2 2 ; ",
"# # # $ # # # # @ X @ X # $ $ $ + = > > , , w h h  . . ...1.3.f.P.P.T.P.P.T.`.~.`.T.`.T.`.}.&X`.T.`.}.}.}.}.}.}.}.}.).P.P.3.@.3.I.2.8 O F  .O.o. .T p 9 & $ . X # # # @ @ @ - # : : : e 4 e k e # : # # : @ @ # # @ # > , > 1 1 1 < < < < < % 5 1 < < 4 > X : > > > 4 1 < < 1 1 1 > 1 1 1 , > 1 , 5 5 w w m m M m u 5 1 < < < $ $ $ $ # X o f -.d.J.Q.'.}.}.}.OX}.OX~.<.| d.J.Q.].+XgXoX/.R.G.a.;.d.D.d.} { !._.}..XOXOXOX~.~..X).~.!.!.U.I.h.;.*. . .B h a 7 o % % 1 i w w 9 7 t w 0 0 q 9 w 0 w w w m u w w w = > > ; ; = ; ; ",
"# @ # # # # # # $ . # # $ $ $ # > $ > > < < 9 i h  ... ...=.3.P.P.P.P.T.T.T.T.}.}.T.T.}.`.'.'.'.}.}.}.}.|.|.|.|.}.}.}.T.}.}.P.P.@.D D ( *.1.~ `  . .! j t % + = X X # * * X X X # # : < 4 < : - # # # * # @ X @ * # $ 5 1 1 9 9 1 < < < & < 1 1 1 1 , > > - - X > # > 5 > < , 1 3 1 1 1 1 r u w 5 w u w u m m i u w < 1 1 < < $ < % $ $ $ o p O.d.J./.'.'.}.}.}.OX}.J.>.$.D.^.^.OXgXGX*X/.E.S.d.<.j.I.s.[ #.^._..X}.}.&XOX.X_.}.~.~.!.W.I.j.f.-... .T d d y y M h % M N & 1 w 9 0 0 t 7 7 r 9 t 9 t u w w m w > 3 = = = 2 2 2 ; ",
"# # # # # # # # $ # . X X # $ # $ > , > % 1 9 0 B  ... ...=.f.f.A.P.P.T.T.T.T.T.T.`.`.}.'.'.'.'.`.T.`.}.}.}.}.|.}.}.|.}.T.T.T.P.3.3.4.:.4.f.+.` +.o. .W f 9 + . X # # @ X # X X # - $ $ : : # * * X * # # # # $ @ - % 1 9 9 , , , & $ & $ & % < 1 1 , $ - > 2 - # # > 3 3 1 1 1 > 1 1 > 1 5 5 , 3 l w v u m m m w 1 < 1 1 % < < < < : $ $ & 0 o.s.J.~.`.}.}.}.'.~.~.J.>.| 4.R.OXOXOX#XoX/.I.j.h.j.R.R.<.{ :.!.~._.}..XOXOX}.}._.).!.Y.P.f.3.f.1.o. .T d p y j X.Q Q X.i , 9 i w t w 7 7 % 7 9 t 9 w i u 9 5 5 = > 2 2 ; 2 ; ; ; ",
"# X X @ # @ # # # + # # # $ $ $ $ $ < $ < r t M J  . .( ..=.3.f.P.P.P.T.T.).`.T.}.}.}.}.}.[.[.}.}.`.}.`.`.`.}.[.`.}.`.`.}.T.`.).Y.U.S.3.3.4.3.} 1.=.+.! M q , o X * # * # # # # : $ - : * * # * X # $ # # # $ $ $ 1 u M M u t w w 1 < > & $ $ % , 1 < > - X > > - # > 5 3 < 3 1 , 1 1 1 1 < 1 > 3 5 u u w m u u 1 1 < < < < % : - < > > > & 6 ] s.J.T.'.].'.'.~.~.J.J.d.&.&.d./.OX/./.Q.H.,.| %.=.2.,.*.=.P.~.)._._._.OXOX_.)._.).!.W.U.f.2.2.*. .T B j d i B Q V  .' 0 q q 9 7 t t 7 7 9 t t t t q i u 9 , 1 5 > = 2 2 2 2 ; l ",
"# # X @ # # # # X # # + $ # $ $ $ % < < % 1 f Q Q Q / ( ..=.f.P.P.P.P.P.T.T.).`.}.}.}.}.}.{.}.}.}.|.}.[.}.}.|.[.|.}.[.[.`.T.T.T.T.P.P.A.S.Z.3.3.:.1.*._ P f w + @ # # . @ # $ $ $ < - - @ X # - > $ - - # # $ $ 9 i B V Q Q E B B f y 0 0 w 9 , $ , 1 1 > + * > > - > 5 1 1 1 < 1 , > 3 < > 3 l l l l m l c u 3 1 1 < 5 % < < < # # < < > & 6 ! s.H.Y.T.'.~.~.~.Q.S.H.S.d.&.| H.R./.Q.J.;.Y [ ] =.:.;.4.I.!.W.^.~.'..X}.}._.}.).~.!.Y.U.f.2.1... .J Q j i M Q B X.Q 1 9 9 9 w 9 7 7 7 y i y t t M M w , + = 3 = > 2 = l 2 ; 2 c ",
"$ + $ @ @   @ X $ X X o $ # - > < > < < = q P W I W /  . .p.s.h.D.D.F.F.U.T.).}.}.).}.&X+X|.&X|.|.}.|.}.}.}.}.}.|.`.&X`.}.`.`.T.T.T.A.T.S.3.Z.3.3.1.-.! P f w + X # # - # # # $ > < # @ # > $ > > X > X + > $ % j T Q J  ./ / _ ) ) P g j f y y 7 % & 0 5 > X > > > > , 1 1 1 1 1 1 1 > > 2 x b 5.5.5.5.5.z q 3 3 , & , < < < < < < < < < 1 % F 1.f.!.~.T.T.~.Y.R.d.D.d.d.,.;.} >.<.,.} ` p.d.>.2.f.I.I.W.R.R.U.Q.Y._.}.~._.~.~.T.P.P.f.f.s.-.` _ Q F j h O.y.T X.0 & , , 3 9 9 t 9 9 t t t t f m m i 3 = = = 2 = 3 ; ; 2 2 k l ",
"> $ $ @ @ @ # * X X . & $ $ - 2 < > < & 7 q P ) ) R J R o.;.p.a.1.2.2.f.I.U.^.}.}.&X}.&XOX&X+X|.|.|.|.|.|.}.|.&X|.&X[.[.}.'.'.T.T.T.T.A.F.A.D.3.2.;.;. .g q 9 $ X @ # # # $ $ > # $ $ # # # # > > > > > + o 7 V ! ......K @...@.} } ` R J j f j p y , & , , > X = X > 2 < 1 1 1 1 1 > > ; k x 5.5.5.5.5.5.5.c c 3 , 7 , % < % < < % < < < 1 % B O.2.D.U.Y.Y.J.J.G.S.d.d.>.;.;.,.:.s.d.d.R.E.G.;.2.2.f.D.H.I.I.U.U.Y.~.~.~.~.~.T.&XP.P.f.s.1.o._ J Q E h i y.y.V u , 1 w 9 = q q 9 9 w w t t t i 9 N m = = 2 3 = ; 2 2 2 k k k k ",
"X - # @ @ # # : # # $ o o . + > > > > > q f W ) ) ) W W ] ` ] ] .. .o.*.1.h.h.E.R.).}.*XOX&XOX&X&X&X&X}.|.|.&X}.|.&X[.[.&X`.}.'.`.`.K.T.P.A.S.3.:.:.*. .j q 9 % X X # # $ > < $ > # # $ # $ > 5 w > > & O q g ] ..@.@.$.$.$.$.C.&.&.%.} ../ R T T j q , & 1 , $ X X > , < < 3 5 1 > > 2 k z x 5.0.5.0.5.5.x x k 3 , , , % 1 < < < < < < < < % j o.1.3.P.Y.F.S.S.S.d.S.>.>.>.;.d.H.^.^.^./.^.H.H.f.D.f.H.I.I.I.f.P.U.U.!.~.~.~.!.P.P.P.f.s.-.o._ ! J V q 5 m N w $ > 3 w 1 9 w 3 0 w w 0 t t i t m m q 3 = 3 2 3 2 2 k l c k k k ",
"- # # # # @ @ * - $ @ o % & , = < > $ < q N ' ] ) ! R d s s s P T Q X.o.O.p.a.O.h.E.(.(.OXOX*X*X-X&X&X&X|.&X}.&X&X}.&X[.&X&X}.~.`.`.T.T.T.Y.P.4.3.=.*. .j y t o $ $ # # $ < > < < # # $ X $ u m w > & O 7 U ) | =.:.3.A.A.A.A.A.4.<.:.=.=.%...) R F g p 9 , > > $ $ < 3 3 2 5 5 1 > > ; k z 5.0.0.5.5.5.x z k 3 3 , , 1 , < < < < < < e < 5 1 h  .-.3.f.F.S.A.4.s.S.s.s.j.d.d.S.R.^._.^..X^.R.G.H.J.H.H.f.D.3.D.H.J.F.J._.~.Y.Y.P.f.f.2.*.%.o. .! T N N c x x l 5 5 3 w 3 w 3 w w w 9 9 t t t u i m w = = 2 3 k k 2 3 k 3 k 3 k ",
"- # X @ @ @ # # # + $ 0 N Z q = < $ # < t V ] ] ] ~ P D D D g P W Q ] X.] y.' ' Q ! o.a.E. X*X*X&X-X&X-X&X&X&X*X&X&X&X&X}.&X~.!.'.`.~.Y.Y.P.H.f.1.1.o. .f 0 9 @ $ # # $ > > < > $ $ $ $ $ w u u 4 > < , f ) -.:.3.S.A.A.K.A.A.A.F.C.Z.<.:.:.$.#.` ) I B f 1 $ < $ $ % r 3 4 3 5 = * * k z 5.5.5.0.5.5.5.z k : < , , , 1 , < 1 4 < < e e < < , y  .o.;.D.D.Z.F.d.S.j.j.j.H.H.E.^..XoX/.R.Q. X X/.^.Q.R.E.I.j.D.H.I.J.F.F.~.!.U.U.U.j.2.=.*.*.] ] Q V S C 5.0.0.x l 9 3 w q w 3 w 1 9 9 w w w t q q m w 3 2 2 2 2 3 k k k k k k c ",
"# # @ @ # @ @ # # + 9 T ' ' f O , < < < t V ] ] _ ) ) ` | p.| ] ` W E W W ' ' E E V B P T ` h. X&X&X-X*X-X&X&X-X=X-X-X&X&X*X&X&X}.).W.R.H.h.s.;...o.O. .f 7 , % $ # # + # > > < 1 $ < > < 1 3 1 5 1 1 y U ] s.d.F.F.K.A.K.K.A.A.A.A.A.A.C.3.<.>.&.&.) R B i w $ $ $ < 5 3 > > 3 = * k k z 5.5.5.5.5.5.5.z l < < 1 , 1 , 1 3 3 3 < < : < < e < t ' o.1.f.d.S.F.d.s.g.d.S.g.G.G.G.R.Q..X/./.Q.Q.R.R.Q.Q.^.W.R.I.I.H.I.j.S.P.Y.U.W.H.f.3.=.*.*.O.' X.V Z x 5.0.5.x l 3 > 3 2 q 3 w 9 3 q 3 w q w m q m l 3 2 2 k 2 k k 3 k k k 3 k ",
"# # @ # @ @ X X + + M p.p.] g 6 & > < < t V  .` ` ` } -.p.g.g.k.k.s.p.-.] ' E N M i M h p p j _ P.).*X*X*X-X-X-X-X*X-X&X&X*X/.^. X(.j.k.g.p.1.O.W Q X.Q f 1 , $ + $ $ > > > 1 1 r 5 3 5 1 , > 1 1 1 w P ] ;.4.F.A.T.A.K.T.K.T.`.`.C.T.C.C.C.<.C.<.>.&.` W T i , > $ < 1 < > 2 2 ; ; k z 5.5.5.5.5.z z k 4 - $ % < < < 1 3 3 5 < e < < e : < 1 7 Q O.-.d.H.D.S.:.;.| | s.d.V.g.g.G.g.G.G.G.g.G.V.G.s.d.S.H.D.H.I.H.U.D.F.U.R.P.I.s.d.=.*.-.%.] ' Q B q = k k k l 2 3 3 = 3 = q 3 w 3 3 w t w w w w m c > = l l k k k 3 k k 3 k k ",
": @ $ - # X # + = o B g.E.p.U q & $ $ % t E ] ] ` %.;.s.j.H.j.k.I.E.(.E.k.k.g.O.' N i p f B j s Q 3.(.&X*X*X-X-X-X*X*X&X^.E.1.;.a.O.! ! Q E E V T h V V M 9 + + + X - + > > 1 5 u u u u w , $ 1 & q f W ] ;.3.D.A.K.`.K.T.`.`.A.K.`.A.`.A.C.C.C.>.>.&.&.` R g q 1 , & < > > 2 2 = ; z 5.5.5.5.5.5.z k : - < $ % $ % , , 2 3 4 5 < e < e < e < % V O.o.s.I.J.S.&.| ^ ^ | | g.G.G.G.V.G.G.G.G.G.g.G.V.| } | *.,.j.f.H.R.H.P.R.P.f.s.;.*.+.o.o.X.Q T N q = = = - - = + 3 = 3 3 3 w 3 w q m u w 1 w u u 5 3 l 2 l c k c k k k c k k ",
"- @ X . @ $ . # = O ] E.E.g.O.U i % % @ f ' ] ] ` *.s.f.H.j.k.I.j.;.p.a.O.O.p.y.i.p.y.] W I R R  . .3.P.&X&X*X&X&X*X}._.g.] P P d f q w 6 q M q i f i M i , $ + X X X > $ < < 5 5 m w w m , $ , 9 M F _ ;.f.A.A.P.K.K.P.T.L.`.K.`.C.T.L.T.A.C.C.C.@.$.@.@.[ ~ s 9 , 1 1 $ : 2 > l ; k z 5.5.5.z z z k ; - > $ < > < : < < < < < e 1 e < < 1 1 1 p O. .1.I.Q.P.d.d.| | ) | | | V.V.g.V.V.g.V.p.V.p.| | | ^ G ^ +.,.f.D.H.P.W.f.3.2.%.%.o.O. . .J V h % < = 2 > X + > 3 3 > , w 5 w m w q m M m u 1 3 3 l 2 2 2 2 3 k l l k k k 3 ",
"# X $ . @ $ X $ = O p.E.E.V.V.p.f % % % M ] ] %.&.s.j.I.I.H.s.-.] D D 6 6 6 O q p U ' O.p.p.-.*.1. .3.P.P.&X&X*XOX.XQ.p.] ~ I g p 9 q q q q q M y h 0 9 9 , $ $ X > # $ > $ > 1 u < $ m i , , 9 j f R ;.f.:.3.A.A.A.T.T.T.T.`.`.`.`.K.K.K.K.T.A.A.C.C.$.@.@.^ P q > % , $ > < 2 ; ; z z z 5.5.z k k 2 2 2 < 4 4 < $ e e e < e < % < < e e e 1 7 9 Q o.O.f.R.U.D.d.>.] | | | V.V.V.| V.V.V.V.| | | | | ] ^ ( &.&.4.D.I.P.W.W.3.3.1.....*.O. .X.V h t 5 # = > > > = > 3 > , 1 w 3 5 w w m m w q 5 1 = 3 3 = k k k k = k k 3 k k k ",
"- # $ + $ # X # X 6 p.E.G.| | g.I & % 7 M _ ] &.,.j.H.H.I.D.&.~ s 6 p y.g O O.' 6 I ;.Y ` *.s.2.3.3.P.P.T.%X&X&XOX).I.o.] U P N p q N U ' ' W P M h h 7 & 1 o $ X + $ # $ > < w u $ $ u 1 , 1 q j D -.2.1.3.f.D.T.P.Y.T.`.T.'.`.`.'.'.~.T.T.T.C.K.C.C.$.$.@.K I i 3 $ < < % < ; ; k z x z z z z k ; ; 2 2 > 4 3 2 2 e < < < e e < < e % % e 1 1 % d  .o.s.P.J.D.S.p.;.| | V.V.G.G.G.G.G.G.G.G.G.| V.| | +.=.3.f.j.P.I.U.W.f.3.=.*.*.-.O. . .J B i q 1 $ > = > > > 5 3 3 , w 5 w w w u u w u u 5 5 > 2 = = k 2 k k k k k = k 3 k ",
"- # $ $ X X X > = q g.H.g.| V.g.*.6 O 7 V ! ] ;.s.S.J.H.H.S.&.~ P U ) ] W f 6 8 6  XgXk.} &.f.D.P.P.W.%X}.&X&XW._.^.s.( I ) ) ] p.p.a.a.g.k. Xg.-. . .M y &   @ X # $ $ $ $ < w 1 < < & & 1 9 f j / a.s.h.D.D.D.P.P.^.OXOXOXOXoX{.}.].].`.T.`.`.A.C.C.>.:.$.[ ^ N w $ 1 < > - ; ; k k x z z k k ; 2 2 2 2 4 2 3 2 4 : < e < < < < < < < < % < t 7 t Q  .*.h.f.D.d.d.d.>.| | G.Q.L.9XL.L.oX9X/.G.| | ) ) @.1.3.f.P.P.U.^.W.f.1.=. .o.-.O. .Q V p p q 9 + = = X > 3 5 5 3 5 5 1 5 u u w w w m M w 5 > = = = 2 2 ; = = 3 = k = k = ",
"> # # @ # # # $ + q p.g.| | R.Q.H.F O q E  .o.,.3.I.U.U.Q.U.D.,.s.h.a.-.o.O.-. .Y *.g.d.+...@.f.P.A.P.}.&X&X&X).).W...J I ' ) p.p.O.] p.p.a.g.E.E.k.-.O.E % o $ X # $ # $ $ $ 1 1 w 1 o & w w f g p.g.1.%.%.} } +.O.h.k.E..X*X*X-X*XOXoX}.].].T.K.T.K.Z.>.&.` ~ U 9 = = 3 3 2 ; k k k x z k k * : $ > > > 4 2 3 4 2 4 < e @ e < 7 e % < < < < e , , h  .o.1.f.f.d.d.4.<.,.>.>.G.V.G.G.G.G.G.g.| | | &.:.4.d.P.P.P.P.P.W.j.s.=.*...O. .] Q E B p h h , + = = X > 2 5 5 4 3 1 3 5 5 w m u u u w 5 3 > > * ; ; ; 2 ; ; 2 2 2 2 k 2 ",
"> - # # X # # # + q p.V.^ G./.^. X) 6 8 Q  .%.2.f.P.Y.!.~.Q.!.Q.P.W.U.W..X*X.XE.R.R.d.S.2.:.:.P.T.P.P.`.}.&X&X}.}.P.K D Y ] W 0 q W q p P I *.*.h.j.s.-.E 7 % o X $ # $ $ $ $ 1 u > & $ 1 w M q O.k.O.R H ~ H P  . . . .O.a.k.E.*X*X-X#X}.].].`.].`.`.K.J.D.,.o.U f 9 = = = ; ; 2 k z x z k k = $ $ $ < > > > 4 > 4 3 < < < < < < < % e < < < < 1 < t Q  .-.1.2.3.2.d.D.S.G.d.d.G.G.G.g.G.g.V.s.g.g.D.d.f.D.f.A.f.f.f.f.3.1.o.o.O. . ._ T j j T V h 1 = = = # $ , 5 l 4 4 , 5 w > m m w 3 > > > 2 > * > = 2 = = = - - * = = 2 2 ",
"* X X X @ - * - O O p.| | Q././. X| 8 s ! o.*.2.f.P.U.~.T.!.~.~.~.~.}._.}.OX).&X*XOX^.Y.P.P.P.&XP.P.A.T.}.|.}.}.`.$.G H ] E. Xg q ' O N g.P s ) =.h.j.a.! y & o X $ X # @ $ $ < u 1 % & w w w V a.] I ) *.,.>.;.O.] O.y.y.p.g.E.R.OXgX-X+X}.oX{.].`.]././.E.j.p.U M q = = k * = k k k k k ; ; = - > - > 2 > 2 3 4 < < < < e < e e @ e % e < < r r 7 7 h ! O.=.1.:.3.3.d.H.R.J.S.G.g.V.g.H.G.J.Q.G.E.J.D.f.I.f.3.3.3.f.f.-.*...o. . .! Q F h E Q X.h e > l 2 > # 4 2 4 5 5 r 5 5 1 5 5 , > X > = > - > 2 2 * 2 * > > = > * = 2 = ",
"* X # X X X * # = = O.] s./.Q.oX^.*.8 g  ...%.2.D.P.T.!.T.T.~.~.'.~.}.}.}.}.&X&XOX+XOX/.!.W.P.T.P.P.A.T.}.[.`.}.K.>.D ^ ] O.a._ g O 8 ] gX XG 8 D ` a.-.! f $ o + $ . X $ $ @ < 5 i < 1 u 9 0 O.] ) j. XOXOXgXgX*X.Xk.k.g.g.g.E.(.*X-XgX-X+X{.].[.].oX].J.a.O.] T N w = 2 2 k k k k x k ; ; ; * < - > 2 > 4 2 < > > < < < < < % e e @ e < < e e < e 1 9 E  .*.1.=.2.3.3.S.F.H.G.g.V.V.g.G.R.J.U.J.J.D.d.A.3.3.3.3.3.f.2.*...o. .o. .W d j ! ' X.V h % > 3 = > @ > - > < 3 4 3 > 3 > = > > 2 > > 2 - > > > X = > > 2 3 2 ; ; 2 = ",
"> X # # # # X X $ O ' ] d./.K./.Q.p.8 D ] ] *.2.F.Y.T.T.T.}.}.}.}.}.}.&X&X&X&X*X*X*X&X).).).).T.Q.F.F.T.[.{.}.'.Y.$.D ^ ;.s.s.j.E.g.| | 1.1./ a a a ..*. .h % @ + + + $ X X + $ , N u r 0 9 W ] *.^._.OX*X*X-X-XgX-X*X.X^.E.I.E..XOXGXGX=X#X|.[.[.}.}./.-.W f y 7 9 9 ; = * k k k l k l k ; : - - $ - > : < # < < < < < < < < < t < < e < e e < < t t % y  .-.1.1.=.3.3.P.F.U.J.H.d.<.d.S.R.U.U.P.f.P.f.f.3.3.3.2.3.3.;.*.+. . .! R d d ! O. . .E f 1 > 2 - - - > # - @ - # # - X * X * 2 > - - > 2 > > $ < > > - < 4 < - 2 4 2 ",
"X X X # # X X + o O N p.s.G.S.Y.Q.g.s s W ] =.3.P.T.T.~.T.T.~.}.}.}.&X&X&X&X-X-X-X&X&X}.}.}.}.).K.F.C.`.}.|.|.[.T.<.G Y %.j.I.R./. X^.j.3.3.3. .K ( +.1. .V 1 @ + + + + # $ > + + w r u q 0 o.,./.oX}.OX&X&X&X-X*X-X*X+XOX.XOX.XOX*XgX-X-X=X&X|.].}.oXD.` W B q 7 & + = 2 ; = k l l l k ; ; ; ; - : $ : < < < < < < < < < < < < < < < < < < < t < < 7 < t h X.1.3.2.3.f.D.U.Y.J.J.H.S.J.J.Q.Y.U.P.P.P.P.3.3.3.3.3.j.3.1... . . .J j J _ %.O. .! E h 7 . $ - - - # # @ < - - : # - - - > 2 > > > X - - - : # - # > - < 2 ; 2 4 e ",
"# X X @ # X # X + o p p.,.S.S.S./.H.H s _ o.+.3.Y.T.`.~.~.&X`.&X}.}.}.&X&X&X&X&X&X&X}.}.}.&X}.~.J.K.K.T.'.|.}.}.L.<.Y Y ;.s.Q./.^.oXoX_.).).%X3.3.:.:.3.-.T 9 $ + + X # $ $ + , + $ r t q U g.H.~.[.oX+XoXoXOX+X*XOXOXOX+X}.oXOX*X*X-XgX-X-X&X}.}.}.^.d.%._ ! P N U M = = * k k z k k ; ; ; > > > : : $ : # # : < $ < < < < @ e < < % e e e < e < 7 e 7 7 t V a.1.s.f.3.F.J.Y.Q./.^.^.^./.^.!.!.P.W.f.3.f.3.f.f.f.s.1.+. . .Q d s R o.*.-.o. .! T h w % $ - : - * # - - # : > - > > - < > > - > > - # > $ $ - - 2 - > 2 > - 2 4 ",
"$ # # # # # X X & o 6 | -.d.C.>.d.R.s.D _ _ =.3.Y.T.T.~.`.}.}.`.|.&X|.&X&X}.&X|.&X}.&X&X&X&X}.T.Y.K.T.'.[.[.[.[.K.| ^ ^ <.d.!.OXOXOX].OX}.T.T.T.P.A.3.3.*.W q + + $ # X # $ + + & $ i y q Y g.Q.[.}.oX+XoX^.^.G.D.J.U.J.Q.OXoXOX&X*X-X-X-X-X+X}.~.Y.Q.H.s.2.a.p.p.g.p.M = 2 k z z z k k ; * > * $ $ : < < % < % < < < < @ < @ < < < < < < < e < e e t < 7 < h  .a.s.f.3.d.H.J.J././.^./././.~.Y.P.P.P.P.3.f.f.f.3.1.+. . .Q J a R O.a.-.*.%. .Q T h y < # @ @ : : # # - # # - # > > - < # > # > # X X > : $ @ $ < - - > - * > 4 ",
"$ $ # $ # . @ @ X o O W p.>.d.| { :.h.R / / =.3.Y.T.~.'.'.}.'.&X&X&X|.|.&X|.|.|.|.|.|.&X&X}.`.T.Q.J.T.'.{.oX{.{.J.>.^ ^ >.J.'.}.}.oX`.[.[.&X}.T.T.F.S.d.;.W q = , + $ $ + + $ , & w i q s ] G.^.'.}.oX_.S.} } ] | ) | d.4.J.+XoX+X+X*X&X*X+X]./.J.S.S.j.j.s.j.j.d.g.p.N = = k z z z k : ; * = > : $ - < : > < : e @ < < < < @ < < < < < < e r < 7 e e % 7 % t h -.s.2.1.2.f.F.U./.^._./.Q.!.Q.U.P.f.f.f.f.f.f.h.1.*. ./ Q a J  .-.1.1.1.*.o. . .T j i 1 @ # @   * * = 2 2 - - - > > - < # : # $ > # $ # # $ $ - : # # : - - 2 4 ",
"+ + X # # # @ # o o O p a.;.>.Z.Z.@.+.K R ..=.I.P.T._.'.}.|.&X|.|.|.|.|.|.|.|.|.&X|.=X|.|.}.`.T.Q.K.K.`.{.@X{.].K.| ^ [ ,.J.~.].[.|.&X&X}.`.`.`.T.T.K.S.*.) q + + $ X # $ > , 1 6 m M f D | Q./.}.OX}.<.D 8 6 0 9 f ] Y ^ ,.T.OX&X+XoX+XoX/.J.d.&.s.d.j.D.h.s.s.s.p.p.U = 3 z z z z k k - > > 2 > : < < < > < $ @ < < @ < @ @ < < % < < 1 1 < 1 e t t 1 t % % t X.O.1.1.;.4.H.U.!.!./.W.Q.R.R.I.3.f.f.f.f.h.1.1.o. .R F a Q  .1.1.1.1.*.*.%... .Q j h t M q.t.S v 5 * X # - < 2 : > - > $ $ # # > > $ $ # < < $ $ # > > - 2 4 > ",
"+ + X X # # # #   + o 6 O.| ,.J.~.P.3./ F ..*.3.Y.~.'.}.}.}.|.|.}.|.|.|.|.|.|.|.|.=X|.&X&X[.[.`.K.K.L.].{.{.{.L.K.| L { >.J.T.'.}.|.[.[.[.`.`.}.T.K.K.F.*.W q + $ $ + $ > 1 5 q 9 i N D P s.Q./.~.Q.,.D s ] N q S f XX.Xp.:.S.~.+X}.]./.].Q.<.{ ^ ,.g.S.s.a.;.*.| p.g.' = 2 k z z z k ; ; > = > > < : < < $ < < e < < e < < < @ < < < < 1 1 1 1 7 t e 1 e t < 7 i  .O.*.;.2.4.f.f.H.H.H.H.j.j.f.h.3.f.f.2.s.-... .J J J  . .1.h.1.3.1.=.+.+.../  .j f i V y.B.%XB.x.t.m 5 > : X 2 - : > < $ # $ # # # @ < $ $ - $ : : > > - > - ",
"$ + + + # # # # X o o O B ] a.E.U.U.E. .J ~ =.P.Y.~._.'.'.}.}.|.|.|.|.|.|.&X&X|.&X|.&X|.&X&X`.A.G.K.L.{.{.{.{.{.K.>.[ K #.Y.].].[.}.[.'.|.|.}.}.`.T.Y.S.;.U q + > $ $ > 5 u m i u q N U I G.Q.Q.~.H.&.D ) k.N q q N gXkXOXH.<.J.}.K.K.L.T.J.d.} G ] p.p.] I D P P I p.' 6 = k z z z k ; - > 2 > - > < < < : < < @ < < < < @ < < < % < 1 < r 1 r e % 1 1 < 1 < % % B O.O.;.1.;.2.2.s.j.j.j.j.h.h.1.1.1.1.1.*.O./ J F J ..h.3.h.f.h.f.s.2.1.+. . .Q j h h h V i.B.aXaXtXwXB.i.w.l < - $ # : @ $ $ $ # $ e r $ $ $ $ # > 4 2 < 2 - ",
"$ $ $ . # @ # # = . $ O O _ k.j.P.I.(.O.J  .=.j.P.T.).}.}.}.|.|.|.&X=X&X=X&X&X&X=X=X&X&X&X`.A.A.G.L.oX{.#X@X@X{.`.J.{ K { J.}.}.[.[.`.[.`.&X&X[.'.T.T.D.;.T , $ 1 , > > m w u m q m M P R H.U.K.J.S.S.&.` ~ G G P ) g.p.| ,.>.K.L.K.K.K.T.Q.S.&.G I ] g 6 g p.) q q U U = 3 k z z x k = - > 2 2 < : : < < : < < < e < < % @ @ e % < < < 1 1 r 1 1 5 < r < e < 1 1 M ]  .O.;.;.1.;.;.s.a.h.a.a.1.1.1.-.-.-. .F F Q  .3.1.f.f.k.3.f.f.f.3.1... . ./ T d y M h Q M.B.rXrXaXfXfXiXrXx.t.m > X = # > - # < 5 > < > # # : $ < 4 4 < - ",
"+ + $ $ @ # # # # + $ o O p O.E.E.W.(.1.J  .*.f.P.T.).).}.}.&X|.|.&X&X&X=X=X=X&X=X&X=X-X[.A.C.A.L.oX+X+X#X#X#X#X`.T.A.[ K 4.oX[.&X[.`.[.[.[.[.[.].~.T.F.;.Q % $ w 1 , 9 w w 1 m u M T 8 %.F.F.F.F.S.G.F.s.3.3.C.d.d.d.,.C.G.G.K./.K.K.~.Q.L.G.,.D Y D 6 W q x.tXO.q q Z 3 2 k k k k k = - 2 ; ; : < < < < < < @ < @ e < < < < < < $ < e 1 r 7 1 1 u 1 5 r r < 5 i X.] X._ ] ;.%.*.=.*.;.1.;.*.o.O.-.*.o.J J J ..1.h.I.I.I.P.P.P.f.f.f.3.1.*.@. . .J V d Q h j X.M.9XrXrX9XrXfXdXfXdX4Xi.m = > 2 $ $ 5 5 > > > # # $ $ : < 4 < - ",
"$ $ @ $ # # # # + # X . o O f O.k.k. Xa.T  .o.2.P.T.T.}.}.}.|.|.&X|.=X=X=X=X=X-X=X-X-X&X`.P.`.`.].oX+X#X#X#X#X@XoXT.A.@.K { ~.+X&X`.`.[.[.[.|.}.{.'.T.D.;.W & > , , 3 w w u 5 m r i T 8 ;.G.A.C.G.F.K.T.K.J.`.`.L.K.J.K.G.C.G.K.K.K.K.K.L./.K.J.L D D 0 U & x.tXM.S q w = = k k x l 2 = - - ; ; $ < < : @ < < < < % < % < < < < < < < < 7 1 1 r r 1 5 r < 1 < w M.M.' p.o._ ` / .... .o.o.o. .o. ./ J J / *.h.j.I.I.P.P.P.P.P.P.j.f.f.3.1.@.*. ./ Q B d Q B a M t.M.rXtXtXrXrXXXwXaXaXdX9Xt.= X > # 2 < < < < > > $ $ < < 2 < - ",
"$ # $ $ @ # @ X X X . . o o o 9 h  .O.T M  .-.3.P.P.T.).}.}.}.|.|.&X&X&X&X=X-X-X=X-X-X`.A.[.[.|.+X+X+X+XgX-X#X#X[.~.P.Z.$.L $.[.{.&X[.{.[.[.[.[.[.`.~.Z.;.T o , 3 , , w w u 5 u 1 i g 8 ;.H.K.A.C.K.K.K.K.C.C.C.G.K.C.G.C.K.K.~.~.].].`.].L./.K.>.s P ) B N p.x.' N i 9 = = = 2 k l 2 = - - - * $ : @ < : < < @ e < % e < < < < < % 1 1 e r 1 r 5 5 5 r 5 5 m x.kXM.T y.-.o.) %......._ ) / ` /  . .o.1.h.I.k.I.f.P.P.P.W.P.P.P.P.f.f.f.3.1.=... . .d d V J V J U ' x.tXaXtXrX9X XrXB.rXaX4Xq.3 > * > > < > 2 > < : : $ - < - - ",
"# # # # @ $ . $ X # X @ @ o . o @ @ % % h  . .3.3.P.).).}.&X}.&X|.|.&X&X=X=X-X-X=X=X&X`.`.`.`.'.].oX+X-X-XGX-X+XoX}.J.F.F.Z.{ C.[.{.|.[.[.[.[.`.`.T.K.Z.&.B o = 5 > 9 w u 0 r r 1 h d a D.S.F.C.K.`.`.`.L.L.L.C.L.C.K.C.`.`.[.[.[.}.|.[.L.`.L.K.G.L D ] O.O.E B g q i t $ = ; k 3 k k = 2 = = > : : # $ : < < < < < % < < < < % < $ e 1 1 < < 1 5 5 r < 9 S x.aXkX X] y.*.] ` ;.s.j.I.k.H.j.j.j.j.j.E.I.j.P.j.I.P.P.).).%XP.P.P.P.f.f.3.3.1.*. . ./ J J Q / Q J U g N y.XXyXhXaXrX9X9XB.rXiXM.8.2 * 2 > > * X > > - - # - - - - ",
"# # # @ $ o $ $ # # # # . @ @ o @ @ . @ M Q  .1.3.f.P.T.T.&X}.}.|.&X|.|.&X=X-X-X=X&X&X[.`.`.}.T.K.`.oX&X-XGX-X&X}.K.C.F.J.J.{ $.[.&X&X|.[.[.`.`.K.T.Y.Z.} f o 3 3 , w w u u r % 1 V 8 H F.C.C.T.`.`.[.[.{.{.`.L.`.L.{.`.[.{.{.|.@X@X|.[.L.L.].]./.d.D G *.;.-.-.] U h 9 o > = ; k 3 = 3 = = > > $ < $ : < @ < < < < < < < < < < % < < 1 < < 1 r 5 5 5 3 t.x.rXBXmXE.] O.-.` ` *.;.j.R.E.^.^.R.U.W.W.I.P.P.I.P.P.P.).).P.P.W.W.P.%XP.P.P.3.1.=... . .J Q  . ./  .W I T V ' g.XXtXtXrXrX9XrXiX9XN.m ; * 2 2 X X 2 < - - - - - - - ",
"# @ # $ o @ o $ - # # # @ @ @ @ @ < @ @ e Q  .1.3.3.P.T.~.}.`.&X}.|.&X&X&X=X=X&X&X&X}.|.`.T.&X&X}.T.~.|.-X-X&X+XL.{ { S.~.!.| $.[.|.[.[.`.`.`.T.T.K.F.,.` 0 = 3 > , m q w m u < q M 8 %.Z.K.C.`.[.{.|.{.@X{.{.{.{.`.{.{.{.+X=X-X=X@X`.L.L.`.oXoX].J.{ D K [ 2.%.-.O.T y & = = = 3 k = = = = = = > < > < < < % < < < < < < < < < % < < 7 1 e 1 r r % u q.x.B.hXmXhXk.U O.-.] ] %.;.s.H.R.W.Q.R.J.P.W.!.W.P.Y.P.!.T.).).P.T.P.A.P.P.P.3.3.f.3.1... . .J J  . ... .) W W T U E y.M.XXtXaXB.9XaX9XM.u.m = = 2 = - - < - : > - - - > ",
"# @ @ $ $ $ + + X > # @ # @ @ @ < @ @ @ < Q  .=.=.3.P.P.P.).}.}.|.|.|.&X&X&X&X}.}.|.|.[.[.`.T.T.~.}.'.T.|.=X}.L.{ { /.&X+XK.>.K.&X|.{.[.`.`.T.T.Y.F.d.&.) 6 = 3 + 3 w w w u 5 > M 6 s d.G.K.`.`.[.{.@X|.@X@X{.@X{.@X@X#X@X#X=X=X@X{.C.L.`.|.+X+X]./.C.G ( ( K } %.` ! B + + = ; 2 = = k = = = 3 > $ : < < @ < < < % < < % < < < e < < < 1 1 < r u i.x.x.M.tXmXkXgXk.] O.o.*.} *.;.2.d.H.J.Q.!.Q.!.W.!.P.W.P.P.P.P.).).W.P.&X%XW.W.P.%Xj.f.3.1.=... .J / ..+... .] ] _ T T E V ' y.B.tX9XB.fX0X9XN.8.l 2 ; > - 2 < - - - # - # - ",
"# # # # $ $ . @ X # $ @ $ @ # @ $ . # @ % V  .*.-.1.f.f.%XP.&XT.}.|.&X|.&X}.}.}.oX}.}.].].~.Y.F.J.oX+XoX/.K.G.,.,.Z.S.J.J.C.K.].`.|.[.`.`.`.T.P.F.S.;.o.T & = , = , 3 w m w 1 7 6 6 ) d.G.G.`.L.{.{.@X@X@X@X@X@X#X@X@X@X@X@X@X@X{.L.`.{.@X=X-X-X+XOXQ.L { >.{ [ { ` ] E & X 2 X = ; > - - # # > < $ $ < < $ < , > < 5 < < < % < < < < < < < t X.%XrXx.x.9XmXBXmXtXp.] ] *.*.} -.,.2.d.H.P.^.~.!.U.!.P.P.P.P.!.P.%XT.).).).).).P.W.W.P.P.k.3.1. . . . . ...=.*. . ..._ W ) ! W T B ' g.XX9XaXsX9XN.x.8.l = = ; = 2 > - - - - - 2 ",
"# # # @ @ . # $ $ @ @ $ $ @ @ @ # X # % 1 V  .O.1.1.1.f.P.T.T.T.}.}.&X}.T.T.).).]././.T.K.J.Z.F.^.OXgXOX.X/./.^.I.<.,.4.Z.F.`.T.`.`.&X'.`.T.T.A.Z.s.1.o.g o o , = + , 1 w 3 = & 6 I | s.G.C.K.`.{.{.@X@X@X#X#X#X=X#X@X@X@X@X@X@XL.{.=X@X@X@X-X-X*X+XQ.L $.Z.S.$.} [ ) ' q . > 2 > > = = $ $ - # $ $ $ $ < $ & < 1 $ 5 1 < < < < < @ < t S X.M.jXdXM.x.B.fXVXDXhXXXp.] O.p.O.*.-.,.2.f.D.I.U.U.^.!.U.U.P.P.P.&XP.T.%X}.).).).).).(.P.P.P.P.f.1.1.1. . . . .1.1.1.*.o. .) _ _ W I U B N y.gXmXvX0X4XN.c.S l = ; = > 4 < # - - 2 - ",
"# $ # # . # # $ . $ $ @ $ . $ + X $ # o % M  .O.-. .*.1.3.P.&X&X}.}.T.A.3.P.P.T.Q.Q.Q.J.J.Q.<.4.S._.+XoXOXOXOX_.J.<.<.4.S.F.T.S.P.T.'.'.T.T.A.A.,.:.;.] 0 o + = + + = = > = & O 8 ] p.>.C.C.K.`.{.{.@X@X#X#X#X#X=X=X=X#X@X@X@X{.`.@X=XL L ].-X+XoX~.{ L J.Q.F.Z.>.| ] ) N X = = ; = = $ $ $ > > > $ $ < < < < < < & > < 1 1 < 1 % V i.x.M.%XjXdXB.x.M.%XmXVXZXhX X' O.] ] p.*.| s.d.D.H.U.!.^.Y.!.!.W.P.P.T.&XW.~.W.%X).).P.W.).P.(.P.P.k.h.3.1.@.@. . . .1.1.1.1.*.%.o.] ] ] ) ! T N i.vXvXvX0X9XN.N.u.C * * 3 5 - - 2 - > 2 - ",
"# # # $ $ $ @ . $ @ X $ @ $ @ # . + . $ % t Q O.-.-.1.-.3.3.f.W.).}.3.3.3.3.f.P.H.S.J.j./.R.S.D..XOX.XQ.oXoX_./.J.H.d.:.Z.S.S.F.P.A.P.T.T.A.A.A.&.;.O.W & & , X + + , , o o 6 q U ] | >.<.G.L.`.{.{.@X@XGX#X#X#X=X=X=X=X@X@X@X@X`.{.{.C.K.].'.+X].Z.L <.].oX~.K.Z.<.| ) N O = = > > > + $ $ # > $ > $ < $ < $ < < < 1 1 1 < r V k.$XM.M.%XjX%XXXB.M.XXtXVXBXmXhXM.) ' ] p.| *.%.s.h.H.U.W.!.!.T.!.~.!.).P.%XP.&X}.&XT.).).%X).P.(.W.W.k.P.P.h.1.1. ./  .1.1.f.h.1.1.;.-.%.%.%.] W E U XXhXvXmXqX9X2X4XN.u.c ; = 2 X - 2 2 - : < ",
"$ # # $ $ $ $ . $ . # # . $ # # . X . % o 7 T O.O.1.1.-.-.1.P.!.).P.@.3.P.P.f.I.^.E.J.Q.OX^.Q.oX^..X^.G.OXgXoXR.R.J.d.:.4.S.4.S.d.2.2.P.P.3.3.....%.O.E O O = + + + + . . 7 q f R ) &.<.C.C.L.`.L.{.@X@X#X#X#X#X-X-X=X=X=X@X=X|.`.T.[.|.{.`.oXS.| S.>.~.+XoX].`.G.Z.| ) g = = , > = + = + = $ $ > > $ $ $ > $ % % < < % % V x.B.B.k.XXyXyXyXB.XXB.M.rXfXVXVXBXhXE.] ] O.O.p.-.%.,.S.R.^.!.!.).).~.).).).).).%XT.).).).).).).P.).W.W.P.P.I.I.k.1.@. . .@.1.3.3.h.h.1.2.s.| *.%.] ] W y.rXMXMXqXzX0X3X4X4X2Xi.Z 3 * 2 - * 2 - - 4 ",
"$ $ @ # # @ . $ # @ $ . $ @ X o X X # % % 7 B  . .O. .O.*.-.3.!.).).3.3.P.3.I.I.^./.Q.oX.XoX].oXoXoX/.L.oXoXoX/.R.G.G.D.D.3.2.:.4.2.&.=.:.=.=.K ` O.O.V & + + = + X X + , i M j H ` &.>.C.C.K.`.{.{.@X@X#X#X#X#X-X-X-X=X=X=X@X|.`.`.K.K.K.K.G.>.{ { <.~.OX|.oXL.T.Z.>.] B o + = 2 = + + = + > = $ > > $ > > < < < e % a x.%XM.M.M.%XyXyX%XM.tXtXM.B.aXVXVXDXkXXXx.] O.O.-.;.-.&.*.j.R.R.W.!.).!.~.).).~.T.).P.&X).).).W.).).).P.(.W.P.W.k.P.f.3.1.1. .@.1.3.f.h.2.1.2.h.p.>.*.] ] y. XmXvXnXmXqXqX0X4X4X0X4Xc.u.m 2 : - > 2 2 > ",
"$ . . . # . # $ $ X X $ # # $ X X . $ @ % y h E X.O.O.1.-. .1.I.P.).P.A.3.3.f.f.J.Q.Q.].].oXoXoX+X9X+XoXoX#X9X#X/.Q.Q.Q.U.4.4.2.s.2.+./ .... .J o.-.O.q & = $ > = X $ 1 i f B F J ..$.$.A.T.T.`.L.{.@X@X#X#X#X-X=X=X=X=X=X=X|.{.[.`.[.'.].oXK.J.&.[ [ <._.|.{.].K.J.,.] p o > > > > $ + + > # > > > > > > < < < < t X.$XB.k.%X%X%XyXyXtXXXXXyXXXXX%XfXBXVXDXmXy.y.] O.| O.p.;.-.;.2.j.D.U.^.!.!.P.!.Y.!.W.W.).).).).).).).).).W.(.W.(.P.P.k.f.h.3.1.1.@.1.h.f.f.3.f.s.s.s.| p.p.O.a.aXmXnXvXnXlXqXqX0X0X0X9XN.x.u.v ; - - - 2 # ",
"$ @ $ @ $ # # . # . $ @ # X # # + . $ @ o t d j  .O.O.O.-...1.j.).).).P.%X).).W.J.S.S.| G.G.G.L.L.{.oXoX#XoXoX|.oXoX/./._.d.2.H.f.2.*.K K  .F J O.y.' 6 , , # # + . $ 1 u y f ! ~ ( $.C.C.T.`.`.L.{.@X@X#X#X#X#X=X=X=X=X=X@X@X|.[.`.].|.].].oX+XH.} [ &.S.}.].]./.G.s.] q o $ X > > $ + + # > - $ > $ > > $ $ $ e y.M.B.XXXX%X%X%XtXtXXXXXyXXXM.XXtXkXVXDXVXBXM.U O.] y.o.;.a.;.=.2.h.f.D.I.U.U.P.W.P.W.T.).).).).).W.).W.W.P.).P.(.P.W.P.P.P.f.1.3.1.1.3.h.f.f.j.f.f.f.d.s.p.p.p. XhXfXAXnXlXlXqXsXlXlXlXpX0XN.x.u.m - 2 - - : ",
"$ $ # $ . # $ . # X # @ $ $ X X + . $ @ % h B d B  . .O.1.-.*.3.P.).&XP.P.P.&X%XT.T.T.T.K.K.G.G.G.L.G.L.G.G.L.L.G.G.G.L.J.H.D.H.j.2.*.../ J F J O.X.M @ % < @ @ X $ 1 , t y B T K ( =.Z.A.`.`.[.{.{.{.{.@X@X@X@X=X=X=X=X=X|.=X|.[.|.`.`.G.V.L.oXV.| | | $.T.`.`.K.J.2.! 6 o $ # : $ $ @ # $ - # : @ < < @ e % e i.M.(.$X%X%X%X%XtXtX9XXXyXyX XB.9XhXVXDXFXDXVXtXU ] y.O.] ;.p.,.;.2.4.f.D.D.I.P.P.P.P.P.).).T.T.).P.).W.W.).W.W.W.(.W.I.I.W.P.k.3.1.;.2.f.j.j.j.f.I.f.f.P.f.h.1.k.0XGXmXvXnXlXlXlXlXlXqXlXzXsX0X5XB.t.4 2 2 > l ",
". # # @ $ @ X # $ $ $ X # . @ X $ X $ o % j  .j d Q  . .a.h.o.1.A.W.P.&X&XP.P.T.`.&X'.}.}.'.].{.L.L.L.G.L.G.V.L.G.L.G.V.<.>.:.,.=.2.1.%. .F J Q O.' t % % $ . # = 5 w 9 r 7 j  .~ ( @.Z.F.`.`.[.{.{.{.@X|.|.@X@X@X@X@X@X@X=X|.|.|.`.L.K.L.L.G.V.g.| ) ] ,.S.J.Q.J.d.*.P o o # # $ $ $ $ # # - - < < @ @ < @ m k.M.XX%X%X%X%X%X%XtXtX%XgXgX9XXX9XtXhXBXFXVXCXVXgX] ] | p.*.%.p.s.2.2.d.f.D.I.U.U.P.!.T.T.P.).!.%X).).W.).W.P.W.P.P.W.P.W.I.I.P.k.h.f.3.3.I.I.I.I.I.P.j.P.f.f.k.a. XgXZXMXMXvXnXlXlXlXlXlXvXzXzXqXuX5Xc.l 2 * 2 - ",
"# . . # $ X # X X # . . . # @ # @ . % o % j ! W j s Q ! O.a.1.=.3.P.W.%X&X3.P.&X~.'.}.}.}.&X}.`.#XoX{.L.{.].L.].L.L.L.K.F.S.D.f.f.f.2.%. .d d  .X.h % % < @ . $ X , N m < i O.X.J ( >.Z.F.`.[.[.{.{.{.@X|.@X|.@X@X|.@X=X=X@X|.[.[.L.{.L.L.L.G.L.V.p.| | >.,.d.H.d.2.] 7 @ # # - # > $ # @ @ # * @ : @ < @ t y.XX(.XX%X$X%X%X%X%XtXyXtXhXfXrXXXtXaXmXFXmXXXBXVXVXg.' p.g.-.} ,.s.2.d.d.f.D.I.I.P.%XP.%XP.%XP.P.T.P.W.P.P.W.P.W.(.P.W.(.P.(.W.W.I.j.f.f.I.I.I.I.I.W.j.W.j.f.j.k.k.0XGXMXMXnXnXqXzXnXlXnXnXnXlXlXlXuXiX2XZ * l ; - ",
"$ X $ X X # # $ . . # $ # # . . o . % 7 y B _ ] ~ s d !  .O.h.h.3.3.P.P.T.P.3.T.T.'._.'.}.&X&X&XoX#X#X@XoXoXoXoXoX].].Q.U.F.P.I.I.2.;.o.J d B X.h % % % % % @ $ > 0 m m % i O.O._ ^ >.A.P.[.[.{.{.{.{.@X@X|.@X@X@X=X|.@X=X{.`.`.L.L.K.K.G.G.L.G.d.G.s.| ;.,.,.,.2.o.T O o $ $ $ $ < $ $ @ @ # # # # < < < y.M.M.$X%X%X%XjX%X%XjXtXyXhXyXhXyXM.9XhXVXDXM.' fXFXkXk.] p.s.p.} ;.s.d.f.f.f.D.D.I.D.P.P.P.).T.T.P.%X).P.W.W.W.W.W.).P.%XW.W.I.(.W.W.P.I.j.j.j.R.W.W.W.W.W.j.k.k.k.XXmXVXZXMXMXvXnXvXnXlXlXlXnXlXlXlXiXuX4Xc.8.* l ; ",
"X $ X X X X X # $ $ $ # . . @ . o O 0 p p F ) ` ] ~ p d _ *.1.h.1.3.3.W.!.P.A.T.P.T.~.&XP.~.&X&XoXoXoXOX+XoXoXoXoX/.].Y.J.J.P.f.2.=.*. .d J  .h 7 % & < % $ $ @ $ 9 , 9 + & h p.-.) &.A.T.`.`.|.@X{.@X@X@X@X@X|.@X=X=X&X|.`.C.C.C.C.G.G.V.V.G.V.G.V.V.| p.| %.%...! p o $ $ < < > $ $ @ @ @ - $ < > # $ Q M.$X$X%X%X%X%X%X*XjXjXhXtXhXyXhXXXXX9X9XVXBXtX' x.VXVXE.*.g.s.d.| %.d.f.f.D.D.I.f.P.W.T.P.!.%X%XP.T.f.W.W.W.W.W.W.(.W.W.W.W.W.W.W.P.P.W.j.f.I.W.W.W.W.W.(.E.E.(.k.%XyXAXAXAXnXnXnXnXnXnXlXxXnXnXlXqXzXsX0XwX3X5Xu.v k ",
"> X X X X X X # # # @ @ . # # % 7 y M f p R ` o.%.o.R a d o.*.h.1.3.3.%XP.T.P.P.T.P.P.T.P.T.P.P.L.G.G.R.Q.E.J.Q.Q.G.J.J.F.S.3.3.=.%...J d Q V 7 % % & < , < $ $ & 1 , 1 , , y ' ! _ ,.S.T.'.`.|.{.@X{.|.@X|.@X@X|.|.|.=X|.`.C.A.V.V.V.V.V.V.V.V.G.| | | ) O.*.]  .E 7 o < $ < e 1 & $ o # $ $ $ $ # $ r x.(.(.%X%X%X%XjX%XjX%XjXhXyXyXhXyXM.tXM.p.aXhXFXx.' tXVX X;.d.d.h.;.%.2.H.H.I.H.f.I.P.I.P.P.P.A.f.&XP.&XW.W.W.P.W.W.W.W.W.W.).W.%XW.!.%XW.E.I.W.W.(.(.(.(.(.E.(.k.k.yXkXAXAXAXnXnXnXnXnXnXnXnXnXnXnXnXqXzX0X0X5XuXvXx.l ",
"X > X X X X X X . # $ $ $ % 1 t f P T j d ~ ..` -.%.-.J a J o.1.1.h.f.P.T.P.T.T.~.T.T.P.T.P.P.3.V.p.V.| ] } } &.d.G.H.S.S.3.<.=... . .J Q  .t % @ < % 1 1 , $ & + & + & o & q & 6 ~ 2.Z.K.`.[.|.@X@X@X@X|.@X@X@X|.=X|.=X[.`.`.`.G.L.L.G.V.V.V.V.G.G.| Y Y | O.] Q E % o < < r r < & $ o @ $ @ # # @ $ S M.M.%X%XyX%X%X%XjXgX%XkXyXhXyXhXtXM.yXXXmXhXhXFXXXN y.VX Xp.j.g.j.,.&.2.I.R.U.I.P.I.P.j.P.f.P.P.P.!.W.W.W.W.W.).).P.%XP.).W.P.%XT.).T.T.W.W.W.W.(.(.(.(.).(.(.(.E.XXkXBXAXAXAXAXnXnXnXnXnXnXnXnXnXAXnXlXzXcXuX3XiXuXxXm.",
"- X X X X X X X # $ > 1 t r t i E T T F F / ` +.%.*.*.o.R F  .*.1.h.f.j.P.&X&XP.&XP.&XP.&XP.&XP. X^.j.*.| s.U.H.G.Q.Q.J.D.3.:.@.=.*./ j Q a @ @ % $ $ 5 w & $ & + + , + o 1 i 7 6 ~ &.4.T.`.[.[.{.@X@X|.|.{.|.|.|.@X|.|.|.=X=X`.L.L.L.L.{.L.L.L.oXL.V.Y Y ] O.W E E o $ > < u 4 $ & $ $ % @ $ : @ $ @ y.M.XX%X%XjX%X%XgX%X%XjXyXyXhXyXhXXXB.tXkXFXGXVXFXVXy.' XX.Xs.D.j.j.2.&.,.U.W.!.W.P.I.P.I.I.P.P.P.P.%XW.W.P.W.P.W.).).%X).T.%X).W.&X).%XT.%X(.W.(.).(.)..X(.(. X XXXhXBXBXAXAXAXAXnXJXnXnXnXnXnXxXnXMXnXnXnXzXpX8XpXpXuXsX",
"# @ # $ $ @ % < < < 1 1 t t h ' W _ R H R / ` %.| *.,.*.%.R D ) 1.1.j.P.P.W.!.T.&XT.T.&X}.}.}.}.OXOXoXQ.R._..X/.~.).T.Y.P.3.=.=.;.o.Q  .Q % @ $ + $ , w u u < % o & o $ % x.M % 6 P *.4.K.`.`.[.|.@X@X@X@X|.|.@X{.=X|.|.|.|.=X|.{.L.L.L.L.L.L.L.L.G.| ^ ^ } ] W X.B O , = , w 5 $ $ $ @ @ @ $ @ # # 1 i.M.(.%X%X%X%X*XjXjX%XjX%XyXjXgXhXM.rXXXBXHXVXFXGXFX%XX.x.%X2.j.j.P.2.+.3.U.!.!.^.Q.I.J.I.H.H.I.E.W.W.).W.W.W.A.P.&XP.%XT.}.).).)._._..X_._.(.(.)._.).%X(.(.(. XXXaXMXZXZXMXAXAXMXMXAXnXnXAXnXnXnXAXnXnXnXnXlXzX5XlXiXwX9X",
"# $ $ % % % < e < 5 1 % y h E _ _  .W F R ) ` &.;.>.,.s.<.%.^ I  .1.j.j.P.P.&X&XP.T.&X}.}._.&XOX}.}.oX^.Q.^././.~.~.T.~.P.3.=.2.*.X.] E t o @ @ + , 9 w m 1 % $ + + & @ 7 V t % & B ~ 2.F.`.[.|.|.@X|.|.|.|.|.|.{.|.|.|.&X=X&X|.{.L.L.G.G.G.G.K.G.C.| ,.| } ] W ' E & + O 3 u w % < < @ @ @ @ $ $ # i i.$X(.%X%X%X%X%XjX%XkX%XkXyXyXyXyXM.%XM.kXFXFXFXFXGXVXM.Q k.f.k.j.h.2.=.2.U.^.^.}.^.E.E.I.H.D.H.Q.W.W.W.W.W.).%Xf.P.%XP.&X%X).%X}._.%X.X_.)..X%X).(._.).(. X X XyXmXZXSXAXSXAXAXMXMXMXAXnXnXnXnXnXAXnXnXnXnXnXvX5XpXiX0XB.",
"$ e < @ < < < 1 1 1 < % f B _ ! ` ] R J K ` %.*.;.,.,.d.s.;.p.[ J  .1.f.f.%X).T.&XP.}._.)._.}._.~.}.oX.XE.E.R.R.P.P.P.P.P.3.1.2.;.] ! p o @ % # $ , 9 3 9 < $ @ = + $   @ % , % 7 T R %.Z.K.'.[.[.@X@X|.|.{.|.|.{.@X|.@X@X&X&X|.|.`.L.C.G.G.C.K.G.>.d.G.*.W ] ' ' ' , + , 3 u 5 $ < < $ % @ $ $ $ @ M i.$X%X%X%X%X%XjXjXgXgXjXgXhXyXjXtXM.rXx.hXHXGXFXGXVXFXjXX.-.f.h.2.2.:.:.3.P._..XOX.XW.R.H.D.f.I.^.W.W.T.).).P.&X&X%XP.%X).%X).).)._..X_._.~.%X!.).).%X X X(. XrXmXSXZXAXSXSXAXSXZXAXMXAXAXJXnXnXAXAXnXnXCXnXnXvX5XpXsX0X9X",
"< e r @ < < < < > < < < V  .O.o.o.o./ R ~ ( } ;.>.,.d.s.,.,.j.a...J / 3.3.P.T.%XT.%X_.}._.P.F.U.J.R.R.Q.H.d.d.S.<.<.3.A.I.f.s.p.p.' d % o @ @ @ $ > , $ & $ % $ + , % @ $ < 1 t h p _ ` 4.J.`.[.`.|.{.@X{.@X{.{.{.{.|.|.|.=X&X|.|.{.].L.@X{.`.`.T.G.J.E.| I ! ] ' V 1 & 3 w u 5 % 1 < $ < @ $ @ @ e V y.M.$X%X%X%XjXjX*XjXjX%XkXhXyXyXXX$X%Xy.yXFXHXGXHXVXVXFXM.J f.j.2.;.,.3.3.Y._.OX.X_./.R.H.s.D.I.!.).).).~.%X&X%X!.).&X).&X).&X%X&X*X).%X).).).~.%X_.W.%X X XrXhXVXZXSXAXAXAXSXAXMXAXMXMXMXnXnXnXnXAXNXCXCXnXbXcXuXiXiXaX0X",
"t r 1 $ 1 1 < < < < 1 % E  .O.-.%.` ~ ~ ~ } %.=.s.,.d.d.d.g.S.j.h...K ..1.j.W.P.P.%XP.~.W.3.2.f.D.j.;.s.;.;.;.;.@.@.=.4.D.-.-.p.] N O o @ % X X $ + , & , 1 & $ + . . . . $ u X.i 6 Q / #.S.T.`.`.|.{.|.|.[.|.[.[.{.{.=X=X&X&X|.|.[.].}.@X{.{.[.].K.Q.Q.%.P ! ' ' w , + , , 9 5 % 1 < % % % $ . @ r S y.x.XX%X%X%XyXgXjXyXyX%XjXjXyXgXB.XXXXt.rXFXFXFXVXFXVXFX*X_ s.h.d.d.d.D.J.!.}.OXOX.X/.W.H.d.J.^.).)._.).%X).%X).&X&X).%X).&X).)._..X.X.X.X&XP.P.W.%XW. X XtXhXBXDXSXSXSXSXKXMXKXMXAXnXAXnXnXnXnXnXnXnXnXbXbXvXsX5XpXiXiXrX",
"r r < $ < < < < r < r 7 E ! _  .-.` R ~ ( +.&.:.| <.d.<.H.H.j.j.j.f.%.~ K =.j.f.f.P.%XP.I.2.s.f.s.a.] | o.*.*.] ( [ *.2.h.O.O.] V & o o . $ $ X , + + , , 1 1 $ $ $ < # % $ % $ @ O T  .K =.D.Y.`.|.[.{.|.[.|.[.[.[.`.|.@X&X|.|.|.[.[.[.`.`.{.@X{.].L.Y.| P W ' V O + & & 3 , 3 r 1 < % $ $ $ + @ m S t.k.M.XX%X%X%XhXyXgXyX%XkXgXyXyXM.dXB.y.rXGXFXGXVXFXFXFXFXa.,.f.d.f.J.Y.!.Y.OXOX.X^./.R.F.D.!._._._..X).&X).&X).).W.&X&X).%X_.).%X^..X_. XW.(.%X%Xk.h.O.%XfXjXBXZXSXSXSXAXMXAXMXKXAXAXAXnXnXnXnXnXnXnXbXbXbXvXcXrXiXaXiXrX",
"r 1 < % $ < < : < % % 7 Q O...*.-.` G ~ ` &.&.&.,.<.S.S.H.J.H.H.j.H.f.%./ / *.h.k.W.P.P.j.f.2.1.*.a.] O. .O.%.) ` %.*.a.a.p.] N 0 o + , $ $ = + , + = & $ , 1 , $ $ $ % , < , . o O B p. .K #.A.T.`.`.[.}.|.[.|.[.`.`.|.|.&X{.[.`.L.`.`.`.L.K.L.[.`./.G.^ D ] ' 9 . + = $ = > 1 r 1 % < % $ & + # Z S X.i.M.B.XX%XyXgXyXyXyXgXkXhXyXdXk.tXi.i.XXVXFXVXFXFXFXVXFX(.;.H.f.H.P.Q.~.Y._.OX'.~.Q.J.H.U.!._.).)._.).).).).).).).).).).).).).^.^..X X^.%X(.k.a.O. .X.yXBXBXZXSXSXSXAXAXKXMXAXAXAXAXAXAXnXnXnXnXMXnXMXCXvXvXdX0XaXsXiXrX",
"r 5 1 < $ < < < < < < 7 E O./ ..%.( K ^ #.&.>.>.d.d.d.G.J.H.R.S.R.H.j.j.=.J J  .1.1.f.f.j.a.1.-.O.g.O.p.] O.O. .!  . .p.] ! N 7 $ $ $ > 5 3 , 3 3 , = , $ $ % < 1 < $ 5 , $ + o + o j O.=.( K @.A.A.`.`.[.[.`.[.[.`.`.|.=X|.|.{.{.`.`.L.`.`.K.L.L.L./.g.I P ' i o o , o > . + 3 1 1 5 % $ $ $ $ > m M S y.x.XXB.%XdXjXyXyXyXyXkXjXyX%XM.dXt.i.%XjXVXGXHXVXFXFXGX%X2.R.H.U.Q.Y.!.Q.}.^.^.Q.U.U.J.R.^.).!._.).)._.T.).).).).).).).!.^.W.W./.E.E.E.f.h.-.X.a.x.tXjXBXZXSXSXKXAXKXSXAXAXKXAXKXAXAXAXnXAXAXAXMXnXnXbXbXcXiXrXpXdXaXaX",
"< 1 < $ r < < < < < < 7 h O.O.+.` ^ ~ } +.&.:.>.4.S.F.J.R.R.J.R.H.j.H.H.g.p.Y D ) -.h.h.h.h.h.*.h.a.O.p.O.O.O.! T ] O.O.' M , o $ $ > < m m 5 , w + , , + + $ < w u 5 1 m , + + O O q ] p.*.[ K [ @.3.P.P.).T.`.].`.`.[.+X#X=X|.{.L.L.{.`.`.L.C.G.`.J.| P I B o . + > > = $ > > 1 5 1 < < % @ $ e m e X.X.i.k.XXXXyXyXhXjXyXyXkXgXjX%XM.tXX.x.rXtXVXFXFXFXFXFXGX*XH.R.R.J.J.~.Y.~.~.~.Q.Q.Y.Q.Q.).).P.).W.&X).T.).).).).).).P.).!.W.!.W.W.E.E.g.a.a.M.rXVXDXDXZXCXSXDXSXSXSXAXAXNXSXSXAXAXJXKXAXAXAXMXMXCXMXMXCXCXvXXX9XfXsXaXaX",
"< m m # $ < < : < < % 1 y O.-.%...~ ~ } &.>.,.3.3.S.F.H.J.Q.Q.Q.Q.J.R.k.G.k.;.] D J o.-.*.-.;.p.O.O.! O.O.E T E E ] X.V i 1 & $ $ $ # > 4 r 5 w 5 = = , $ + $ $ 5 i u 1 q 1 + & + & q ] p.,.:.#.[ [ @.3.P.P.T.T.T.'.}.|.|.=X=X=X#X@X|.{.L.[.`.`.G.J.j.` P M &   + . + $ > > , , w u u % $ % $ $ < m m V X.i.i.M.%XjXhXhXgX%X%XkXyXyXB.M.%Xq.M.tXtXkXVXFXFXFXPXFX%XU.W.R.Q.J.Q.~.Y.~.!.Q.!.Q.!.~.).).).).).).&X%X}.).).).).).).P.U.I.R.I.I.k.E.H.k.gXFXFXDXBXCXCXZXSXSXKXSXSXAXAXSXSXAXNXAXAXAXAXAXMXKXSXAXCXCXCXZXvXwXiXsXiXiXrX",
"u Z V # @ < $ - < < 1 , y  .-.O.%./ ~ +.&.&.>.<.d.D.J.J.J.R.K.R.R.Q.R.j.d.j.j.d.%.R a D F R / / _ W d s j p y d B B i , & o + + # # # X > , 5 m u 3 > & , $ $ $ u t 0 w w , , , & & 6 ! a.2.d.1.@.[ K ( @.:.3.P.T.Y.'.[.+X=X=X=X-X-X-X#X{.|.|.[.Q.G.H.Y p 6   + + . + , 3 , , 5 u t 1 % $ $ $ $ @ t V A A X.i.x.B.yXjXhXgXjX%XkXjXhXM.B.$Xq.%XrXrXkXVXFXGXFXPXGXgXI.W.R.Y.Q.~.Q.Q.T.!.~.!././.~.).~.W.).).&X&X).&X).).).W.W.).P.U.^.W.W.(.E.g.XXVXFXDXBXZXCXZXSXCXZXSXSXSXZXCXAXNXAXAXAXAXAXnXKXAXAXAXAXAXAXMXMXbXdX5XsXdXvXaXsX",
"< m m e # < $ : > < r < % V -.O._ K ( @.&.:.<.3.F.J.J.R.Y.Y.J.J.J.R.R.G.d.s.d.h.s.s.;.%.~ H D s a s s 8 p p f y 0 9 + o X $ $ + # - - # X > > 3 , > + $ & + + + , 1 1 w w = , + , 9 & T ;.j.f.3.3.3.@.@.K ( @.:.4.Z.F.~.[.OX+X&X=X#X#X#X+X+X+X}.^.E.| p 6   o + + $ $ 3 5 3 5 5 r 1 < $ $ % $ $ < e A V A Q y.i.XXyXhXgXjX%X%XjXyXyXi.XXM.X.rX%XtXBXVXGXPXFXFXGXgXI.W.Y.Q.Y.Y.Y.Y.T.!.!.!.~./.~.~.).).).W.).}.).).%X).).).).&X).).W.E.^.k.XXfXVXDXDXDXDXHXZXCXCXZXZXSXSXZXAXAXNXAXKXAXNXnXnXAXAXAXAXAXAXAXAXZXMXZXiXiXaXsXiXdXrX",
"< > m r $ < < 2 < < 4 % 7 t O.o. ./ ` &.:.,.4.4.S.D.P.J.J.Y.Y.J.R.R.R.J.J.H.s.s.s.d.h.h.s.g.s.-.p.-.-.o._ ! E h & & $ $ $ X # $ $ # $ = > > > + X o $ $ $ $ . + o , 9 , , , , X % r 7 p -.f.P.f.f.f.3.1.=...[ [ @.#.:.3.F.Y.~.OX+XoX+XOX+XOX+XOX^.g.g O O o , o $ 1 1 3 1 3 , > 1 , $ $ < % $ $ < m V q.A V X.y.XXjXkXgX*XyX%XjXyXyXy.rXi.q.yXrXtXBXkXVXFXFXFXPX*XI.W.Y.!.!./.Y.!.~.!.!.!.~././.T.P.%XT.).&X).%X%X).&X).%X%X).)._.). X XXXgXVXDXVXDXFXvXuX4XbXBXCXZXSXSXCXAXAXAXAXKXAXNXnXnXMXAXAXAXAXAXAXMXCXZXCXuXaXdXfXaXfXaX",
"r 5 v m < < > : : < < < 1 7 X.X. .( +.=.:.<.4.4.D.J.P.U.J.Q.K.Q.Y.J.Q.Q.J.J.<.d.4.2.4.j.H.j.I.g.R.I.j.s.p.a.X.h $ & $ > $ $ $ X X = + + X + > + # $ # $ + + $ & & w < $ + , > X $ % 7 8  .f.P.W.f.f.f.3.3.=.+.@.+.( [ +.&.:.2.S.E.Q.].OXoX}.^.R.;.j O o o , , + , , 3 > > 2 , > $ $ % < % $ $ $ < 1 M S V V S X.B.*XjXjXjX%XyX%XjX%Xy.tXy.t.jXrXrXVXkXkXFXFXFXGXgXE.W.W.Q.~.~.T.!.Y.!.!.!.~./.!.&XP.~.).P.%X&XW.).&X).).).&X%X&X_.%X%X%XkXFXFXDXPXvXrXc.Z A rXZXCXDXDXSXSXSXSXAXSXAXAXnXnXAXMXAXAXMXMXAXCXMXMXCXbXiXiXcXiXdXrXiX",
"< < < r < < > > : > $ < 1 % h  . .....&.<.d.S.S.H.J.R.J.J.Q.K.J.J.J.Q.R.U.J.J.S.D.,.:.s.h.j.H.H.H.E.j.g.g.a.B & , $ # # > > $ X $ + + , + $ $ + $ X $ $ . + & 1 , 9 > < $ $ $ > < 1 7 8 J 1.P.!.P.P.P.3.3.3.3.h.=.*.` ` ` ` ` ` ] &.:.4.<.d.,.` j 6 o o X = $ , $ > + + > 3 3 3 + $ $ & $ $ @ $ $ < m A q.A X.X.B.%XjXyXjX%X%XgXjX%Xy.%Xt.i.fX%XtXVXBXhXVXGXFXGXgXW.!.!.Q.~.Q.Q.Y.!.!.W.!.~.!.~.~.!.~.).).&X).).).&X).%X&X).).&X&X X%XkXVXFXFXZXdXi.A t.M.B.BXBXZXDXSXDXSXSXSXAXJXKXAXAXAXnXAXMXMXAXAXMXCXMXbXBXvXiXsXfXdXaXaXaX",
"5 e > 4 5 > - < < : $ 1 1 % 1 Q 1.%.+.;.2.3.d.3.S.J.J.J.J.J.J.J.J.Y.J.J.U.Y.U.D.d.4.d.d.<.d.h.D.E./.I.I.k. .6 & > > > - $ # $ $ + + = , + = > . $ $ 5 1 > & , $ o r % > $ < $ # % 7 % % a ( 3.P.T.).W.f.3.f.f.f.f.d.1.;.` ) / / / R G G G G D s 8 0 1 & $ 3 + $ $ + + = > > + + + $ $ $ @ @ @ % < < e Q X.q.X.X.%XjXkXkX%XyX%X%XyXB.t.XXX.x.fXXXtXVXVXBXVXFXPXFXkX!.).!.~.Q.T.Q.!.!.!.Y.!.T.!.Q.).!.!.).).).&X%X(.&X&X).%X%X).%X%X%XhXGXFXBXiXi.u.i.u.B.ZXBXBXVXBXZXZXCXCXZXNXCXMXKXAXAXAXnXMXAXAXAXAXAXCXCXCXbXaXaXfXfXfXaXaXfX",
"5 5 5 > e r # < $ < : < 1 % 1 t a.-.1.1.1.3.D.f.D.A.P.F.F.F.K.J.K.K.J.J.U.W.P.P.f.3.d.f.4.,.<.s.Q.^.E.k.p.f & , $ > > $ > , $ $ > 3 > + + + , > 1 , , , , , > $ X < & $ $ & + + $ & & O 8 J 1.f.!.~.).P.A.A.A.3.A.P.f.3.3.1.@. ./ J a G K K J J a a h y t , o + o $ # * X = + + + $ > $ % o . o @ 1 V V X.t.y.t.XXyXjXkX%X%X%XyXjXx.O.XXS M.VX%XrXkXVXkXBXVXFXFXkX(.U.!.~.T.Y.~.!.!.!.Q.Q.Q.Q.^.~././._..X.XOX.X&X).*X&X_.%X%X%X%X*XVXVXmXi.S i.c.x.mXBXvXDXmXaXaXN.t.N.CXbXbXnXMXpX9XqXMXmXMXMXAXMXMXAXZXZXMXfX0XkX0XhXaXfX0X9X",
"< 5 5 < r t $ < : < % < % < % t X.-.-.1.h.2.3.P.D.P.P.F.F.F.J.K.J.J.F.J.P.U.U.W.P.f.d.3.2.s.d.s.H.H.H.g.U & & > # $ $ > > , , , > 5 , > > > , 5 , > > , > $ , $ $ $ + + $ , , $ & $ % 6 8 J =.P.W.~.T.P.A.A.A.A.A.A.P.P.f.f.3.=. .K K ..1.:.+.J d d d J j t 6 $ O , > 2 X = & $ + , < % . . o % @ 1 M S X.y.y.X.%X%X*XjXyX%X%X%XyXi.i.M.V %XjXrXrXVXVXVXVXVXFXGXkX(.W.!.!.!.T.!.Q.Q.Y.Q.Y.Q.!././.^.^._._..X.XOX}.%X).%X&X%X%X%XVXkXkXx.q.t.t.u.sXSXBXmXSXFXZXvXt.q.8.B.SXCXKXSXMX4X8.t.0XMXmXbXbXbXMXMXMXMXhXqX0XhXmXfXaXaXfXgX",
"r 1 < < r e < < < < < $ < 1 < % a -.-.1.2.3.3.D.D.F.P.U.J.Y.J.F.F.P.P.F.A.f.P.I.I.f.3.f.d.d.d.d.j.j.a.W 6 O + $ # $ > > 1 > , > 3 5 5 > > > 1 1 > $ > > + , $ > $ $ $ $ & , & + % % % % 6 F +.j.P.!.~.~.P.P.A.P.A.A.3.3.3.3.=.@.( K =.3.f.3.1.J a  . .J Q  .p 7 7 7 + > X = + O & 1 w 1 & O % 7 t r m M N S V V X.a.i.k.i.k.M.B.%Xy.k.M.S tXjXXXdXkXVXBXVXBXVXGXGX).W.!.T.T.T.Y.Q.Q.Q.Y.U.Y.!.!.^.^..X^._._._.OX}.&X%X*X%X%X*XhXjXx.X.t.8.u.iXZXFXDXmXCXFXSXFXFXuX8.wXDXMXSXSXSX0Xq.u.x.CXSXZXKXAXZXAXMXMXMXmXBXmXkXfXfXfXaXfXaX",
"r r < < < < e % $ < $ < % < < 1 % T o.1.2.3.Z.Z.P.H.P.H.J.J.F.F.A.S.P.D.I.A.f.D.3.f.D.D.d.s.s.,.2.;.) p 6 , $ + $ > < < < 1 $ , , w , > > > 1 5 + $ & > $ + $ + > > w q , + = + 1 1 , 6 6 p  .=.P.P.T.~.T.P.A.A.A.A.3.3.3.3.=.@.( ..3.A.3.3.+./ D o.O. ...O.y j ! f $ > + $ O O & q i i y h h y y t M M M V B M V d B d T T X.O.y.V t.i.X.jXVX%X%XkXVXkXVXkXhXVXkX.XW.!.Y.T.!.!.Q.R.U.Y.Y.U.R.!.^.^._..X.X_..X.X%X*X).%X%X).%Xk.O.q.S w.9XSXKXFXDXZXCXBXSXFXSXKXSXrXsXSXAXSXCXNXN.q.q.vXSXZXKXZXSXKXSXMXSXvXhXqXBXqX0XkXaXhX9XfX",
"1 r < < < 1 r r > $ < > < < < % % 9 1.=.1.Z.A.P.D.I.I.I.H.H.F.F.Z.Z.P.3.I.A.D.f.<.S.d.d.,.>.&.| ` j F h 7 o , $ $ < 1 , > < > < > 5 > $ , 1 w 5 $ $ + , > + > $ > 1 m w 9 , 1 > r % & 1 7 8 F ` 3.P.).).T.T.P.P.P.A.A.A.3.3.@.@.@.$.A.A.3.:.@.G D =.1.-.-. .8 o.-.V u < $ & O 0 B B N f 0 8 y y a y f j B M V P T J T T T J T T V j X.X.t.kXBXXXrXjXVXBXVXkXyXkXkX%X!.).T.Y.!.T.R.!.U.Y.U.Y.R.!.^.^._._._._.*X).(.%X.X%X%Xy.' y.y.t.5XZXFXKXSXKXSXSXZXSXDXKXKXSXDXSXvXbXSXCXbXN.6.t.N.CXMXZXZXSXMXKXVXMXZXmXmXhXfXfXvXhXaXfX0XtX",
"r < 1 1 9 e r r 1 < > < < 1 1 < r % O.%X1.3.3.3.f.D.D.H.H.I.F.D.f.A.3.3.3.f.D.D.S.d.<.d.<.p.*.] ! T B y , o , > # < < < < % < < , 3 > $ , , 5 3 + + $ > $ $ , + + > , , , 1 1 $ < $ & & 7 6 s H +.3.!.).P.&XT.T.P.A.A.3.3.3.@.3.3.A.P.A.3.:...D  .h.*.1.1. .a 1.-. .B 1 O O 6 P P N f p p s s p d B d j T E W W T Q / R Q Q  .T W V ' f ' gXhXtX%XhXVXVXVXkXyXgXkX*XI.~.!.!.Y.P.U.Q.Y.U.U.U.R.!.^.^._._.OX.X.X.X.X.X%Xk.' X.t.y.4XBXKXDXSXKXKXSXDXCXCXDXSXDXKXSXSXSXpXbXAXvXxXx.t.u.bXCXZXSXMXZXMXZXMXMXqXmXsXmX0XvXhXfXfXtXhXtX",
"1 < r r e r r r m < > < 1 < 1 < < @ 7 %XI.:.f.3.d.f.f.f.D.F.D.S.A.f.3.2.3.3.f.3.d.d.d.,.,.;.;.o.! Q f & & + , > $ 1 5 < , < < < > , $ $ > > 1 , > $ > , , $ > + o + . o + , & + # $ & & 6 7 p s J @.f.P.T.P.P.P.P.A.A.A.A.3.3.3.A.P.P.P.3.:.K D +.1...s.f./ a +.O.o.V t & O p W P g f g j d s s a F J Q ! ! _ _  ./  .J / J Q Q T W _ B X.%XaX9X%XyXVXkXVXVXyX%XgXgXk.!.!.Y.U.Q.U.R.U.U.P.U.U.W.W.).)._.OX.X.X.XXX%Xy.X.X.y.wXkXKXKXKXKXKXKXKXKXSXSXSXAXKXKXMXKXKXuXbXCXAXvXc.t.u.N.mXDXZXZXSXZXZXZXZXVXkXkXvXkXkXhXfXaXhXaXsXfX",
"r $ < 1 r t < r m < > > < $ < < % < % 7 -.h.h.2.4.d.d.D.f.3.3.3.3.3.2.3.2.3.2.3.s.>.s.,.-.%.o.o.Q h o & $ > , 5 $ 5 1 1 < $ $ $ $ , > $ , , 5 , , + + , $ > , $ > = + + , & $ > < $ $ & % 6 0 d D [ 3.).&XP.T.P.P.P.A.A.A.A.3.3.P.T.P.A.3.:.K G / *.+.3.j.+.8 a  .! h % & & R R g j j P j s s g J ! J / / _ o.....( +... ./ / Q W _ Q _ X.y.XXB.9XjXBXVXBXkXkXjXgXgXk.I.R.Y.Y.Y.R.U.P.P.P.P.U.W.W.).)..X_.}.%X X Xk.y.t.B.CXSXKXKXKXKXKXKXKXKXKXSXSXZXFXSXSXKXMXlXbXCXCXcXrXw.w.x.ZXCXSXSXMXZXMXMXBXmXqXvX0XmX0XkXqXmXhX0XfX0XhX",
"< < < r r r r 5 5 m 5 # < < > < @ < < < h O.s.s.2.3.f.3.3.3.2.4.3.:.:.,.:.2.:.,.>.,.;.| o. ._ T y % % % % $ u > $ 1 w 1 5 $ # > > $ > , $ 1 w < > + + , > $ $ & = + + + + , < $ $ , & , 7 % 7 a a  .3.P.T.).T.T.A.A.A.A.A.A.3.A.T.P.T.3.3.@.K J  .*...3.f.f.K 8 a 8 & o O 7 _ D g P F s s D H ) ~ ` ` ` %.] %.%.+.%.+...} ` ` _ _ _ T W Q ' y.g.M.yXVXVXVXVXkXkXkXgXk.j.W.W.P.P.U.P.P.P.P.I.R.W.W.).)._.oX.X X.Xg.U M.ZXSXDXKXKXDXKXKXKXKXKXKXKXAXKXAXKXSXSXMXiXnXKXbXnXvXw.8.u.qXZXZXMXZXZXMXZXBXMXVX0XkX0XmXfX0XkXgXkXqXkXfX0X",
"1 < < < r r u m r r u 3 - < 4 > < < @ < < M Q O.s.1.2.A.1.2.4.;.=.=.=.:.:.;.,.;.*.} ] ] W T j 7 % 1 r < < > 1 > , 1 1 1 1 > # $ $ $ , > , , , > > $ $ , > $ = + + + & + + 1 w w + $ + , 1 , 7 0 a J 1.P.T.`.P.P.A.A.A.A.3.A.A.T.'.P.T.P.3.@./  .h.*...1.j.j.3.*.a y 7 % O p W F P I F D H ~ ) ` %.%.%.| &.%.%.%.&.%.+.+.+.%.o.` ~ _ R W ! ! X.X.x.yXVXkXVXVXjXkXhXgX Xf.P.P.U.U.I.I.H.U.J.U.I.W.W._.).(..XOX9XH.y.9XVXDXDXKXKXSXKXKXKXKXKXKXKXKXKXAXAXAXAXzXlXMXAXnXbXcXN.u.8.B.SXMXZXSXZXMXZXZXMXvXmXsXhXkXqXmXfXmX0XvXfX0XkX9X",
"e 1 e < < r r r 5 5 v r $ < 5 < < : : < < < t Q  .1.@.=.=.=.=.=.&.=.=.=.=.=.=.%.*.] ` ) F h p 6 % t u , < 1 < > 1 w w 1 5 < $ > > 1 & $ 1 $ X $ $ > $ + > $ $ + X , w m u w , $ 1 1 $ & 9 w t y % a  .3.).).T.P.A.A.3.$.3.A.P.`.~.P.P.3.@.@. . .1. ...1.f.f.I.f.k.-.1 o o E J d R ~ I I ~ } ] | &.&.;.>.;.;.:.:.=.;.=.#.+.%.%.` ` ` ~ W ! E ' ' X.%XkXkXVXkXkXkXyXyX%Xf.j.I.P.I.I.I.H.P.D.I.U.R.Q. X).(. XXXg.] 9XVXDXSXSXSXKXKXAXKXKXKXKXSXKXAXZXZXKXbX2X5XMXKXAXxXZX4X8.8.u.cXAXMXAXAXMXMXZXMXVXvXvXkXqXkXqXhX0XkXqXgXkXqXhXfX",
"< e < e 4 r r r 4 r 5 u e : # < < < # < < < < h J  .=.+.+.=.+.*.&.&.%.} ......_ ) ) R P d d p % w M w $ X $ $ > , 1 < % < $ $ $ & < > > , $ $ & + , > + $ > + $ o , 3 w w 1 > $ 5 5 < & & 9 t i 7 a J 3.P.T.`.P.A.A.A.3.A.P.T.T.~.T.A.3.@.3.K =.1. .=.....=.1.=...T o o 6 T F D ~ ) ` ) ` } ;.;.&.:.&.;.,.,.,.,.:.:.=.#.%.%.%.%.+.` ) _ ) W ' ] V k.jXkXkXVXVXBXhXyXgXj.f.I.j.I.H.H.D.D.D.I.I.W.Q.^.^.(. Xg.p.tXBXVXDXSXSXSXKXSXKXKXKXKXSXKXKXKXZXVXwXz.u.zXKXnXnXvXiXz.w.w.dXZXMXAXAXMXZXAXMXZXvXvX0XvXvXmXhXmXkX0XkX0XmXkX0XmX",
"< < e e e r r u r r r r r e $ < < < < : $ e # % M X. . .O.*.+.+.%.+.` ` ../ W R F P g p f h y 7 N w $ $ X > $ > > $ & , $ > > > , & < 1 , $ , > $ , + + + $ + > + = & & $ $ $ & , 1 , , % 1 7 t 7 d / ..A.).T.P.A.A.A.A.A.P.`.T.~.P.A.3.3.+.( 1.=.1.=...=.@.../ _ T & + O j J K ~ ( ` } } | ;.>.:.>.=.:.;.:.;.&.:.:.&.#.} +...] } ` ` ) Y W W E V X.tXhXBXBXVXjXhXtXgXE.3.I.f.I.H.j.D.D.Z.I.I.R.(.E.E. Xg.g.fXBXmXDXKXDXSXKXSXKXKXKXSXKXSXKXCXCXcXc.9.t.vXAXMXnXzXCXm.S q.N.bXCXAXAXAXMXZXMXMXVXqXkXmXmXmX0XmXgXkXqXqXmXhXfX0X0X",
"e < e < e r < e r < r e r r r < % < e @ : e < $ % ' V j _ O.O.*.o.%...) / R J F g P g P E h y i N , o $ + 1 1 , , % & < , , 3 , > $ 1 1 $ , , $ $ $ $ + + + + $ + = > > $ o $ $ 1 9 , & 1 1 7 7 a J K  .A.P.).P.3.A.A.P.P.P.T.T.T.P.A.A.3.[ @.+...=.=.+.[ [ K K _ B O o 6 p R K } ` } &.&.>.>.&.>.&.:.=.:.:.;.&.&.=.&.%.%.} ..%.] } ] ) W ) E W  .X.XXhXhXkXBXkXhXyXyX_.h.I.I.j.H.f.f.D.D.D.k.E.E.^. Xg.M.hXhXmXZXFXSXDXKXKXSXKXKXAXSXKXZXMXbXbXuXZ t.c.bXMXnXzXvX5Xu.Z q.MXCXCXAXMXAXAXMXMXMXqXhXqXhXqXMXkXhXqXvXhXgXfX0XmXvXkX",
"e < < e < < r e r r r 1 1 e e < $ @ < $ < < < < $ < Q M p _ _ %. . ._ R F d g p g I E ' ' q 0 M 7 o o $ $ 1 < $ $ o $ & + > , $ $ $ 1 < , $ $ $ $ $ $ $ + = , + = $ + > < $ + , 9 q , & % 7 t 7 Q O. .( 3.P.`.A.3.3.P.P.T.P.P.`.T.P.P.A.:.@.$.K ( ( K K K K K ..o.p o O 7 j  .+.&.} &.:.>.>.>.&.#.#.&.:.&.&.=.=.#.&.#.+.+.+.%.] } ] ] ) ) ) Y W ' ' k.tXfXkXBXBXhXyXyX%X3.j.I.f.H.j.D.f.3.I.I.I.E.R.k.E.tXhXmXBXDXSXKXKXSXSXSXDXKXKXAXAXMXMXSXcXc.i.w.MXMXcXnXnXnXu.S 8.4XbXZXnXAXAXAXAXMXAXMXvXmXsXmXvXgXqX0XmX0XmXqXkXqXhXmX0X",
"< e < e e e < e e r e < r e < r r @ < $ e $ < < < < < V y 7 B T O.o._ T j j j P ! Q ] O.E p q 7 & 6 q 9 9 u 9 9 1 & & 1 , , , $ o , , & $ , $ > + & , $ $ 1 1 > + = + & < & o + = & + & @ % % % Q O. .( 3.P.T.A.$.3.P.P.T.T.P.}.&XP.P.3.3.3.@.K K G G K K K @...O.7 o O p / +.{ } &.:.,.:.$.$.#.&.#.&.&.&.+.&.#.+.+.+.%.} o.} %.] } ] ) ) ) U W P ' a.rXyXjXBXBXBXhXgX%Xh.j.j.f.f.f.f.f.3.f.I.I.E.k. XaXhXmXmXVXDXSXSXSXZXDXSXSXMXMXMXMXSXSXFXN.w.c.B.vXMXzXvXcXx.8.w.c.NXCXCXCXAXAXAXMXMXMXbXBX0XfX0XvXqXhXmXkXqXfXmXqXGXqXhXmX",
"< e 5 e 4 5 4 5 e < r e < r t < t < $ < < : $ $ : < $ t M r % t i E ' B B B j ! ! O.O.] P 0 0 y p M j g f j j h f h y y 1 & , $ & 1 & < & $ $ $ o $ $ + & u 1 + + $ o $ % 1 $ & & q i 9 & % O O 7 R o.*...3.!.P.:.$.T.`.T.Y.~._.~.P.P.P.3.:.=.K K K L K =.$.@.#.o.7 o O D ] { #.:.&.:.:.:.=.{ } | } %.| ` } } } } } } %.] | ] } } } ] ] ) W ) I W ' y.XXaXfXmXVXkXfXyXgXh.h.j.j.f.f.f.4.d.f.j.k.k. XgXhXhXfXBXDXDXDXZXZXZXZXCXMXbXbXAXKXKXSX0Xi.8.i.MXbXbXcXnXpX8.w.u.dXnXCXCXAXAXMXAXMXMXMXqXMXmXmX0XmXqXmXmXqXBXqXBXqXhXMX0XmX",
": e e 4 4 4 e < < < < < < < e < e < < < > > < < e % r $ e M t @ , 0 & t i 9 j W O.-.] P p p g j F I T F F F F F F j f j 0 9 u $ , 7 & < < $ < $ $ $ $ % $ w , $ > $ $ o & , & & u f f y 7 % % 6 6 a W ..+.1.P.!.3.$.Y.~.!.P.P.~.~.~.P.A.A.2.:.#.( @.@.@.:.:.:.3. .7 o & P | >.>.:.<.:.:.,.+.^ [ } } ` ( ( ` ` } ) } ` ` } ` } ] ` ` ` ] ) ) I W R W ] B.9XfXhXhXBXhXgXgXk.k.j.j.f.3.4.s.s.s.j.h. XyXhXhXhXBXBXBXSXZXZXDXZXCXvXMXMXSXKXAXSXMXi.8.u.4XcXmXlXCXuXt.t.Z x.CXCXAXAXnXAXAXMXMXMXqXmXkXqXgXkXqXGX0XqXkXqXhXqXmXqXkXqX0X",
"e < e 4 4 < 4 5 < > < < < < 1 < < < < < > > > > $ < $ < @ r V r & > % 1 9 7 7 8 s P P s s j T F R R W R W R R R R W T B i 0 f 0 7 & , 9 u $ > $ $ $ % $ & 1 $ $ + $ $ $ < 9 & & t i y 7 % % 7 y 6 6 a J ..3.P.P.3.:.A.P.P.Z.A.!.~.Y.P.A.Z.3.:.:.@.&.$.$.3.3.3.3.o.& O 7 ) &.$.>.4.<.<.<.&.} G ^ [ ) ^ ^ ~ ^ ^ ) ) ` ) ` ` ( ` ) ( ` _ ) ) W R R E E ' x.9XaXhXBXhXhXgXhX(.h.j.f.2.d.;.,.d.h.g.E.yXhXmXhXfXVXDXZXZXNXCXNXbXvXMXSXKXKXMXSXCXN.i.8.i.mXzXMXcXbX4X8.w.i.pXZXnXMXnXAXMXMXMXAXmXvXvXqXkXqXmX0XmXqXqXGXmXmXqXkXsXfXhX0X",
"e < 4 < 4 e 4 < e < < r < r < < @ < < $ < 5 < > < $ < 5 < < e M m < 1 1 o 7 7 O 8 s D D F J T W R ~ R / ( ` ` _  .W / R p p B M 7 & & , t $ < $ # o X , $ > + , X . o $ & 1 $ & , 9 9 9 6 7 f h 6 6 8 d ..=.2.I.Z.$.3.Y.U.A.P.).~.P.P.!.A.3.:.:.:.=.$.:.Z.Z.Z.3.o.6 O , ] &.<.<.4.3.Z.3.:.[ G ^ ) ~ ~ ~ Y ~ ~ ~ ( ^ ` ) ) ) ~ ) ^ ) ) ) W W W W W W ' x.B.tXhXmXBXBXyXgX%X1.k.f.d.2.,.a.p.s.E.tXhXhXhXhXBXBXZXBXDXBXbXbXCXSXSXSXAXAXKXZXvXi.8.y.0XcXvXsXmXwXu.S Z 5XCXbXAXAXMXnXMXMXMXVXqXmXqXhXqXkXqXkXqXGX0XqXqXkXqX0XsX0XvXaX",
"e 4 4 4 5 e 4 5 4 < 5 4 < 5 < > < $ $ < r r e 1 > < 1 > 1 < @ 9 Z m # > , O 6 p P F H R R R R / / ~ / ( ....( ( ..` _ W p a E E f 7 & $ < + $ $ . o @ & $ $ $ , $ $ + . o $ $ % & 1 q q p h B f 6 8 p D ..+.=.U.P.@.3.~.T.S.Y.T.T.`.-XGXW.3.:.:.:.3.:.<.Z.A.A.f.O.6 o , ] &.<.Z.Z.A.Z.Z.,.` G ^ ~ ^ I G G R K ~ ~ ` ` ) ~ ~ ~ ~ Y ~ ) W W W I R U E ' i.B.rXfXhXBXBXyXgX%Xh.j.h.s.1.s.p.-.k.gXgXhXhXBXBXBXBXZXDXNXfXbXZXKXSXSXSXKXAXMXvXi.i.8.N.MXzXvXzXbXN.w.t.c.sXMXMXnXMXMXnXMXMXMXqXvXBXqXvX0XkXqXmX0XmXkXqXhXqXmXgXvX0XaX0X",
"< < < < < < < < < < < < < < e < < < < < r r m u < 5 # $ < < 1 $ > S M $ + q q g j F F R R ~ / ) ( ( ` +.` [ +.........~ a s Q ! B 0 & % 1 $ $ $ X + . & & + $ > , $ $ $ o @ % $ % 9 9 q p M T y 6 0 8 F *.=.=.D.T.$.>.Y.F.3.U.Y.P.[.GXGX^.:.:.:.:.<.<.<.Z.D.S.D.*.6 o 7 ) >.<.S.Z.Z.S.D.<.` H Y H J H H H K R ~ ~ ~ ~ ~ ~ R Y I I Y ~ W W I W I U ' E y.B.rXaXmXBXBXhXhX*Xh.h.h.s.2.-.O.E.XXhXkXkXBXkXmXBXDXBXbXdXbXZXSXSXMXCXSXAXAXFX0Xt.t.N.0XzXvXzXMXM.8.S S fXmXMXMXnXMXnXMXvXMXqXhXqXqXhXmXkXqXmXvXqX0XqX0XvXvXqXqX0XfX0XhX",
"< : < < < < 4 < 4 < < < 4 5 5 1 < < % < > e 5 r v , r $ # < $ $ $ # N V q f g U P R F H R ~ ) ) ( / ( +.[ +.+.+.+.+.%.K D a W ! B t & & < $ $ < $ o . 1 , + o $ , $ > $ @ $ @ % % % 6 q 0 g V p 6 s j / *.*.,.f.R.<.>.S.D.4.F.P.P.A.).~.4.<.3.>.:.:.>.<.Z.D.S.D.1.7 & 7 ) >.s.S.Z.D.F.S.<.} G G H H H H I ~ ~ R R ~ R R R I ~ I R Y R T I I I R W ' E u.B.9XaXhXmXBXhXgXhXk.h.s.1.a.*.a.tXhXhXmXBXBXmXVXBXCXvXdXvXCXSXZXZXZXSXMXZXMXmXu.8.8.4XMXvXcXzXzXi.8.Z M.cXbXMXMXMXMXbXnXMXMXvXmXkXvXvXqXqX0XGXgXGXqXhXqXqX0XgXvXqXgXhXsX",
"< < < < < 4 < r < < 4 < < 5 4 3 < < < < $ $ $ < < 5 1 1 < $ $ < $ % , q N M U U F F I R ~ ~ ~ / ` ` ( ` ` } ` +.+.*.*.K D D R  .E 0 O + & # $ u $ o . 9 w $ $ $ 1 $ & $ . o % o % O & p f N P f g j j o.*.+.;.4.R.S.#.<.>.3.Z.P.P.3.Z.>.3.4.:.:.>.>.<.4.Z.P.F.H.1.p 6 7 W p.>.S.F.F.J.S.d.} G H H H H H R J R R R I H J ~ R W Y G R I I I U I U W W V t.M.9XaXfXBXVXhXhXgXk.a.g.a.-.k.%XyXhXmXVXBXBXCXVXmXfXdXvXCXZXZXSXZXZXZXZXMXMX4XZ Z M.qXvXzXvXsXN.S t.8.sXmXbXMXMXvXnXMXMXBX0XvX0XmXqXbXhXmXqXqXqXqXmXqXkXqXGXqX0XhX9X0X9X",
"$ < < < < < 1 3 < < > < 3 > < > < < 1 < < < < < $ > < r r 1 & & O q q q g g U D D U I Y U Y ) ) ~ ) ( ` ( ( } } %.%.` ~ / D J  .T 0 7 o + $ + 1 + $ o u V @ $ . X , & < $ % % t 9 % O 6 8 8 8 8 8 s 8 ^ ^ ^ =.4.d.d.:.$.<.A.4.A.3.A.3.3.4.<.<.>.:.>.<.<.4.F.F.H.h.D & M T %.<.S.D.F.F.S.d.} H I H H D H I H J J J R I ~ ~ R R R Y I I U U P I I U ' Z t.N.9X9XhXmXBXhXhXgXk.a.g.p.k.XXgXfXBXBXCXBXBXmXdXaXsXbXCXCXZXZXZXZXSXMXCXZX9Xq.u.8.9XMXzXbXxXaXi.S 8.wXhXbXvXMXMXMXnXnXbXMXzXMXzXqXkXqXqXkXqXqXhXqXBX0X0XqXgX0X0XgX9XgX0X",
"< < < < < < < > < < < > , > , > 1 5 1 < $ < $ $ $ $ $ 1 % < < w q q q s g g g D D F D U Y ) Y ) ~ ` ( ` ` ` ` ` %.} ` / / F F W j 7 7 , & $ $ $ $ $ $ i S 1 o $ $ , < 5 & % , i y 7 7 O 6 O 6 6 6 8 8 G ( *.:.d.D.S.<.,.4.<.<.Z.3.3.3.3.<.4.<.<.<.<.<.Z.S.F.J.J.H.I q M g o.;.S.d.F.F.Z.d.} H H H D H I H I H ~ ~ H R R R I I I I I I I P U U I U ' U t.M.9X0XvXmXBXBXhXhXk.a.g.g. XtXhXhXCXBXBXbXpXdXfXCXBXbXCXSXCXZXZXZXMXZXmXvXx.u.Z 0XsXzXvXcXcXu.S S i.BXbXbXMXbXbXvXMXMXvXiXvXvXvX0XvX0XGXqXhXqXqXhX0XkXsXgXqXgX9X0X0XgX9X",
"< < $ < < & > > < 1 , > > , , $ > < < $ < < $ % % $ < % & % & 9 8 s s s s s s D D g F D U ) Y U ) ~ ) ` ` ` ) ( ..` ` ~ / R F J j 6 7 7 & + X X X $ o M S t o $ . . $ & $ o & 7 E V d j D 8 8 8 6 8 a F +.2.2.f.d.d.<.S.Z.>.3.3.<.<.Z.<.4.<.<.<.>.<.<.Z.4.F.J.J.H.o.q M q ) ,.s.D.S.S.4.d.` G D D H H H H H R R R J H R R I I H I I I I U P I U U ' Z q.N.B.9XhXmXmXhXhXhXk.p.g.XXrXfXmXmXBXmXdXiXsXvXbXbXvXbXZXZXCXZXZXmXMXmXZXM.Z q.u.iXbXlXvXsXrXw.Z t.aXvXvXmXMXvXMXvXnXvXcXiXmX0XaXqXhXsX0XqXkXqXhXvX0XvX0XhX0X0X0XgX9X0XgX",
"$ $ & < < < & , > > , , , , $ > $ $ < & < % < % % % % % & 1 0 y q 8 q 8 s s s s s D g F I U Y U ) ) ) ) ) ) ` ) ) `  .) / R F J F 8 7 7 + $ + + @ & $ m X.1 & o + X $ & o & 7 6 j T W _ ^ 8 6 6 s K D G %.,.2.f.f.<.Z.^.Q.,.3.<.Z.Z.Z.Z.S.Z.S.Z.Z.>.Z.3.S.F.H.U.f.-.f 0 O P p.p.s.d.4.<.,.^ G D H D H H H H H J K R R R I I I R H R U P W U U U U ' U u.x.B.0XfXvXhXmXmXkXB.i.XXrXhXhXfXbXsXiXdXfXBXmXsXvXbXBXbXMXCXMXMXMXZXMXaXt.Z Z 0XzXzXzXcXdXt.S 8.x.bXvXbXbXbXvXvXnXbXvXzXvXiXvXsXmX0XmX0XqX0XmXqXgXqXfX0X0X0X9XgX9X9X9X9X",
"$ $ $ $ , > , > > , & > & , & $ , , > & & & , & & & 6 7 9 0 0 p q s s s s s s s s s g U U D U Y I R Y W ~ ) ) ` ) / ` _ / R F F P f 0 7 & $ + + $ , , M N < < + X . $ o o & 0 y p T R _ ( I s 8 / ( K K *.2.3.2.4.<.R.*X&X2.:.<.Z.S.<.S.Z.Z.Z.<.>.Z.Z.Z.Z.Z.F.J.H.2.M 9 O q *.*.p.,.,.,.| ~ G H H H G Y I H H I H H H J J F H F R I P T U U U U U ' Z ] x.N.9X0XfXfXmXfXfXXXB.yXyXhXmXzXuXuXfXbXvXmXvXvXfXvXCXCXCXCXMXMXCXmXbXz.m S N.uXzXzXbXuXN.8.Z i.aXvXbXbXvXbXMXcXnXvXvXpXzX0XfXzXsX0XvXsXqXqXqX0X0XfX0XsXaXaX9XyX9XaX9X9X",
"$ + + $ > & $ & $ $ $ & $ $ $ $ & & + & & & 9 y y q q q p f q p s s s s s D s s s s D D F F D I I I I I I R ) ) ( ) ~ R R / F D F B f 0 9 & . $ $ + 1 u 1 $ $ o $ X + + o O p W s F J / ] ( ~ ^ ..K ..+.;.3.3.f.f.4.d.!.S.#.3.4.4.<.S.<.S.Z.S.<.<.Z.<.Z.<.Z.d.F.D.f.E q 6 6 W *.;.;.>.&.%.G G H G H Y I G G ~ I R R R J H F F R H I P U U U I U ] U Z 8.x.N.9X9XaXaXfXtXrXrXaXaXhXsX9X9XfXbXcXvXbXvXfXvXbXbXmXBXCXMXmXBXvXCXB.Z 8.t.fXcXzXzXcX9XC Z S 4XbXbXmXvXbXcXbXvXbXzXcXpXfXsXiXsXiXcXsXqXkXkX0XGX0XaX0XgX9XtX9X9X9XXX9X X",
"& $ $ $ $ $ & $ & $ $ $ $ $ & , , , 7 9 0 t f f f f g f g g D N q g s s s D s s s s s D s s D F D F I I I I ~ ~ ~ ~ H R J R J D j T f y , & + + $ $ w , % & . $ # . + o O O f  .s s J R J G G %.....=.=.3.2.2.D.4.d.<.2.<.<.3.<.<.Z.Z.S.Z.S.<.<.<.Z.Z.Z.<.<.Z.Z.3.2.O.u 7 O g ] ] ,.| &.} G H D H Y Y G Y ~ ~ ~ I ~ R J F R P H I P T I U U U ) ' 8.Z u.x.N. X9XtXaXaXrX%XrXfXdXrXiXcXvXvXfXvXcXfXvXsXcXvXMXnXmXnXmXbXbXbXaXt.8.8.4XuXcXdXvXuXi.S Z N.bXcXbXbXbXbXvXvXbXcXlXpXcX0XsXuXiXiXsXsXzX0X0X0X0XgXsXaX9XaXaX9X9X9XXX9XM.",
"& & & & & & & + & & O & & 7 9 0 q q f M M j f j f g g g g B D D g g s s s s D s s g s F D D s F D P H D I H I I R ) H I F J J F d j f i & + $ + + , 1 $ < & o X X X $ o & & j _ d s G H / *.%.%.=.2.;.2.3.3.4.4.d.3.,.<.<.3.<.<.Z.Z.Z.Z.<.Z.<.C.Z.>.<.<.<.<.<.<.3.a.p.t q & 6 W ] ] | } } D G G H Y ~ R Y Y ~ G ~ H ~ J R H R R P I I E U U U U U U U u.i.c.x.9X%XXXwXrXdXiXrXaXvXvXvXvXcXfXvXsXsXsXsXsXvXbXmXMXmXCXmXbXvXi.Z Z t.aXaXvXiXvXN.C C u.rXvXCXcXvXvXzXMXvXzXiXzXzXpXsXsXsXuXsX0XiXsXGXqXGX0X0X0X0XtX9X9X9X4XXX9XM.B.",
"p 0 p 0 0 y y y 0 0 7 0 f g B B P P P P F F P F F H D F F D D g D D s s s D g D D g D P g D D D g D g P D I H I Y I I P F P F T F p y 0 & o $ o $ < $ $ 1 $ @ . . & & $ O & y ! j J ~ ( &.;.2.:.2.3.2.2.3.3.4.f.3.d.4.,.<.<.<.<.<.<.Z.<.3.<.<.<.<.<.3.<.<.3.3.3.3.;.-.V % % O h W ) ` ) ~ I H Y ^ I Y ~ ~ ~ ^ Y Y ~ I I R I T J I I U U T T E E ' 8.Z 8.l.i.c.M.B.9X9X9X0XiXcXmXbXvXcXvXvXfXcXcXcXpXsXcXbXbXbXbXbXbXbXmX5X8.Z y.dXiXsXiXsXB.t.S C 4XvXcXvXnXcXvXvXMXvXzXvXpXzX0XzXsXzX0XiXaXsXsXqX0XqX0X9X9XfXaX9XtXrXB.5X5XM.4X",
"B B P j j j F j j j g j j P I R H I I I I Y Y I H I Y H H H D D D D D D D D D F D g D D F D F g D g g g P D I I P I P D D D P P P j p 9 $ o $ X $ $ % % 1 $ $ % $ 1 < o & O 7 j P / / ( #.:.3.1.2.2.3.3.4.4.4.4.3.4.,.3.3.<.C.3.<.<.<.<.<.<.<.3.3.<.<.:.:.:.:.:.:.,.a.E @ < % % B ) ) R I H G K ^ ^ ^ ~ ^ ~ ~ ~ ) ^ ~ ~ R R R R T T T U U U E E U S Z 9.u.l.c.N.N.M.4X9XsXvXvXvXvXcXsXcXcXcXsXsXsXsXdXfXjXbXvXmXbXbXbXbXu.m Z i.pXfXcXdXvXc.C Z c.rXvXcXvXvXcXcXvXvXcXiXzXpXsXzXsXpXiX0XiXiXpXsX0XgXgX0X9X0X9X9XM.9XXX9XB.N.4XuX",
"s g P P P P J F P T R R R R R W ) Y Y ) ) ) ` ~ ^ ^ ) ~ Y I I H H D H D D F D D g D P g D g D D g g D P D P H P P D P D g g d F T j y 7 O o + + + o $ < 1 $ $ $ % 1 1 o @ o O 8 R _ ( } @.:.<.2.2.3.2.3.2.3.3.4.3.3.3.,.3.<.3.3.<.<.<.3.<.3.<.<.<.:.:.<.:.<.:.:.:.;.-.i $ # 1 o 6 P R I Y H K G ^ ~ ^ ^ ) ^ ( ( ^ ~ ~ ~ ~ R I I R R I U U U V V U 8.Z 6.9.u.u.c.x.B.9X9XpXzXzXzXzXpXsXzXsXsXsXpXiXpXzXcXvXvXvXbXvXbXcXx.S Z u.fXiXcXiXpXN.8.8.w.uXcXvXcXvXzXzXvXzXzXzXsXzXzXiXzX0XiX9XzX0XsX0XsX0XfX0X0X0XaX9XrXrXrXB.aX4XB.wX9X",
"D P H T H T Q J R ~ W _ ) ) ) _ ) ) ] ` ` ` ` | ` ( ) ) ) ~ ~ ~ ~ H H H H D I F D D P D g D D g D D g D D P F P Y P g g g p p h j E f 6 o $ . . X . $ % $ & < < % 1 1 $ o o O 6 T _ ` +.#.&.:.3.3.:.=.3.3.2.4.2.2.2.3.:.<.:.<.:.<.<.<.<.<.<.:.<.:.<.3.:.:.:.:.$.:.=.T o < @ % % O 8 P Y Y H ^ K ^ ( ` } } } ( } ) ~ ~ ~ ~ I I F T P U I T U V E ' ' 8.C 8.t.u.g.M.N.9X9XiXpXlXzXpXpXsXaXsXsXdXpXiXdXsXvXvXjXvXvXcXvXcXw.C u.B.fXdXpXpXdXc.S S N.vXvXcXcXzXnXzXzXvXvX0XsXiXpXpXpX9XiX0XsX0XsX0XaXaXaXaX0X0X9X9X9X9X9X9X4XN.XX0X0X",
"D P I I R R R R R / ` ` ] ` } | } ] ] | o.+.} ] %.} ) } ` ) ^ ~ H H H H H I H H P D D P D D D D U D g g D D P F g D f g p y y d j E h % & o . + . . $ $ $ 1 1 > # < 1 % @ o O 6 T _ ` +.&.&.&.,.:.:.:.:.3.3.3.2.,.2.3.=.:.3.:.3.$.:.:.<.:.<.<.3.3.:.3.:.:.:.$.:.=.%.8 o # - # % O O s P H ~ ^ } [ +.+.@.| +.} } ( ^ ) ^ ~ ) I I J P U I U T V V U 8.8.C 8.9.c.x.N.N.B.4X0XuXuXuX9XiXsXpXsXiXiXiXdXaXzXcXvXvXcXcXcXaXi.A C x.mXrXvXuXvXM.8.Z w.fXvXcXvXbXcXvXnXzXzXsXaX0XiX0XaXiXiXiXzX0XsX0XsX0XaX0XuXuXiX9XiX9X9X9XaXN.N.9X0XlX",
"P D D Y R R R W / ) ` ` } } } ] | *.| &.&.*.&.&.*.} } } +.` ` ^ ^ R H H I ~ I R I P I D g P P g D g g g g g g g g g g p 8 0 8 p f j p % o $ . $ . . $ & $ , 1 $ $ % 1 < % o O 7 W ~ / } +.#.:.:.:.=.:.:.,.:.:.:.2.:.:.1.:.:.:.2.3.:.:.:.2.:.:.:.:.<.:.2.:.=.=.=.=.~ 6 $ # - > $ O O D Y Y ( ( #.+.=.#.&.#.%.#.} } ( ` ) ) ~ I I P P P P T P T V ' S ' Z Z u.c.M.N.M.2X4X5X5X5X8XwXpXiXiXiXiXrXuXpXpXsXcXvXvXcXcXvX4XC S i.4XaXiXaXdXrXu.C S 4XxXcXcXxXvXbXxXnXvXqX9XfX0XiX0X0X9XiX0XiX0XiX0X0XsX9X9X9X9X9X9X9X9X9X9X4XN.0X0XiXlX",
"D D I ~ R ~ / ) / ` ..+.%.&.&.+.;.;.>.;.:.;.:.;.&.&.&.%.%.} ` ` ` ` ~ ~ ~ I J I I D I P D g D D D g s s p g s g p g f 0 8 0 7 0 p h 0 $ @ o $ . X . @ $ $ + # X # % 5 1 $ o o 7 W W ~ ` %.#.&.>.:.:.:.:.:.<.:.>.:.:.:.:.2.3.:.3.2.:.:.:.2.:.:.2.2.:.<.:.:.=.#.=.;.R 7 o - # < $ o 8 W ) ` } } #.:.:.$.=.&.#.&.+.} } ( ( ) ~ R I P P F B P U V V S S ' Z Z u.x.n.x.N.B.4X4X4X4X8XuXiXuXuXiXuXuXiXiXpXsXcXxXvXxXzXiXw.S Z N.fXiXaXuXdXt.Z S 9.iXsXsXcXcXcXlXnXzXlXsX0XiX9X0XiX9X9X0XiX9XpX9X0X0XiX0XaX9X9X9X4X4X9X4X9X4X3X0X0XlXqX",
"P D I ) ~ / ) ~ ~ ` ` } } &.+.| ;.&.;.,.<.<.,.,.&.<.=.&.} &.+.} } ` ~ ~ Y ~ I R I P P H D P P g s s s s g s p p p g f 0 7 7 7 7 t y 9 O o + . . $ + o $ X . . # # $ 1 < $ o O 7 ! / / } %.+.%.&.=.=.:.:.>.<.<.:.2.:.3.3.:.2.2.:.:.2.3.:.:.:.:.:.:.:.:.2.:.=.=.=.=.` 7 . - : - $ O B ) Y ` %.@.>.:.$.>.=.$.>.&.#.} } ` ` ` ) ~ I R I P P B B E V U U S Z 6.l.n.n.n.N.2XN.2XN.3X4X5XuXuX5XuXuX0XaXdXpXcXcXcXzXsXsXi.S m i.aXiXaX9XuXM.8.S 8.rXcXzXcXxXzXcXnXzXlXlX9XsX9XsX0X0X4XaX0XpX0X0X9XiX0X0X9X9XiX9X5X5X4X0X9X2XN.9XqXlXiXqX",
"I F I T ) ) _ ) ~ } %.%.| *.&.&.:.;.,.<.s.<.<.<.<.,.=.&.&.&.%.} } ` ` ) ~ R R H R I P F F D D s g s s p p f p p a y y 7 6 % 7 y f i 7 o o @ . # + $ + + + . = # # $ > 1 3 & & 7 j Q _ ..+.} =.%.;.=.=.:.<.:.>.<.<.,.:.:.:.2.3.2.3.:.2.:.:.2.:.:.=.:.=.:.:.=.+.=.-.J , $ - : # $ 7 R ) ` ] &.,.&.:.:.:.:.:.$.&.>.} } ` ` ) ~ Y Y R U P B B B B N U ' 8.Z 6.l.n.2XN.2X3XN.2XN.2X3X5X8X5X5X8X9XuXrXpXpXzXzXzXzXiXwXC Z S M.rXrXiXuXrXt.A C i.sXsXpXcXcXcXzXcXcXiXuX0X0X0X0X9XiX9X0XuX5X0XiXpXuXiX0XiX9X4XB.9X9X3X9X3XN.4X0XqX0XqXsX",
"I I I T W ) _ _ ` ] %.*.&.&.;.,.,.,.<.s.<.4.d.d.<.<.:.=.;.&.#.%.%.} ` ` ~ ~ R R I P F F F j j g f s p s s p y p y y 7 % 7 7 t h h h % . $ $ @ X o + . . + + > + X $ < w 1 + & 7 6 s F _ o.` %.%.&.+.#.:.:.<.>.>.:.:.3.3.2.1.:.2.,.2.:.2.1.:.=.:.:.:.=.1.:.=.#.=.*.W & @ # - # $ 0 W ) ` | &.<.>.:.:.3.:.:.$.@.} } ( ( ( ) ~ ~ W W I U P B U V V E Z U 8.8.z.n.N.2X2X2X2XN.N.2XN.4X4X5X4X4X5XwX0XiXpXzXiXzXsX0Xt.Z m i.dX5XrXuXrXi.8.S S dXsXpXcXpXcXlXzXzXlXlXuX0X9XiX0X9X9XiX5XuXrXuX4XiX0X0X5XuX9X0X4X4X4X4X0X4X2X4XzXqXqX0XqX",
"P I I I W ) ) ) ] %.%.*.&.&.&.<.,.:.,.<.d.4.d.4.4.<.,.:.:.*.&.%.%.` ` ` ) R H I R P F F j g g s s 0 p s p y p i y 7 % % 7 y h V V m % o $ $ $ . $ $ $ + + + > + $ . $ 1 1 , & 7 y p 8 s H R _ o.*.%.%.=.:.>.<.,.:.3.3.:.3.:.3.:.:.2.:.:.:.1.1.:.:.:.:.=.#.#.+.+.*.! % o # - $ % B ) ] | >.&.<.,.3.:.:.:.:.#.#.+.} } ( ` ` ~ ~ R U Y P B B V V V U U Z 8.q.c.b.:X,X2X2Xn.N.1X2XN.2X4X3X4X8X5X0X0XiXiXiXzXiXlXN.C C u.B.uXiXrXrX5X8.m S N.cXpXvXcXzXzXlXzXzXuXpX0X0X0XiX9X5X0X0X5X4XiXiX0X0X0X5X0X4X5X4XB.B.3X4X3X4XN.0XqX0X0X0XN.",
"D I I I P W ! _ ] } %.=.&.*.&.<.:.;.:.,.<.d.<.d.4.d.2.<.:.=.&.&.%.} ` ` ) ~ H I R P P F D g g s s 8 8 p p y y y 7 % % 7 y a h V M i % @ $ # # . o + + + + X > 5 , $ + > , , , 9 f j P F s 8 s D / %.;.=.*.,.,.>.:.:.:.2.2.:.=.3.1.:.:.1.:.:.:.:.:.1.=.=.=.=.=.+.-.] 7 @ # $ o 6 W ] ` } ;.&.,.>.:.:.3.$.:.&.#.#.} } ` ^ ) ) I ) W P U P U B B V V Z E ' 8.l.l.:Xn.n.,Xn.n.,XN.2X2X2X3X3X4X5X5X8X0XwXwXpXuX4X8.C Z c.rXrXrXB.aXw.S Z u.aXdXsXcXpXzXzXzXzXlXuX0X5X0XiX0X9X5XuX4X5X4X0X3X0X5X0X4X0X5X5X5X4XB.4X9X2Xn.2XqX0XqX9Xl.c ",
"I R P D D R ) ] _ ` %.*.#.=.=.:.;.:.<.<.4.2.4.d.2.4.d.<.;.=.*.*.%.} ` ` ) ~ R P I T F D j s s p a y a y y y y 7 7 % % y h d V B V t . $ $ . # # + . + $ o X = 1 , $ + + $ , , 7 y f s j j s 8 6 8 D / *.2.;.:.2.,.,.2.:.1.:.=.=.:.:.1.:.:.1.:.:.:.:.;.&.#.=.#.%.O._ y o # $ o p ) } | *.;.>.,.<.3.$.$.=.$.&.#.&.} ` ( ( ) ) ~ R Y U W U U B T V N E V S 8.u.v.v.:X:X:X:Xn.N.2X2X2X2X2X2X0X8X5X0XqXqXuX5XiXc.C C u.rX9X9X5XrXM.8.C 8.B.zXzXlXlXzXlXzXlXxX0XiX0X8X0X0X5X9X5X9X4XuX9X4X0X5X5X4X5X0X5X4X4XN.4X4X9XN.n.3X0X0XN.u.c c ",
"I I I F I I I R ~ ` %.&.*.=.:.:.&.:.,.2.2.<.2.4.2.d.2.2.=.=.&.&.%.+.` ) ` R R R P F F j j s p p y a y y 7 7 7 % % % 7 y M V V B V 1 o $ $ X $ $ $ $ $ + + + . + $ & $ + + = & 9 7 0 y 6 O 6 O O O O 8 ( ;.=.=.2.:.:.;.:.=.=.=.:.=.1.$.=.=.=.=.:.=.:.:.=.=.=.&.+.o.T 7 @ $ $ o d ] } &.>.>.,.,.<.3.:.:.&.:.#.} } } } ` ) ~ Y R R P I P P B U V V V E E S 8.9.l.v.:Xb.:Xb.n.>Xn.2XN.2XN.2X3X0X8X8X0X0XuX8X4X7.C Z N.5X9XuX5XB.q.S Z u.zXsXsXlXzXzXzXlXzXuX0X0X0X0X0X5X0X0X0X4X0X5X0X4X0X5X0X0X0XB.9XB.4XB.3X9X3XN.N.3X0Xn.c c u.n.",
"H R I R I H P H ~ ..=.+.@.=.=.$.&.:.;.:.,.:.,.,.,.2.s.,.;.;.%.+.%.o.) ~ ~ R I R F P j g d p y a y 8 8 7 6 6 % % % 7 t h V V B B B % o @ # $ # $ + , 1 > = + + > , + + > + o + 9 i f p 0 6 6 O 6 6 O 8 F ` ;.2.=.=.=.=.=.@.=.=.=.=.=.=.=.=.=.=.=.=.=.=.=.=.#.&.%.o.j % o $ % O Q } +.&.>.&.,.,.,.$.:.:.>.#.} { } } } ) ~ I H F F P F F B j B V T U E V S S 9.e.e.v.:Xv.:Xb.n.n.n.>X2X,X2X3X9X8X0XqX8X8XwXu.m v u.5XB.9XB.4Xx.8.S 8.4XzXiXlXlXlXzXzXqXlX0XqX5X0X0X0X5X0X5X8X3X0X4X4X8X5X5X4X4X4X0X4X4X4X4X4XN.N.N.n.0Xn.c Z 9.c.c.",
"R R R R H D F I R ..+.+.@.&.:.=.:.=.=.&.=.:.:.;.:.<.2.;.=.%.%.} %.| ) ~ ) R H P P j j g p a y 8 y 7 6 7 % % % % % 7 t d B B V M i @ @ $ . > # . + w w 1 + + + = 1 + o , > + + 9 V V Q E F T T / Q 6 6 W _ ` +.=.#.&.&.#.*.=.=.@.=.=.@.=.=.:.=.=.=.#.=.:.=.&.#.&.*.T % o $ o 6 W %.| &.&.>.>.>.,.:.:.&.#.+.} } } ^ ) ~ Y H D F H Y F g D B T E V E V E S Z 8.e.e.0.:Xe.:Xb.>X>Xn.n.2X2X1X6X7X3X8X8X7X8XB.7.m C M.5X4X4X4X9Xu.C Z z.zXuXzXlXlXlXqXlXlX8XlX0X4X5X0X4X0X4X0X4X5X5X5XB.5X2X0X4X9X4XuXN.4XN.4X4XN.B.n.n.2Xl.c c t.6.Z ",
"J R ~ J J J J J J W ..+.+.&.=.=.$.=.=.=.$.=.:.=.=.,.,.;.:.%.%.*.] } _ ) R W I P j g g p p p y 0 7 7 t % % % % % & 9 t i h j j i i   o . $ $ + X $ u u > $ $ + $ 5 $ $ > > > $ o h _  .O.%.o.%.-.W O s %.~ ( :.#.#.#.=.=.=.=.*.=...=.@.=.=.=.=.=.=.:.:.=.=.=.+.%.o.] & $ = o s ] | &.$.&.&.>.>.:.&.&.+.} } } ` ` K R I H H I I D Q J d J F B V U U S E V 8.8.0.0.e.v.e.e.e.b.b.v.n.>Xn.1X6X3X8X3X8X8X8Xc.b m u.N.5X4X4XB.x.Z C t.qXqXlXqXlXlXlXqXnXqX7XlX2X9X0X2X9X2X2X9X9X0X2X9X9X9X1X0X9X1X9X9XN.9XN.9XXXn.N.n.N.N.8.c c c c U ",
"R ~ / R R R R J J ~ ..+.+.=.$.=.=.=.$.=.=.:.=.=.=.=.=.=.*.%.%.%.] ] ) ~ R I P g P j f f y y 0 9 y 7 7 % % % $ % , t i h h h h h w o $ $ . $ . $ , u 1 $ $ $ $ $ , $ > > > > $ O 7 T O.%.` ` %.o.g O P ;.^ ( &.#.@.*.+.=.%.%.*.%.*.*.=.=.=.=.@.=.=.=.=.=.%.=.+.%.*.' & , & O P } } } &.&.&.&.#.$.&.&.+.` ` ` ) ~ R Y H H H I H H J J J j F B U V U E E V S 8.9.0.e.e.e.e.:Xv.b.:Xn.n.>X1X6X1X6X6X3X3X3X6.C C i.4X4X4XN.N.8.n C n.qXlXlXnXlXlXqXnXqX7XqX7X0X9X0X2X9X2X9X2X7XN.9X2X9X2X9X9X9X9X2X9X9Xn. X2X2XN.N.N.c.1X9.8.u.u.u.c.",
"R R / ! R _ R H J ~ ..%.%.=.#.=.$.:.=.=.=.=.$.&.*.&.%.*.*.&.%...} ` ) R I I F g j g f p y y 7 7 9 , % % & & $ % 1 t t i i h i M & . . X . $ + $ $ < $ $ $ < $ $ > + > > > > & & O T o.o.-.+.%.` 8 8 ] *.~ ` @.+.@.+.&.+.+.+.+.*...=.=.=.@.=.=.=.=.=.=.-.*.+.+.*.' f + & + 6 ) ] } } } &.;.$.$.&.&.+.} ` ( ~ ~ G G R I H I H R I D F j J F B U U U E E S S 8.9.0.0.e.0.e.e.e.v.:Xn.n.>X1X1X1X1X6X3X3Xc.b C 8.N.4XN.4XN.i.C C 8.8XqXlXqXlXlXqXlXqXqXqX7X7X0X2X9X2X9X2X2X2X2X2X2X9X>X9X1X9X9X1X9XN.9XN.>X1XN.2XN.n.n.2Xu.8.c.c.c.9X",
"/ / ~ ~ / / R H J ~  .+.=.%.+.=.=.=.=.=.=.=.&.&.&.&.%.&.%.%.` ` ] ) R R P P D B f p p y 0 7 6 % 7 % % % % $ & % 7 t t y t h h M 1 + $ . $ $ $ o o $ $ $ < $ # # $ + $ - - > , $ % B o.o.-.*.o.` 6 D %.} ( } +.@.+.@.+.+.+.+.+.+.=...@.=.@.=.@.=.=.=.=.1.=.*.1.o.g 6 + , + q ) } } +.&.&.&.| &.&.%.} ^ ^ Y Y G G G K ~ G ~ I G ~ H R J J J J T U U U U U V 8.9.0.0.0.e.e.e.e.v.v.b.:X>X1X6X1X6X6X3X2Xu.v m c.4XN.2XN.N.Z m C n.uX7XqXqXlXlXlXlXqX0XqX7XqX0X0X2X9XN.9XXX9X2X9X2X9X9X9X9X1X1X9X>X9X2XN.9XN.9X2XN.9X2XN.u.u.n.N.N.N.",
"/ / ) ) ) ` W I H J / +.+.=.%.=.=.=.@.=.=.%.&.&.} %.%.%.%.} ` ) / W R F F F j j p y 0 9 y 7 7 & % % , % o o % & % t t t h M M m $ @ $ . $ . @ @ . # $ < < & # # $ $ $ # X > > < O y  .O...*.@.a 8 K *...( +.#.+.+.+.+.+.....+.+.*.@.*...@.*.=.@.=.=.=.*.*.=.1. .p & = , , p ) ] #.} &.&.&.&.+.+.( K G G H H G K ~ ^ ~ ~ K ~ K ~ ^ ) ~ R R R T T U U T V V 8.8.9.0.0.0.0.e.e.v.v.b.:X>X>X6X,X,X,X,X2XC 2 C x.N.2X4X2Xi.l C 9.4X8X7XqXqXqXqXqXwX8X7X7X0X3X0X3X9X2X2X9X9X9X9X9X2X2X0X0X1X9X2X9X2X2X2X9X X>X9X>X2Xn.9Xn.8.u.l.c.c.n.",
"_ ` ) ` ` _ ) ~ H J K  .o.+.*.=.=.%.=.=.&.&.+.%...| %.` ` ] ) _ / R R J F F j f p y 0 7 7 % & % % % & $ . % < & % 1 r h M V h t @ > 1 < $ % . @ @ . $ < < $ # $ $ > $ - X - > 1 & % j o.*...G 8 K @.+.+.+.@.=.+.+.+.+.+.+.+.+.@...@...@...@.=.=.=.:.1.=.-.-...j q 6 + + , B ] | %.#.&.%.&.%.} ( ^ H G G K K K ^ ^ ^ ^ ^ [ K ( ~ ) ^ ~ K W R W R E W T B Z ' 8.9.0.0.5.0.0.e.e.v.v.b.b.>X:X<X,X,X2Xz.b l 8.N.1X2XN.N.6.C x z.8X8X7X7X7XqXqXqX7X7X7X0X7XqX0X3X3X2X9X2X2X2X9X2X9X2X1XoX9X1X2X2X9X9XE.>Xn.n.1XN.1X>X2Xn.9.9.i.c.c.n.",
"` ` _ ` ] ] ] ` R J J ..+.%.+.=.=.=.=.=.=.+.%.+.} %.` ` ) ) ) ~ R R F F j g f f y 9 7 7 % % % % $ & & @ # % 1 < < % r t M M t < r M m 5 < % @ . X . $ $ # $ $ $ $ & $ # - X $ > 1 & 6 Q -. .8 D +.@.+.+.+.=.=.+.+.+.+.+.+.+.+.+.@... .@.@.=.@.*.+.=.1.1.1.O.J 7 7 , + $ 7 W ] } } &.%.} +.( / K ~ G ~ K ~ ^ ( ^ ~ ( ^ ^ ..K K K ) ~ ~ R ~ R R R P R T B N Z 8.8.6.0.0.0.e.e.0.v.v.v.:X>X<X:X:X<X1X9.l C i.n.2XN.2Xc.C C 6.1X6X6X7XqX7XqXqX7X7X7X6X7X3X0X2X0X3X0X2X2XXX2X9X2X2X2X9X2X9X2X9XN.6X2X1X2XN.9XN.>X2X Xn.l.9.9.l.N.n.n.",
"` ` ` ] ] } ` ] ) R J  ...o.....&.*.*.=.%.+.+.....` ` _ ) ~ ~ I T J F j j f y 0 y 7 , , & & & $ $ $ X . $ 1 1 % % r 9 r r t % @ @ M S % < # # . @ # $ $ # X $ $ $ $ $ # > > X > 1 % % J Q d a ..=.+.+.=.+.=.#.=.+.+...+.+.+.@.+...@.*.@.*.*.1.@.=.1.=.-.1.-.B y & $ % 1 7 ! ] %.| %.+.+.( K K G K K G ^ K ( ^ [ K K ^ ( K K @.[ ( ^ ^ K ~ ~ I R P R T j B N ' 8.7.0.5.0.0.0.0.v.v.:X:X>X:X:X:X<Xn.6.v m m.N.n.N.N.9.x b u.8X6X8XqX7X7X7X7X7X7X6X6X7X3X2X6X3X2X3X6X9X2X2X2X2X2X9X7X2X2X9X2X7X9X2X6X1X2Xn.>X9Xn.n.n.8.6.u.c.n.N.n.",
"| ] ] | } ] ` ` _ ~ R ~ _ ..o.+.%.%.%.+.o.....` ` _ R / W R T J j j d p p y y 7 7 , % , & & $ & % # @ @ % r $ $ r < < 1 t & $ $ $ M S   @ # . . $ $ $ # # # > $ $ % < > - # # > > + & p j J  ...@.1.=.=.=...@.=.+.*.@...@...@...@.@. .@.@.....1.=.1.=.-.1.O.B 0 o $ < % y  ._ %.%.+.` ( K K K ~ K ^ ^ ^ ) ( ( ^ ( [ K ( [ [ K [ ( ^ ~ ~ ~ ~ I I J F F T V V E 8.7.6.6.0.0.0.v.0.e.:X:X:X:X;X:X:Xv.b l S N.m.n.,Xn.6.b b n.3X6X6XwX6XqX7XqX6X6X6X6X3X3X3X3X3X3X2X2X2X9X1X2X3X7X2X9X3X2X3X2XoX1X1X9Xn.2X2X1Xn.1XN.l.Z 6.l.n.n.n.n.",
"] ] %.] %.o.] %._ ~ R ~ _ ..o...%.%.*.+.%...` o._ / R T R F F j j d d f y y 7 % % 7 % % $ & $ & 5 < $ $ < < $ $ u @ $ 5 1 $ . . . $ @ # # @ . @ . # $ . X X $ X > $ $ $ X > X # + $ & & 7 J O.o.....@.@.@.*.@.........@...@...@. .@.@. .@...@.=.+.+.1.-.O.Q y & $ $ % % a  .] } ..( K K K K K ~ Y ^ ^ ^ [ ( [ ( K [ [ K [ ( [ K [ ^ ^ ^ ^ Y ~ ~ R J T F T B V S 8.6.6.0.5.0.e.v.e.v.:X:X:X:X:X:X9.x l 8.c.N.m.N.l.C x 8.2X3X7X7X6X7X6X6X6X6X6X6X6X6X1X2X6X2X6X6X2X2X2X2X2X9X2X4X3X3X3X2X2X2X6X6X1X1XN.>X2X1X2X2Xl.6.9.c.l.c.2X>X",
"] ] ] %.] ] ] ] _ ) R R ) ` ..%.` +.o... ._ ` _ R R J T F j d p a f y y t 7 , 7 1 , $ & , , & > 5 5 1 5 < $ $ 1 r @ $ @ # $ $ $ # < r S r . @ $ # $ $ X # $ + > $ $ $ > $ $ $ + X $ $ O % p  .*.1...@.1.=...@.............@.....[  . .@.........=...=.-.a.V 9 & $ $ 1 o g ] %.} ( K K K K K ~ ~ ~ ^ ( ( [ ^ ^ [ [ [ [ L [ [ L [ ^ ^ [ ^ ^ ~ Y ~ J R J J F B V V 8.7.6.9.0.5.0.v.e.v.v.:X:X:X:X:X8.x C u.n.n.n.n.8.b x z.6X6X7X6X7X6X7X6X6X6X6X6X3X6X2X6X7X6X3X3X2X2X2X2X3X3X2X7X2X2X3X2X7X2X1X1X1X9X1X6X1XN.1Xn.6.8.l.n.n.n.n.n.",
"] ` } ] %.] ] ` _ ) ~ ~ _ _ ` o.o.` ` ..` _ _ _ R T J V j d a p i p i t t 7 7 1 , > & 1 1 1 $ , r r 5 % < $ 5 t @ @ @ . $ $ $ X $ @ $ m <   $ @ # @ # $ X # > X > > > $ > $ > = > X $ , % r h !  .=.*.=.@.....@.............@.../ @. . ... ...@.=...o.O.-.E t & $ > 1 % F ` ` ( /  .K K K K ^ ( ` [ ( [ ^ [ ^ [ K [ @.( [ [ [ L ^ [ ( ( ^ ~ ~ ) R J T T T T T B S Z 8.6.0.0.0.e.e.v.v.:Xv.:X:X:XC x C n.m.c.n.n.b x 6.,X6X6X6X7X7X7X7X6X6X6X6X6X6X6X6X6X3X2X2X6X0Xn.2X2X2X4X3X3X2X2X2X2X2X1X2X0X6X>X1X7X>X1X,X6.6.6.l.c.n.N.>X>X",
"} ] ] %.] ] ` _ _ ) / R / _  .o.o.` _ _ ) R R R P F B j d p y f y t t 7 , , % $ % < 1 u m < > , r u 1 $ # < t r # $ # $ > <   $ > # @ . . X < X . X # X X $ X X $ $ > $ & + + $ X X $ > $ & 7 y  .1.*...@.*......... .@...@.....@./  .@. . .@. ...@.*.-. .h t 1 < $ % % T / ( ( / ~ K K L Y Y ` } } ^ [ [ ^ [ [ [ [ [ [ [ [ [ K [ ^ { ` ^ ^ ) ) ~ R R T T P P B Z Z Z 6.5.0.0.0.v.v.v.v.e.:Xb.e.x c 8.n.c.n.m.u.b b 9.,X<X6X6X6X7X6X7X6X<X3X<X6X1X6X6X2X1X1X6X1X1X>X2X2X2X3X7X2X2X2X9X6X1X2X1X1X1X>X1X1X1X6Xl.x 6.8.u.z.c.n.>X6X",
"] o.%.] o.` ` ` / / _ / / _ ` _ ` ) ) W R R P F F B j f y y y y y t 9 % % % $ @ . % r r u , + $ < 1 < # @ 1 r < # @ @ @ $ r . # # > > # # # . . $ # $ # X X > X - # $ $ + + + > $ = - $ $ $ % , Q ..1... .@.....[ .............. .( /  .@. . . ...@. . .E B r 1 < $ o 7 W ( ` ( ( / / K ^ ^ ^ | ^ ` { { [ [ } } @.@.@.[ L [ [ [ ^ } ^ ^ ^ ` ^ Y ~ R R J F P D B U Z Z 6.5.0.0.0.e.v.v.v.v.v.v.0.x l 9.n.n.n.c.6.z b l.,X:X<X<X6X6X7X6X6X6X6X6X2X,X3X6X6X1X1X3X1X2X3X2X1X2X7X2X2X9X3X2X1X6X1X1X6X>XqX1X>X6Xn.6.6.6.8.6.6.c l.n.n.",
"` o.` ] o._ ` _ _ / ~ R / _ _ ) ) ) _ ) R T F j j j f p 7 y y t 7 , % % % $ @ @ # < u m u $ + + $ > $ # $ r r < > $ @ @ r m Z r $ $ # # > $ . $ $ X X $ = > > X # # - $ + O $ $ > X X - $ $ $ 7 a / ....@...@... .( (  ....... . ./ K  . . . .@...@. . .T h t e > X o a / ( ( ^ /  .( ^ K [ ^ ` { ^ } ^ [ { { } [ [ @.[ [ [ [ [ ^ [ ^ ^ ^ ) ) ) ~ R R F F T D B N Z Z 6.6.0.0.0.e.v.v.:X:Xe.v.6.l c u.n.n.n.l.b k 7.:X>X:X,X,X6X1X6X6X6X6X<X6X<X<X6X<X2X1X1X6X1X6X2X2X2X2X3X1X3X1X1X2X2X0X>X6X1X6X6X>X6X6X0.5.6.6.w.6.l 9.n.l.n.",
" .] _ ] _ o._ ` W ~ _ R R R W R R W R R P j g j f h y y y y % % % @ @ o $ $ $ $ $ r m i u > $ + > @ # # @ 1 < $ # # % $ t e B.x.# # # # < # # X . # X X X > X X - # X + $ + + + X > - X $ $ % % % Q  .*...@. ...[ / /  .........K / / K  . . . . ... . .B y < $ X $ % B / ~ ^ ` ( ( ( K K ^ } | ^ | } [ [ { } { @.[ @.@.L L [ L ( [ [ } ^ [ ) ^ / R T T J T I U N N Z 6.0.5.0.v.e.v.e.0.:Xe.l.x x Z z.b.z.n.w.k z 6.>X>X>X:X:X<X<X6X<X,X6X,X6X<X2X6X2X<X6X>X1X1X6X1X1X1X1X1X2Xn.1X1X>X2X>X0X6X6X6X6X6XqXb.6.6.8.u.6.c C l.z.n.b.",
"] _ ] _ ! _ _ _ R ! R W W R R W P W R B P g f i t y t t 1 % % $ + > $ + > $ @ $ < m m m v # # # # - @ - # < # < < @ @ r r m x.i.N - # > $ $ . # # # X # $ $ $ $ # $ X $ $ $ $ $ $ $ # # $ $ % 1 % Q  .O.o...+.../ ( (  . ......./ / / / / / / /  . . .Q t t % @ $ < % J / / ( ( / ( K [ [ { [ } } { } } } #.#.+.} { @.[ [ L [ [ ( [ ( ^ ^ ^ ` ~ R J J T J P F P N Z m Z 6.6.0.0.e.v.v.e.v.v.9.k l 8.n.l.n.c.6.l x :X>X:X>X:X>X:X6X,X,X<X6X1X<X1X,X6X,X1X1X<X1X6X6X1X1X1X6X>X6X6X>X6X:X6X6X6X6X6X6X6X6X6X6.c 0.9.9.8.k c v.l.n.v.",
" . . . ._ ! ! ! _ ! W R T T T T P P B g f p 0 y t 1 7 1 % < 1 $ $ > > > r < $ @ e m m m e # # # @ # @ @ # < < @ @ @ @ < < i q.X.u # # $ $ $ X . . X X . X # # # # # $ $ # # $ $ # # $ $ @ @ < r 7 t X.O.o...K ../ ( / / / ....../ / / K / / (  .Q  . .h t < < % > $ % T / ( ( ( ( ( ( [ [ [ } } } +.| { { &.#.#.{ @.@.{ [ [ [ [ [ ( ( ^ ^ ~ ~ ~ K ~ R H F P P B N N Z Z 6.9.0.0.0.e.e.v.v.l.6.x C 9.l.z.l.u.b x 6.>X,X>X>X:X:X>X,X>X,X,X<X,X>X6X,X1X1X,X1X1X,X6X6X>X1X6X6X6X6X:X6X6X6X:X6X6X6X6X6X6X6Xv.c 6.u.9.u.8.c 6.c.v.b.b.",
"]  .] _ _ ! W R W W W T P P P P j B j p f y 9 7 % % % $ < % < $ $ > > > > r r @ 7 m m m < @ # # $ < e $ < % - @ @ - @ e % A X.q.$ . $ # @ - # # @ X @ X @ # # $ $ # X $ # # # $ $ # $ @ $ @ $ $ % 7 V  . . ./ / / / /  .( ....(  ./ K / / / /  . .Q J y % % 1 @ # % % J / ( ( ( ..@.[ ( [ [ } } } | | } &.#.} { @.{ [ } @.[ [ [ ^ ( ^ ^ ~ K R K J R J R F P P B N N N Z 6.9.9.0.0.e.0.v.e.0.x l x u.l.v.c.w.v l l.:X>X:X>X:X:X:X:X>X>X,X<X,X,X6X6X1X,X6X6X,X,X,X1X>X>X6X>X6X6X:X>X6X6X6X6X6X6X>X>X6X>X0.c 9.8.u.8.8.c 9.b.b.z.b.",
"] ! ! _ _ _ ! T U T I T P P B P B g f f t 0 7 & % % < % 1 r r @ + > 1 > < r u e < r m m $ @ @ # $ $ e e : @ @ @ @ @ $ < < e S V # . $ # @ # # # X # . # X # $ $ $ $ # # $ $ $ # $ $ # $ $ @ @ @ @ % h V E  . .~ / / K K ( .... . ./ / K K K / /  . .h 7 7 @ < < # @ 7  . .K ( ( K K [ [ [ { } } { #.#.&.#.#.#.{ [ [ @.{ [ [ [ [ [ [ ( ^ ( ^ ~ ~ J J J J H F P P N N N Z Z 6.0.0.e.e.0.e.l.0.l l C l.z.l.b.6.b b v.:X:X:X>X:X:X>X:X:X:X>X,X,X>X,X1X6X,X6X1X1X,X,X1X1X6X>X6X>X6X6X:X6X6X:X6X6X6X6X1X1Xv.c 6.u.6.u.l.c c 9.z.z.z.z.",
"_ W W W W W W W P P B B P B B f M f i 0 0 1 & % 7 < % < e t 1 < X # > 5 e r t m e % r r : @ < # - < < < @ @ @ # @ @ @ < < < m t $ . # # # @ X . . # . X . # # $ $ $ $ $ $ # # $ $ # $ # $ @ $ # @ o % t y T  .W K / J ~ /  ... . ./ K K K J / /  .F 7 % % $ $ $ % @ y  .K  .( ( ^ ( } [ [ } { #.#.| @.$.@.@.$.{ @.{ [ @.[ @.[ [ [ ( ( ( ( ( ~ K K J J J R F F j N N N m Z 6.9.0.0.0.e.0.v.0.k x 9.l.l.l.l.b x 6.v.>X:X:X:X:X:X:X>X:Xb.n.>X>X:X,X,X,X,X,X1X1X1X1X1X1X1X>X6X:X6X:X>X6X>X6X6X6X6X6X6X:X6.c v.l.6.l.n.b x 9.l.v.b.e.",
"_ ) W R T T T T U B j g g N g M f q 9 9 , & 1 1 % < < < e e t < < 3 5 - @ e m m m < e < # # @ @ < # < @ # @ # # @ $ @ < % < < < $ . X # # X . $ @ X # . # # $ $ $ $ # # $ # $ # $ $ $ $ $ $ @ @ $ $ . % % 9 B Q Q R / ( ( ( ( (  . .J J K / J Q Q p % % $ $ $ $ % @ f / ( K ( ( ( ` [ [ [ } #.+.&.} #.} $.@.{ @.@.@.[ [ @.[ [ [ ( ( ( ( ( / / J K J J F J T P j g g N N Z 6.9.0.0.e.v.0.e.5.k x w.l.e.z.9.b x 9.:X:X:Xv.v.v.:X:X:X:X,X,X>X,X,X,X,X,X>X>X>X1X>X>X>X1X1X1X6X:X:X6X6X6X6X:X>X>X:X6X1X9.c 6.n.9.6.u.z.b x w.l.z.b.z.",
"_ ! W W T I P T P g f f f M M f u 9 , & $ & 1 t 1 < @ < r t t e m m v $ @ e A m M m r @   @ # # < # # @ @ # @ # @ < $ < m < @ @ X # . # $ . . # $ + # $ $ $ # $ $ # # $ > $ # $ $ $ $ # $ @ $ @ + $ $ % o % y d T J K ../ / .... .K / K J J J J T y o % % $ $ > $ @ j ! K @.K K } } [ [ { @.&.#.#.#.@.@.{ @.{ @.[ @.{ [ [ [ [ [ [ K [ K ^ ( K K J J J J H P F F g N N N Z 6.9.0.e.e.e.0.9.z k b 9.z.l.l.6.b b l.:X:X:X:Xv.v.:Xv.v.:X>X:X,X:X:X,X1X1X,X>X>X1X>X>X>X>X>X>X:X6X6X6X6X6X6X>X>X>X>X>Xn.6.c l.c.9.8.l.u.6.b 9.l.v.b.m.",
"! ! ! ! T P B B B N q f f i i q 9 > $ $ $ < 1 r < < @ < e t e t e < # # < % e t n m m m @ : @ # @ : < @ # @ # # @ @ $ t i.A @ # X $ $ # # X # X # # # X # $ $ X $ # X $ $ $ $ $ $ $ $ $ $ @ $ # $ $ @ @ @ @ % % h J R K / / .... . ./ J Q J J d V 7 % % $ # $ $ @ % T /  .K K +.` } [ [ { @.&.&.$.{ $.$.$.{ @.{ [ [ @.@.@.@.[ L [ [ K @.( ~ ~ K K / R J F F F P U g f N U Z 6.0.0.0.0.e.9.k k 6.l.l.l.e.6.z 6.n.:Xv.:Xv.v.v.v.v.b.:X:X:X>X,X,X,X1X1X>X>X1X>X>X>X>X6X>X>X6X6X:X:X:X6X6X6X6X1X>X:X6.c 6.l.n.8.6.c.c.6.z 6.z.r.z.z.",
"W ! U I B j j B j f i f q u t 9 = > , > $ < u u < # $ e t e t e # # # : - : @ @ e e m m e $ @ # - # @ . @ @ . # @ @ < @ @ e @ @ # $ . # $ # $ $ $ # # . # # . # X # # $ # $ $ # @ # < < @ $ # # $ > $ # @ @ $ % 7 j J R ~ / ....@.[ / / J B d J h t % % @ $ $ $ % % J  .K [ K K [ } { @.@.#.#.:.#.#.#.@.@.$.{ { $.L [ @.@.@.[ [ [ [ ( ^ ( ^ ~ ~ K J J J J F F F B f N i N 6.6.0.0.e.w.e.6.z x 8.u.l.l.9.6.z 6.n.:X:X:Xb.v.v.v.v.v.b.:X>Xn.>X>X>X>X>X1X>X>X1X>X1X>X>X1X>X1X1X>X6X>X6X6X6X6X6X1Xv.6.c c.n.c.6.9.b.n.9.x 6.e.z.e.z.",
"I T P B J V B M h i i u 9 9 9 , , , > + # < e r > @ $ r e e e < # # # - # - < : @ $ e u e < - # # # @ X X # . . @ $ m V : < # # X # X . # . # . . X # # + # # # X $ $ $ $ $ $ # @ < # % $ $ # @ $ $ # # # @ $ @ % a F T W _  . . . . ./ / J V B y % % @ @ $ $ $ $ % T J K K ..@.` } +.{ @.@.#.#.>.#.$.$.@.$.$.@.@.@.@.@.[ [ [ @.[ { K [ ^ ^ ( ^ K J J J H F F F g g B M N Z 6.9.0.0.e.e.k k c 9.9.l.l.9.z x 0.n.:X:X:X:Xv.v.v.v.v.b.:Xn.>X>X>X>X>X>X1X>Xn.>Xn.>X>X>X>X>X1X>X>X>X6X:X6X:X6X>X>X5.c 9.c.c.9.8.8.c.c.l.C x 9.l.l.z.",
"F B M j V h h h h y t u 9 , & $ 1 3 > = $ < r e < @ < r t m e @ # # : # - $ < e r < < $ @ @ @ # # @ @ # # @ $ # $ @ Z t.u r $ @ . $ X . # . X X X . . $ # $ # # # # # # # # $ # # # # < # @ # @ $ : > # # @ . o o 6 p T /  .o...@. . . ./ d B h t % % $ $ $ $ $ @ 7 Q J K ..( ( } } @.{ @.@.#.=.#.$.$.@.{ { $.$.$.$.[ @.[ [ [ K K [ K K K ~ K J  .J J J R F F T g N g i m Z 6.9.0.e.0.6.k x 6.9.u.0.l.6.k c l.n.:X:Xb.:Xv.v.e.e.v.l.b.v.:Xv.:Xn.n.>X>X>X>X>Xn.>X>X>X>X>X6X:X:X>X>X,X>X>X:X>X0.x C l.c.9.9.6.6.l.z.n.9.z 8.z.z.z.",
"f h j g d h t a i t 9 1 & + + + < 3 , $ 5 r r r < @ e r e m e @ # # X # @ $ < < r e < < $ @ # @ # # # # # # . $ $ @   % @ # # $ $ $ # $ # # # # X # # X $ # # # # # # # $ $ $ # < # # # # < # < $ $ $ > # # # X o O 0 B W _ o. . . ... .J B T M t % @ < $ $ # % % t  ./ K K ( ( } } } { @.@.@.#.#.$.$.$.$.$.$.{ @.@.@.[ [ @.[ [ @.( [ ^ ^ ~ ^ Y K J J J J R T F P N f N N c Z 9.0.0.9.C k x 9.9.l.l.9.C x 6.b.:X:Xb.:X:Xv.e.l.v.l.v.b.n.n.n.n.>X>Xn.>X>X>XN.>X>X>X>X>X>X6X6X>X:X>X>X>X:X:X0.6.c 9.c.l.9.8.9.9.l.z.z.l.x 6.z.z.u.",
"d f h a h t t t 9 1 % , % % $ > < 5 , > 1 r v u : @ % r m m e @ # # : # # - < e r < < < > > $ # # $ $ # # . @ . . $ . . # # # $ $ > $ # $ X # X # $ # # # # # # @ - - @ # @ - @ # < @ # $ $ : $ $ $ $ $ # # # $ % $ 7 p T _ o.`  .@. . .d d V h % @ < $ @ $ $ < @ y ! ~ K K ( ( } ` [ [ { $.@.$.#.$.$.#.$.{ $.@.$.L $.@.[ @.[ @.K ( ( ( ^ ^ ~ ~ ~ J H F F P P P P B f M N m Z 9.9.w.9.x k k 6.9.9.l.9.x x 9.b.b.b.:Xv.:Xb.l.0.l.l.v.b.n.b.n.n.>Xn.n.>X>Xn.n.n.n.G.:X:X6X:X6X:X6X>X:X>Xb.9.c c c l.c.u.6.6.c 9.l.l.l.l.6.x 9.u.u.",
"a i t a h y 7 7 7 1 , < < $ > > , 5 > = > 5 u r $ @ e r m m e @ # # # # # : # < 5 < > $ # # # # - # $ # . # # # # # $ @ # . $ # $ > # . # . # X # . # . @ @ # # - @ @ @ - # @ : @ : @ # $ # $ > % < $ $ $ $ + # @ @ % 9 j ! o.]  . . ./ d Q h % % @ % @ @ < $ $ @ y  .J K ....( ` +.[ { $.$.$.@.$.$.:.$.$.$.{ @.$.$.$.@.{ @.@.[ @.[ [ ^ ^ ~ ^ Y K J J H R I I P P B g M i m C 8.9.0.6.k ; m 9.u.9.9.6.l b u.n.b.:Xb.:Xn.v.l.0.l.l.v.l.b.v.n.n.n.n.n.n.n.n.n.n.n.:X:X>X>X6X:X:X6X1X1Xb.9.x k 6.u.c.c.6.Z 6.x 6.e.l.l.l.u.x x 8.u.",
"y y t y 7 7 % % t t r 1 1 < $ $ , , > + $ 5 r u @ @ e r m m < @ : @ # - $ : < < # # $ 5 < $ # # @ # # # $ . # $ $ . # $ X $ $ # > < X . $ . # $ . # X $ # # # @ @ @ : @ : @ @ @ # # # # @ # # # < $ % $ $ $ + + $ @ o 7 f T _ ]  . . .Q Q h t @ @ % @ $ $ % $ % o t Q J J K ( ( } @.@.@.$.$.@.$.$.>.>.$.$.$.$.$.$.$.$.{ @.{ { } +.@.[ ( ( ^ ^ ~ ~ ~ I I I U I P D B B M M m C 7.0.w.b k l 8.u.u.l.9.C l C z.b.n.:X:Xn.n.l.l.0.v.l.l.v.c.b.n.n.l.l.:X:X>Xn.n.n.>X:X:X:X1X6X6X6X6X6X1Xv.x c c l.c.u.9.6.9.6.c c 9.l.0.l.l.6.x 6.8.",
"7 t 7 7 7 % % 1 1 t u 1 5 5 < $ > > > + X 3 u e - $ $ e m e < @ # @ # @ $ $ < $ < > < < > # # # @ # $ : $ @ # # # # # X . $ X # 1 < # X $ # $ $ # # . X # - # # # # @ # $ - @ - @ # < # @ : X X # # $ $ $ $ & + $ . @ & 9 f j !  . .Q T a 7 % @ @ @ $ $ < < @ % @ t Q V R R _ _ _ o.o.+.+.+.*.+.%.&.%.&.&.$.@.@.@.@.@.[ ....` ` ` ` ) ) _ ) ) W R T I P P P B B N M M f q m m 7.8.9.v l 3 8.9.9.9.8.x l C u.l.l.l.n.l.l.l.9.9.u.u.l.l.l.u.l.l.l.V.:Xl.l.l.l.c.l.l.v.:X:X:X:X6X:X>Xb.c c c l.c.i.t.Z u.u.c z 6.9.u.8.9.u.t.C c 8.",
"X . o X + o X + + + X X X X X X X X X X X X X X X X X X X X X X * @ * @ X * @ * X X X X - X X X X # X X X # X # X X # X X X X X X X X X X X X X X X X X X X X X X X X X * X X X X X X X X X X X X X X + X X + X . X X X + O + + & O = O + o + X X X X X X X X X $ @ + o $ O $ & & & + & O & O & 6 O O & O & 6 O O 6 O 6 O O O & O O & O = O O = O O = O O = O = O = + + + = = > - 2 * * - > ; = = * = = ; = 2 = k = 2 2 2 2 2 ; 2 2 k = = 2 = 2 2 2 2 2 2 2 2 3 q c k 2 2 k 2 3 2 k = * = 2 2 2 = = 2 2 ; = ; * ; 2 ; 2 = 2 = = ",
"X X X X X X X X = = X = X X X X X X X X X X X X X X X X X X X X * @ X X X X #   X X X X X X X X X X X X X X X X X X X X X X X X X X X X X X X X X X X X = X X X X X X X X X X X X X X X X X X X X X X X X X X X X X X X + = + = X X X X X X X X X X X X X X X X # $ X X + X . . X   o X X X X X X X X = X o X = X X X X = X X = X X = X X X o X X X X X X o X X X X X X + X X X X X X X X X X X * X X X X X X X X X =   X   X X X X X X X X X X = X = X X * X X O = X o X X X X X X X X + + X X X . X . X X . X X + X X + X X X ",
"X X X X X X X = + + X X X X X X X X X X X X X X X X X X X X X X @ X X X X X # # X X X X X X X X X X X X X X X X X X X X X X X X X X X = X X X X X X X X X X X X X X X X X X X X X = X X X X X X X X X X X X X X = X X X X X X X X     X X X X X X X X X X X X X $ X X X X X X . X X X X X X X * = + X X X X X X X X X X X X X X X o X X X X X X X X X = X X X X X X = + = X + X X X X X X X X X + X X X X X X X X X = X X X X X X X X X X X X = X X X X X X X X = X X X X X X X X + X X = X X X   X X X X X = X + X = X X X X X ",
"X X X X X X X X X X X X X X X X X X X X X X X X X X X X X X X X X X X X X X . * X X X X X X X X X X X X X X X X X X X X X X X X X X X X X X X X X X X X X X X X X X X X X X X X X X X X X X X X X X X X X X X X X X X X X X X X = X = X X X   X X X X X X X X X $ X X X X = X X X X X X X X X + X X X X X X X X = X X X X X X X + X X + + X X + = + + X = + X X X X X X X X X X X X = X X X X X X X * = X X X X X X X X X X X X X X X X X X X X X + X X X X X X = + + = X X X = + = = X X X X X X X X X X X X X X X X X X X X X ",
"X X X X X X X X X X X X X X X X X X X X X X X X X X X X X X X X X X X X X X X X X X X X X X X X X X X X X X X X X X X X X X X X X X X X X X X X X X X X X X X X X X X X X X X X X X X X X X X X X X X X X X X X X X X X X X X X X X X X X X X X X X X X X X X X X X X X X X X X X X X X X X X X o X X X X X X X X X X X o X X X X + X X X X X   o X X X   X X X X X X X X X X X X X X X X X X X X . X X X X X X X X X X X   X X X X X X X X X X X X X X X X   X X   X o X X X X X X X X X X X X X X X X X X X X X X   X . X X X ",
"X X X X X X X X X X X X X X X X X X X X X X X X X X X X X X X X X X X X X X X X X X X X X X X X X X X X X X X X X X X X X X X X X X X X X X X X X X X X X X X X X X X X X X X X X X X X X X X X X X X X X X X X X X X X X X X X X X X X X X X X X X X X X X X X X X X X X X . X X X X X X = X X X X + * X X X X X X = X X X X X + = = X + X = X X X X X X = X X X X X X X X X + = X X X X X X X X = X X X X X X X = X X X * X X X X X X X X X X X X X X X = X X X = X = X X X X X X X X X X X X X = X X X X X X X X X X X X X X ",
"X X X X X X X + X X X X X X X X X X X X X X X X X X X X X X X X X X X X X X X X X X X X X X X X X X X X X X X X X X X X X X X X X X X X X X X X X X X X X X X X X X X X X X X X X X X X X X X X X X X X X X X X X X X X X X X X X X X X X X X X X X X X X X X X X X X X X X X X X X   X X X X X X X X X X X X X X   X X X   X X X   X X X X X X X X X X o X X X X X X X X X X X = X X X X X X X X X X X X X X X X o X X X o   X X X X X   X X X X X X X X X X X X X X X X X X X X X X X X X   X X X X X X X X X X X X X X X X X ",
"X X X X X X X X X X X X X X X X X X X X X X X X X X X X X X X X X X X X X X X X X X X X X X X X X X X X X X X X X X X X X X X X X X X X X X X X X X X X X X X X X X X X X X X X X X X X X X X X X X X X X X X X X X X X X X X X X X X X X X X X X X X X X X X X X X X X X = X X X X = X X X X = X X X X X X X X X X X X X = X X X X X X X X X X X X X X X X X X X X X X X X X X X X X X X X X X X X X X X X X X X X X X X X = X X X X X X X = X X X X X X X X X X X X X X X X X X X X X X X = X X + X X X X X X X X X X X X X X ",
"X X X X X X X X X X X X X X X X X X X X X X X X X X X X X X X X X X X X X X X X X X X X X X X X X X X X X X X X X X X X X X X X X X X X X X X X X X X X X X X X X X X X X X X X X X X X X X X X X X X X X X X X X X X X X X X X X X X X X X X X X X X X X X X X X X X X X X X X X X X X X X X X X X X X X X X X X X X X X X X X X X X X X X X X X X X X X X X X X X X X X X X X X X X X X X X X X X X X X X X X X X X X X X X X X X X X X X X X X X X X X X X X X X X X X X X X X X X X X X X X X X X X X X X X X X X X X X X X ",
"X X X X X X X X X X X X X X X X X X X X X X X X = X X X X X X X X X X X X X X X X X X X X X X X X X X X * X X X X X + X X X X X X X X X X X X X X X X X X X X X X X X X X X X X X X X X X X X X X X X X X X X X X X X X X X X X X X X X X X X X X X X X X X X X X X X X X X X X X X X X X X X X X X X X X X X X X X X X X X X X X X X X X X X X = X X X X X X X X X X X X X X X X X X X X X X X X X X X X X X X X X X X X X X X X X X X X X X X X X X X X X X X X X X X X X X X X X X X X X X X X X X X X X X X X X X X X X X X ",
"X X X X X X X X X X X X X X X X X X X X X X X X X X X X X X X X X X X X X X X X X X X X X X X X X X X X = X X X X X X X X X X X X X X X X X X X X X X X X X X X X X X X X X X X X X X X X X X X X X X X X X X X X X X X X X X X X X X X X X X X X X X X X X X X X X X X X X X X X X X X X X X X X X X X X X X X X X X X X X X X X X X X X X X X X X X X X X X X X X X X X X X X X X X X X X X X X X X X X X X X X X X X = X X X X X X X X X X X X X X X X X X X X X X X X X X X X X X = X X X X X X X X X X X X X X X X X X X X ",
"X X X X X X X X X X X X X X X X X X * X X X X X X X X X X X X X X X X X X X X X X X X X X X X X X X X X X X X X X X X X X X X X X X X X X X X X X X X X X X X X X X X X X X X X X X X X X X X X X X X X X X X X X X X X X X X X X X X X * X X X X X X X X X X X X X X X X X X X X X X X X X X X X X X X X X X X X X X X X X X X X X X X X X X = X X X X X X X X X X X X X X X X X X X X X X X X X X X X X X X X X X X X X X X X X X X X X X X X X X X X X X X X X X X X X X X X X X X X X X X X X X X X X X X X X X X X X X X X ",
"X X X X X X X X X X X X X X X X X X X X X X X X X X X X X X X X * X X X X X X X X X X X * X X X X X X X X X X X X X X X X X X X X X X X X = X X X X X X X X X X X X X X X X X X X X X X X X X X X X X X X X X X X X X X X X X X X X X X X X X X X X X X X X X X X X X X X X X X X X X X X X X X X X X X X X X X X X X X X X X X X X X X X X X X X X X X X X X X X X X X X X X X X X X X X X X X X X X X X X X X X X X X X X X X X X X X X X X = X X X X X X X X X X X X X X X X X X X X = X X X X X X X X X X X X X X = X X X X ",
"X X X X X X X X = X X X X X X X X X X X X X X X X X X X X X X X X X X X X X X X X X X X X X X X X X X X X X X X X X X X X X X X X X X X X X X X X X X X X X X X X X * X X X X X X X X X X X X X X = X X X X X X X X X X X X X X X X X X X X X X X X X X X X X X X X X X X X X X X X X X X X X X X X X X X X X X X X X X X X X X X X X X X X X X X X X X X X X X X X X X X X X X X X X X X X X X X X X X X X X X X X X X X X X X X X X X X X X X X X X X X X X X X X X X X X X X X X X X X X X X X X X X X X X X X X X X X X X X ",
"X X X X X X X X X X X X X X X X X X X X X X X X X X X X X X X X X X X X X X X X X X X X X X X X X X X X X X X X X X X X X X X X X X X X X X X X X X X X X X X X X X X X X X X X X X X X X X X X X X X X X X X X X X X X X X X X X X X X X X X X X X = X X X X X X X X X X X X X X X X X X X X X X X X X X X X X X X X X X X X X X X X X X X X X X X X X X X X X X X X X X X X X X X X X X X X X X X X X X X X X X X X X X X X X X X X X X X X X X X X X X X X X X X X X X X X X X X X X X X X X X X X X X X X X X X X X X X X X ",
"X X X X X X X X X X X X X X X X X X X X X X X X X X X X X X X X X X X X X X X X X X X X X X X X X X X X X X X X X X X X X X X X X X X X X X X X X X X X X X X X X X X X X X X X X X X X X X X X X X X X X X X X X X X X X X X X X X X X X X X X X X X X X X X X X X X X X X X X X X X X X X X X X X X X X X X X X X = X X X X X X X X X X X X X X X X X X X X X X X X X X X X X X X X X X X X = X X X X X X X X X X X X X X X X X X X X X X X X X X = X X X X X X X X X X X X X X X X X X X X X X X X X X X X X X X X X X X X X ",
"X X X X X X X X X X X * X X X X X X X X X X X X X X X X X X X X X X X X X X X X X X X X X X X X X X X X X X X X X X X X X X X X X X X X X X X X X X X X X X X X X X X X X X X X X X X X X X X X X X X X X X X X X X X X = X X X X X X X X X X X X X X X X X X X X X X X X X X X X X X X X X X X = X X X X X X X X X = X X X X X X X X X X X X X X X X X X X X X X X X X X X X X X X X X X X X X X X X X X X X X X X X X X X X X X X X X X X X X = X X X X X X X X X X X X X X X X X X X X X X X X X = * X X X X X X X X X X X X ",
"X X X X X X X X X X X X X X X X X X X X X X X X X X X X X X X X X X X X X X X X X X X X X X X X X X X X X X X X X X X X X X X X X X X X X X X X X X X X X X X X X X X X X X X X X X X X X X X X X X X X X X X X X X X X X X X X X X X X X X X X X X X X X X X X X X X X X X X X X X X X X X X X X X X X X X X X X X X X X X X X X X X X X X X X X X X X X X X X X X X X X X X X X X X X X X X X X X X X X X X X X X X X X X X X X X X X X X X X X X X X X X X X X X X X X X X X X X X X X X X X X X X X X X X X X X X X X X X X ",
"X X X X X X X X X = X X X X X X X X X X X X X X X X X X X X X X X X X X X X X X X X X X X X X X X X X X X X X X X X X X X X X X X X X X X X X X X X X X X X X X X X = = X X X X X X X X X X X = X X X X X X X X X X X X X X X X X X X X X X X X X X X X X X X X X X X X X X X X X X X X X X X X X X X X X X X X X X X X X X X X X X X X X X X X X X X X X X X X X X = X X X X X X X X X X X X = X X X X X X X X X X X X X X X X X X X X X X X X X X X X X X X X X X X X X X X X X X X X X X X X X X X X X X X X X X X X X X X X ",
"X X X X X X X X X X X X X X X X X X X X X X X X X X X X X X X X X X X X X X X X X X X X X X X * X X X X X X X X X X X X X X X X X X X X X X X X X X X X X X X = X X X X X X X X X X X X X X X X X X X X X X X X X X X X X X X X X X X X X X X = X X X X X X X X X X X X X X X X X X X X X X X X X X X X X X X X X X X X X X X X X X X X X X X X X X X X X X X X X X X X X X X X X X X X X X X X X X X X X X X X X X X X X X X X X X X X X X X X X X X X X X X X X X X X X X X X X X X X X X X X X X X X X X X X X X * X X X X X ",
"X X X X X X X X X X X X X X X X X X X X X X X X X X X X X X X X X X X X X X X X X X X X X X X X X X X + X X X X X X X X X X X X X X X X X X X X X X X X X X X X X X X X X X X X X X X X X X X X X X X X X X X X X X X X * X X X X X X X X X X X X X X X X X X X X X X X X X X X X X X X X X X X X X X X X X X X X X X X X X X X X X X X X X X X X X X X X X X X X X X X X X X X X X X X X X X X * X X X X X X X X X X X X X X X X X X X X X X X X X X X X X X X X X X X X X X X X X X X X X X X X X X X X X X X X X X X X X X X ",
"X X X X X X X X X X X X X X X X X X X X = X X X X X X X X X X X X X X X X X X X X X X X X X X X X X X X X X X X X X X X X X X X X = X X X X X X X X X X X X X X X X X X X X X X X X X X X X X X X X X X X X X X X X X X X X X X X X X X X X X X X X X X X X X X X X X X X X X X X X X X X X X X X X X X X X X X X X X X X X X X X X X X X X X X X X X = X X X X X X X X X X X X X X X X X X X X X X X X X X X X X X X X X X X X X X X X X X X X X X X X X X X X X X X X X X X X X X X X X X X X X X X X X X X X X X X X X X X X ",
"X X X X X X X X X X X X X X X X X X X X X X X X X X X X X X X X X X X X X X X X X X X X X X X X X X X X X X X X X X X X X = X X X X X X X X X X X X X X X X X X X X X X X X X X X X X X X X X X X X X X X X X X X X X X X X X X X X X X X X X X X X X X X X X X X X X X X X X X X X X X X X X X X X X X X X X X X X X X = X X X X X X X X X X X X X X X X X X X X X X X X X X X X X X X X X X X X X X X X X X X X X X X X X X X X X X X X X X X X X X X X X X X X X X X X X X X X X X X X X = = X X X X X X X X X X X X X X X X ",
"X X X X X X X X X X X X X X X X X X X X X X X X X X X = X X X X X X X X X X X X X X X X X X X X X X X X X X X X X X X X X X X X X X X X X X X X X X X X X X X X X X X X X X X X X X X X X X X X X X X X X X X X X X X X X X X X X X X X X X X X X X X X X X X X X X X X X X X X = X X X X X X X X X X X X X X X X X X X X X X X X X X X X = X X X X X X X X X X X X X X X X X X X X X X X = X X X X X X X X X X X X X = X X X X X X X X X X X X X X X X X X X X X X X X = X X X X X X X X X X X X X X X X X X X X X X X X X X X ",
"X X = X X X X X X X X X X X X X X X X X X X X X X X X X X X X X X X X X X X X X X X X X X X X X X X X X X X X X X X X X X X X X X X X X X X X X X X X X X X X X X X X X X X X X X X X X X X X X X X X X X X X X X X X X X X X X X = X X X X X X X X X X X X X X X X X X X X X X X X X X = X X X X X X X X X X X X X X X X = X X X X X X X X X X X X X X X X X X X X X X X X X X X X X X X X X X X X X X X X X X X X X X X X X X X X X X X = X X X X X X X X X X X X X X X X = X X X X X X X X X X X X X X X X X X X X X X X X X ",
"X X X X X X X X X X X X X X X X X X X X X X X X X X X X X X X X X X X X X X X X X X X X X X X X X X X X X X X X X X X X X X X X X X X X X X X X X X X X X X X X X X X X X X X X X X X X X X X X X X X X X X X X X X X X X X X X X X X X X X X X X X X X X X X X X X = X X X X X X X X X X X X X X X X X X X X X X X X X X X X X X X X X X X X X X X X X X X X X X X X X X X X X X X X X X X X X X X X X X X X X X X X X X X X X X X X X X X X X X X X X X X X X X X X X X X X X X X X X X X X X X X X X X X X X X X X X X X X X ",
"X X X X X X X X X X X X X X X X X X X X X X X X X X X X X X X X X X X X X X X X X X X X X X X X X X X X X X X X X X X X X X X X X X X X X X X X X X X X X X X X X X X X X X X X X X X X X X X X X X X X X X X X X X X X X X X X X X X X X X X X X X X X = X X X X X X X X X X X X X X X X X X X X X X X X X X X X X X X X X X X X X X X X X X X X X X X X X X X X X X X X X X X X X X X X X X X X X X X X X X X X X X X X X X X X X X X X X X X X X X = X X X X X X X X X X X X X X X X X X X X X X X X X X X X X X X X X X X X ",
"X X X X X X X X X X X X X X X X X X X X X X X X X X X X X X X X X X X X X X X X X X X X X X X X X X X X X X X X X X X X X X X X X X X X X X X X X X X X X X X X X X X X X X X X X X X X X X X X X X X X X X X X X X X X X X X X X X X X X X X X X X X X X X X X X X X X X X X X X X X X X X X X X X = X X X X X X X X X X X X X X X X X X X X X X X X X X X X X X X X X X X X X X X X X X X X X X X X X X X X X X X X X X X X X X X X X X X X X X X X X X X X X X X X X X X X X X X X X X X X X X X X X X X X X X X X X X X X X ",
"X X X X X X X X X X X X X X X X X X X X X X X X X X X X X X X X X = X X X X X X X X X X = X X X X X X X X X X X X X X X X X X X X X X X X X X X X X X X X X X X X X X X X X X X X X X X X X X = X X X X X X X X X X X X X X X X X X X X X X X X X X X X X X X X X X X X X X X X X X X X X X X X X X X X X X X X X X X X X X X X X X X X X X X X X X X X X X X X X X X X X X X X X X X X X X X X X X X X X X X X X X X X X X X X X X X X X X X X X X X X X X X X X X X X X X X X X X X X X X X X X X X X X X X X X X X X X X X X ",
"X X X X X X X X X X X X X X X X X X X X X = = X X X X X X X X X X X X X X X X X X X X X * X X X X X X X X X X X = X X X X X X X X X X X X X X X X X X X X X X X X X X X X X X X X X X X X X X X X X X X X X X X X X X X X X X X X X X X X X X X X X X X X X X X X X X X X X X X X X X X X X X X X X X X X X X X X X X X X X X X X X X X X X X X X X X X X X X X X X X X X X X X X X X X X X X X X X X X X X X X X X X X X X X X X X X X X X X X X X X X X X X X X X X X X X X X X X X X X X X X X = X X X X X X X X X X X X X X ",
"X X X X X X X X X X X X X X X X X X X X X X X X X X X X X X X X X X X X X X X X X X X X X X X X X X X X X X X X X X X X X X X X X X X X X X X X X X X X X X X X X X X X X X = X X X X X X X X X X X X X X X X X X X X X X X X X X X X X X X X X X X X X X X X X X X X X X X X X X X X X X X X X X X X X X X X X X X X X X X X X X X X X X X X X X X X X X X X X X X X X X X X X X X X X X X X X X X X X X X X X X X X X X X X X X X X X X X X X X X X X X X X X X X X X X X X X X X X X X X X X X X X X X X X X X X X X X X X X ",
"X X X X X X X X X X X X X X X X X X X X X X X X X X X X X X X X X X X X X X X X X X X X X X X X X X X X X X X X X X X X X X X X X X X X X X X = X X X X X X X X X X X X X X X X X X X X X X X X X X X X X X X X X X X X X X X X X X X X X X X X X X X X X X X X X X X X X X X X X X X X X X X X X X X X X X X X X X X X X X X X X X X X X X X X = X X X X X X X X X = X X X X X X X X X X X X X X X X X X X X * = X X X X X X X X X X X X X X X X X X X X X X X X X X X X X X X X X X X X X X X X X X X X X X X X X X X X X X X "
};
