/* XPM */
static char *out[] = {
/* columns rows colors chars-per-pixel */
"256 256 256 2 ",
"   c #040301",
".  c #0A0603",
"X  c #0C0A05",
"o  c #060909",
"O  c #0D0C0A",
"+  c #170B07",
"@  c #130C05",
"#  c #1B0D05",
"$  c #120E0A",
"%  c #0F100C",
"&  c #14120D",
"*  c #1C1309",
"=  c #1C130C",
"-  c #030915",
";  c #020B14",
":  c #0B0D11",
">  c #020C1B",
",  c #08121A",
"<  c #151512",
"1  c #1A1612",
"2  c #171813",
"3  c #1B1914",
"4  c #14191B",
"5  c #1C1C19",
"6  c #200E06",
"7  c #231306",
"8  c #23150C",
"9  c #2A1608",
"0  c #23190E",
"q  c #2C1B0C",
"w  c #341A08",
"e  c #321D0C",
"r  c #221612",
"t  c #241B13",
"y  c #2A1D14",
"u  c #2A1D17",
"i  c #231E19",
"p  c #331E12",
"a  c #1F201C",
"s  c #34220D",
"d  c #3A250D",
"f  c #3C270C",
"g  c #262116",
"h  c #2B2116",
"j  c #24221C",
"k  c #2C241A",
"l  c #2D291D",
"z  c #342314",
"x  c #3A2513",
"c  c #3C2A14",
"v  c #32261B",
"b  c #3A2619",
"n  c #342A1E",
"m  c #392E1B",
"M  c #3B2B1C",
"N  c #010E22",
"B  c #041224",
"V  c #07172A",
"C  c #131D27",
"Z  c #051B34",
"A  c #18242B",
"S  c #0B233A",
"D  c #152737",
"F  c #252522",
"G  c #2B2A26",
"H  c #2C2A24",
"J  c #342C22",
"K  c #332D27",
"L  c #3A2E23",
"P  c #363023",
"I  c #3C3224",
"U  c #34322C",
"Y  c #3D332A",
"T  c #3D392E",
"R  c #2A3235",
"E  c #373936",
"W  c #3C3A33",
"Q  c #432C0E",
"!  c #472915",
"~  c #432D15",
"^  c #432D1B",
"/  c #4A2D1B",
"(  c #582D16",
")  c #512E1B",
"_  c #483216",
"`  c #44321C",
"'  c #4B341C",
"]  c #4D391D",
"[  c #52341D",
"{  c #533A1D",
"}  c #5A3B1E",
"|  c #442F22",
" . c #433325",
".. c #4B3522",
"X. c #4D3A23",
"o. c #43352A",
"O. c #483729",
"+. c #45392C",
"@. c #4B3B2D",
"#. c #523524",
"$. c #533C23",
"%. c #5A3D23",
"&. c #533C2B",
"*. c #5A3A29",
"=. c #453C32",
"-. c #4C3D32",
";. c #423D39",
":. c #513E31",
">. c #5C3E31",
",. c #633D29",
"<. c #623F30",
"1. c #3B413C",
"2. c #5C411F",
"3. c #5C4224",
"4. c #55422C",
"5. c #594428",
"6. c #5B442B",
"7. c #4D4134",
"8. c #46433B",
"9. c #4D433A",
"0. c #534335",
"q. c #5A4634",
"w. c #544936",
"e. c #554936",
"r. c #5C4A34",
"t. c #544639",
"y. c #594739",
"u. c #55493C",
"i. c #5C4B3C",
"p. c #664725",
"a. c #63452B",
"s. c #634A2C",
"d. c #6B4D2B",
"f. c #744A2F",
"g. c #6D512D",
"h. c #74532D",
"j. c #634C33",
"k. c #684933",
"l. c #614E3D",
"z. c #6C5234",
"x. c #64523C",
"c. c #695439",
"v. c #6B543B",
"b. c #735533",
"n. c #765836",
"m. c #745A3C",
"M. c #7A5C3C",
"N. c #7D613D",
"B. c #122E49",
"V. c #2B3B49",
"C. c #123D63",
"Z. c #3B4446",
"A. c #2E4657",
"S. c #254862",
"D. c #484944",
"F. c #544C42",
"G. c #5D4E41",
"H. c #5D5143",
"J. c #58544A",
"K. c #4A5252",
"L. c #575A55",
"P. c #614F41",
"I. c #645344",
"U. c #695645",
"Y. c #655845",
"T. c #6C5945",
"R. c #645649",
"E. c #695749",
"W. c #65594B",
"Q. c #6C5B4B",
"!. c #735C43",
"~. c #795C43",
"^. c #715E4C",
"/. c #645D52",
"(. c #6D5E51",
"). c #715F50",
"_. c #7C6244",
"`. c #74614D",
"'. c #796549",
"]. c #7B644C",
"[. c #6A6356",
"{. c #746353",
"}. c #706552",
"|. c #7A6653",
" X c #7D6955",
".X c #776759",
"XX c #7C6B5A",
"oX c #5B6260",
"OX c #6F6F69",
"+X c #787366",
"@X c #855A39",
"#X c #85643B",
"$X c #916D3D",
"%X c #866845",
"&X c #846B4C",
"*X c #8A6D4B",
"=X c #966A47",
"-X c #97674D",
";X c #8D714C",
":X c #95744B",
">X c #836C54",
",X c #896D52",
"<X c #826E5B",
"1X c #986D52",
"2X c #8B7255",
"3X c #84715D",
"4X c #8A745D",
"5X c #977956",
"6X c #AA7250",
"7X c #A67B57",
"8X c #857362",
"9X c #8A7663",
"0X c #8C7965",
"qX c #867668",
"wX c #857868",
"eX c #8D7B6A",
"rX c #937C64",
"tX c #927E6B",
"yX c #C27D65",
"uX c #7C817C",
"iX c #9D815B",
"pX c #A3845C",
"aX c #A8865A",
"sX c #B5855D",
"dX c #98836A",
"fX c #8B8675",
"gX c #998774",
"hX c #A78A66",
"jX c #B68A65",
"kX c #AD926B",
"lX c #B7966B",
"zX c #A48C75",
"xX c #A99378",
"cX c #B89A75",
"vX c #BCA27A",
"bX c #CA946E",
"nX c #C89C75",
"mX c #C6A47B",
"MX c #CEAD7B",
"NX c #D4A67B",
"BX c #E0A67D",
"VX c #9B9688",
"CX c #AA9883",
"ZX c #B5A78C",
"AX c #C9AB83",
"SX c #D8AB83",
"DX c #CDB28A",
"FX c #D6B58A",
"GX c #C7B096",
"HX c #DABB94",
"JX c #E2B790",
"KX c #DDC298",
"LX c #E4C18D",
"PX c #E4C59B",
"IX c #E5C9A3",
"UX c #F2D6A9",
/* pixels */
"D.[.fXZXCXrX1X).>X>X).E.P.(.(.Q.E.R.R.y.L | o.;.O.>.(..XE.y.<XeX).).).4X<X>X|.XX(. .+.o.:.y.I.^.Q.).Q.Q.U.|.XXE.T.>X].`.T.!.`.T.`.`.4XwX'.`.^.^.v.T.`.T.). XI.t.=.F U F.).).I.>.U.).>XXXQ.y.P.y.y.Q..X:.t.F.l.E.I.P.E.).tXtX<X).<X).E.I.I.).9XrX).J .   5 G W.8XgXzX8X).l.l.E.E.w.@.w.i.i.u.0.t.=.u i u v n L y.i.G.:.y..XP.r.I.Q.Q.U.P.(.I.u y v Y O.=.y.G.t.i.i.t.P.I.i.y.l.U.l.y.l.l.i.l.l.^.).y.>.y.>.y.G.y.i.P.I.q.-.Y k u T F.I.t.L -.i.R.U.P.@.@.+.-.t.I.o.o.+.+.t.9.-.:.i.).{.E.E.P.P.>.y.-.i.).XXJ.k .   o i Y }.eXdX.X",
"F.(.9XCXxXrX>X>X<X<X>X^.>.F.R.P.P.R.R.G.:.;.>.;.:.y.R.(.E.E.<XqX!.E.).3X9X9X X XR.L -.-.:.:.P.).I.Q.Q.E.P.Q.).|. X`.].!.`.^.}.|.}. XXX3X}.}.`.`.}.`.}.`.9X8XE.G.=.n F.XXqX8X/.>.).).<X<X).P.G.y.G.Q.Q.-.-.i.y.I.E.P.U.^.3X8X8XXX).Q.R.I.E.Q.8XtXQ.J X . 5 K J.XXgXzX<XI.l.U.).E.l.O. .7.7.7.9.y.=.J v n n J O.y.0.0.:.Q..Xl.i.(.).(..XE.I.F.b v L L L o.t.t.t.y.y.:.i.G.I.I.P.I.l.l.y.l.P.U.U.E.^.P.P.G.y.P.G.P.P.E.Q.y.0.L r J I.(.).I.@.0.P.I.Q.Y.&.@.O.+.G.G.o.L o. .>.:.-.:.G.I.Q.I.I.Q.G.l.y.:.y.).).i.u .   o 2 Y (.eXfX(.",
"F.(.3XCXxX>X^.>X<X4X>XQ.R.-.-.-.:.y.P.G.y.G.y.t.R.<XqXqXtX<XE.P.P.>X<X>X0X9X<X{.Y.i.w.w.G.U.E.E.U.E.Q.U.I.E.).9XtX!.l.^.}.`.'. XXX X}.XXdXXX^.}.|.]. X`.9XtXR.G.o.b /.gX<X|.3XtXtX<X).9X).E.P.@.t.I.R.@.O.G.P.I.I.l.U.E.I.|.eX9X<X).E.I.Q.E.9XtX^.H @ . 2 G u.XXCXzXP.>.l.^.).E.I.O.I P L Y +.+.+.-.-.=.Y y.G.^.|.).).i.y.7.y.E.E.{.XX).P.t.| Y L O.+.:.t.:.y.t.0.:.i.P..X8XU.r.P.l.l.y.U.).^.I.R.XXXXI.G.y.I.I.E.).XXy.@.J 8 +.XX).I.E.{..XR.P.Q.W.y.O.o.O.0.t.o.p +.t.0.:.:.t.y.q.y.).(.Q.P.P.i.@.:.).{.G.i .   o 3 Y /.fXtXI.",
"8.Q.9XCXtX~.^.).>X<X<X^.R.>.=.-.t.i.P.P.P.R.t.>.).8X9X9XtX9XE.E.I.).<X>X9X8X3X<XQ.x.i.i.P.E.I.Q.^.U.U.I.P.E.E.eXgX^.U.'.>X`.T.XXdXXX'.XXdXfX}.'.`. X3X XtX9XG.F.L o.<XzX9X X3XeX<X).<X).XXQ.G.O.t.Q.W.:.-.R.Q.Y.U.E.^.Q.x.).eXqX3X<XE.^.~.E.rXtXXXY O   5 U u.<XzXtXl.y.P.^.U.U.i.+.o.b J o.+.+.+.t.y.-.^ P.Q.^.|.<X|.i.&.y.i.I.I.Q.{.^.E.i.t.+.o.+.;.:.9.>.G.F.t.0.y.i..XtXU.q.l.l.P.i.P.).).P.I.<X.XP.y.G.Q.I.P.XX.X:.o.k 0 i.9X.XI.Q.).Q.P.P.Y.l.i.7.Y | t.y.| J -.P.0.0.0.y.y.:.q.(..X).E.P.0.y.i.^.XXW.k .     1 Y Q.tXtXP.",
";..XzXCX1X^.~.>X].|. XQ.F.y.:.Q.<X^.U.P.Q.E.I.).tXtX<X<X9X8X8X<XQ.^.I.r.U.U.<XgX0XT.^.Q.|.Q.T.Q.E.^.E.E.).P.:. XwX4XXXXX X`.T.|.fX X X2XXX3X0XdX0XeX<X<X9X).:.o.-.i.+XdXtXeX|.).^.^.^.).{.U.P.U.P.Q.I.-.-.U.{.{. X3X0X9X4XtXtXeX8X8X).).3X3X3X9XQ.v X   3 P y.eXzX<Xl.i.l.P.P.E.r.@.Y I -.G.G.:.=.y.G.0.y.Q.|.).^.^.^.E.R.i.w.:.-.q.0.E.XX{.U.F.G.F.t.-.0.t.y.y.t.i.:. .I..XQ.Q.P.E.U.:.i.).{.Q.Q.E.Q.).).)..XR.I.{.U.| z v M P.8XXX{.Y.i.y.i.i.l.i.r.:.-.:.0.i. .b 0.i.P.U.).{.Q.).{.XX.X).{.E.i.{.E.^..XG.i .   X 1 -..XeXqXG.",
";.gXZXtX,X^.).>X|.`.^.T.l.P.y.).9X).P.I.).Q.E.^.<X<X<X>X<X9X8X<X XQ.I.l.P.I.8XzXdX|.XX3X].T.U.U.U.E.I.E.(.:.y..XXX4X4X XXXT.i.`.2XXX3X>XXXXX3X0XdX0X3X<X<X{.t.b i.U.XX0X8X9XXX{.).E.E.^.^.^.Q.^.I.I.l.:.w.x.E. X X<XtXeXeXtX8X9XqX<X8X8XtX4X9X9XR.y X   < U {.VXdX^.l.y.>.G.P.P.0.0.@. .:.)./.>.-.G.i.y.l.Q.{.P.P.U.^.^.{.I.w.:.O.O.@.).eX8XQ.P.P.P.G.-.y.>.y.y.t.i.O. .I.).^.^.I.^.U.&.i.Q.^.Q.Q.I.).W.).XXXX).E.).E.@.z  .y.Q.|.Q.Q.Q.P.P.l.i.i.P.P.y.y.y.&.w.+.I @.w.P.{.{.XX|.{.XXXX).XXXX).Q.<X^.).Q.y.i .     t F.8XeX).:.",
"D.CXCXtX>X4X<X^.`.>X<X4X8XE.y.P.).).).).{..X{.^.E.^.>X).<X8X<X<XXXXXE.I.i.q.T.8X0X0X4X|.|.0X4Xx.P.).>XP.>.E.).XX XXX X'.`.`.`.^.`.T.x.`.4X0XQ.`.|.XX0X0X<XXXQ.y.E.{.].`.^.).{.).Q.).^.).).^.E.E.Q.Q.U.U.P.y.l.|. X`.|.^.`.{.E.).<X<X<X8XzXtX9XeX.Xk .   < J XXCXtX~.U.I.i.y.P.I.R.Y.i. .O.i.P.P.i.P.I.P.G.l.l.y.P.E.).E.).Q.P.y.O.@.O.i.).).E.^.Q.l.|.{.u.:.i.P.t.| :.i.I.E.Y.U.U.P.l.l.U.P.i.i.P.E.).>.G.G.I..X).Q.E.P.@.0.I.U.P.P.P.P.P.P.l.G.l.G.l.i.y.0.0.-.-.@.@.+.G.).P.i.G.y.l.t.i.).).Q.Q.3X8XXX{.J.y .     1 G.tXqXP.-.",
"F.CXZXrX4X9X9X).<X9X9XrXeXR.>.P.E.|.<X|..X).Q.E.P.E.E.>X-X<X8X8XXX XI.l.w.0.x.XX0XdX4X>X3XxXgX^.^.<X8XI.:..XXXXX X X}.|.T.'.}.^.`.T.T.|.dX4XQ.T.Y.Q.dXfXXXXX.X{.`.`.^.^.).).|.).^.).).^.^.^.^.Q.^.E.Q.U.r.0.q. X9X{.Y.U.U.I.P.Q.Q.<X)..XCXzX9XrX{.v X   < H +XzX4X^.^.{.l.i.E.{.|.{.i.| O.-.P.P.P.P.I.I.P.0.w.P.i.U.^.{.|.Q.U.0. .O.o.O.i.Y.).^.E.P.XXtXl.w.I.Q.P.M P.Q.Q.P.E.^.I.l.i.l.P.i.r.i.l.).).P.>.t.>.(. XR.Y.I.I.P.I.P.I.P.l.P.P.P.G.l.P.i.i.i.y.t.0.w.0.@.O.M i.|.R.y.y.:.:.>.i.E.E.E.E.qXrX).(.I.k .   o 1 L.tXXXy.>.",
"9.CXCXeX3X3X>X).|.>X^.~.^.l.`.|.^.|. X|.{.{.{.x.y.P.^.{.).>X>X|.3XXX`.<X0X0X9X<X4XdX0X4X4XdX4X|. X`.`.x.Y. XXX XXX'.}.'.}.`.`.Q.`.^.].|.3X X{.U.I.^.gXgX0X9X X`.`.^.!.`.`.^.{.).Q.).).).Q.Q.E.E.Q.q.w.i.i.y.I.Y.Q.^.Q.U.Y.i.P.I.P.).|.9XtXtX9X<Xe.g X   3 P XXgX9X>XT.I.P.i.I.Q.I.l.@.q.P.>.P.P.P.P.I.P.i.O.-.y.P.E.E.Q.E.I.Q.l.i.^.{.{.E.U.|.^.Q.^..X{.U.U.P.U.i.>.Y.R.E.U.P.U.P.l.l.l.G.l.i.P.I.I.P.y.t.:.y.XXqX).{.I.I.P.i.i.P.i.P.P.l.G.G.P.i.i.i.y.q.y.&.O.-.:.o.@.0.i.y.y.w.:.@.0.G.I.I.E.E.XX|.{.Y.I & X     3 H.eX9XE.y.",
"9.tXCXCXrX8X>X>X>X).U.^.U.^.<X|.^.|.|.|.|.|.{.I.l.Q.{.|.>X|.).>X<XXX<X0XdXgXzXrX>X0X0XrX0XdX0X4X>X`.`. X X X X X}.'.v.`.`.`.`.Q.Q.{.3X|.`.{.U.U.I.).tXgXgXgX<X`.^.^.!.`.`.^.).).^.).^.^.).(.Q.E.E.@. .i.@.I.I.Y.U.E.E.E.R.P.y.P.E.).).3XtXtX8Xl.z = X   3 K }.gXtX4XQ.l.P.i.I.i.q.0.y.I.P.l.P.R.E.E.E.E.i.O.q.P.I.U.P.P.P.E.Q.Q.Q.<XdX9X~.T.|.{.Q.).|.Q.^.^.P.P.U.I.U.i.l.U.l.y.I.I.P.P.r.l.I.Y.U.I.P.0.0.t.y.XXqXXXXXQ.i.x.x.I.l.P.l.P.P.i.l.P.P.P.P.y.y.F. .y @.I  .w.y.0.0.y.0.t.q.0.y.i.I.R.Q.XXXX{.i.0 @ .   o 2 F.8XqXQ.i.",
";.gXZXyX9X>X>X^.U.T.U.^.`.|.|.|.`.>X|.|.XX XQ.x.XX<X|.|.|.|.<X|.<X|.0XrX>X|.tXdX9X3XXX8X`.Y.Q.3X0XdXdXzXdX XXXXX X X}.}.Q.{. X}.U.|.3X|.]. XXX X|.`.<X8X X X{.`.'.`.T.T.Q.`.|.).).8X<X.X.X.X).E.Y.0.y.+.M I.`.XX XW.E.E.i.t.@.t.E.).).<XtX8X).:.g * .   5 P }.fX0X].x.U.l.0.y.:.:.y.G.Y.I.P.P.I.E.I.P.P.:.P.Q.U.E.E.I.E.U.U.l.Q.|.^.`.>X<X<XQ.i.P.i.:.@.l.).).>X>X<X`.I.U.E.U.P.P.y.l.E.P.y.r.E.I.U.E.U.U.l.Y.Q.E.Y.I.I.U.H.l.G.l.i.P.I.l.P.E.E.U.I.I.I.y.t.o.n P q  .i.R.P.y.0.u.-.-.o.o.w.y.i.Y.E.(.H.T = X     o 3 u.<X.XI.i.",
"-.VXCXtX<X>X<X).l.x.U.,X>X>X|.|.|.>X|.|.|.|.I.^.gXrX^.|.{.>X!.^.].].3XrX^.i.XXgXrX^.I.(.i.0.Y.XXdXgXCXcXgX4X X X X X'.T.T. X XT.c.|.9X4X4X9X9X3XwX3X|.{.`.^.`.`.`.`.^.`.{.{.^.I.).eXtXtXeXtX8X(.Q.i.@.M @.i.Q.eXdX}.Q.R.0.y.o.0.E.E.Q..X0XeX).| 0 * . . 5 U .XeX>X^.l.U.l.@.:.t.y.I.E.I.R.P.I.I.E.E.I.P.i.|.<XE.P.P.E.U.P.I.P.).<XU.&.I.3X{.i.4.y.@.| :.I.>X>XrXtX0X|.Q.U.^.T.U.P.k.P.E.l.y.i.^.^.Q.E.|..XE.Q.G.P.I.P.I.Y.U.I.i.G.G.G.P.t.y.).XX|.).XX{.0.0.+.J g h +.i.Q.XXW.:.7.o.o.L Y t.9.i.I.{.{.u.P = X     X = y.XX^.q.7.",
"9.zXzX9X|.3X3X~.T.!.|.>X>X>X|.|.|.|.|.|.}.`.T.|.XX X`.^.E.U.^.|.4XrX>X<X`.Q.{.XXXXi.u.G.t.y.^.0XdXhXxXxXdX`.T. XXX X|.|.{.{.T.T.`.].<X>X<X<X|.^.^.^.).{.).^.8X9X`.T.Q.`.Y.w.0.:.R.F.R.).).R.R.E.Q.I.y.w.i.w.@.Q.XXR.W.R.-.O.L 0.i.l.P.U.XX|. .0 * * X X j K {.dX`.U.l.).l. .>.I.I.I.P.E.P.I.I.U.P.E.E.P.i.E.^.I.i.i.y.i.E.{.|.{.E.E.i.Y.Q.U.-.| O.| o.:.^.<X3XrX9X<XU.y.l.E.E.U.P.P.P.l.y.P.E.Q.^.Q.E.Q.I.H.G.i.I.I.i.E.XXW.I.i.P.y.+.O.O.=.:.@.y.i.0.0.t.F.-. .Y  .o.M 7.I.G.u.7.+.L k o.7.7.w.t.W.R.Y * @ & X   o i G.8XE.:.@.",
"9.VXtX).>XrX9X).!.^.|.>X|.>X>X|.|.|.|.>X|. X|. X{.^.^.U.:.>.|.3XdXgX4X3XXX X{.`.Q.i.y.+.F.I.^.eXxXzXzXzXdXx.T.{. X3XXX3X XQ.x.`.0X9X4X0X4XrX|.U.E.{.).^.^.^.rXCX}.Y.).}.0.L -.t.:.p :.).P.o.>.I.).E.I.E.Y. .n :.Q.{.R.y.L | O.0.P.P.P.P.{.Q.h # = 3 X % j K XXeXU.j.T.<Xl.0.i.E.I.I.U.E.U.E.I.I.E.I.E.P.E.P.I.P.0.@.| x.{.<XXXXXT.Q.T.I.i.t.-.O.L o.:.G.|.3X9X4X4X3Xl.>.i.U.^.E.U.P.y.:.I.).<X{.).).).I.t.G.u.y.H.G.i.}.eX{.i.i.P.+.b L O. .v J t.F.L O.0.P.-.O.@.7.M q P 7.u.J.=.J k n T =.-.u.w.y.y.y @ & @ X o < u J.8XG. .0.",
"F.VXyXXX>XtX3X~.|.>X X|.].>X|.>X X>X|. X X X]. X X{.Q.U.).).>X4X4X0X4X3X9X9X{.{.XXXXW.i.i.Q.{. X3X0X9X9X>XT.{.|.|.3X{.3X3X{.T.E.XX|.|.8X<X<Xx.y.i.y.U.^.^.U.^.9Xj.y.^.}.y.0.I.F.-.o.G.E.y.>.G.Q.{.(.(.XX[.H.w.0.t.G.i.-. .y.=.y.G.).).).{.}.n 8 t i X 2 H =.qXtXT.x.^.|.I.P.P.P.P.U.U.E.P.U.P.E.Q.U.I.E.E.Y.Y.i.w.y.i.I.Q.Q.Q.^.^.`.|.E.I.y.G.P.:.o.t.y.Y.T.^.>X).^.y.P.U.E.^.U.^.E.U.l.k.E.E.E.E.R.I.-.o.-.Y 7.H.I.i.I.Q.H.@.y.R.:.L -.F.o.n O.F.:.-.-.:.P.y.0.i.H.@.T o.+.=.-.Y k K K P -.7.G.y.I.I.v # & $ . X 2 k I.8XI.&.0.",
"9.CXCXtX9X<X~.9X0X|.|.].>X>X|.|.|.&X|. X X X X X|.`.Q.`.|.|.>X). X>X4X4XdX8X X X3X XQ.i.H.Q.`.T.^.8X9XT.i.Q.Q.|. X|.`.XX3XXX`.E.Q.{.{..X).l.O. . .0.^.{.E.U.T.U.w.e.H.I.G.i.E.{.R.t.F.P.P.P.R.(.{.Q.Q.8X.X.XI.-. .Y =.O.=.t.o.q.P.).<X<X+X.XI 8 j g % 5 K W wXfX>X!.U.l.T.XXU.P.P.P.U.E.E.E.E.I.E.E.E.I.U.E.U.x.P.I.Y.U.U.U.T.`.^.`.{.Q.Q.i.I.P.+. .t.y.0.y.^.{.y...y.P.E.E.E.y.E.).E.P.:.i.P.P.I.H.7.o.J z v t.H.I.i.i.i.7.o.-.F.:.o.:.F.-.o.+.-.-.-.t.F.I.i.P.Q.E.G.t.+.I v J I J I n  .-.y.R.G.W.(.J & # $   O 5 F R.8X).l.0.",
"9.CXCXyXtXtX4X9X<X`.].].3X>X&X].|. X|.|.>X|.].>X3X>X).|.).|.^.^.XX|.|. X3XXX8X|.`.|.Y.y.P.E.Q.Q.`.|.{.U.U.).E.^.].|. X|. XXX XT.T.E.^.E.l.t.=.:.O.P.Q.^.E.E.^.U.F.:.y.<.P.P.G.(.G.G.G.u.y.w.U.i.E.XX{.XX{.(.E.w.-.y.9.t.Y -.y.t.I..X8X{..X}.P = g j & a G W qXzXrX,X~.I.^.{.i.P.I.E.E.U.U.U.U.U.U.U.U.E.E.`.E.Y.I.U.I.I.e.I.Y.Y.P.I.Q.Q.Q.r.i.I.@.0.i.F.0.P.E.I.y.0.i.r.I.I.P.U.I.E.I.P.y.y.y.i.y.7. . .+.L +.t.P.P.y.t.t.=.+.+.-.-.-.o.o.o.o.O.=.O.@.0.i.P.P.I.i.G.y.y.@.o.o.Y o.H J +.=.:.G.(.Y.i.t.v $ $ $ X % 5 K W.<XXX(.I.",
"F.VXCXtXCXCXtX8XXX].].4X4X>X X]. X X X X>X|.|.4XxXgX>X).).^.E.U.Q.T.Y.Q.XX3X3XE.`. X].`.).U.I.E.U.T.E.^.^.E.|.).].].>X X X X X`.^.I.I.y.:.&.u.R.J.P.E.Q.).^.E.T.P.P.P.P.P.P.P.>.y.I.0.b o.E.^.I.U.8XXXU.T.{.{.I.y.I.t.t.O.F.G.G.R.{.8X|.H.u.P = 3 g X j U =.+XtX9XtXtXrX^.Q.P.P.T.|.^.U.U.U.E.E.I.I.I.U.Q.eXeX{.I.Y.i.y.y.i.i.0.i.E.Q.^.I.r.I.R.Y.I.y.0.y.y.q.y.l.G.i.i.l.l.I.E.E.E.E.E.G.i.t.y.7.+.Y 7.i.@.7.i.G.y.t.>.t.:.-.-.+.-.t.-.| o.=.O.b u y.G.:.0.).{.i.w.i.I.y.+.7.=.Y k o.:.-.-.y.E.Q.i.+.k * @ X X & a J J..XXX).(.",
"D.qX<XtXAXCXzX4X X|.].4XrX>X X X X>X>X X<X>X>X3XtX9X>X|.).^.).^.Q.Q.E.Q.}.^.{.^.`.T.^.XX).y.i.E.I.E.Q..X).Q.^.^.|.3XdX>X3X X3X XU.U.^.Q.i.P.R.I.P.P.I.I.).E.Q.E.I.I.I.I.R.I.<X).).Q.i.0.^.^.U.^.Q.XX<X{..X8XXX(.i.Y.i.7.O.-.y.t.E.).eXwX(.i.J = 2 t % 5 U 8..X}.<XrXtXrX^.P.P.P.^.|.U.I.U.U.E.U.E.E.I.E.^.XX|.Q.U.I.i.i.i.u.i.y.y.I.P.G.i.i.l.E.E.G.O.+.0.y.q.y.P.I.i.r.I.l.R..X).U.I.{.I.:.0.i.i.y.0.H.R.O.w.t.t.G.y.t.t.0.:.-.:.:.:.I.P.i.G.-. .-.P.i.0.q.Q.|.Y.T.I.H.H.7.t.-.+.L U +.-.-.G.Q.).G.=.v # X & X & a K t.G.E.8X8X",
"D.R.(.gXCXCXtX^.`.>X>X4XrX>X]. X X X].3XzXgXzXtX,X).).|.).).).^.).Q.Q.}.{.E.).).U.i.^.).Q.@.0.E.E.E.^.<X X|.).|.<XdXzX4X X'.fX`.0.E.|.8X8X|.E.i.:.y.y.P.E.P.E.E.U.E.E.P.P.P.).8X{.).E.Q.^.I.I.|.|.<XtXqXXX{.{.Q.R.E.I.Y.y.Y L y.R.).eXeX}.7.t = = 5 & j U =.F.i.4XtX4X3XU.y.I.Q.).<XE.l.U.U.T.U.E.<X<X9X0XQ.U.U.I.x.H.i.u.i.G.t.y.P.y.>.i.y.O.I.R.i.L b t.y.i.P.Y.U.i.I.I.Y..X9X).^.P.).E.| i.Q.{.E.l.y.7. .Y +.+.F.>.y.0.y.y.y.:.-.:.I.{.E.l.0.0.y.I.i.P.I.E..X).).E.P.i.w.u.t.t.+.J u o.:.P.E.XXP.o.t @ X & X & a K 9.0.P.<X.X",
";.J.W.tXzXCXtX>X X>X9XrX4X>X X>X X<X<X3XgXxXgX3X~.|.>X).|.|.).U.^.^.{.).^.).(.Q.Q.{.{.{.).O.:.Q.).^. X<X<X{.|.|.|.rXrX9X>X]. XY.I.{.<XrXdX8XR.y.y.P.i.P.P.Q.).).).>XE.P.).).8X8X{.Q.U.Y.U.Q.^.3X4X4X8X8XXX.X).).Q.x.I.Q.i.+.:.P.W..X8XXX/.n * * t j X j U 8.u.l.4X9XrXtXE.P.E.{.).).T.T.^.T.!.^.U.>X9X3X).P.U.Q.U.Y.E.P.y.y.G.i.P.P.>.F.P.P.P.Q.I.I.| b i.H.i.I.E.Q.E.I.U.U.Q.XX|.Q.P.P.t.-.i.E..X<X).G.7.O.7.7.-.t.-.G.G.I.Q.I.-.y.Y.Q..X{.w.0.G.>.F.i.I.E.).).E.E.E.Y.I.i.t.-.t.=.Y L :.y.G.R.).G.k + @ $ & X < F K o.O.I.).Q.",
"E J.(.qXzXCXxX9X X X0X3X>X X].|.>X3XrXrXrX3X!.T.^.<X3X<X|.|.{.U.^.{.{.(.Q.Q.).E.{.|.{.XXQ.O.:.{. X|. X>X3XXXXXU.T.4XtXtXXXQ.0.Y.{.XXeXgXgX3X^.Y.(.E.i.P.P.^.qXeXCXVX<X<X<X9XtXtXXX|.^.I.U.<X`.|.<XtXtX<X|. X|.).Q.P.E.E.i.t.I.).3XwXdXwXw.0 0 3 j j O 5 U 8.J.E.>XrXtXzX XP.I.).^.T.U.^.T.^.).|.<X<X^.>.>.l.U.Q.E.E.I.I.y.G.P.P.G.G.G.t.>.G.P.P.Y.J.v n H.E.Y.U.U.Y.Q.Q.P.i.Q..X.XQ.I.O.:.I.Q.{.3XqX<XR.7.0.H.u.t.t.t.(..X<XqX{.l.Q.Q.).{.).l.l.t.:.Q.E.E.(.<X<X{.U.P.I.P.G.t.-.:.+.Y t.F.P.).).).+.# @ $ 3 = X & j K +.0.G.{.|.",
";.J.(.qXtXzXCX4X X{.XX).|. X{.{.^. X0XtX>X^.U.E.^.).].|.<X<X|.^.^.).E.i.Y.E.Q.{.{.Q.Q.(.P.@.y.).>X4X|.`.<XXX{.Y.T.^.XXXX).0.+.i.E.<XqXtXgX9XXXI.I.).(.^.P.(.eXeXeXqX).E.E.qXrX9X).|.^.P.x.9X<X'.>XtXCXqX|.<X|.^.T.E.P.I.i.u.E..XeXtXgX8Xx g l z j i . < G W I.{.).rXtXtX.XG.G.E.E.P.l.U.l.i.^.XX).).U.l.P.P.I.I.Y.U.Q.U.:.i.P.y.:.:.G.G.R.P.G.y.i.t.J J i.R.Q.T.U.R.Q.I.P.i.I.R.Q.Q.>.J -.t.R.^.).3X).P.:.-.F.y.>.F.y.).|.|.Q.i.q.y.E.).).E.E.P.:.>.I.).P.E.qXeX).).).E.P.i.0.:.9.o.o.0.G.).<X.X).v = 8 = i 2 X % 5 H =.i.l.U.{.",
"D.J.H..XrXrX9X).E.I.i.}..XE.y.t.i.{.<X>X].^.Q.^.^.U.^.^.3X0XXX{.{.Q.E.Y.Q.Q.{.).Q.y.w.l.P.i.i.>X>X9X4X4X4X).Q.).{.Q.I.O.| v  .+.=.R.<XeXgXeXQ.q.i.i.).).|.<X<XXX.X>.| P.<XtX9X>X).>X^.U.r.^.|.`.<XzXzXtXgXgX9X^.U.I.I.I.0.w.I.).wXdXgXXXP I l g g & X 5 G W J.[.).4X>X<XE.y.O. .y.P.G.O. .:.0.E.E.E.U.P.G.i.q.i.I.R.{.E.P.G.y.@.O.F.>.P.E.R.-.o.O.-.o.| H.T.`.^.|.^.Y.i.G.G.G.t.o.b u Y -.Y O.E.).3X<XG.o.O.@.G.y.P.E.XXE.I.:.J | i.).|.Q.E.E.E.>.:.G.E.<.P.XXqX<X3X3X<XI.0.-.0.-. . .O.G.).<X.XE.u v u = = &   % j J 9.G.i.U.E.",
"8.J.J.).eXtX9XXXI.O.=.I./.I.t.y.I.E.XX4X0X<X).E.U.!.).).<X9X X).(.I.i.l.E.{.Q.{.I.y.G.P.I.P.P.|.rXrXrXtXtX.X.XXXQ.P.G.:.+.o.-.Y  .F.{.XXeX.Xy.I.l.E.XX|.XX<XXXXXE.O.G.^.9XtX<X<XXX X{.Q.i.T. X^.).tXtXzXdXdXdX{.U.U.I.x.@.q.Y.<XgXgXgXE.o.9.I h g i X 5 U W W..X<X4X>X).(.y.L L :.F.t. .o.=.0.l.E.|.^.P.i.0.q.i.I.I.Q.I.I.y.:.:.:.i.G.G.Q.P.O.O.:.-.-.-.P.T.|.^.|.|.U.i.Y.H.0.=.o.J J o.U u L G.).).).:.o.:.:.P.E.E.).Q.Q.G.M  .i.P.Q.E.U.E.Q.I.P.:.P.P.y.I.).qXqX).).qXI.>.=.-.O.L  .:.I.XX.XXXI.n P k * & $ X O j H 7.H.I.Q.E.",
";.F.(.qXtXtXtX).t.-.o.o.=.-.=.G.E.{.0XzXhX0X>X^.).^.^.^.{.XX{.U.P.i.Y.{.XXE.E.Q.E.I.P.I.).E.).8XrXtXtXzXgXeXXX/.P.G.:.t.+.=.Y v v =.I.R.Q.i.w.i.I.|.8XXX<X.XE.y.:.G.[.XXtXeX8X). X|.`.{.U.`.`.5.*.^.).>X`.3XeXY.i.i.0.0.@.Y.9XtXtXeX).+.o.9.P g i 2 X g U 1.[.eXtXtX3X.XR.O.K Y L J L o.:.0.0.^. X9X<XQ.U.i.i.l.l.I.Q.E.P.-.+.>.P.I.P.y.P.y.@.-.y.y.i.y.).<X<X<X<XXX{.Q.w.+.+. .+.L L u r u Y -.P.P.G.O.-.t.P.E.Q.).E.y.w.-. .P.E.(.{.{.E.E.I.I.l.>.G.P.O.| >.E.I.P.E.<XP.O.o.| +.L -.E.XXqX<XI.M k I k = $ $   % j H 9.E.XXXXE.",
";.F./.qXeX0X0XU.y.G.t.9.t.:.y.I.^.|.3XrXzX0X|.^.^.^.~.|.|. XQ.i.G.y.I.E.Q.Q.x.W.P.P.P.P.)..X.XtXtXyXzXzXtXeX).>.y.0.y.t.-.L r v ;.-.:.G.G.i.i.Y.{.<X<X.X.XE.P.y.G.E.(.8XtX9X<X>X X X`.}.Y. X^.4.a.U.^.).|.dXrX`.I.i.4.I.I.T.dXgXgXXXI.y.@.+.k * = & O j U W W.+X3XgX3X).P.=.-.=.Y L O.o.y.P.I.|.|.<X<XT.l.P.i.y.I.I.E.Q.>.-.:.F.P.P.P.-.>.-.-.t.t.i.Q.P.E.|.<X4X9X^.U.E.O. .U  .=.K u 8 = K =.-.-.t.>.+.0.P.E.(.^.P.G.t.t.=.:.I.I.{.XX{.^.E.U.U.P.l.E.).O.O.:.y.P.<.).qXI.o.O.L -.t.F.).qXeX.X:.Y J I g & # X   & a G 8.G..X{.E.",
"D.8.F.XXrX0XrX).I.y.7.F.E.).).<X9XrXrXrXzXdX|.^.^.^.T.|. XXXQ.i.-.O.-.@.Y.8XXX<X(.P.y.i.).XX|.<XqXgXzX<XE.R.:.-.-.:.=.+.=.Y =.=.J L ;. .+.w.Q.{.^.XX8X{.(.I.G.:.y.y.>.i.P.P.Q.<XXX|..X X X`.Y.^.^.).|.rX4X4XdX}.U.P.q.{.9X9XfX8X{.E.I.0.I v t # & & % j T T F.(.qXtX<X|.I.:.o.o.Y t.F.P.).<X|.<X3X0X4XQ.I.P.l.y.U.U.I.G.-.L L | o.i.Q.I.R.H.-.-.-.t.P.P.E.^.<X9X{.q.:.L J Y J J L u J J y y k J n J b F.E.E.Y.Q.Q.G.G.:.O.+.o. .O.w.0.i.E.Q.E.E.E.P.P.G.F.G.>.P.).).).<XR.o.-.O.>.)..XXX).E.G.@.Y n k * @ % X o 2 F H T 7.I..XU.",
";.9.9.qXtXtXtX<Xl.e.w.y.I.{.>X<XdXxXzXrXtXrX^.^.^.U.E.).^.E.i.o. .o.0.t.Q.8X<X8X.XG.i.i.).Q.).).<XtXeXQ.P.:.-.-.:.+.L J Y L -.o.H L J F P o.`.Q.Q.>X8X^.E.Y.y.-.@.0.i.y.>.>.W.<XXX}. X'. Xi.Y. X<X<X XdX4X XXXQ.Y.l.l.|.gXtXXXW.G./.t. .u u y & 1 & 2 F T T w.H.9XrX X8X).P.-.+.+.F.G.E.^.>X9X3X3X9X|.U.U.P.i.i.P.U.P.-.Y u p o.0.y.(.}..X(.w.@.0.:.t.i.l.Q.^.|.I.O.-.L Y L H u y t u J J 0 k H 8 u L R.I.y.I.{.Q.y.t.;. .=.o.o.0.0.&.I.).).P.U.I.I.-.O.y.P.P.I.).|.Q.P.t.;.-.@.t.qXqXXXG.w.u.=.J j * = # % X X 3 F F Y =.0.XX{.",
"D.8.9.qXtX<X<X|.^.Q.T.i.&.^.rX4XzXrX4X4X4X>X^.^.U.E.U.U.I.i.@. . .y.Q.|.XX{.|. X).(.E.P.y.| y..XeX9X3XQ.R.E.P.| J J J J Y Y Y K | U p Y @.x.XX`.U.U.^.Q.Q.x.w.y.P.I.wXeXeXeXtX<X`.Y.'.^.`.T.{.XX>X>X`.rXdX3XXXx.O.q.l. XtXE.i.i.F.y.Y k 8 i i 5 & & 2 F U U 8.H.8X4X^.`.Q.E.F.y.-.L :..X).>X>X|.~.^.~.I.l.:.y.y.y.y.:.o.u J L y.R.P.U.Q.{.E.Y.y.t.O.L O.U..XE.U.i.&.i.t.b y t r 1 u k u y i y * u L -.).G.4.0.Y.P.i.>.-.O.t.w.E.+XXX.X.XXXQ.y.P.P.P.:.>.P.P.P.P.^.).).Q.:.L L :.G.XXP.t.-.=.=.P y 0 = i 2 O X X 5 F j P =.H.8X.X",
";.;.;.J.Q.y.Q.qX9X.X{.i.`  XdXdXxX4X,X<X<X|.U.0.y.P.:.0.y.t. .L +.R.|.8X8X X|.3X<X{.P.G.y.L F.8XtX8X8X).XXXXG.p L L u L Y Y K Y =.=.Y +.y.XX0X`.w.r.{.{.{.E.i.{.^.^.gXxXgXzXgX9X`.T.Q.T.E.Q.{.8X3X`.T.0XfXdXXX0.p P.I.8XXXG.9.-.+.K r t j J J u @ $ 5 G U U 8.Y.XX`.y.T.<XXX{.H.-.b P.9X9XrX<X^.^.^.^.l.O.O.O.O.| >.-.L p L -.Q.}.{.Q.I.(.).I.y.y.>.b o./.|.I.{.Q.I.Y.t.v r u r r k F u k J U h k -..X+XI.@. .l.P.I.F.t.t.G.y.).tXgX9X<X8X^.l.l.P.P.y.I.E.R.>.:.). X).Q.t.t Y G.E.(.t.+.Y J k 0 * r g j 3 X . & a G H U 9.l.{.P.",
"D.D.F.R.F.>.R..XQ.y.-.+.-.XXrXdXrX3X>X^.U.P.y.0.y.:.0.i.I.I.-.y.E.(.{.|.8X3XXX8X.XE.P.G.t.o.R..XXX).Q.E.).(.-.o.-.J t K K K Y -.=.o.Y 9.(.wX9X{.i.E.XXXXXX(.Y.`.{.<XrXeX<X9XdXeX8X|. X.X}.^.}..X{.Y.}.+X.X.XJ.I n G..X/.9.o.Y J u t u l k k H u X < j G E W T w.^.T.I.(.XXW.@.Y L | ).3X9X9X).^.Q.r.P.-.O.@.@.o.=.G.:.Y -.F.R./.(.{.E.I.(.Y.y.0.9.=.J -.(.E.i.G.u.E.G.o.h L i + 3 k u u k H g g J i.XX}.G.7.y.l.G.I.I.t.-.y.U.).<X<X|.|.|.^.E.P.E.^.P.y.P.i.-.F.).).E.i.U u -.F.J.o.J k j u t = j j i j 2 O . & a F H U =.J.{.G.",
"8.D.J.[.J.-.=.-.I l m U u.{.{.{.}.^.Y.w.i.F.i.F.G.F.y.I./.R.G./.(.).{.XXXX(.(.E.7.7.7.7.T +./.(.w.+. .H.}.7.I o.T = 3 k l K K T T J l L t.^.T.i.i.W.H.I.H.w.w.i.{..X{.R.E.^.XXXX`.}.+X8X[.+.w.w.+.7.u.u.7.+.n j n =.7.h * 0 3 * % * g 2 * 3 g 2 X 2 a G T 1.T 8.[.(.w.w.7.J t k n -.}.XX{.Q.(.E.w.-.i.t.9.9.7.7.F.y.7.=.w.J.L.W.Y.Q.H.G.i.7.T o. .J H i.R.9.L L w.F.+.v n P & X 0 j u j g 2 3 g P Y..Xx.y.u.y.w.w.7.-.L +.G.E.E.I.i.G.R.Q.E.R.Q..X{.=.I Y Y m +.9.t.o.n j H P J l = t = & 3 * 2 3 3 = 3 1 O X 1 i F G F T F.H.9.",
"D.D.D.;.=.U k u 0 = l H ;.9.+.=.9.=.P J P Y +.+.o.Y +.T Y o.Y +.=.+.-.7.-.=.Y P g j k g j P 7.P l k k I I v k J k 2 2 5 j l j j 5 j j j W T n J I Y J J k g v J L Y L k v J P P k P I I l = 3 g g g 3 = 2 = # & * 2 & 2 2 & @ X % & % 2 & & 2 % % a G U E T 1.T W 7.+.H k i t F U =.9.9.8.=.W Y k J Y K K K K Y U J L U P T I I Y W U l l P j j j u K =.K 3 i k U l j 3 3 3 X % 2 g 3 < g a g l Y D.u.T U +.U n j t t 3 k U Y H u k K I =.T J Y T v i t 0 3 t 0 r 3 * & = & & % O % O X X X X % 3 & 2 & $ : < 5 j F G K H Y 8.I ",
"D.;.;.U G G F j 3 3 2 3 3 3 1 * = & % O O X & & * % & O $ $ @ X $ $ $ & @ & & X X X X % $ 2 3 2 2 & 3 g 5 3 2 2 3 3 5 5 5 j j F j G F a H k u i u 3 2 1 2 g g 5 1 = & $ 2 & & & % 2 & & % < 2 3 2 2 2 & & & & < < < 2 3 2 2 2 2 & 2 2 a 2 a a a 2 F G E E T U G G l l a j j 5 5 F j i = * $ X X X X X X @ X @ X X X @ X X X @ % X X X X X X X X . . O $ X X X X X X X   X X   X X X O % % 2 2 2 2 2 & & & $ X X X X   X X X .     .   X . .   X . . X . X X O @ . X X o   X X X X X o o X % X % % & 2 3 1 5 a F j G G G U H l l ",
"D.D.;.W ;.W E U U P U U U T U K j j j j F j i j a 5 i 5 5 i 5 < 3 i j F 5 5 3 3 2 2 2 5 j F j j j G U U U H H U U U K E U U E E W 1.U T U E U E K K H H G U U T G G G G G G G F l G j j l G H H F l G F l j j j j a j j j j j j l H F a a g F G G U U T 1.1.U E U R K G H U F G G G G 5 2 1 & & X & 2 < 1 < & & & & & O X % 2 % & X % & % X O O O < < O % % O % % % % % % O % X % 2 5 5 2 g a a a 2 & & O & & % O X X X X X : O X X O X X O O O O $ O X % X O % O % & % % % < % & < 1 < < 2 3 3 3 a a j F F F F 5 F F G U G G G ",
"9.D.9.D.8.;.;.D.8.W W W ;.;.9.;.1.8.1.1.E R K U U U U U U U G G G K E E G G G G G U R G U U G U U T U T T T T W W W T W U T T T 8.7.T T n T T 8.T T U P U T 8.T I 8.;.T T W W T W T U U T W Y U U U U U P P H H G H H l l l H l H l g g g l l H T T T U T P T T U U T T H U H U P P U H H H l j g g j g g g g g j g 3 3 * 2 g a g 3 t g g 5 5 3 i g 5 1 3 g a j j 5 3 g 3 g 5 2 3 g j H H H l P H l l l g j j j j 3 5 5 1 i F j 2 2 5 5 a a 5 5 5 3 3 5 5 5 5 5 2 2 5 5 5 a g g r i a i i i F F j G G G F F F i 5 F G G G F G G ",
"F.J.R.J.F.D.F.9.8.8.9.D.D.F.F.D.8.8.D.8.U Y =.;.W W W =.W W E E E E ;.W U U U E U U U H U 1.x.u.H.c.x.x.c.Y.c.Y.Y.Y.x.c.x.H.Y.x.Y.Y.Y.Y.x.Y.Y.x.x.Y.H.x.Y.c.W.c.Y.W.Y.Y.Y.Q.Y.i.i.l.H.i.x.i.l.x.i.x.i.w.w.i.w.w.w.t.7.7.7.7.7.7.7.7.7.7.8.w.w.w.w.7.w.7.7.7.w.8.7.7.w.w.7.7.7.7.9.7.7.+.=.@.=.@.P I +.X.T I T T I I P P P I P I I m I I I o.o.T I P Y I Y  .Y Y I I I I U I I m I I I T 7.T T T +.T T U I Y T T Y U G G F G G K F G G H U U K G H F G G F H l j j a l J H H H H G K K K G K H K P E W U K K K G H K K U F U U H ",
"/./././././.G.F.F.(.wXfXeXeX+X(.F.F.F.F.;.;.F.R.J.F.9.9.=.U W U K R W E U H G G U T U H l }.xXiXdXdXdXhXgXhXdXzXdXhXdXdXdXdXdXdXdXiXdXdXdXdXdXiXdXdXiXiXdXdXdX4X4X4X5X0X4X4X4X4X3X3X4X3X3X>X4X>X2X>XXX X X X X X}.'.'.^.}.'.T.}.}.}.'.}.}.}.}.}.m.}.Y.c.Y.T.T.T.v.T.c.Y.c.x.Y.U.x.Y.Y.i.I.x.x.x.x.x.x.x.j.x.w.w.i.i.i.i.j.i.r.r.w.r.w.i.j.i.w.w.e.w.0.w.0.0.4.w.4.7.7.4.4.7.7.4.w.7.7.7.w.7.7.T w.7.0.7.7.7.w.9.@.H H F K K G U H J P U Y K U Y K U K K K U T W Y =.D.J.J.;.T F.L./././.R.F.F.9.=.=.8.D.;.8.F.8.9.9.9.9.8.F.9.9.",
"eXqX<X<XXXI.:.P.(.8XgXVXVXgX8X|.I.J.t.-.9.F.R.).XX{.u.0.-.J F R G R K G H j Y J././.u.u.w.}.gX>X'.;X;X'.&X*X;X'.;X&X&X;X2X&X;X&X2X2X2X2X5X2X2X;X&X&X X&X&X;X'.;X2X*X&X2X2X2X>X*X,X*X&X;X'.'._.].'.'.&X&X&X%X_.].'.'.'.'.'.!.m.'.m.m.m.m.m.m.m.Y.m.Y.m.m.T.m.m.m.m.c.v.c.c.c.c.v.x.c.v.j.x.x.j.x.j.j.r.c.j.r.c.w.r.r.j.j.i.j.j.x.j.j.j.r.r.r.r.5.4.&.&.4.0.4.4.4.4.4.4.4.4.5.5.4.4.4.4.4.7.4.4.4.@.4.X.4.X.X.@. .z 2 k J H J K =.=.W 7.9.J.F.t.u.F.F.F.u.u.u.W.(.H.R.}.}.W.i.u.H.(.XX<X8X).R.R.R.=.o.o.o.:.R.R.G.W.W.W.R.W.}.W.u.",
"eXeXqXtXqXP.>.<XgXtXgXzXgXgXeXgX3XqX+XR.u.P.).qXeX).>.t.t.H 1 F K U G G W 9.(.qXXX[.R.R.H.XXkXiXd.g.%X!.k.!._.&X'.m.s.z._._.~.m.z.a.v.!._.m.m.m.b.c.g.s.b.3.s.g.g.g.g.g.d.d.d.d.d.g.d.k.s.s.d.s.g.g.s.s.s.s.s.s.s.s.g.g.s.s.s.s.5.s.s.s.5.s.s.5.6.6.s.5.s.5.5.s.5.s.3.5.3.5.5.5.3.3.4.4.4.4.$.2.5.4.2.5.5.{ 2.2.] 3.X.3.$.{ $.$.2.$.3.$.$.{ X.] ` &.4.X.X.X.X.X.X.#.q.4.] 3.4.q.X.X.` `  .&.q.| X.7.&...4.` z y 8 = H u u o.F.(./.E.{..X.X{.}.[..X.XW.Y.I.E.E.(.{.{.[.Q.P.G.P.P.)..XXXwXqXE.Q./.R.R.G.o.o.R..X).(.(.).).XX).).R.",
".X.X).8X8XE.R.).8XXXXX<XXXXX<X|.E..XtXtX).XXqX<X>XE.P.Q.I.J $ F U G H ;.R.).(.(.XXqX8X<X'. XdXhX*XdX Xx.q.!.%X4Xm.5.'.cXxXhXrX5X,X!.s.3.N.2X_.4XdXiX&XdX5Xv.{ 2XhXhXhXhXpXiX5XiX5XrX5X7XiX5X5X5X2X5XiX5X5X5X2X:X;X2X;X;X;X2X;X;X;X;XN.iX;X'.'.$X%X*X&X&X&X%X&X&X;X'.N._.'.'.N.N.!.!.N.N.m.N.!.N.N.m.c.N.m.m.m.m.m.m.c.m.b.m.z.z.z.z.j.k.j.z.s.s.6.rX3Xc.M 4.5.q.6.5.c.m.v.T.'.Y.X.] ....x O.O.b X. .@.j.dXw.6 # 9 r  .-.-.F.Q..X{.).).).E.E.|.{.|.E..X+XXXXXQ.x.E.}.I.G.i.0.E.).<X).P.(.I.l.>.-.o.R.R.o.| :.y.y.y.t.i.G.G.t.W.P.",
"G.y.y.qXrX).E.).!.E.).).Q.U.U.Y.U.).CXZXCXtXgXeXE.U.)..XI.K $ 5 K H J W.XX3X>XP.{.CXZXgXdXdXiXhX5X2X^ c r.l.j.&.s 4.ZXdXj.j.6.r.j.!.x.5.].].6.z.N.c.2Xv.i.v.` &XdXiXiXiXdXiXiX5XiX5XdX5X5X5X:X2X;X2X5X5X2X2X;X;X*X;X*X;X2X;X&X;X'.#X'.'.N.N.N.'.%X_._._.N.N.N.N.N.N.N.c.N.m.z.z.z.g.c.z.c.g.c.c.m.g.g.z.g.g.c.g.s.c.z.s.j.j.s.s.6.6.6.3.3.3.3.$.5.4Xj.c x ' ' X.X.' ' `.xXT.i.] m M z x ^ z 9 y z z w.>X].*.p # r p :.i.:.-.:.F.I.y.0.w.y.l.{.{.I.i.|.eX8XXXP.@.y.i.w.q.t.y.E..X).t.:.:.@.o.O.J b R.(.o.o.o.o.K L L L L | t.)./.",
"9.F.F..X).^.).).).|.<X<X{.`.E.Q.|.8XgXtX<X).qXqXQ.^.9X{.t.u o 5 F G ;.).|.<X<X>XrXxXgX3X4XdXiXhXm.3.c &.~.U.r.X.M T.|.c q z b c ^ M X.O.4.6.j.m.c.c.j.q.x.` f 5.s.6.5.5.s.6.5.3.3.3.3.3.2.$.{ { 3.3.3.] 2.2.{ ] { ] ] { 2.] { ] { ] { { { ] ] ] ] _ _ _ _ ] _ ] ] _ ] _ _ _ ~ _ ~ c c Q f _ c f Q Q ~ _ c c Q c ~ ~ _ ~ f ~ ~ c Q f f Q f Q f f d ~ m q m  .]  .X.X.]  X}.+.m b z 9 9 y c z 6 q b @.r.T.j.x.| 6 r q L J J u L o.+.o.o.-.w.i.I.i.i.r.Q.{.{.E.i.G.i.y.i.G.y.-.y.G.:.+.-.:.-.+.-.-.o.t.>.9.-.Y | K L Y L L Y ;.G.-.",
"=.t.F.t.>.G.G.).8XeX9X|.).).W..XeXtXeXXXI.P.P.l.U.9XtXXX0.k o % F H F.E.E.).^.<XzXCXtX|.`.5XiXdXv.`.c.r.c.r.@.b q L M z z q 0 9 q 9 y q e c  .>.i.x.Y.w.x 7 e x c f c c ~ ~ c ~ ^ ` ` _ ~ ~ ~ ~ _ _ _ _ _ _ _ _ ' _ ' ' ' ' ' ` _ ' ` ' ] ] ] ] ' ` ` ` _ ' _ ] _ ] _ _ ' ' ' ' ' ' _ _ _ ] _ _ ' ` _ _ ` ` ' ` _ m _ ` m ~ c c c c c f c c x x s e h e z  .X.o.b  .^ O.n v 8 = + 8 b b z y # 9 | @.0.r.x.j.M # q 8 u 0 0 0 r k J K o.o.0.w.0.0.w.0.i.y.t.y.y.R.y.t.u.u.t.o.o.O.o.+.o.+.@.:.y.-.-.:.-.t.P.K v b L K K Y Y Y L L ",
"i.G.E.I.(.R.i.E.Q.3X9XI.G.W.G.).qXtXtX3X).y.q.U.{.<XqX<Xy.n X % F K t.P.T.^.>X<XgXgXXXU.r.4XiXhXz.z.j.j.r. .b 0 # * y h y t t y 7 6 7 7 7 y 8 8 y q 7 7 6 7 9 9 q q q s e s s s z z z z x z d d d x x c c c c c f c c c c c c c c c c c c _ m f ~ ` ` _ ` _ m ` m _ _ m ^ ` ` ^ m c c c m c _ m c c c c f x d z s s s q e e e q q q q q q q q 9 0 8 q 0 8 7 8 # r J 7 = 8 8 6 8 @ @ = r 7 + @ 9  .@.q.j.r.&.O.6 r = # $ * 2 = r u L L o.@.+.-.:.&.0.w.y.y.y.I.I.-.0.y.y.t. .O.t.-.:.:.=.-.0.0.0.-.| O.:.G.:.b K | | =.o.o.o.9.-.",
"8XQ.E.XX{.).XXP.P.|.<XP.+.=.Y P.eXgXeX<X|.).E.^.|.{.XX<XI.J X O i K G.E.^.~.<XtX0X`.I.y.e.4XiXdX&X5Xm.j.X.z 0 # + y 8 * * 0 0 8 # + # # 8 7 * 8 8 0 9 u q y y y h e h h z z z l z z z z z z z z z x z d z s s s s z z s s s x s z s s s s s s s s e s q e q q q e e s s s q q s s q q q 9 q q q q q q q q 9 9 7 0 9 7 0 8 7 9 9 9 7 8 9 7 7 7 8 7 * * 8 * * # # = # # # 6 + # 6 r # + + 8 8 8 z b X.$.q.4.q.M # 8 8 # @ & * $ = u H J  .+.+.=.:.7.7.7.-.y.G.E.E.y.t.t.y.@.M t.y.t.F.t.y.0.0.i.y.:.:.>.t.R./.P.=.F.R.[.u.-.F.F.-.",
"XXQ.^.{.).).<XE.Q.). Xy.L  .L R.VXtX<X|.).).E.U.XX<X3X8XQ.U & O i U P.).>X).).9X|.I.E.i.y.2XiXhX%X*Xm.6.~ 9 9 v y L r # 8 r & @ + & 0 r 0 * 8 * 8 0 y u y y u v l z z z v v x b b x b x c M M ` M ^ L ^ ^ `  .m | M ^ I ^ M L ^ m M c x l c l f b z b x l x f f m x f l x z b b z z z z s h z s z z z z z z z p z z h e e y q q q y q y i 9 y y r 0 0 0 8 3 = = = 8 8 8 r * 8 r 6 y r 6 Y L o.4.` 4.T.5.q.l.^ + = = * X $ X @ & t u H L  .+.O.@.O.@.O.7.t.t.G.F.t.t.7.7.-.| 0.-.y.>.y.G.y.0.y.0.:.:.-.:.>.9.>.-.-.t.R.t.-.t.F.:.",
"}.Q.{..X<XqXeX.XE.(.E.t.7.7.I W.eX8XY.E.^.Y.I.U.{.<X8X8XE.Y * & F Y (.qXtX4X~.).U.i.y.| 4. XiXhX*X5X%X3.d 9 7 r J 9 * # # # & @ @ + & * * # @ + @ X @ @ * # + # * @ # # # # # # # # * * 7 7 7 * 9 7 7 7 7 7 7 7 7 7 * 7 7 7 9 7 7 7 7 7 7 7 7 9 7 7 7 7 * 7 7 * 7 7 7 7 9 7 9 7 * 7 7 * 7 7 * * 7 7 7 7 7 7 7 7 * 7 7 * 7 * * * # # # # # # @ # @ # + @ @ @ @ + = = & # # # * # * # # q b x z &.3.v.dXj.X.o.u + = 8 + . @ X @ $ 3 g l m Y o.o.o.+.=.:.0.F.:.:.:.y.-.-.:.=. .t.>.t.t.t.0.0.y.y.0.:.O.-.-.O.o.O.F.:.:.t.:.9.P.G.9.",
"(.(.Q.(.(..XXXE.E.P.i.G.9.Y J J.0X<XU.U.E.P.I.T.^.|.9X8XY.J & < G ;.).tXtX4X~.~.x.4.m  .4.&XhXhX%X=X*X~.$.b 8 8 y 9 9 7 # # @ @ X @ # # @ + + @ @ # # 8 Y y @ @ + + + # * * 7 8 7 * 7 7 7 7 7 q q e e s s q s e e s e e s s e f s s s s s s s s q w w s s s s s w s e s s s s s s q s s q s q q q w q e s q q e 9 q q 7 7 7 7 q 7 6 * # * * * # 8 7 * # # & t k k # * # # # # * = * s m X.X...j.s.].cX4X..9 7 + = r 1 . X X X $ & * 0 l I o. .o.+. .O.-.:.-.-.-.=.-.-.@.+.-.-.t.t.t.0.0.0.0.0.0.y.o.+.:.:.o.O.-.-.-.:.t.9.9.9.9.",
"R.W.I.G.I.I.I.{.).-.+.O.I k g i.fX|.Y.^.U.R.Q.`.^.{.8X9XW.L $ < F o.).eX>Xl.U.U.q... .e.i.4XiXhXn.kXmXz.O.@.y r 8 0 y 0 * # @ @ @ @ @ + @ @ @ @ @ = = y i # * 7 7 v k * 0 q y 9 q q 0 q e s s s f l f c m c c c c c c m c m c c m c m c c c c c c c f c c f c m f c c c c c f c c c c c f m f m f c f f x x f s z s s s s 0 0 0 9 y z 0 q 0 q 0 t & = r u u u = $ + # @ # # 2 * * z I ] r.j.j.!.v.>XZXl.I. .9 @ = 8 1 . X O X $ & & 0 l P Y Y | Y  .o.+.o.O.-.o.O.t.=.v | t.-.t.:.:.t.:.0.0.t.0.t.-.:.F.P.F.o.o.;.-.;.=.=.=.=.o.",
"H.W.G.G.G.I.Y.).). .J U L k n I.wXQ.Q.`.^.`.Q.Q.^.{.8X3XY.K $ & j =.).<X!.!.^.k.O.@.i.w.r.iXiXpXn.MXlX/ b z # 7 8 7 7 0 q 8 * # * $ = # * = @ @ @ # # * 8 0 9 v m b v q z X.@.b q 0 q q q s e s s s s s s s s c f s s f s s f f f c f f f f f x f f f f s f f s f f f f f c c f z f f s f f s f f f s l s d f s s s s h 9 s q M 7.v k 9 0 h * 8 # * 8 y y $ X @ + # * @ & & k 8 k X.5.r.j.5.$.3.j.6.&.~ x.&.9 # = 1 $ . X X X @ @ & * 3 h L v n L | L Y o.=.=.O.-.o.y r -.F.F.:.0.0.0.0.0.t.i.t.t.G.-.>.F.-.o.Y =.o.o.o.| o.o.o.",
"G.R.H.i.G.H.H.{.Q.b n o.n v 7.w.I.x.Q.`.{.Q.T.^.Q.^.XX3XY.P & O j ;.XX<X>X4X).P.y.l.U.q.r.5XiXiX#XSX:XQ 7 # # t q # # * 0 q t = r y H * J k + r i t y 0 p h z M M s z z | ` X.z I X.k q b x z x x c f z c f c s z d s f s s s s f s s f s q s s q s s s q s s s s s q s s g s s e q s s e s e q s q s q q s q q e e q q 0 t.7.y n q z l s h l z b y J k = * = t 0 g h 0 0 8 r y O.4.r.j.4._ 4.>X4Xc.j.].m.X.q @ = = * X X X @ X & @ * * u y 8 u J |  . . .o.o.=.Y H u v F.H.:.:.t.t.-.:.t.0.t.t.t.t.-.-.=.o.Y o.o.o.o.o.9.;.| o.",
"H.(.W.I.u.u.R.E.I.L L Y L @.y.i.y.Y.Q.Q.^.E.^.Q.Y.Q.|.XXH.n $ % j W XXeX4X>X&XI.T.^.r.i.Y.5XiXpX#XlXN._ e 8 8 n h # # + * g g g H L u v =.u u J L P Y J z v ^  .7. .z ` ` X.X.M ` M e b  . .`  .]  .X.] X.X.` ] ` ` m c m _ ` m m m m m m f s s f f s f f f s f f f l c m f l f m z s z z x z s s s s s s s h s h z h q q x h z u.b b n k q t t.=.k r 8 g h k k k k h t v 0 Y | X.4.5.4.f 4.5.c.>X_.zXkX,Xj.b # = 0 0 X X X @ O X @ * * = t 0 y J Y o.L Y o.=.-.J L k r =.G.F.-.t.:.:.t.0.t.t.7.-.t.-.-.=.O.=.o.o.o.o.o.t.;.L L ",
"R.I.I.I.I.E.{.XX}.+.k =.G.H.Y.{.8X{.Y.T.Q.`.{.^. XXX4XXXY.n X O j W .XXX>X>X^.P.^.T.U.^.^.5XiXhX#X5Xb.&.b 0 q n 8 @ @ * 8 t y  .J O.b -.k 0 o.O.@.=.-.:.:.@. .:.y.z h ` ` X...x x M @.w.q.q.4.6.4.q.q.r.w.q.5.4.5.5.5.5.5.5.5.4.4.X.4.X.] ] 4.] X.4.X.X.] ] ] ] ] ] ] ` ] ] ] ] ] ` ` _ ` ` ` ` m m ` ` I ` ` ` ` ` M b z z z  .M q q 8 * q h +.7 = 8 k n n n v n n q y v 0 z 0.7.c c m ] 4.q.q.].%XhXxXdXj.X.& = r t O @ X X X X & = = t h v v u v  . . .o.-.-.-.+.J v +.-.;.-.-.-.t.t.t.9.:.t.:.t.-.-.-.-.:.o.Y Y O.;.;.o.o.o.",
"I.i.H.I.G.R.{..XQ.-.h u.W.I.T.{.wXXXT.T.Q.Q.).>XXX9X0XXXY.J . X j W {.^.>X<X&X!.<X`.P.l.!.dXiXhXN.5Xd.X.m 0 # * @ # @ * = 0 v @.>.^.P.z ^ 0.y.j.l.r.r.l.l.j.j.j.5.` q.l.j.c.6.6.l.c.c.z.c.x.c.x.c.c.z.c.c.c.z.z.c.z.c.c.j.g.j.s.g.r.s.c.j.j.j.s.w.j.s.5.w.r.r.5.r.4.r.5.5.5.5.w.5.5.4.4.] 4.X.X.] { ] ] ] X.] ] ` ] m ` ` ` ` m x m c m O.7.o.b h v n n M L M L I I z h v o.@.-.+.q x ` o.w.4.4.'._.4X_.&Xj.` # = t = @ @ X X $ O & & = t j k v r t J o.+.-.-.:.;.O.Y n o.O.=.-.t.-.t.-.-.-.-.:.-.9.t.t.:.-.-.=.-.;.;.o.O.o.o.o.",
"U.I.R.^.E.G.i.q.w.O.o.i.I.I.I.R.E.)..X^.^.).|.|.|.3X<X|.i.h . O i W (. X~.v.v.|.>X).~.l.v.5XpXhXz.#Xz.X.x # r u @ @ * = t h k @.^.|.a.O.j.x.U.U.U.m.m.T.v.!.!.m.c.v.v.v.m.n.m.v.m.~._.~.m.!._.!.~.'.~.!.!.~.N.m.!.m.m.!.m.b.v.z.z.z.c.v.z.z.c.j.z.j.z.s.s.s.s.s.5.6.5.s.3.5.3.3.5.%.5.$.3.3.X.3.5.2.4.] 3.X.{ { $.] X.#.X.] X.] X.` ` I ` X.I ` m M m ^ M M ^  . . .M M P.^.O.J z @.| O.4.`  .m. Xa.z.&X4Xj.z 7 8 r r + $ X X X X O $ = 3 0 j k v v O.=.-.=.-.;.o.L | v Y  .o.=.-.-.-.+.-.-.-.-.-.O.-.y.t.:.-.+.>.;.;.o.o.o.;.o.",
"^.I.i.{.{.l.@. .@.0.O.r.I.i.i.E.).).eX<X).|.|.>X3X9X|.{.0.i . O i U (.!.x.l.!.4X,X).I.>.v.rXpXpXb.m.~.%.z 7 u Y # # # * 0 k v 4.k.v.>.l.U.^.^.~.~.^.^.!.!.T.c.c.x.c.v.x.v.U.v.~.m.~.!.!.m.v.v.!.!.!.m.v.m.T.m.v.v.v.c.z.c.x.c.c.z.x.j.j.j.j.j.j.j.j.j.q.r.s.q.q.r.5.r.5.>.6.0.4.6.0.6.6.4.4.5.4.4.4.4.4.&.$.&.X.$.4.3.4.$.4.&.$.X.` m c c I m m c M L ^ M b M M ^ ` M z | U.u y L J M >.Y.0.X.x._.n.rXZXdX#.s 6 8 r 1 $ $ @ $ X X @ # = 0 g y k o.o.-.9.=.o.o.=.L L L L | o.-.O.=.-.o.-.-.=.-.:.+.+.+.y.G.-.O.-.9.>.>.;.o.>.t.;.",
"{.I.U.Q.Y.P.y.i.y.i.o.i.I.I.Y.I.I.).).).^.<X<X<X9X4X|.|.@.k . o 1 K E.`.U.!.|.<X<X>X|.|.m.5XhXhXM.;X4Xv.c q r u # @ + @ r k L @.p I.*.r e w q 9 9 q q p e q e q q q q q 9 p e p e p p p e e s w e e e w w w d d s w s w s e w e s w s s z e 9 e e w e e e e q e q e s q q p q q q e q e e s s e e e 9 e e q e q e w q q e e 9 e 9 9 9 9 7 9 9 7 9 7 9 9 7 9 7 8 0 9 9 9 M ^.9 r n M O.q.j.r.q.l.v.m.xXxXz.c q # 0 r = # = $ $ X X X @ & = g n Y o.Y L =.| | o.o.L b Y J o.-.-.-.:.-.-.t.y.F.G.F.:.O.:.I.P.@.O.>.y.9.>.-.O.;.-.o.",
"{.Q.E.Q.Q.Q.E.E.I.q. .I.(.{.).).E.^.E.U.^.3X3X<X>X<X<XXX0.k .   1 K (.9X,X>X>XrX<X!.9XrX~.rXjXhX%X5X7Xz.x q 6 = * @ @ # r u +.| p <X>.w y.0.y.:.:.:.q.q.q.y.w.i.q.y.l.l.l.v.x.x.U.l.a.a.4.y.j.i.l.r.j.$.x.6.j.r.r.r.4.4.q.X.4.U.@.r.X.r.i.4.X.` .. .q.O.>.&.&.w.q.w.4.X...0.` @. .@.O.4.` X. .O.` ] 7.` O.^ 0.X.`  .X.@. .X.m  .` O.` X.` +.4. . .o.X. .O.M  .M  .` m b P.qXp 8 z v 0.T.`.v.*.5.z.6.4X5X5.^ p # 8 r 1 # 1 $ @ $ X O * = 0 h n L o.K L L K o.o.| b n L z o.9.-.-.:.-.-.-.y.).).I.i.-.q.P.i.:.O.l.G.>.9.9.-.:.;.-.",
"E.Q.Q.Q.^.).^.E.l.P.U.E.).).|..X<X).(.<X<X8X<X<X<X^.!.E.-.v X . 3 U [.<X~.l.U.rX|.k.U.T.'.rXpXpX%X5XrXa...p 6 # * # & 8 i Y L z w.9Xj.M Q.&.O.O.@.@.q.r.y.q.q.r.4.&.q.r.q.q.k.q.j.6.6.6.$.&.0.>.q.&.6.&.r.4.5.4.4.3.X.X.4.r.4.5.` 5.X.4.5.` ' ` ' ' 5.] X.] r.r.r.O.`  .] X.` ..` $.' X.` 4.` ]  .] 4.c ` ` 4.` 4.X.X. .^ X.c ` m ] x ` M  . .c c  .I m M e  .z ` ` x. .x.rXb q n b r.|.4XT.^ 4...6.xXzX#.z y 6 8 t = + & $ $ @ X @ $ = r r u L L v | K L L Y L Y | | | o.-.9.-.-.@.-.-.:.=.0.y.i.@.@.&.-.:.-.F.t.>.-.-.-.-.-.-.",
"I.E.E.Y.).{.).Q.).|.).|.).^..X XeXqX).).tX<X<X<X).U.y.>.0.Y X O i K {.<Xk.k.>XrX~.U.x.!.].5XpXpXn.5X*Xz.a...6 q 7 7 8 r u r u :.l.4Xq.M ^.| 6 r u p p z z b b z z b x b b ! c ^ b ^ ^ M M M b M b b ` M M c ` m c x m M m ` ` m c ` m ` c c ` ^ ` ] ~ ` ^ ^ X...' ^ ^ ~ ` c ' ` ` X. .X.` ` ` ` m ` _ m ` ` ` c c c c x ` c c M c z x x x x z z z z q e q 0 y 9 7  .Q.b i.dXp q L |  .x.x.m.&...k.'.xX5Xx 9 q * 8 r = @ @ O X X O X X + + r v J u v L v L L L o.o.o.-.;.-.O.o.9.-.-.>.-.O.p O.(.E.-.+. .:.O.o.:.9.-.=.o.o.o.o.-.",
"U.Y.E.Q.).{.).|.<XXX^.|.).^.^.).<X).P.P.E.).<X<X>X^.P.P.0.J $ $ i Y XX9Xk.!.<X).U.k.j.!.'.5X5XiXm.hX1Xd.#.O.r b # 8 = # r J +.G.k.0Xy.x !.X.8 u r r i u u u k h v h z h v z v z z v v v v z v p z v z v z z l b k v z b z l l z l z v v k x v v b v v v v b x l v z v b M M M n b b b b x x v x x x v x v b z z z z z z z z z z k h z h h h h s y y y 0 g 0 t 8 L x.>Xz i.dXx 0 L 0.T. X`.j.^ $.`.m.5X].p p u # = r = @ @ X @ X X @ X @ $ = r r u L u v L L | K L | o.-.-.o.o.:.t.-.:.-.=.L L y.t.=.O.L :.@.:.9.=.O.:.| o.o.:.>.",
"I.Y.Y.|.8X8XtXgXgX0X<X|.).).^.^.).>.:.y.O.P.<X>X<X).P.P.i.Y $ O j W XX9X|.4X~.k.U.x.q.q.s.,XpXpXM.5X%Xf.*.p 6 J + + 8 8 u o.-.i.l.rXl.x ^.` q u + . . @ @ . @ @ X @ X X X X X X . @ . @ @ @ @ X @ @ X @ X @ @ X @ X X @ X @ @ X @ X @ @ @ X @ @ + @ @ @ @ @ @ @ + + + + @ @ $ @ @ @ @ @ $ @ @ $ $ @ $ @ @ @ @ @ @ @ $ + @ + @ @ + @ @ @ @ @ @ + @ @ + @ @ @ @ @ -.'.3Xz i.dXz 7 b 4.x.>X].j.^ q.&Xz.&XrXx q y + 8 r r @ & * $ O X O $ $ $ $ r r L o.u u u K | | K o.o.o.o.o.o.=.=.-.O.@.:.-.+.L v >.:.o.| t.P.:.-.:.;.O.o.9.G.E.",
"Q.E.Q.^..X^.Q.0XtXeX<X<X<X|.|.|.<X^.E.P. .q.|.^.<X).)..XR.o.& O F =.+X4X X].v.k.E.~.U.k.k.2XhXdXb.pX%X@Xv.9 # L + + 8 0 y L 7.i.j.dXl.^ ~.X.p i . . . X X O O X O O X O O O O O O O @ O O O O O % % X % % X % % X % X % O O O O O $ $ $ $ $ O $ $ $ $ $ $ $ & * $ * # & $ & & * & & & & & & & & & & * & * & = & & * = & & 2 * * = * * & & & & * & & & & & & X + q.&X>Xb P.tXp 6 M 7.c.'.!.5.x 6.].6.;XxX` 9 g # = r r @ # $ X O X % % @ @ & 3 0 M Y n k v b I o.Y  .o.o.o.Y o.O.+.@.+.-.y.G.t.o.+.-.-.-.+.y.i.7.O.-.-.=.O.&.y.y.",
"U.Q.Q.Q.Y.{.{.XXeX3X0XgXtX3X~.).|.|.|.U. .0.{.|.|.<X8X<XR.Y & < G -.8X Xx.j.k.U.^.~.^.T.v.5X7XhXm.:X&X7X,Xp r L # + 8 8 0 L 4.w.r.dXP.^ `.X.z h . . O O $ : % : < : : : 1 : : 1 : : $ : < $ $ $ % % % % % % % & & & & & & & & & & & & & < $ & & = = & 1 1 = = = = 2 = 2 = = = = * * * * * 2 0 & = = = = = 3 * * = = 3 * 0 0 * 3 t r 0 g 8 0 3 * 3 & * 2 & & 2 & l.4X,Xx l.rXb r m 4.T.].].j.' 6.~.k.4X>Xb 9 q # = r r . $ X X O X & @ & & 2 t 0 m T n v n b Y @.o.Y  . .o.+.-.=.@.@.@.7.i.R.i.y.G.-.o.O.O.y.G.7.@.+.O. .-.0.7.y.",
"E.Q.T.E.Q.{. XXX9X3XtXtX<X).<X<X|.>X<X{.@.7.i.U.). X).E.w.P & & G ;.<X|.v.!.!.U.U.^.&X!.v.:XpXhXn.5X5XhXk.w r | + + r 0 y M 7.x.z.dXx.^ >X&.b h . @ X $ $ < : < < : < < 1 : 4 : = : < < & $ $ & & & & & & & % & & % & & & & & & & < & & & 2 = t r u p u 0 7 0 = * 2 = 3 1 = 0 3 3 0 0 2 * 0 0 0 0 = 3 0 0 3 0 0 0 g t 0 0 t g q t h h h k h g g 3 3 2 2 3 3 3 = U.rX2Xx k.tXx 9 M 0.T. X2X>X5.3._.z.%X6.b M h # = r r @ & X X X % & @ & & * g k J L v v v v | -.O.o.o.=.=.-.o.O.-.7.7.y.i.).P.@.0.-.| @.q.y.i.7.O.+.+.+.@.-.7.0.",
"{.E.E.Q.{.Q.^.XX3X<X^.P.l.^.>X^.>X4XtX|.@.O. .@.l.E.| b Y P % < G ;.XX|.!.x.x.U.~.^.~.U.v.2XpX5XM.cX,Xb.! 9 r o.# # J h h x +.v.v.hXc.' >X#.x v . X O < < : < 1 < < < < 4 1 4 1 1 1 < < < & < < % 2 % & & % < % & < % < < < 1 = 2 1 1 1 = = 0 n >.Q.P.>.^ z z h q 8 = t t t = 0 t 3 g 3 3 0 2 0 t t t 0 t g 3 3 t 0 t 0 g g g g h h g g z l k k g 0 0 3 g 0 5 0 ^.5X4X! U.tXx r M 4.x.].4X5X3.$._.z.&X_.5.:. .# 6 r r X $ $ X X X @ @ X * * l l k v n n v v L Y =.i.:.-.-.O.o.o.+.-.y.G.Q.(.y. . .-.+.y.F.u.i.t.-.7.u.w.7.7.-.7.",
"].^.^.{.{.XX|.{.`.<X{.U.{.XX|.>X>X4X0X{.` I @.@.R.Y v +.t.W X % F W .XqX>X^.~.^.~.~.E.~.U.1XiXhXz.~.%.f p e 9  .* 7 T r 0 m  ._.!.hXv.` &X3.z k . X : : < < < < < < 4 1 4 1 1 : 4 2 2 < < < & & % < % % < % % & & < < & 2 < & 2 & * 2 = 3 g  .x.<.~.~.<.5.w.4.4.7.z g h q 0 t 3 3 g 3 3 0 0 g 0 g g t 3 3 g 0 0 g 0 g g g g g l h k k h s l l l h g 3 g 3 g j g `.5X4Xx l.rXx 6 k w.c.'.4XxXp.%.~.z.hX>X' b z # * r = @ @ X X X X X @ % * = J J v v J L J n L  . .-.O.+.O.+.o.+.=.-.t.P.).I.0.-.O.y.@.u.G.u.y.w.7.y.i.9.7.9.7.y.",
"8X{.^.`.Q.r.0.l.I.Q.^.<XgXzXgXdXdX0X XE. .@.e.+.v z +.G.u.T O O F Y ).8X<X9XrXrX>X^.&X).^.1XhX7Xb.b.s.' ' z q Y # 0 v 8 z I X.6.!.kXm.` ].{ b H . O : < < 4 : < < 4 1 4 4 4 4 4 1 2 < & < 1 < < & 2 & 2 < & & % & % & & 2 & * 2 < 2 2 3 m Q.<X~.,.E.,.#.c.x.x.x.!.r.4.4. .k q 3 0 3 t t 2 g 2 0 3 0 t g g g g g 0 3 0 t g g g s h k h h k l l m m g g t 0 t g t `.hX&Xx l.rXp 9 v ^ c.>Xm.rX'.6.~.z.cXkX_ w 9 # = 8 0 @ X $ X X X X & * & t Y +.o.o. . .O.-.:.0.=.+.o.O.+.O.o.o. .L  .t.R.i.I.P.0.t.-.G.H.t.+.9.u.H.G.t.t.7.-.+.",
"{.`.`.|.^.U.^.|.{. X X9X9XtXgXgXzXtXE.i.@.@.o. .n +.7.i.o.j X < G W R.(.>X<XrX9X^.~.).>X~.1X7XhXn.hXhXs.] e 0 L # # # 0 z I w.r.v.kXm...,X*.c J . X : : < : : < < 1 1 1 1 1 1 1 2 < < 1 1 & 1 & 2 % % < < % < & < & & < & & = 2 2 = P H.E.3Xn.f.@X@X{ r.}.}. XiX].c.v.c.k.&.` n 0 * t 3 0 0 * 0 0 0 t t g 0 g g g t g 3 g g g g g h h g k l l l l l g g j g g t {.hX%Xb l.tXp u w.0.T.].z.5._ 6.%Xk.vXAX3.c s 7 8 r 0 & & $ $ X O $ & & & 0 J Y +.+.I  .O.O.O.@.:.O.=.O. .o.+.o.I J L -.i.-.P.P.y.0.-.G.G.y.7.u.u.u.u.y.0.0.7.o.",
"`.T.^. X>X X3X<X9X9X4X X|.<X9X0XdXXXi.0. .o.I t 9 I w.7.J t X 4 K W P.P.P.<.^.3X>X>X<X>X~.rXhXhXM.cXkXd.] e q L * @ # h l ` x.r.z.xX!.X.2X6.^ n @ . $ < < < < < : 4 4 4 4 : 1 1 1 < & < 1 1 1 < & 2 2 < 2 < & < & < & & 2 & 2 = k H.XX|.U.-X@X<.a.*.j.Y.c.c. X Xx.^.fX`.!.c.5.j.4.4.l 0 g 0 g 3 3 t t g g g 0 0 g g g g g g g g h g g g h z l l l l h h g g g q |.hX2X` l.zXx # b O.x.&X,X3.~ s._.d.vXAXp.f q # 8 r 0 & & $ & & X $ @ # 2 t y u o.o.n J Y J  .=.-.t.G.F.t.O.O.;.o.z n M  .o.-.F.H.i.t.u.u.t.G.G.y.u.u.t.7.7.i.7.",
"`.`.{.3X<X3X4X X<X9XrX<X<X9X4X<XXXQ.i.4.-. .u # h -.9.L y # X a U W H.G.y.U.9XtX<X<X<XI.c.2XaXhXn.cXkXd.] d q Y 7 * * z @.7.x q j.cXm.] ,Xj.M J @ X O & < < : < < 4 < < < 2 3 1 < & 2 2 = 3 = 2 < 2 2 2 & 2 < & & & & * & 2 0 T ^.}.`.`.>X1X5X-X~.k.#.|.XX'.'.}.}.}.[.c.!.'.x.r.x.fXw.l s g 0 g 0 g g g g g g g g g g g g g g g g g g g g l l g l l k h k g j g  XkXdX_ x.zXc 6 M 4.4.2XdXm.s.6.'.g.vXvX5.c e # r 8 r @ $ X $ $ @ $ * & 1 = & 0 Y o.v k v n Y =.-.@.y.H.7. .o.9.@.n P +.=.O.-.H.I.t.t.t.t.G.G.y.7.t.y.t.7.w.Y.y.",
"E.`.0X0XrX9X3X0X9X>X X|.`.{.E.U.^.E.i.0.-.n y v T i.y. .r $ % G H =.W.Y.U.).9X9X|.>X^.&.j.;XaXpXb.cXcXd.] f q o.7 q q O.m 0.` 4.!.xX!.' '.s.^ M . X $ $ < < < < < < : < 2 2 3 1 & < & < 2 3 2 2 1 2 < 1 & < & < 2 2 2 2 2 g I T.|.].].m.%X,X~.~.<.<.z.<X4X|.!. X`.i.c.'. Xm.x.x.x.c.c.I c g g g 0 g g g g g g g g g g g g g g g g k l g l g l g g l g l k l l q >XkX2X_ x.zXx 8  .m j.2X5XN.6.3.'.g.vXDXs.~ h # q r 8 @ X X X X X @ 3 g j 3 & 0 K Y g g y k n +.Y M o.t.F.t.+.I 7.w.u.y.:.L L >.7.:.=.:.t.R.u.O.Y o.o.O.i.(.W.H.",
"Q.3X4X4X0X<XQ. X<X`.^.^.x.@.@.E.U.i.-.7.o.k F o.u.y.-.L i & a G j ;.W.I.r.U.).<X<X<XT.^ r.5XaXpXn.cXcXz.$.f q  .0 7 q +.z 4.^ x.].kXm.] ~.6.^ M @ O O < % < < < : < < < 4 3 3 1 1 & < < 1 1 1 3 1 < < < 2 2 & 2 & 2 & 3 0 T }.+X4X*X&Xm.b.m.'.m.%X&X&X].'.c.m.'. Xv.!.'. X X}.w.Y.x.r.X.w.i.P g g 0 a g g l l g g g g g g g g g k l g g l g l g l g l g l l k g  XkX5X^ l.zX~ 0 I r.2X;X'.N.5.2._.p.vXDXs._ z # r r r @ . . X X X @ = i j h = r n K g t r h n Y L n P o.t.t.o.n -.t.9.7.=.v Y >.0.+.O.-.t.i.:.L L @.@.l.^.E.Y.7.",
"|.gX4XT.r.I.x.&.O.U.XXU.q.0.0.y.@.0.w.7.v y o.-.-.|  .Y t & j G G W G.y.y.P.T.^.<X<XU.M j.2XaXsXb.cXAXb.{ f 9 ^ 7 9 9 q b  .M k.&XcX!.] %X6.^ J . X O & % < < < < < < < 2 3 3 3 1 1 < = = 1 1 = 1 1 1 1 < < 2 & & 2 2 * 7.'.dX2X*X'.'.].&X'.3X2X4X3X2X'.;X;X2X'.b.'.m. X'.m.'.w.}.XXm.w.5.i.4.m g g g g g g g g l l g g g g g g g g g l g l l g g l g l g g k 0  XlX&Xb l.zX! q I r.2X'.{ g.3.2.N.g.vXDXs._ z # r t r + X X X . X . . . & 0 * t 0 y 0 0 i h h n L n n M n y k o.J = r J L o.=.F.G. .J O.G.=.o.L  .@.w.Q.{.0. . .",
"3XgX9Xx.0.G.0.M O.l./.y.O.:.0.i.i.y.u.+.= v t.-. .@.0.o.t 3 U E G U =.y.I.Q.^.).^.^.l.&.x.2XaXhXn.AXDXn.{ f q M 7 9 q z O.0. .v.*XlXm.' '.3.^ J @ X : < $ < < < % 1 < < 1 1 1 1 1 1 1 < 2 1 = 2 1 < < < 1 1 1 = * = g w.'.5X2X2X2XgXxXCXfXXXXX}.wXgXgXzXdX].%X;X2X'.m.N.iX'.'.w.w.+X'.c.r.5.m 4.] g g g g g g g l g l g g g l g g g g g g l g l g l g l j h h r  XkX2X^ x.kX/ w I 5.m. XN.N.2.{ m.s.AXDXd.' z 7 9 u r + @ $ X . X .   X & g g 0 t 8 3 g j v k k J J J L k y v =.J & r Y  .-.-.t.-.Y L :.H.o.L M m 7.y.^.}.7.M M ",
"XX XW.7.+.-.Y Y =.0.-. . .+.-.t.i.w.t.T k -.t.-.@.F.7.K * i U G G U ;.y.9.t.I.R.U.U.i.y.x.;XaXhXn.DXFXN.2.~ q ^ 7 9 q q ^ O.#.v.&XcXm.~ v.$.^ J @ X $ < < < < < < < 1 1 1 1 1 1 1 1 1 2 1 2 2 1 1 1 < < 1 < 3 1 3 3 t.4X'.>XdXgXxXwXW.w.n g t * g k J G.XXgXgX X&X2X*X'.'.'.N.w.w..X X Xw.5.w.4.w.] g l l g g g g g g l l l g g l g l g g g g l l g l j l k k t <XcX;X/ x.zX| w ] c.iXxXN.iXp.2.N.s.AXFXz.' z 8 r r r + & $ X X X   . . $ = = 3 0 3 0 h l k v n J J v u k H j t t 0 r H +.;.-.-.;.+.-.+.9.-.Y H I 9.u.i.t.o.J n ",
"-.-.+.Y K Y K J o.Y L v F H J  .o.Y Y P =.-.-.=.t.-.v = @ 3 G G i U ;.9.9.-.t.9.t.-.=.t.@.~.pXhX@XDXHXN.3.~ e  .7 q q z y.y.>.z.*XlXT.' ,Xj.` M @ @ $ % $ < & < 1 1 1 < 1 1 1 1 1 2 3 1 3 1 1 = $ < < 1 1 < 3 3 = +.}.'.dXgXgXH.P l g g 3 g 2 3 j j i = 3 7.+XzX2X&X X;Xm.m.c.}.x.Y.x.x.4.7.4.x.4.m m l l g l g g l l l l g g l g g g l g g l g j l k l h k k g >XcX5X^ v.xX/ p ] c.2XiXs.iXh.2.M.p.ZXDXd.] p 9 y r r . $ $ $ X X X   X X   . X 2 5 g h k j k K u u k k k k u = i u i K K Y ;.Y Y o.=.U =.=.J l k U +.Y I k g l ",
"1 3 3 = & & = 3 3 t 5 1 1 r 1 1 < t 3 3 j u u j k 3 X . $ j H K G Y W E K H J k 3 t 5 u 0 l.pXhXN.AXFXN.$._ s  .9 q s b -.O.e v.&XlXm.' &X6.` n . . O $ < < & & < 1 1 1 1 1 = 1 3 1 1 1 1 1 1 1 1 < 1 < 1 1 t g o.`.'.3XCX}.h 8 H U g 3 l P 3 t J P 3 & & 2 h H.gXgXiXN.'.m.N.2Xc.r.x.c.x.i.P ] w.m w.m g l l l g l l j l l l g g l g l g l g l l g g j g g k t 3XcX5X) v.zX! p 4.] w.s.c.iXp.2._.d.cXMXs./ ^ 6 r y 1     . .                 . X X % X $ O $ $ $ $ $ O @ O X X $ $ < O : 1 1 $ < 1 < 1 = & & & & & & 2 2 = & & ",
"X X o X X o X X X X X       X X     . . . + @ O $ $ $ % i G K U Y E E G < . < < O $ $ < = i.iXhXn.AXFXn.%._ s  .9 9 e 9 p | ..&X%XcXb./ &Xj.^ J @ X O & < $ < % $ 3 3 1 = 1 1 1 1 1 < 1 1 1 1 1 = 2 2 2 2 * 0 M Q.!.3XXXE.y 3 H U u * h @.J u u K K r < + = < u Y XXgX Xm._.%X~.!.l.j.x.l.w.O.m 7. . .O.l l h l h k l k g l l l g l g g g l l l g g l g g g g g 3XcX5X[ x.xX) p *.$.~.~.lXlXh.2.~.d.cXDXs.] x 6 y r 1 .                       . . X   o O o o . X o o . o     o o O o   o       .               . .     X     X ",
"< 2 2 2 & < < < < 2 2 < & < < < & 2 < % : : < 1 1 1 1 j K G U U ;.U K F 5 G U K G F G G H i.5XaXn.MXFXn.} ~ z @.9 9 s z ^ ~ 6.2X%XlXz._ ~.$.^ b . X O & < < < < $ 3 1 1 1 $ & 1 1 1 1 1 1 1 1 1 & 2 < & * 0 T T.].dXY.l 1 1 H K i $ & +.7.u 3 u L o.F 1 1 < i u j i u.wX0Xm.m.~.k.6.v.x.w.@.7.o.@.-.M O.x l l k k l l l l l g j l g l l l g a g g l g l l a l g 4XcX:X#.U.kX) p 6.k.k.z.LXlXh.2.N.d.AXFXd.] b 6 q r +                       X o o X O O & < < $ & % & < < & < 5 1 1 < < % < O O : O O $ O o o o O o o o . . X o ",
"j j F F j F F H F G F j i j i j F G G i a F F F F F F U U U U U W U R U Y ;.;.;.;.W W W I x.5XaXb.AXFXb.{ _ s O.q w s d b ~ z.5X:XkXv.] _.3.^ n @ X O < < $ $ $ $ 1 1 = < 1 1 1 1 1 & 1 1 < 1 < 2 2 2 2 3 z Y.'.4X`.h & + 1 K H = $ h l.7.7 r J K J G u 1 < < K Y 2 & =.wXfXv.v.%Xa.j.T.5.w.x.w.+.+.J O.4.k k l l l l l l l l g g l g l l l g l l a g g l g l g 3XcX:X] v.xX#.x %.b.:XDXUXlX#Xp.%Xd.mXFXd.' b 7 r r 1                   . . X X O O $ $ < & 1 1 & & 1 3 1 3 i i i i i 1 3 1 1 < < < % % % % % < % < % % % % & < ",
"G U U G G K U W W U E Y U U U W ;.=.W Y Y Y U o.E W o.E U U U U U W ;.W E ;.F.J.(.(.R.R.U.;X5XaXN.MXFXb.3._ s @.9 9 q x ~ { m.iX1XlXb.' _.6.` n @ X $ < 1 1 < $ & < < < < = 1 1 1 1 < < < 1 < : & 2 * * h x.x.>XXXm & & 1 K Y u 8 8 M T.j.` x p p q r j u i 1 u U i & % Y +XdX`.z.~.v.*.j.c.3Xw. .H p b @.v h l l l l l l l l l g F l g F l l l l l g l g g l g 3XcXpXa.v.jX) x %.b.hXPXUXsX@Xp.%Xd.mXFXd.] b 7 r r 1 . o o X @ X $ = 1 = 3 i i i i k F K K J K H K K Y K J u J K K L J k H k 5 u i 3 3 3 % & & < < 2 2 2 5 3 3 ",
"H U H P Y 8.u.W.W.J.H.=.o.9.9.F.J..X).).(.[.P.F.9.9.8.=.W Y U F U ;.;.;.;.I.+XeXVXzXzXVXzXjX5XaXh.AXFXb.2._ d X.9 9 s f c { n.pX5XlXz._ _.6.` n . . $ 1 1 < $ < & < & < 1 1 1 1 = < 1 < 1 < < < 2 2 0 0 i.`.c.Y.P 2 < 1 v Y Y u z b $.%X:X*X%X!.k.O.b u v i i 1 Y i O O + G +XdX`.s.!.b.s.k.v.4.M n y v -.P z k l l l l l l l l l g g l l l l l l g l g g l l g 4XcX:X[ k.kX[ ! %.n.kXLXUXmX@Xp.%Xh.MXDXd.] b 7 0 q 3 $ & * * = = i J J K L Y L L Y 8.F.F.G.R.J.G.F.H.R.G.F.+.o.-.F.G.t.-.9.=.Y Y U K 3 $ X X 2 5 j j j j j j J ",
"U G U F.H.R..X8X X XXXE.R..XXX+X.XeXVXtXtXqX8X).Q.G.G.J.;.F k i K ;.W W R.gXCXdXtXCXCX8X&XrX5X7Xh.mXFXb.{ _ s @.w 9 s f c { m.iX:XkXz.} ].3.` b @ . $ $ < < < % & < < < < < 1 < < < < < $ < < < & 2 0 7.!. X.X7.t 2 1 = p L O.O.O.a.&XhXcXbXjXjX7X1Xz...J H i 1 U 1 : O O 1 F qXfX'.r.m.m.6.4.] @.o.t 7 O.7.m v l l l l l l l l l l l g l l l a g l g l l g l g 4XcXhX#.U.kX) w $.n.aXLXUXlX#Xp.%Xb.AXHXd._ x # y r r # * & & & & = v J n Y Y Y J n J +.=.t.F.I.P.G.y.F.P.G.y.t.i.P.E.I.G.G.G.t.=.=.o.1 & 2 j j g H U K l I +.7.",
"=.8.J.}..X.X8X8X>X X<XXX<X9XtXgXeXgXVXgXCXVXtXeXtXXXE.Q.-.8 3 i G R E ;..XCXgXrX0XtX<Xk.~.5X7XpXh.mXDXh.} ` s ..9 s f ` _ { m.pX:XkXz.' b.#./ J . + $ 1 $ 1 < $ < < 1 < 1 < = 1 < < < & & < < & 2 * 7.c.'.fXw.g 3 i = y &.f.U.k..XyXAXFXFXFXNXnXbXaX=Xz.| k i $ G < : O + r i u W.fX8Xc.z.M.5.] &.Y v 8 @.E. .k l l f l l l l l l l l l l l l l l g g g l g l g 4XnX7X*.v.kX[ p } n.aXUXUXvXN.h.*Xh.AXDXg._ d # 0 t 3 * 3 & X @ + # h L L  .Y J n v y k  .t.P.U.P.P.G.G.P.I.Q.E.Q.E.(.E.I.R.R.G.i.G.F.i @ j j t g L =.;.o.-.y.G.",
"W.[.}.}.I.x.`. X4X4X3X9XtXgXtX9XeXtXtX3XeXqX).).8XQ.Q.^.+.r F G U U U ;.XXgXtXrXE.x.k.^.~.5X5XpXN.vXDXh.{ _ s ] 9 s c ] _ ] n.pX:XkXb._ &Xj./ b @ . O $ < < $ < < 1 1 1 1 1 < $ < & < & < < < = * 7.x.}.dX7.g g j 1 = j.rXjXnXAXGXHXIXIXIXHXFXMXnXjX6X~.| u 1 $ < % $ O $ j K i t i.gX8X~.z.m.3.~ y h * v G.L k l l l P m l l l l l l l g l l l l l l g g g l g 3XAX5X( P.kX[ d $.n.aXPXUXMX#Xh.*Xh.MXFXp._ z * t g 0 * * X X & $ # j n i i r u y r i i v | i.Q.P.P.I.P.i.y.P.E.P.P.Q.Q.^.).^.E.I.-.-.i X 3 j L =.9.-.t.y.w.7.O.",
"XXXX{.U.q.i.^.>X4X>X X3XgXzXgX X X3XgX<X|.^.q.i.U.U.<X8X+.0 j H U U W t.9XtX>X Xx.x.T.`.!.5X5XpXh.MXDXg.2._ s ] 9 s Q ] ' ] b.pX;XkXz._ &X5.' b @ + O < 1 $ 1 $ 1 1 3 2 2 = 2 % & 2 < % 2 2 & 3 w.}.N.fXY.g g 3 G = p rXbXnXSXJXHXIXIXIXIXIXJXJXMXbXaX%X_ 0 & $ $ O & & = u U H 3 = o.wXgX3Xv.b.a.b p 7 t b n k l l l l l P l l l l l l l l l l l g l g g g l g 3XcXpX$.v.kX} p 2.h.aXLXUXlX$Xh.%Xn.MXDXg._ f 7 g t t @ $ X X @ X & k k u j 0 8 0 y i 0 u v P.{.Q.Q.I.I.t.o.@.0.@.&.y.^..X|..X|.I.7.o.8 $ t H -.t.y.P.P.i.t. . .",
"3X XQ.0.:.).|.|.|.].`.3X8X9XwX<X0X<XeX|.^.T.w.x.E.U.0X0X+.& j H E W F.(.tXtX X XT.Q.|.].!.5X5XpXb.AXDXh.{ _ q 4.e w ~ ] ] ] b.iX*XlXb.] &Xa.` n . + @ : < 1 $ < 1 t 3 = 2 2 2 < & < < % 2 & 2 m }.2XfXw.g * 3 3 i 8 *.hXnXSXSXHXIXIXIXIXIXIXJXJXMXbXsX:X%.q r 1 r r 3 i t i y j < < < u J.VX X`.l.>.u r r t u y l l m m l l P l l l l l l l l l l l l g l l l l 3XmX5X[ v.kX#.p 2.h.aXLXUXsX#Xh.=Xn.MXDXp._ m * g g g @ @ X X X X # g h k v u k v k t t M o.W.Q.G.R.I.G.y.0.0.@.0.:.0.).{.(.{.Q.t.7.+.i u  .O.P.Q.I.Y.l.y.-.y o.",
"gX<XXX@.O.{.Q.U.x.`.`.`.x.r.Q.|.tXXXT.Q.Q.l.w.i.i.I.0X0X7.* g G U ;.[..X>X>X!.^.Y. X`.^.!.5XiX5Xb.mXDXh.2._ s X.w s ~ ] _ { h.pX*XlXz.] '.5.] b @ . O < < < $ $ 1 3 1 1 * 2 2 2 < < < < & 2 * x.+XgX}.m 0 0 2 3 1 r #.jXbXNXSXJXPXIXIXIXIXIXHXJXMXbXsX6XM.! z y t i i y j y 3 3 $ < < < 2 I wXdX..l.p r r u u r m m m l m P l l l l l l F g l l l l g g g l l g 4XmXhX3.v.jX#.p 2.h.aXLXUXlX@Xh.*Xh.MXDXp.] c 7 y i 3 X X X X X X $ = g k u J T o.K h y J +.y.t. .o.o.L 0.W.w.@.O.:.0.G.i.y.i.0.=.v J | t.P.P.^.XXXX.XE.G.7.r Y ",
"8X{.{.i.O.r.Y.i.r.`.|.9X8XT.T.<XtX|.^.^.U.l.y.T.U.T.wX9X4.t 5 K E 8.)..X|.`.l.r.T.|.Q.T._.dX7XiXN.vXDXb.5._ s 4.s s ~ ] ] ] g.iX=XkXb.' _.5.' n . @ $ $ $ < 1 1 t 1 3 = 2 2 & 2 & < < < 2 2 3 J.m.dXdXT * 2 g 3 1 r *.jXbXNXSXFXJXIXIXPXHXIXHXHXMXnXsX6X=Xf.$.x 0 # * v L j 3 3 < % $ : O j fXW.L >.p 8 r L  .1 l l m l l l P l l l l l l l g l g l F g l l l s 4XcX5X3.v.xX#.! 2.N.lXLXUXlXh.h.*Xh.mXAXp.] c 7 y t = X @ $ X X X $ * g k k k L o.I J I o.O.-.-.+.L b L  .w.-.@.+.y.t.0.:.0.:. .M v @.-.y.P.i.l.I.).Q.i.i.-.k n ",
"{. X{.I.i.L b l.`.|. XdXzXXXE.|.8X{.U.^.T.U.T.E.w.U.8X8X .0 g G E 9.8XdX^.T.^.T.`.`.T.`.Y.;X5X5XN.AXDXh.5.] f X.9 d _ X.] { g.7X*XkXg._ N.5.' M . . $ $ & & 2 2 5 3 1 3 & 2 2 2 % 2 % 2 2 2 0 I dXfXdXw.u r F 5 1 9 <.bXbXSXSXJXJXJXPXIXIXIXJXHXSXbXjX7X:X=X@Xk.&.x 9 J L r i 5 $ < : $ & /.wX .4. .y r g T T 2 g m l m l m P l l l l F l l l l l l g g F l l g 4XcXpX[ c.xX] m ] m.aXLXUXlXh.h.#Xh.mXAX3.' c * y r 1 . = = X X X @ * t h i y k I U Y  .o.O.-.:.7.+.7.7.o.k z o.0.R.Y.t.=.0.O. .o.+.7.y.@.O.O.o.y.y.I.i.y.7.Y Y ",
"{.{.E.i.w.|  .|.3X3X XfXgX9XXX9X8X^.Q.x.U.c.U.I.Y.`.XX|.I * 3 H U F.gXeX`.!.].`.`.`.`.Q.c.%X5XpXh.mXDXN.5.] f X.w s ~ { ] { g.5X%XlXb._ v.{ ` M @ @ $ < & < = & 1 1 1 1 2 2 & & % % 2 % 2 2 0 g '. XxX+XK u u 1 8 p @XlXbXSXSXJXIXIXIXIXIXIXIXPXSXnXlXsXsX7X1X@Xk.#.b b u 3 i 1 % : $ X j fXQ.| &.q y r g s l 2 2 l l m l m P l P l l l l l l l l l l F g g l s >XcX;X$.m.kX] f 5.c.aXKXUXlX#Xh.#Xh.mXAXp.' c 7 y u r X & & X X X @ * g h y y v J L b L  .+.+.O.+.7.7.t.o.J I P +.P.y.O.O.O.o.L I O.=.0.O.|  .&.0.:.0.y.y.7.=.Y ",
"T.I.I.U.i.i.I.<X9X3X3X0XxXeXeXtX<X<X^.T.^.U.U.^.Q.U.x.w.m * 3 G Y J.gXgX].!.'.^.|.XXXXQ.z.2X5XiXm.vXDXh.5.' f X.w d _ $.] { h.5X=XlXb.` '.5.' M @ X O % < < 1 < 3 3 1 & 2 & & 2 2 % & 2 2 2 3 0 +.XXgXgX+.r u i r *.7XAXAXSXJXJXPXIXIXIXIXJXJXJXSXAXnXlXjXaX7X=Xf.,.^ z t u r < : $ : $ [.qX .&.x 0 t 7 0 m l % 2 l m m P l P P P l l l H l l H l l l g l g l g >XcX5X3.c.xX] m 2.N.aXKXUXsXh.h.#Xh.mXMX3.] c * y u r X $ & & @ X @ = g h k k v z J | o.o.:.=.O.+.7.7.@.7.7.o.h n o.o. .L v v v L b L | O.@.0.y.i.0.@.:.0.0.-.o.",
"^.U.I.U.Y.Y.T.{.3X X X+XeXdXtXqX<X X!.^.U.!.^.^.U.U.w.7.m 2 5 G W F.8X9X`.^.T.`.`. X XY.r.2X5XiXb.vXDXn.2.] f  .9 s ~ $.] $.b.5X*XkXb.] N.' ` m @ X & & < & & 1 1 2 2 < & 2 2 & & 2 & 2 2 2 2 g l Y.4XCXR.u 1 r r ~.jXAXSXSXSXJXJXJXHXJXJXGXSXZXkXrX>X~.v.b.~.@Xn.a.O.p 8 1 < < $ : O F +Xy.^ O.q Y n 0 l P l 2 % l P P P P l H l l l l P l l F l l l l g l l s <XcXhXs.z.cX2.m 5.m.aXLXUXaXh.h.#Xh.nXZXp.] m 7 y t r @ @ # $ $ X @ = 0 h h y u J L @.i.0.:.:.=.@.7.@.+.-.@.Y h L =. .o.L y u v v v L O.t.y.F.i.y.-.@.-.-.0.0.-.",
"l.i.I.I.Y.x.Y.^.|.|.|. XXX^.T.`.|.].^.|.^.^.|.~.E.U.P.i.+.t < G E J.eX0X|.~.!.^.^.`.^.&.c.hX1X5Xg.mXAXg.3.] d ..9 w _ X.] $.b.5X%XhXh._ _.3.m m @ X $ < < < < 1 3 2 1 1 = 2 < < < % < % & 2 5 3 0 7.3XgX.Xu = 1 y >XcXnXAXAXAXSXSXSXFXSXmXcX5Xv.&.| v x | #.*.} %.*...b q = $ 1 $ : @ L..Xo.>.p r Y v 8 v L v $ $ F P m I P P P P l l l l l l l l l a l l l l s 2XvXiX] g.xX5.f 5.c.iXLXUXkX@Xh.#Xh.vXvX2.] x 7 u r 8 @ $ @ $ $ X X $ * 0 r y h v J o.0.=.| o. .v h I -.-.=.Y 0 M L Y  .Y Y n v n o.+.:.:.-.o.o.:.:.-.-.@.:.:.-.",
"0.q.l.`.].U.I.E.T.{.XX XXX^.`.|.^.|.).~.^.^.].`.|.<XU.y.O.r 1 j K F.qXrX|.|.).!.'.|.U.q.&XxX1X:Xh.ZXmXg.} ] s ..w w ~ { { { g.5X*XkXh.{ _.] ' n @ X $ < & < < < 3 1 < 2 2 < < & < < % 2 2 2 2 t y z `.`.y.-.u r u k.v.k.k.~.1XyXnXNXNXNXbX=X,.^ b x ^ k.&X<X1X~.a./ ^ ^ J u & 1 $ X G eX:.O.&.9 z v r 8 p | H $ O u J m I P P P P l P l P l P l l l l g l l m g 2XkXiX5.g.kX4.l 5.b.iXMXUXaXh.h.#Xg.vXmX3.' x * u t 1 . X X @ O X X @ * t r t h v n  .I J J Y L q k +.-.-.-.I y n P n  .o.H k k L +.o.O.=.| O.o.O.=.-.o.o.:.i.y.",
"0.0.r.XX3XU.P.i.q.U.|. X|.{.|.`.T.^.!.^.~.^.~.^.>X<Xi.:.+.i < F K F.qXqX^.~.].`.>X0XrX9XrXcX5X:Xg.nXmXg.2._ d ..w w _ { [ $.z.:X%XkXd.[ ].3.' n @ X $ & & < 1 2 1 3 = 2 2 2 & < & 2 2 < & 2 2 t g 0 7.`  .Y k u q ..*.| b ! #.@XjXNXNXmXhXM.) ! / *.k.~.>X-X,X-Xb.,.#./ | K u r 1 $ =.+XO.q.p p | y = 8 p L u $ : 2 J P I P P P l P l P P l l l l l l l l l m g 2XlXiX] z.hX{ f 4.h.iXMXUXaXh.p.#Xh.vXDXs.] x * r r 1 . X @ = * # * & * t t h k v n Y L v y u k k +.+.o.o.L n k J L k v u 8 r u v o.o.o.L o.-.o.=.O.o.L Y t.G.i.",
"0.r.I.|.>XU.i.q.0.U.^.).`.Q.^.^.T.^.^.^.^.^.T.^.<X|.i.:.0.j < F K F.eX9X~.~.|.>XtXtX9X>X9XlX1X5Xh.nXmXd.3.' w / w d / { ' } d.5X;XkXz.{ '.5.' n . @ $ $ < < < < 1 2 3 1 2 < 2 & 2 % 2 & 2 2 5 3 g h P 7.p r i 1 u ).rX-Xk.<.#.<.6XNXSXNX7Xf.) / #.k.E.I.>.*.<.<.a.a.*.#.| p p r 1 u +XR.&.&.p  .X.u = 1 n J k : O < H L I P P P P l P m P P P l P l l l l l l l +XkXiX2.z.zX4.x 4.m.iXLXUXaXh.h.%Xh.vXMXp.] x 7 u r r . . X 3 t * 3 & # * t k v b v k v v n J J o.+.o.+.| y v y h k h r r y u y v Y | u u -.-.+.O.=.o.Y o.w.H.i.",
" .l.).^.3X8XXXl.i.).U.I.I.Q.Q.!.^.^.T.^.~.^.^.~.3X<XP.I.i.j & j G F.eXeX|.&X,X>X>X^.v.U.,XhX1X1Xb.cXnXd.3.] w ..w p ' } ] $.g.:X=XkXz._ a.} ] v @ O % % 2 2 & 2 < 1 3 t < < < < % 2 2 & 2 2 3 5 j h z w.n 8 i 1 r E.-Xk.~.~.P.,.@XNXJXNX=X( ( ) <.).>.u r 9 p | #.z.@Xs.) x M u = U <X&.4.z s 7.-.k = = M  .u : O % l P I P m P P P m m P P P l l P l P l P l s ,XcX5X3.c.zX[ d 5.g.iXKXUXaXh.g.%Xh.nXAXp.' c # r r r . . $ t = 3 t * X # 0 j v H J J p n L Y L o.O.o.J H L H q u u r r k  .o.J =.o.L J b K Y J L L J o.F.y.i.H.",
":.G.P.E.XX9X9Xy.>.P.E.E.Q.^.^.Q.^.!.^.!.U.^.`.^.<X<XQ.y.0.k % a K ;.XX<X~.<X<X X'.!.^.T.%X5X1X5Xb.cXmXd.%.{ w / w w _ { ] { z.:X;XkXd.%.&X6.] M . @ O % & < & < < 1 3 3 < < < < % 2 & 2 & 2 2 5 g i y I +.= r i 6 >.O.) | O.! ! h.nXSXbX@X) p.@X@XxX>Xb b p 9 b f.=X5X#X#.x b r 1 [.XX .X.w l I v h = 8 b H r - : o g P I I P m m P m P P P l P l P P P l P m g >XcX5X6.c.zX#.p { h.iXLXUXaXh.h.%Xd.nXvX3.' c * y r r . @ = t r t t * @ & 8 h v b J J H J L Y L Y U v 8 u L F u t u u t u Y U -.;.o.o.K L J v k u u v o.y.:.t.I.",
"y.:.y.>.y.U.{.r.O.y.I.P.^.|.|.|.^.^.<X^.^.3X4X,X3X9XU.@.-.u X 5 G -.). XU.l.Q.^.^.Q.`.!.~.*X:X:Xg.nXmXh.p.[ w ..w w _ { ] $.g.;X%XkXd._ c.{ ' b @ . O < < % < < < < 1 5 1 < < < 2 % & & 2 2 2 3 i t t h  .u Y u r | ! p E.:.! #.$XNXBX6X@X@X@X6XyXrX1X~.<.*.,.@X5X7X7X=X#.^ p r r R.r.&.^ z s l v g * y M H $ : : o g P I I P m P m m P P l P l P l P l l l P s 2XcX5X6.j.zX#.s ] g.iXLXLXaXh.h.%Xh.cXAX3.] ^ 6 r i 1 . @ & = t 0 * @ & & 0 i u k b J b J Y L h u y y v J H u u t K J t H  .o.+.K p v J v u r p L o.+.o. . .L -.",
"i.O.O.| &.I.U.O.@.P.q.P.|.<X X3X>X>X9X>X^.>XrX4X4X>Xk.I.7.i % 5 G D.[.).>.>.3X8XQ.].).!.~.;X5X5Xh.mXAXh.3.] e ..w d _ } ] } d.*X#XhXd._ !.5.` n . X % % < < < < < < 5 5 1 < < < & 2 2 2 2 2 2 3 5 t t 0 u n J u 6 >.k.( P.@X>X1XsXNXNX6X@X@X6XsXlX7X7X1X-X-X7XjXbXbX7X=X,...u = W qX&.O.p  .c l I k 8 L =.u O : ; O g P I I m I P P P P P P P P P P P P m P P m 2XkX:X[ j.hX..d 2.h.$XLXUXaXh.h.%Xd.cXcXp.[ b 6 r i i . @ & = * 0 g # * 0 y u u t u J J J Y k & = u H J L J u 8 J +.J t J Y L u r r u r r r u o.;.=.+.Y v h v Y ",
"G.>.I.Q.|.<X^.y.U.E.l.).XX<X<X4X2X4X`.^.Q.'.4XrX4X].`.}.7.3 % a U 8./..XXX<Xl.4.I.`.^.`.~.*X5X7Xh.lXMXh.2.] w ` w d Q { ] { s.&X%XhXg.{ _.] ` M @ X $ : < : < < < 1 < 1 4 < < < < < < < 2 2 1 1 3 0 t t v 7.O.v 6 U.rX-X@X@X=XsXbXBXsX=X@X=XyXsXbXbXbXBXbXbXnXBXbXjXaX$X} ^ p = t.R. .b s O.7.I o.u r b v r : : O O 3 L P I I m T m m P T m P m l P P m m P l m ,XkX&X/ a.zX[ z $.g.:XSXUXaXh.h.M.d.lXmXp._ m 7 u i 1 . @ $ = = g h t & 8 i g y u k k 0 k J 0 = J K n k n i = i v J y k J b u u u J H H o.Y o.=.O.-.-.o.o.-.t.t.",
"P.Q.).3XqX8X{.U.).^.P.^.|.XXXX>X3X4XY.x.U.T.3X4X4X XT.x.I * & a U 9./..X9X8Xr.O.I.`.^.].~.;X:X:Xh.vXmXh.3.{ d ' 9 f _ { ] ] s.%X#XhXg._ !.%.X.n . X O < < < < < 1 < < < : 1 < : < < 1 < < 2 1 1 3 3 i k r O.&.{.#.-XyXbX7XbXbXbXbXbXbX=X@X@X6XbXbXSXSXSXSXSXSXbXbXsX6X@X} w u p .Xi. .z ` b I m J r u v r $ : - : O t I I I I P m m T m m P P P P P P l l l m l 2XkX%X] j.gX$.p } g.:XMXLXaXh.h.#Xd.lXvXp.' c 7 u r i . @ # * = g g 0 = 0 h k h v v r r J J g = J Y J k J k y k k J v J J n J k v  .L Y o. .+.Y  .+.=.-.>.G.E.G.",
").^.^.3X XI.U.I.U.|.|.U.^.`.|.<X4X3X`.`.0.l.0X<X X X XXXi.3 & F U F.(.:.XX8XQ.l.U.T.x.`.v.%X:X5Xh.cXmXg.p.[ d ^ w d _ { _ ] g.%XN.hXz._ !.3.X.M @ + O $ < < < < 4 1 1 1 < : < 1 < 2 2 < 1 1 1 1 3 g h i 8  .:.9X~.1XnXSXBXBXBXBXBXBXyX6Xf.f.=XyXSXJXJXJXJXJXSXbXbXsX1X@X} ! y | ^.O.^ q z k h h r 9 p H 1 : : : : : t Y I I I I P T P ] P P m P P P m P l m P f ,XcX;X' k.hX%.p { d.$XMXLXaXh.h.@Xd.lXvXp.] c 7 u u r @ @ * t 0 g t 0 * 8 i k k v u v U J J t = L 9.+.Y T n h 0 t Y =.L J L Y J b I -.t.-.t.=. .-.:.:.>.0.P.R.-.",
").).^.|.E.y.:.0.P.3X8X^.l.^.^.].XX>X4X`.M r.tX4X3X4XwXXXw.* & a U D.H.=.(.<X|.^.U.r.x.`.v.N.:X:Xh.lXmXh.p.] s ^ w w _ { _ ] s.%XN.hXk._ m.$...M . @ $ < < 1 $ < 1 : 1 4 < < 4 1 2 2 2 < 1 < 1 < 3 3 h t 0 h :.~.>XyXnXSXJXJXBXbXBXBXyX6X( f.f.6XSXJXIXIXJXJXSXbXbX6X=Xf.%./ p F.)...b y h n k r 8 u K o.< : : : : O u  .I  .I m T P P m P m m P P P P m P l l f ,XcX*X[ a.zX$.p { d.:XMXLX$Xh.h.N.d.lXmXp.{ m 7 t i t . @ = t t 0 t g # * 0 h u u J =.+.l J t y -.F.t.-.o.P k * j 9.7.Y J J Y L I u.I.G.I.y.>.:.y.y.t.G.i.P.i.@.",
").|.).^.Q.).r.y.w.T.'.4X X{.`.^.|. XXX}.x.Y.XX}.'.dX(.x.T # X a G D.R.y.P.I.`.<X!.^.!.'.~.&X;X:Xg.cXmXg.3.{ s ^ w d Q 3.] _ p.N.M.dXs._ c.5...n . O : < < < < < 1 1 4 1 4 < < 1 4 4 1 4 2 2 2 < 2 * j h u q t.>X7X7XBXBXJXJXBXbXSXJXyX@X,.f.,.@XyXSXPXIXJXJXNXbX6X6X@Xf.( ( ^ XXi.M z y M v h t t k i 5 : : , : o % l T ] I I P P P ] P P m P m m P m m m P P l >XhX&X$.a.dX#.d { p.$XMXLXaXh.p.N.h.lXcX3.] m 0 t i 5 X @ * * * 0 3 * * # = i v n | +.+.L Y L k Y -.:.>.-.7.U * k J J o.Y I  .o.+.0.@.r.l.y.y.>.i.0.:.y.P.i.y.y.",
"U.).|.^.^.{.P.P.r.T. X4X4XT.{.3X<X X XT.Y.T.`.Q.XX8XH.Y.7.& X a G ;.F.G.l.>.!.9X>X^.^.]._.*X*X:Xg.lXvXg.p.] s ` w s ~ $.] ] s.N.N.hXd.~ j.} X.M + . + < : < < < 4 1 1 4 < < 4 4 < 1 4 1 2 2 2 1 2 * k k t = o.U.-XyXBXBXBXJXBXsXyXyX-X( ( ,.( ,.6XbXSXSXNXNXbXyX6X=X@Xp.} ( / >X&.^ z z m v = 7 p K i O O : O o % % l T I T X.I P P P P P P m P P P P P m l P m ,XkX:X..q.hX[ p { g.$XmXFX:Xh.p.N.g.lXvX3.] m 7 t u r X @ & & @ * & # @ * & t v Y +. .Y Y o.L J J +.-.0.i.G.o.t g 0 M F.7.J L L  . .0.Q.).|.).y.y.:. .:.y.P.w.0.",
"{.XX X).Q.E.I.l.r.|.4XdX0X3X|. X X`.U.Y.`.Q.|.XX|.I.T..X7.X % j U =.F.XX X^.,X0X>X!.!.>X!.*X*X:Xd.lXcXd.3.] s ~ w s _ 3.] ] s._.N.hXj.~ z.6.#.J . . $ < < 1 < 1 4 1 1 1 4 < 4 1 < < 2 2 2 2 2 2 2 = j j u r b !.1XjXBXBXBXbXbX6X-Xf.( w ! ( ! ( -XyXyXSXbXbXbX6X-X@X,.p.( ) d.0X&.^  .0.g t 8 0 Y Y 3 o ; : o o % % l X.P P T P ] m P ] P P m P P P m P P l m m 2XkX#X] a.rX#.p ] s.$XlXMX$Xh.p.N.p.lXcX2.] c 7 u i g X & @ + @ = 3 & @ * 1 t k Y o. .o. .L Y L J +.=.-.+.o.P 0 i g P =.L n b o.O. .G.{.).I.P.l.w.0.@.y.y.l.y.0.",
"|.|.|.).U.x.U.I.q.].4XgXgXgX0X3X X6.w.Y.{.XX8X8XQ.Y.{.XX7.@ & a G F.J.F.).9XrX9X!.U.`.].z.*X%X:Xg.lXlXd.p.] s ~ w s ~ X._ ] 6._._.hXs.! U.a.#.L . + : < < : < < 1 1 4 4 1 4 < < 4 < 4 1 1 2 < 2 3 3 t r r u p P.>X7XbXbXbXsX6X6XyX@X( ( ! ( ( ,.-X6X6XyXyXjX6X6X@Xf.,.,.} ) v.>X$.M z b z * 8 0 M u o o o o : X % % l T ] ] T I T P P m T m P P P P m m m l P m 2XkXiX3.a.rX#.x X.s.#XvXLX$Xh.h.h.h.lXcX5.$.c 7 u i g @ @ & $ $ * 3 t & * * 0 h L +.+.O.O.O.-.-.| b O.-.o.n n k k b P  .Y H J F.t.I.).{.^.P.0.P.i.y.:.i.P.i.0.@.",
"`.|. X`.{.U.Y.U.`. X>XdXzXwX|.3XT.x.Q.{. XXX8XQ.I.U.U.y.n $ & 5 G F./.G.u.U.{. Xm.`.]. X!.*X%X:Xg.kXlXh.2.] f c 9 d _ 3._ _ 3.&XN.hXs.Q j.%.X.J @ . : < < < 2 2 1 4 < 4 1 < 4 < 4 < < 4 1 2 2 1 2 = 3 u t h p 4.].1XsXbX6X6X=XsXBXbX1X@X,.f.~.-X1X7XyX6X-X6X6X@X@X,.f.,.%.' ]. X#.p p L J 0 z z y * o o : o . . : + n O.I ` I T ] P P m T m P P P ] P P P P P m &XhX%X$.a.dX..p ] 2.$XnXMX$Xh.p.#Xp.lXlX3.3.c 7 h u r O $ $ + X @ & 0 3 * * t h I +.@.:.O.=.-.:.o.J o.+.Y n v J J o.o.o. .k J t.y.P.P.Q.).>.t.y.:.:.t.y.y.y.:.@.",
"`.|. X{.{.`.Q.`.{.].>XdXxXwXQ.Q.|.{.XX{.Y.|.{.^.XX{.l.O.L & % a U D.W.R.0.n 0.XX X>X X>X&X2X$X:Xd.lXlXh.2._ f m w w ~ $.] _ s._.N.dXs.~ c.$.X.b . O + < : < 4 1 1 1 < 1 4 1 < 4 < < < < 2 < 2 1 3 3 1 t t i 0 @.3XhX7X7X6X@X=XbXbXBXSXbXyX7X7X7X6XyX7X7X=X=X=X%Xf.f.f.a.,.%.4Xj.^ b @. .y y  .Y t O o o O o O : $ & P  .I T I I T m T m P T P P P P P P m m P m ,XhXM.[ 6.rX$.e ] p.N.mXMX$Xh.p.N.h.lXlX2.X.m * i i r @ 1 $ . X + & 2 * * t l l Y  .O.0.>.i.i.:.L p L L k k n n =.u.y.7.+.t L t.0.P.P.U.).l.t.:.@.:.y.y.i.P.i.0.",
"<X].|. X XT.T.`.'.`.|.3XXX`.x.Y.XX X+X^.`.Q.x.(.U.l.O.:.+.t & a G D.H.@.o.7.H.3X X`. X>X].5X%X%Xp.kXlXp.2.] s c 9 d _ $._ ] p._._.dXp.~ r.' X.J + O $ $ < 1 < 2 4 4 4 4 < 4 4 < 4 < < < 1 2 < 1 1 1 t 1 3 3 =  .|.hX;X6X=X@X6XsXyXyX6XyX6X@X@Xf.@X@X@X<.=X7XjX6X@X@Xf.p.,.%.3Xr.^ x b p 7 y o.o.< O ; O O O O : : & L +.T I ] T P T ] P P P P ] ] P P P P P m m ,XhX*X3.a.dX#.s ] 2.$XlXLX$Xh.p.N.p.aXlX{  .x * r u 1 . $ @ @ X $ & 2 t * * l m o.@.O.O.@.:.O.| J L U J n J L Y =.y.y.i.-.v O.0.:.l.i.P.P.i.P.y.:.P.I.P.y.G.P.y.",
"gX X`.eXwX{.U.E.Q.|.3X{.7. .4.w.`.{. X X3Xi.@.w.y.l.0.-.8.t & a G u.9.Y =.F.G.Y.|.`.`.`.~.2X*X*Xd.lXlXp.5._ e _ w w ~ $._ _ 3._._.pXs.f z.j...b . O $ : < < $ 1 1 1 1 < < 1 1 4 < < < 2 2 1 < 1 3 1 1 1 = = = L T.hX1X:X6X6X$X@X,.@X=X@X1X-X1X@Xf.( ! ) 6XbXNX6X@X@X@Xa.%.j.0X6.x p J q q y u 1 o O o o O o O : $ = L o.] I T P T P P T ] P P P P P m P P P P m ].hXz.~ s.iX] h ] s.#XlXMX:Xh.2.N.g.aXkX3.] f 7 r i 1 . X @ & $ @ @ * = # * k n o.@.0.0.L | L L Y  .I J l M =.t.y.l.i.0.7.-.t.:.y.i.l.i.i.P.U.t.y.^.XXE.:.i.Q.P.",
"3XY.Q.9X0X`.I.R.U.`.XX XI.0.:.I.{.^.XX8X3X^.l.H.I.U.i.-.T * % a U t.9.=.7.u.H.H.(.Q.Q.Q.!.;X%X*Xp.kXlXd.2._ e m w w ~ { _ / %._._.rXs.! !.3.` b @ . & < < < 2 2 1 1 1 < 1 4 1 4 2 < < < 2 1 2 1 1 1 3 3 3 1 = v x.zXiX:XjXsXsX1X,.yXSXJXIXIXGXCX6Xf.f.7XbXNXmX6X@X@X@X,.} k. XX.x p p 8 u u k < O O - O o O : $ & 2 T T P ] T P T m ] P T P m m P P P P P P P l &XhX*X3.5.dX{ s ] 5.N.lXMX:Xg.p.h.h.aXlX2._ x * r i r . @ @ $ 1 $ @ & = & i y v +.7.0.:.O.O.o.o. .Y Y J n  .-.y.P.P.i.t.>.t.t.y.y.P.P.P.y.P.G.i.P.I.E.P.O.r.E.P.",
"`.q.x.{.|.W.P.I.E.{.|.XX|.E.I.I.Q.R.{.XX8X{.I.U.{.E.o.J P 3 2 j G ;./.W.H.G.W.W.u.H.Q.|.`.;X%X%Xd.sXlXd.2.] e _ w w ~ $._ ' 3._.M.5Xs.x c.r.` b . O & r 1 5 1 2 4 4 1 1 1 5 1 1 2 < < 2 1 2 1 3 3 1 i i t = = h Y.4XdXN.sXjXNXnX-X6XSXSXSXyXyX6X@X@XyXbXbXnXjX6X@X$X@X,.} !. X] ^ M k # r j 5 $ o : : O o : : + & 2 T X.T P P T P m P P m P P P P m P ] P m m l ].hX_.c r.iX4.s _ 2.N.lXMX$Xd.p.h.p.kXkX2.] z 7 r i r . X @ @ $ 3 t 0 8 8 u k n o.O.@.@.+.-.-.+. .o.L J L :.y.P.R.I.I.G.y.y.t.y.y.l.P.l.G.>.>.P.I.I.I.:.O.0.G.y.",
"Q.i.U.I.I.I.i.i.P.^.{.XXXXXXI.I.E.Y.I.Q.}.Y.i.`.<X{.I n n k 2 j U D.+X).I.P.P.E.I.I.T.Y.T.,X%X%Xp.kXkXp.2._ e m 9 w ~ { _ _ 3._.~.5Xa._ m.$.X.M @ + < 1 1 1 5 2 1 5 1 4 4 1 5 4 1 < < 2 4 < < 1 3 1 i 3 3 3 3 0 4.4XZXn.=XjXNXNXyX6XyXyXyXyXyX-X$X6XsXsXlXbXsX=X@X@X@X} } &X}.` ^ M u $ O & O O : o o : O O : : % g X.T ] T T ] T P P P P P P P P P P P P P m l '.hX5X4.r.dXX.s ] 2.N.lXmX$Xd.p.h.p.aXaX3.X.z 7 r u r . X @ . + = t t 0 * i v K L L  .o.O.-.-.+. .=.o.L +.:.:.l.P.I.l.i.P.y.l.y.y.P.P.l.y.t.:.y.i.P.P.0.0.-.-.t.",
"{.|.|.0.@.@.w.i.Y.`.Q.|.wXwX{.E.I.E.Q.E. .4.i.|.XX^. .I Y g 2 l G =..X8X|.)..XXXwXwXy.I i.>X%X%Xp.kXkXs.2._ e _ w d ~ $.[ _ 3._.M.2Xa.~ c.5.X.M . @ 1 1 1 1 1 5 5 1 5 1 1 5 r 1 2 2 < 1 1 1 1 < < 1 1 3 3 2 i 9 @. XxXb.b.aXbXNXyX6XyXyXyXyX-X-X=X6XsXsXjXlX7X=X@X@Xf.p.,.].&XX.` ` n @ O O : O o O O o O O : : % 3 T T T P P P P P ] P P m m P P P P P P P P m '.pX%X' r.iX$.s ] p.N.aXNX$Xp.2.n.p.aXkX2.] x 7 u i r   . X @ X @ $ t j = * u k k J =.t.F.:.+.+.o.-.O.=.t.y.:.y.i.I.I.:.| i.Q.P.i.P.P.G.>.:.@.:.-.t.i.r.G.-.Y +.",
"^.`.].i.0.&.0.P.U.E.P.{.qXXX{.Q.E.E.{.x. .0.r.^.{.:.n L P 3 3 H G K R.(.{.<X<X8X.X(.t.o.q.>X%X%Xp.jXkXp.{ ' e m w w Q #.' ~ 3.!.m.4Xa.c j.] X.L @ + $ < 3 1 1 1 1 1 4 5 1 3 1 1 2 1 2 1 2 5 2 < < < < 1 2 3 0 9.i.c.xX'.5.%XkXmXyX6X=X=X-X=X=X6X6X6XsXsXsXsX:X@X@X@Xp.p.} %X4X' c y.w.2 & < < O : . . o o O O : % 2 T 7.I m I I m m T T m m P P m n n P P P P z '.kX;X$.6.iX..z ` 5.n.hXmX$Xp.p.f.d.aXhX3.] x 7 u r r . o . $ O X $ 3 i * & * = t k -.7.7.+.o.@.:.F.@.+.w.i.:.0.i.P.0.| :.I.E.E.F.t.y.:.&.o.O.:.@.>.y.i.P.0. .+.",
"dXrXrX3X<X^.l.Q.^.U.i.^.8XP.o.:.l.I.Q.Y.I.I.E.E.:.L M L P 0 3 H H W +.+.(.qXXX8XR.u j =.| l._.%Xp.aXlXp.2.' e c w w ! X.' _ 3.b.b.5Xp.f 5.4.$.M @ @ 1 < < < 1 1 1 1 1 1 5 2 4 3 2 < 2 2 3 1 2 < < & < 1 3 3 = }.4XdXxXY.m ] 5XlXbXyX6X6X-X-X6X6X6XbXlXsX7X=X@Xn.f.,.,.,.) M.0Xa. XCX}.2 % < & : $ : O : o O o O % & g 7.7.P P ] T m P m P P P m P P P m m l m z '.hX:X] 6.iX..p ` 3.N.aXlX#Xp.2.n.d.aXhX{ ] f 7 u r r O O + $ X X X $ * * & 3 = t H y r +.9.o.k +.G.-.o.-.7.t.:.0. .M -.-.p y u p >.P.@.| E.{.).).Q.^.^.(.(.Q.E.",
"rX0X4X9X<XE.l.P.P.P.i.E.XXy.J =.y.y.P.I.R.E.Q.F.7.o.J L l 2 a G K 8.9.=.F.XX.XXXH.y k L h r.%X%Xd.pXhXp.3.' s ^ w w ~ $.` _ 5.b.b.2X5.d c.3.] n @ $ 1 1 2 < 2 2 2 2 2 1 5 3 3 3 < < < 1 1 2 1 2 & 2 < 2 1 3 3 k Y.}.F.l 0 q w.iXbXNXbXbXnXAXnXSXNXmXbXaX=X@Xf.f.,.p.,.} _ [ <XzXZXCXW.= % : : < < O o o : o O : X % 2 P X.T T I m T P P P P P P P m l P l P P h '.iX&X_ a.4X] p ` 3.N.sXmX#Xp.2.n.d.hXhX3.] x 7 u u r + < $ $ X . X $ $ & < = 2 j j = i =.9.7.P -.F.=.o.T +.+.o.M u I +.k # u v o.F.y.+.L I.).|.|.Q.Q.).I.(.(.P.",
"i.e.i.Y.t.t.G.G.G.t.y.y.F.-.u J -.-.-.-.O.+.t.o.L Y v j g a H G U 8.D.=.Y o.-.w.o.k J H v y.~.%Xd.aXkXg.3._ e ~ w w ~ X.` _ 3.v.m.2X6.d r.{ X.m @ $ $ < 2 2 1 1 1 1 1 4 2 3 2 5 1 2 2 1 3 4 1 1 1 & 2 2 3 3 i 1 a g 2 2 3 3 0 s.jXNXBXBXJXJXJXJXSXmXsX=X@Xp.,.,.,.,.( ( [ ! [ k.!.j.h $ % < < % : O O o O o O O % X & m +.] T P T P P P ] P m m P P P m l l m z '.hXiX4.6.5X' p _ 2.N.kXmX$Xp.p.@Xd.aXhX3.] c 8 u u r : 1 $ O O O $ < 1 & < 3 1 = & = 3 g j g t F u u j t u r 1 & k j @ $ r k k L L Y  .Y o.-.0.9.+.O.+.Y o.=. .",
"J L Y o.U Y 7.T L Y T Y v k t u =.W K k k n v u K J 3 & & g H U W 8.U j g 3 H H j k j k u q.~.&Xp.hXjXd.3.` w c w w ~ X.] _ 3.c.m.2X5.f j.4.X.n @ + < < < < 2 2 1 2 < 1 1 1 3 3 1 2 1 3 2 1 1 2 < 2 2 2 = 3 3 3 2 2 g 2 2 2 0 s %XmXSXSXJXJXJXJXAXjX=X@X} } ,.a.,.} ) ) [ [ [ [ ' d # $ < : $ : < O o o ; O o ; o % % g +.T ] P T P m ] I I m m m m l n l m l h ].pXn.' a.5X..p ` 3.N.jXnX$Xd.p.n.d.sXhX3.] c 7 r u r $ < $ $ O o o % : & < 1 < @ X & & 2 3 2 % & @ & & & & 3 = 5 H g $ & j l k L K L Y J U L F v k k i u u k u ",
"& $ $ & $ $ & @ O $ * $ $ X . $ 1 $ & $ $ $ & & & & X % 3 g H W W W j a g i g 5 & $ O O @ -.~.%Xp.hXhXp.3._ s M w w ~ $.` ~ 3.v.z.,X4.x j.5.X.M . + $ < < < < < 2 2 < < 1 1 3 5 1 2 2 2 1 2 1 4 & 2 2 3 2 3 3 3 a 2 2 2 2 2 2 0 ..hXnXNXNXJXSXnXjX=Xf.} } ,.p.,.} [ } [ } ,.2.2.[ Q 7 @ : : < < < $ O : O % O O % % % g T X.] P P P P P m P P P P P n l n l l k `.pX%X$.q.2X' e m 3.n.hXlX$Xp.2.n.d.aXhX{ X.c 7 u u < .                   . X o       . X o X X . o X X   X X X X O X o X % O % % < $ : $ % $ O O O O O X X O o ",
"  X   o O O X O O O $ O O $ $ : $ < O O & 1 < 3 3 5 F G G G G G E U G U G F F 5 < < % % $ +.~.~.a.pXhXa.%.' e M w w _ $.' _ 3.z.j.&X3.f w.] ] M + + $ < < < 1 2 2 < < 2 4 2 3 5 5 2 2 2 2 2 2 1 < 2 2 2 3 3 3 3 2 2 2 2 2 2 a 2 9 6.5XkXbXjXjXrX@Xa.,.,.,.,.,.} } } } ,.2.,.p.,.#.! q + X : % < $ : : O o % % o % ; % 2 P T T P I ] I P P P P P P m P k l n v h '.5XM.#.6.,X/ p _ { h.iXjX#Xp.2.n.p.aXhX{ ] ^ 6 r r <                   .                                           o .     .   o                             . ",
"5 2 2 3 3 5 5 5 5 i j 5 5 F F 5 F F F F H G H G G G K E U U 1.U U E W W E U E U U K G U k =.%X%X,.pXpXp.2.' e M 9 w / 3.' ~ { j.s.&X$.d c.4.] n + O < < 1 4 2 2 < 2 < < 1 2 4 3 5 2 2 2 2 1 1 2 2 2 2 3 3 3 3 3 2 2 2 2 2 g 2 g t y &.~.%X%X@Xf.<.,.*.*.} ( #.#.#.[ } } p.d.f.f.%.! p = @ O O $ % : < : : o o % : % 2 2 P T ] T I I I I ` P I P P P m l k v k h _.iXM./ 6.>X' p ` 5.h.:XaX#Xp.2.n.p.pXpX{ ' b 6 r i 1               o             o   o   . o   X o O O % O % % & % & < & & < & < $ < $ < 2 & O O O $ O O O % & ",
"F F F F F G K U K K K K U U U U W ;.E U E U Y E U T U W W ;.8.;.8.=.8.8.W =.8.9.W U Y T Y y.~.#Xp.7XpX3.{ ] q m 9 d ~ 4.] ~ %.z.k.&X$.f 4.~  .M + $ 1 < < < < 4 < 5 4 1 2 5 5 3 3 4 1 1 2 1 2 2 2 2 2 a 2 2 g 2 * 2 2 2 2 2 2 g 5 5 t z *.z.p.} [ / / / _ [ #.#.} } %.p.d.f.n.f.,._ x q # $ X O O O < : : O O O : : : < H o.Y I P T P P m T ] P P P P l l l m s '.5X;X$.5.,X' p ] 2.g.iXiXN.p.2.h.p.aXaX{ ] m 7 g 3 1                       . . X o X % $ O $ $ $ & & % & 2 2 2 2 3 3 = t g i i i i 5 g j F j 3 2 2 2 2 5 2 i t ",
"G F K K Y F.F.R.R.F.P.R.R.9.F.J./.(./.R.F.D.9.t.9.7.9.t.:.F.G.R.J.J.H.Y.I.I.W.[.Y.H.t.t.I. X@X%Xp.5XiX2.2.] e M w w ~ 3.' ~ $.z.z.&X$.c q.` ] M . $ $ < 1 4 5 5 5 4 5 5 1 4 1 4 3 3 2 4 4 4 2 < 2 2 2 2 g 2 2 2 2 2 2 2 2 2 3 2 t 5 j y O.5X%X} ! ~ ! / [ #.%.$.#.%.6.d.h.n.n.b.p.[ ! p 9 v 8 @ @ O $ : : : : : : : : % k o.X.I P ] m m m m P m P l m l k l k 0 N.5XM.` 6.2X] p m 5.g.;XaXN.p.p.h.p.iXiX] 4.c 7 0 t t     .       X X X X % O $ % & = & 1 3 5 i g g g j j j g g l U Y P T =.7.9.+.W W Y G j a a 3 a j 3 2 g I T ",
"G U U 9.qXVXtXqXqXeXtXVXqX)..XqXfXgXfX8XG.J././.W.}.8X<X+XqXtXVXzXgXgXgXgXgXgXgXVXzXgXVXxXgX%XM.p.5XiX2.2.' e M 9 w ~ $.' Q $.z.g.&X3.~ j.] ' M + + $ < 5 4 1 5 5 4 4 4 4 5 1 5 3 2 1 4 1 < 1 2 2 2 2 2 2 2 g 2 2 2 2 2 2 2 2 g 3 5 5 g ^ rXhX:Xn.a.$.[ #.%.$.%.%.p.p.f.n.N.@Xn.k.} / Q b O.z y 3 * $ : : % % : % : : O g T I I P T I m P P m P m m l g k l l 0 T.iX%X3.a.2X[ p c 2.g.$XiXh.p.2.h.p.iX$X{ ] m 7 t t 1 .   X o . X % & & 2 * g g j k l l K P T +.Y T Y T 9.8.+.+.9.t.t.H.H.H.W.[.R.=.-.9.Y j < 5 3 G j < j =.F..X",
"G U -.+XCXCXzXtX8X<X).<X8X/.R.).+XXX).Q..XXXXX3X3X8X<X9XtXtXeXeXeXwXXX0XfXdXdX0XeX3X|.gX9X4X_.@Xs.5X5X3.3._ q b 9 w ~ $.` c { j.j.&X6.f 5.X. .M + O 1 4 1 4 4 5 5 1 5 4 1 4 1 1 2 2 < < 1 4 4 1 2 2 g 2 2 2 2 2 2 g 3 2 2 2 2 2 3 3 g t ^ 5XlXaX5X#Xh.p.a.%.3.3.a.p.z.n.M.@X@Xn.d.,.[ _ ! ^ ^ z b h # $ : % : O : % % $ 2 T T T P ] T m m P P P l m g l l k k q x.5Xn.~ >.,X' e c { g.;X:XN.2.2.h.p.iX;X_ 4.` * r i 1 . X   . . X X & = t g l l n H P P I T +.+.+.+.=.7.w.u.w.7.0.9.7.i.w.i.I.}.(.I.F.t.+.K = & a G l l -.t.Q.8X",
"K F./.tXZXCXzXtXeX).^.)..XP.y.).<XXX(.XXCXVXgXgXgXgXeXgXtXtXtX8XXXQ.{.{.XX|.^.Q.x.I.H.Y.r.]._.~.3.:X5X{ 3.` 9 n 9 w Q 3.` ~ ] j.s.&X6.f x.6.X.M . O < < < 4 4 5 4 1 4 5 4 1 1 5 5 3 < 2 4 < 2 2 2 g 2 2 2 2 2 2 2 2 2 2 2 2 2 g 5 3 g z ' 5XlXlXlXpX:XN.b.g.s.s.z.n.M.#X#X#X#X@Xh.p.,.a.6.....` x x 8 $ $ : % o % : % % & P T ] ] I I T m P P n P l l s l g g h T.:X&X*.*.4X[ e c { g.;X:X#X2.2.g.g.5X;X{ X.c 7 r t = X X     X . X * t K Y =.T k k -.9.+.=.@.=.7.9.t.i.I.W.I.7.7.-.+.@.t.t.I.W.{.XX).t.F.Y $ . < F j =.9.I.8XeX",
"U (.XXgXzXtX<X^.).P.P.Q.).t.:.(.).)..X)..XW.I.(.XX|.Q.x.>X).).<XXX{.{.Q.i.0.i.E.i.y.y.0.4.^.N.M.p.5X5X} 2.' e x 9 s c X._ c ] a.k.&X%.f 4.' ..M + + < 1 1 1 1 4 5 4 1 4 4 1 4 5 4 2 2 2 1 4 2 2 2 2 2 2 2 2 2 2 2 2 2 2 2 2 2 2 3 g g 4.v.:XmXmXlXjXpX:X;X#XN.#X#X#X#X#X%X%X%X@Xn.h.d.#X%.w z ` ] c z r * & % % o ; o % X g T T I I I I P P n P l l l g g g h 0 U.2X%X5.5.,X#.e _ ] g.;X5Xn.2.} g.p.:X:X{ X.~ * t t 1 X . X X X X X $ = t y k n k k J K n J Y Y v v U T 7.9.7.+.O.@.7.i.t.t.>.:.I.XX(.G.F.Y <   % 5 j =.9.U.8X{.",
"R (.<XgXtX<XE.q.P.).).I.-.9.9.R.8XeX8X(.G.7.t.y.I.I.r.y.E.E.).).{.8XXXI.Y.0.P.Q.0.M O.y.q.c.M.~.3.;X:X3.3.' 9 M 7 w ~ X.` f ' j.j.>X&.~ l.#...L + + < < 5 < 1 4 4 4 4 1 4 5 5 4 < 4 2 4 4 1 2 2 2 2 2 2 2 2 2 2 2 2 2 2 2 2 2 * 0 h ` _.N.iXlXmXmXlXlXaXiX:X:X:X*X=X;X%X%X*X%X#X@Xh.$Xh.s./ s.{ s.~ ^ ^ z t = & X % % % X g T ] T I I I m P l n l l l l g g g q m.2X@X' *.,X#.e c { g.#X:XN.2.} z.p.:X;X{ 4.m 7 t t 3 @ # 2 3 & @ X @ & * * t t y k n n J J o.+.g 0 h k J @.@.@.+.=.t.Q.I.t.-.-.0.Q.{.I.-.=.i . % 5 u ;.t.Q.<X^.",
"Y .X3XgXrX>X).0.t.P.Q.t.o.F.>.G..XqX/.-.L Y -.=.t.:.P.(.).^.^.I.E. X{.R.i. .i.R.&.L 0.O.0.c.M.M.s.5X:X{ } ] w M 9 w _ X.~ d ' a.a.%X%.x j.#.) L . O < 4 5 4 4 5 4 r 4 4 5 4 1 1 < < < 2 1 1 4 2 2 2 2 2 2 2 2 2 g 2 2 2 2 3 g s ] r.5.N.N.aXlXmXnXcXlXlXjXpXaXpXpX5X:X:X=X=X%X#X#Xn.$Xd.n.n.p.} p./ %.6.&.` x k 3 & % % % 0 T T ` I P P P l P l l l l g s a g q T.1X,X#.*.,X..p c ] g.;X:Xh.2.{ g.g.5X;X] X.m 7 t r * # 2 * = X . @ & 1 8 * 0 t y k k J J J -.+.k g l n J +.+.+.-.-.-.R.l.G.>.:.0.i.i.t.:.Y 3 . o < i Y =.(.<XQ.",
"U (.XXrX>XQ.U.i.y.P.P.>.t.9.o.G.G.G.:.K r r p H p L P.).).I.P.P.I.l.).). .z r.{.y.-.b p | 0.m.M.s.;X%X} 2.' 9 M 9 w Q ] ~ d ` a.6.].%.d &.&.] M @ + < 4 5 1 4 1 i 4 1 5 5 1 5 4 2 4 < 4 1 4 2 2 2 2 2 2 2 2 2 2 2 2 g 2 g g l r.m.c.s.#X;XaXlXmXmXlXlXlXlXlXlXjXhXpXiX:X$X$X$Xn.g.g.N.n.@X$Xd.h.p._ s.d.p.3.'  .P 3 < : % & J o.4.P P P P l l n v v k h j g h y m.;Xn.^ *.,X..p c ' s.*X:Xb.5.{ z.d.1X;X{ X.M 7 u r t + = * & + X X * 0 g 0 t y k k v n J U =.o.h = k n K o.| o.:.:.-.F.u.P.:.:.0.>.0.I.G.K # . . % 2 T 7.}.}.w.",
"K F.U.4X`.x.P.r.P.R.G.-.o.o.o.9.-.>.t.v u | -.:.F.P.I.).P.>.P.P.P.y..X3X:.@.Q.XXi.L y M M *.~.M.a.:X%X} %.' e M 9 w ! ..~ x ' 6.6.~.&.d r.5...L @ $ $ 1 5 1 1 4 4 1 4 r 4 1 4 1 4 < < < 2 1 1 4 2 g g 2 2 2 2 a 2 2 2 g l m c.m.5.2.g.$X:XkXsXnXMXlXlXnXlXlXcXlXjXpXiX5X:X$XiXN.5.5.b.h.n.#XN.h.g.h.N.s.m.v.l.w.U j 5 2 < $ g T ` P P m P l n l k j h j h h y q U.;X%X[ 5.>X' e c ' 5.%X;Xb.2.{ k.d.:X;X{ X.` 6 r r u & # & $ @ X X & 3 t h i h k k k v u u Y Y h g k J o.o.L o.-.-.-.>.y.:.:.:.0.0.-.E.W.J $       & P 7.W.Y.4.",
"U t.I.4X^.U.U.y.P.G.F.>.o.v b o.o.-.F.-.y./.E.R.Q.Q.).).P.P.).E.P.U.9XtX|.<X8X8X:. .o.l.i.l.M.M.p.5X;X{ 3.[ 9 M 9 w x ' ~ f ` 6.s.!.5.e X.] ] L + $ < 4 5 1 4 1 1 1 4 4 1 1 1 4 4 < < < 2 2 2 1 2 2 g 2 2 2 2 2 2 a F P T m.2Xc.2.b.N.iXaXlXlXmXmXmXvXlXmXnXcXvXlXhXpX5XiXiXiXh.7.m 4.p.h.$Xh.:XlXaX;XN.&X3XW.E 5 2 < i F 2 = K T I m P l P l l n k h u h y t 0 x.*Xk.~ 3.&X/ q m ] s._.;Xh.} { z.s.:X;X{ X.^ 7 u r u + # X @ * & = * & = 0 t h u k y u 0 8 v o.k t K +.o.Y L O.o.v =.-.:.t.t.>.0.-.:.Q.W.K * .   o & l J R.Y.0.",
"l W.<X9X~.E.P.i.P.P.P.y.o.K o.-.-.G.:.-.u.(.).).).E.E.P.R.).).I.P.E..X<X{.`. X X:.k.P.U.l.m.~.@Xp.5X1X%.{ _ 9 M 9 w c ../ f / 6.6.!.$.e 4.6.X.M . $ < 1 4 5 1 4 4 4 1 4 4 : 4 1 < < 2 5 5 1 2 2 2 g 2 2 2 2 2 g F R 1.T }.iXiXiXn.n.#XaXaXlXlXmXMXMXnXvXmXmXMXmXlXkXaXsXaX:X$XN.4.k 4.2.f.#X#XlXvXjX$X_.dXW.K F l G H U =.U j j U I T P P m m l k h h h j y y 0 x.&Xm.' $.]...e c ] s.'.:Xh.2.{ z.p.1X;X{ ] ^ # r r r + & * * < & & # * = t t h k h j v n k K o.v t J Y o.=.-.-.=.=.-.t.y.y.y.P.i.l.P.Q.W.L &     X % P u.Q.E.y.",
"H qXtX4X^.l.r.i.R.y.y.9.| -.9.9.t.:.v o.R.)..X).).E.P.U..X).I.P.Q.E.r.0.q.r.<X0X^.^.).U.j.!.M.M.,.5X*X} } ' 9 b 9 w x ' ~ f ` 5.r.!.&.s 4.3.X.L + O < 1 4 4 < < 4 4 1 4 1 1 1 < < 2 5 5 3 3 = 3 2 2 2 2 a a F R R R 1./.iXiXlX$XN.#X#X:XaXlXvXmXMXMXMXMXMXMXMXMXmXjXkXaXiX#XaX$Xc.5.g.h.h.p.kXDXlXaX5XdXR.K F G E J.F.Y E E R C a A U T +.I m M k h h g t t i 0 i.&Xm.` X.].` e c ] s.N.;Xg.2.{ f.p.1X;X[ ] ` 6 r r = + * & & = 3 * # = * t i y u k J J J L L Y k 0 u H  .:.E./.E.R.(.).).E.E.(.).).).).E.I $     X & 9.(.Q.E.i.",
"-.eXeX<XU.l.P.y.G.>.O.o.=.F.E.P.y.-.-.J.E.).).).).E.P.E.).U.i.I.P.P.G.i.U.T.|.8X).P.E.I.U.].~.m.a.5X*X{ { ' e b 8 w Q / ~ f _ 5.s.m.$.e &.5.X.L . @ $ < < < < 4 < 4 1 1 1 4 < < 2 2 2 3 2 2 2 3 2 a a A A R Z.1.1.1.K.wXiX:X:Xh.n.b.p.N.:XlXlXMXMXMXFXLXKXDXLXvXaX#X$XlXaX:XaX:X;Xh.h.n.h.hXHXlXiXkXdX[.E G R ;.=.o.;.G G D C B Z A A l T I o.m b k y t t t r 0 r._.s.d 3.]...w c ] s.N.;XN.2.{ z.a.1X*X{ X.` * u t t + * * & = = = * = t y r k v v J n J J J v r 3 y J o.+.G.G.G.R.R.E.R.R.E.(..X|.|.Q.W.o.$ .   X < F.W.I.P.7.",
"F.eX<X~.x.y.l.y.t.-.-.:.y.t.R.P.y.t.R.>.P.(.).<X9X8X).).^.E.E.E.Q.E.I.P.Q.P.l.U.E.U.E.^.~.!.N.b.3.;X%X{ 2.' 9 b 7 w c ' ~ f _ 5.s.!.3.s 6.&.' M @ @ : < < : < < 1 4 1 4 1 1 < < 2 2 2 3 3 2 2 j P F D R R D.K.Z.1.D.+XkXN.N.$XN.N._ ` g.$XnXmXlXMXlXMXMXvXlXlX$XN.g.h.:XaX#XaX$XiXh.$XN.aXFXDXkXkXxXfX8.R K D.G.=.W =.A A V B B V C A a H T o.o.I z y t r r 3 8 r._.j.` &.].` w f ] 5.'.;Xm.2.] d.k.:X*X{ {  .6 r r t @ @ & & * & & * = t h y k k v v H J J u r h k J L o.o.-.-.@.-.-.-.O.>.i.P.E.{..XQ.R.Y * o   X = F.E.y.-.O.",
";.qX<XU.T.U.U.P.>.o.:.P.t.P.E.R.t.P.R.G.E.).E.).<X.XQ.).).Q.{.{.).^.E.i.i.I.U.!.|.).). X>X].m.m.p.,X_.] 3._ 9 b 9 e d ` ~ f _ w.5._.4.d X.] ' J . $ $ < < < < < < 1 < < < < < < 2 2 3 3 2 3 < =.OXE R D Z.oXL.1.1.L.xXiX$XlXaXn.c.4.4.h.$XaX:X:X$X$XaXiX$XaX$XN.4.I g.#X:Xh.aX:X#X#XaXiXlXFXlXaXcXfXJ.E R K.D.Z.D.D.V.D V V B 4 D K.L.oXL.8.F.+.I n h 0 t 8 t 8 y.N.j.c ' '.^ q f ] s.N.#Xg.{ ] s.s.;X*X{ X.` 6 t u = X X X $ X * * * t h k u u k k k v H J y u k v H J =.o.O.-.:.@.&.O.-.:.:.y.I.E.|.).I.P 2     o = F./.0.>.0.",
";.eXqX!.>X|.Q.P.:.>.G.P.y.E.E.R.t.R.W./.Q..XXX.XP.U.|.tXXX).XX{.{.{.).).<XqXP.P.|.>XQ.).T.~.!.~.p.,X_.{ { ' e b 7 e d ' c f ] 5.6.m.$.x r.] ` n X X % & < < < % & 2 2 & 2 2 2 3 3 3 3 3 1 2 5 K.K.R D R OXuX[.1.D.fXxXiXkXKXvX$Xh.p.p.h.$X$Xg.g.g.#X$X$XaXlX:XN.w.P 2.h.$X:X:X:X#XvXDXhXkXlXiXfXzXOXD.A G L.J.R Z.Z.D V V B A oXoXOXV.Z.;.C D.L u K p u r 0 = = y.~.m.x ' '.^ 9 c ] 3.N.#Xg.} _ k.p.;X*X[ ] ` 7 u r r . O + O @ & = 0 t i h k v u u J u J J u i u J H L L o.-.7.@. .7.0.7.0.-.w.i.P.|.).I.J &     o & F.^.y.i.i.",
"-.+X3X3X<X).E.i.t.F.F.I.R.R.R.G.G.(.).{.).).{.).P.P.)..X^.).Q.E..X<X{.).9X).y.l.).<XI.I.U.~.m.m.6.,X_.{ 3._ 9 M 9 9 f ] c f _ 5.6.'.3.d 4.3.] n @ X % & % < < < % 2 % 2 % 2 2 * 3 & 3 2 4 4 E oXV.A D V.D.}.1.1.L.kXiX:XMXKXMXN.h.@Xh.#X$X#X4.h ] p.h.$XlXkX$XN.w.5.g.h.$X:XiXiXkXDXkX;XlXkXkXxX+XZ.1.oXL.L.OXK.Z.V.Z V C Z.oXOX;.C C B.D V A 4 5 u u u h r = 8 r._.v.^ #._.^ w f ] s.N.#Xh.} { k.p.1X*X{ ] ` # r u r o $ $ # & 1 t y k h h k k v v J J H L v u u u v K n @.7.+.@.+.@.9.@.:.-.y.i.i.E.).I.J =     o & F.W.l.l.y.",
"=.qX8X8XXXE.G.t.t.o.o.G.E.P.P.P.E.{.E.W.Q.Q.P.).8X<X X).)..XP.-.).XXE.U.Q.P.3XtX8X^.P.P.x.].m.m.6.*X_.{ 2.' 9 M 7 9 x ] c f _ 5.5.!.X.s r.5.` n . X @ & % < % < 2 & 2 2 2 2 2 2 3 2 2 4 C A A.K.V.A V.1.D.1.1.D.uXvXiXkXKXKXFXiX$X#X#X$X$Xb.m T ` g.h.$X$X:XaX#Xg.g.h.h.h.$XkXDXKXKXkXiXkXaXvXVXoXR K.OXJ.J.+XZ.A.S V C Z.uXK.D D B.Z Z D S N > : < j k h r = 8 r._.v.! X.].^ q c ] s.N.*Xg.{ _ d.p.:X%X{ ] m 7 u r r O $ & $ $ * = 3 k J J L Y -.;.-.;.o.Y J v t t L -.t.W.i.7.7.@.+.m J 7.O.0.y.i.^.).i.J 1     o $ t.R.P.l.y.",
"W XX9X0X<XR.>.:.O.o. .-.(.G.-.P.E.i.Y.Q.U.P.P.^.eX9XXX|.8XXXq.y.E.E.I.Y.P.P.>X8X<XP.P.>.q.U.b.m.p.,X&X{ 3.c q m 9 9 x ] c s ] 5.q.N.X.s  ._ ` M . X O & < < % < & 2 & 2 & 2 2 2 2 2 C D D D A.Z.R A A.1.D.1.1.J.fXlX;XMXKXKXvXaX$X6X$X:X#Xg.P P 7.g.h.$X$X$XaXaXN.N.N.h.kXLXIXIXIXKXKXlX:XkXZXOX1.E oXuXOXoXOXZ.A V S L.uXS.oXS.Z S S V Z B.V N ; : : a k i t 8 r._.v.~ [ ]./ w x _ 5.%X*Xd.{ ] a.a.*X&X{ X.m 7 r r 1 + $ : $ $ $ * t j L U J L ;.-.9.-.o.Y v v r = J -.t.(.i.7.-.+.+.k k o.@.=.0.E.{.I.O.i = .   . & u.Q.I.I.w.",
"W 8X8X>X<XI.P.O.L o.=.t.F.G.P.W.R.I.R.R.P.E.Q.I.I.).tX.XI.t.I.).{.{.|.XX).)..XE.t.>.t.E.>X4Xb.b.s.2X2X} 3.` q ^ 7 e d ` c s c 5.6.m.] c w.{ ] n X X % & & & & < & 2 2 & & & 2 2 2 C D D S S A.L.R V.OXL.1.E 1.}.xXiX;XLXKXKXZXvX5XAXjX#X#Xm.4.m s.g.p.@X#X#X$X$X$X$X$X;XDXIXKXKXIXIXMXhXvXZXuXoXE Z.D.L.8.L.L.D V Z K.oXoXA.S.B.Z Z B.S Z B.Z Z B ; o < i j y 9 r._.b.^ #._.^ q c ' 3.N.%Xs.{ _ g.3.;X%X_ ] ` 7 r r r . $ $ X X X $ = = y u r y U K v u v K u v y u j v o.t.t.7.=.o.o.k J o.=.+.:.P.E.0.v = &       $ F.E.i.i.y.",
"=.+X<XqX8XE.:.o.J ;.-.>.P.R.R.(.E.R.I.i.t.y.G.I.I.).9X).O.J I.Q.).<X|.).).).).Q.G.b +.E.0X4Xb.v.s.2X2Xp.3.] e L 9 9 d ` c s c 4.r.c.{ s 5.4.` M X X X 2 % < < < 2 2 & & 2 2 & & 4 A B.Z C A OXoXA V.oXuX1.1.D.+XhX#XlXKXKXKXvXiX:XKXmX$X#Xh.z.b.h.N.h.h.$XaXaXaX:XMXlXiXDXIXIXIXIXKXkXkXZXxXoXZ.oXVX/.1.L.L.Z.V N Z OXL.A.A.B.S Z Z S C.Z Z B.Z > , : : 2 u j 9 j.].,X^ #._.^ q d ' 3.%X$Xd.{ _ s.5.;XN.{ ] ^ # u r 1 . 3 $ X X X @ & 2 1 = & t u u r 8 u v v K k v k y n +.=.=.=.9.+.k J +.-.-.-.i.I.| y 3 <       $ F.E.i.i.y.",
"W +XqXeX>XP.y.J L -.J./.R.P.(.E.R.I.P.y.i.y.P.P.G.P.Q.E.).).I.P.I.E.i.:.l.i.i.P.G.E.Q.:.r.^.m.v.s.,X%X2.4._ s M 7 q d _ c f m 4.5.v.4.c 4.] ` n X X % & % 2 < % 2 & & & & 2 2 2 A V.S Z S A D.A.R A.1.L.D.1.+XkXiXiXMXLXKXLXcX$XaXPXlX:XkXN.p.h.h.h.;XkXFXPXMXaXkXKXvXiXDXIXIXIXPXDXvXZXZXOXK.K.fXxX/.A K.L.D V V.+XOXK.A.B.Z N N Z Z C.S Z B.Z > > , ; : 3 i y q._.j.w ] ~.` q c _ 5.#X;Xd.2._ 6.s.*XN.{ X.` # u r 1 . @ X X $ & @ & * = t r 8 r r u r v o.| Y Y =.P g g k k k P Y l T ;.-.-.-.:.t.G.u # & < .     1 F.W.P.E.y.",
"=.XX<XqX).y.:.K ;.9.-.G.R.R.P.G.G.I.P.P.G.I.P.G.P.P.i.P.8X3XE.I.l.r.i.l.>.y.l.U.(.XXQ.0.q.!.m.m.3.2X&X{ 4.] q ^ 9 q z ` f f c 5.5.c.{ c 4.] 4.m X & & & & % 2 & & & & 2 2 2 2 4 D D V D D A oXZ.R OXOXL.K.w.kXiX;XMXDXKXKXKXLXkXmXPXhXn.hX;Xh.;XaX5X*XmXPXMXlXlXLXvXiXiXDXIXKXKXLXvXZXZXuXL.R L.[.fX/.a Z.A.V , oXoXF C B.Z N ; N N Z B.C.B.B.B.V > , > , < i 9 q._.!....._.^ 0 f ] 5.N.$Xp.{ _ s.5.*X#X] ] c 7 r t r X X X . $ % * = * 1 r = = r = r r K o.L K +.9.J 0 h k g g g k J =.=.+.-.t.i.y.-.u $ = $ .   o 3 F.R.I.E.:.",
"=..XXXeX8X{.R.W.R.:.F.P.).R.G.P.G.G.P.P.P.y.F.I..X{.I.E.E.q.y.i.y.P.E.I.l.Q.U.E.G.P.-. .&.v.m.m.a.2X,X$.3.' q m 7 q f _ f s f 4.5.c.] c 4.c X.M X @ & & < < < % & < & & < 2 2 C V.Z D B.V A K.R Z.+X+X8.Z.+XkXiXcXKXKXKXKXKXFXlXMXKXDXN.N.iXn.aXDXiX;XKXDXvXZXKXKXvXkXvXKXIXKXGXkXhXvXxXoXZ.G L.i.7.Y V.K.D V K.uXV.Z Z D B - - > N N S C.B.C.C.S B , > , % 5 r q.N.j.! ..~.^ q f m 3.N.:Xg.{ _ 3.3.*XN.{ ] ~ 7 0 t 1 @ X @ O $ X * & * t i # 8 k u i t K Y | K +.9.Y L o.T K H J k j k Y  .+.y.i.P.u.k X O X   o X 3 t.F.P.I.P.",
"E J.T.eXgXgX8X8X).R.G.XXXXR.G.P.R.R.G.F.G.y.:.XX8XE.I.I.i.0.y.y.y.l.P.q.r.E.I.l.y.&.b z  .l.m.m.p.,X*X%.3.' q m 7 0 f m s e c 3.4.j.' ~ r.3. .M @ X < % % < 2 & % < < < 2 2 % A S S B.Z V 4 A.R K.[.oX1.u.xXhXiXFXKXKXKXKXKXFXlXvXLXLXMXiXN.h.iXiX;XvXDXvXZXKXIXIXKXIXIXKXKXKXvXhXhXVXuXK.R K.[.[.J.L.K.V.V B.oXV.Z Z Z S > - - - > N Z B.B.C.C.B.B > , ; , < 8 6.!.v.c ] ~.^ 9 z _ 3.N.:Xg.{ ] s.s.;XN._ ] ` * y t 1 . X $ $ $ @ X X * t i & y Y Y J k u Y o.o.Y 9.;.=.9.-.Y  .Y n v k n =.-.y.P.G.t.i X X X   . % 2 =.+.F.{.{.",
"U 7.l.0XrX8X{.H.F.W.E.XX).G.G.P.G.:.@.-.:.-.E.eX8XE.I.I.y.:.F.i.i.l.y.y.P.I.r.P.0.:.@.O.O.0.m.b.a.&X*X{ ] ' 9 M 9 7 s c f s f 4.4.j.] z X.] ` n @ O $ & & & % % % < < < 2 2 4 V.B.B.S B , A Z.R L.[.L.8.OXvXiXkXKXPXKXPXKXKXLXlXlXLXKXKXvX'.iXMXDXKXDXvXDXIXIXIXIXIXIXIXIXKXKXhXiXxXVXL.R E oXOX+X[.L.D.D C OXA.D N V Z V > - > > N N Z B.C.C.C.B.Z > > , ; , 1 q.m.].~ ` !.^ q s _ 2.N.;Xh.2._ 3.s.%XN._ ] ` * u r 1 . X X X $ X @ 3 0 i y u v J L t.t.o.o.:.;. .=.o.L o.o.o.o.Y L n j  .t.y.R.E.0.m * + X       X 2 =.o.F.{.).",
"o.J.U.3X<XT.I.I.y.).eXW.t.>.F.F.t.:.+.o.+.G.gXtX.XE.Q.P.>.@.>.:.0.y.i.y.U.l.y.l.i.:.0.r.O.@.m.v.a.*X*X} ] ` 9 c 7 9 s m f s ~ X.3.r.` s &.5.` b . $ & & & 2 & & & < & < 2 & A C.B.Z V Z , 4 R R D.K.K.K.xXgXiXKXKXPXIXPXPXPXPXFXkXKXLXKXKXiXaXPXUXDXkXKXIXUXIXIXIXIXIXIXIXKXvXkXvXCXOXD.R D.[.Y.[./.J.V.Z D V.V.Z V V Z N - - - N N N Z Z B.B.C.B.S , > ; , : 1 0._.v.z ..~.^ q f ~ p.n.%Xg.{ _ 3.3.%XN._ ] m # r r r + $ X . X X & k l k v K v u L F.F.o.| ;.-.+.o.o.o.=.o.Y o.I k t y o.R.I.XX).+.h * # @     o % 2 T 9.u.Q.Q.",
"U o.0.<X|.x.|.P.-.(.).P.G.G.y.t.:.-.;.+.t.P.).P.l.E.^.I.i.P.y.y.P.P.G.:.0.&.q.i.0.y.E.Q.l.j.v.z.5.&X*X$.#.' 9 M 9 7 w ~ f s c X.X.r._ s X.X.` M O X & & 2 2 % & < & & = 1 < B.B.B.Z V Z ; a R R 1.1.D.}.xXiXkXPXKXIXIXIXIXIXIXKXvXDXLXDXZX$XkXKXMXlXFXPXIXIXUXIXUXIXIXUXIXKXhXcXZXfXK.E K.1.J.8.8.L.Z.A A K.B.B.Z Z B V > - - ; > N N N Z S B.B.B.Z V > , ; , & 0.!.!.~ ' !.^ q f ~ 3.b.%Xd.2._ 6.p.%XN._ { ` # y u r + @ X @ X X @ * t k v J v J L o.=.L o.:.F.O.o.=.-.o.o.Y o.+.v k J -.).Q. X).| y 8 & *     o & 3 H T J.(.I.",
"U K o.<X0X0XXXi.I.I.P.P.P.R.G.-.-.-.-.G.E.E.t.G.).).Q.Q.P.G.G.G.P.G.t.:.w.0.0.:.0.E.)..X^.v.k.z.%.%X%X[ { ' w M 9 7 s ~ f f _ ] 4.r.` f X.X.` n X X % & & & & & & < < 1 4 5 B.B.Z Z V V , 4 R 1.D.1.1.fXkXN.vXIXKXKXIXKXKXKXKXKXlXZXKXvXiX#XvXMXvXLXUXUXUXUXUXUXUXUXUXIXKXvXkXvXZXL.8.Z.OX8.l 1.E K.R C C B.B.B.Z B > > - > ; N > > N N Z Z S Z Z Z Z > ; ; ; $ @.!.6.c ' !. .q x _ 2.z.%Xh.} _ 6.s.%XM.] X.` # r u r . @ O $ $ @ @ & = h P Y L | L o.o.o.=.F.9.-.o.o.-.o.Y L U o.k n I :. X).).Q.J 8 8 = & X   X & 5 j y t.{.^.",
"E =.-.8X9X|.).t.F.G.G.P.G.G.-.-.o.-.>.).[.Q.:.G.P.R.Q.Q.P.y.:.-.O.0. .M o.7.:.:.i.P.Q.).!.U.l.k.%.%X&X{ 3.' w ^ 9 9 e c c s ~ X.$.r.] z 4.3.` v X @ & & & 2 & 2 < & 1 < 4 D B.Z S V V Z % A 1.Z.[.L.w.fXkXiXvXZXvXvXKXZXvXvXxXvXkXkXvXvXkXkXMXlXDXLXDXKXKXKXKXUXIXUXPXKXvXkXxXZXfXK.E E L.+XL.U E K.A C A.V.B.S V N > > > N N N N > N N N Z Z Z V S Z > ; > > O 7.!.!.^ ] !.' q b _ } b.%Xh.} _ 3.s.%XM._ { ` 7 9 u r + + @ @ O @ @ * g k n L  .Y L o.o.o.=.P.G.-.K o.G.9.o.L L Y j J  .-.).^.|.^.b 0 8 * = X   X % 5 l J 7.Q.P.",
"K U =.{.{.{.XXG.-.G.F.-.>.-.J Y -.F.).).).).F.G.:.y.I.E.{.I.w.o.=.=.I J o.t.y.i.Q.(.Q.E.U.T.j.d.$.@X&X} { ` q M 9 7 d m c d c ] $.r.' s ` X.` b @ X % 2 % & & & = < 2 < A B.S Z S V V D , R 1.1.u.w.Y.fXhXkXvXvXZXZXxXvXZXZXvXcXkXkXvXvXvXvXkXlXkXlXkXMXMXvXvXkXGXZXvXvXkXdXZXZXoXK.R R 8.u.L.E G R C D A.S B.Z N ; ; ; ; N V N N N N N N N V V Z S S , : ; > O 7.!.k.^ ' ~.| 9 z _ } M.%Xd.[ _ 3.3.N.z._ { c 7 r u r + $ $ X X X X * g k n J J b J Y -.-.-.R.R.>.-.-.G.y.o.Y Y L y L -.y.E.|.|.E.v 0 * & & X   o < 5 H J 7.P.i.",
"U Y 7.E.(.{.XXG.:.-.;.9.G.=.J -.-.E.qX.X).{.P.G.P.G.R.E.(.E.y.-.+.+.Y P 7.G.P.E.I.Q.E.Q.!.!.k.k.%.%X%X[ { ' 9 b 8 8 e ^ f d c 3.$.r.' e @.5.m b @ . $ < & & < & = < 4 C D B.S V S B Z S , R L.W 1.8.+XxXZXZXZXZXZXZXZXGXGXZXZXZXvXvXZXZXZXZXZXZXvXkXZXZXKXvXvXkXvXkXcXvXkXkXZXuXoX1.D.[.}.w.1.T 4 C D V.Z D B.V > - - - N V N N N > > > N N N Z Z Z Z N ; : > : 7.!.'.^ ' `.^ q z _ { z.%Xs.[ _ %.%.M.k.~ ] ^ 6 q y r @ O X X X O $ 0 y u J L v J K Y o.Y  .-.t.:.>.>.Q.F.o.o.o.L n Y w.l.U.|.Q. .0 r 8 * $ X   X < j H P t.Q.I.",
"U T -.E.Q.XXqXI.-.Y v L :.o.o.-.o.(.gXgXqX<XE.P.R.P.R.P.E.R.>.9.=.W P +.I.E.I.I.E.Q.U.l.x.l.j.j.%.!.%X[ $.` 9 b 7 9 x ^ f s c ] $.r.` s ` _ ` b . $ $ $ & & & & < , A D V S S B Z B B C , G D.8.L.Z.oXfXuXuX+XOXOXOXOXuXuXuXuXuXuXVXxXfXxXVXZXZXZXZXGXGXGXZXZXZXZXkXkXvXZXkXVXOXK.1.oXOXL.w.1.K.[.U C D V B.B.N > - - N V Z N N > > > > > N N N Z Z Z N > > : $ 9.!.m.d ' m.^ 7 z ' { s.M.d.{ ~ $.3.m.b._ X.^ 7 r y 1 @ $ X X & g j k j u J L L p p J  .v z z M >.R.I.).P.o.Y o.o.7.@.I.!.^.Q.Y # & 0 * @ $ X   X < a l J t.Q.i.",
"T 8.9.W.I.XXXXF.-.Y U -.R.F.t.i.E..XqXtX8X.XR.G.P.G.y.P.I.G.F.=.o.I k 7.G.w.I.I.E.I.i.U.T.!.z.k.$.~.~.{ } ' 9 c 7 7 x _ c s c ] { 6.' d 4.4.` n @ X & & < & & < 2 A D V B S B B Z B B V B F K.;.D.1.1.K.1.Z.1.1.D.K.K.K.J.D.D.8.L.L.L.L.L.oXoXoXOXOXOXfXVXfXxXxXZXxXZXZXVXfX+XL.1.1.OX}.Y.w.T }.fX8.4 B.V B.B.V - - - V D V N > > > > > > > > N N Z Z N > > , : 7.!.v.` ' !.` 9 s ` { p.M.s._ _ $.$.M.m._ { ` # r y 3 @ @ X X % 3 g r r u J L L L L J v y L O.:.G.).I.U.i.+.o.+.7.w.y.E.).y.n # & g y = # O .     & 3 P L 9.W.Y.",
"K 9.u.Q..XqXXXW.F.:.t.(.tXtXqX8XqXqXqXtXqXeXeXR.G.y.G.).Q.P.F.o.K I Y =.L i.G.q.I.I.y.I.U.T.z.k.%.m.M.} } _ 9 M 7 7 z m c f c _ X.5.` b r.] ` n . $ & & & < & & 4 D V B B D B B C B > V , 1.OXW 1.1.1.1.Z.1.1.L.L.D.D.oX1.w.c.m.w.c.w.[.1.Z.L.oXL.oXoXJ.K.K.K.D.J.L.OXuX+X+XL.1.l 1.}.Y.w.1.P T H.F C D Z C.B.B - - N S V N > B N > - - > - - > N Z Z Z : , > : =.m._.X.` ^./ 7 s m 3.6.b.p.{ _ &.} m.m._ ] ^ 7 y r 0 X X X X X X @ @ + u v K o.Y Y L y L -.-.i.R.).P.I.i.:.:.G.i.i.x.Q.y.u 8 r j k y t & %     X % a U K t.I.E.",
"U -.G.).|.).).J.-.;.t.I.P.XX<X|.)..X8XqX8X8X<XG.q.w.0.i.).E.G.I k Y -.7.t.y.@.0.l.E.P.l.T.!.k.j.%.b.M.{ { _ 9 M 7 7 d c f s c ] $.5.` q c c ' n X @ * & 2 % % % 4 C B , B D B > V V > B , G L.8.L.L.J.J.J.8.L./.J.[.1.}.w.g.5.c.2.5.'.+Xw.K.OXJ.T E L.OXK.8.K.Z.D.1.1.1.1.1.1.1.T D.J.J.1.T }.fX7.% D D Z S.B.> - - B C B N N B N ; > ; ; ; - > Z Z S Z V > > % 7.c.j.` / !...8 z ` X.s.j.3._ / $.[ m.b.~ ' m 7 y u r . X X X % @ # * t u p K Y Y L v K o.7.e.P.^.Q.r.l.G.:.G.I.H.T.Q.H.m h 0 0 y g * * & &     o % j K L I.E.i.",
"U =.F.XX). .L :.-.:.G.t.=.F.P.G.y.P.(.(.E.E.R.P.G.7.o.-.P.F.7.y Y t.u.Q.I.i.y.P.I.E.E.I.T.U.j.j.$.z.b.{ { ` 9 M 7 7 q m h s f ] X.5.' s X._ ` M X & & & & 2 2 % 4 C , , V S B > V B > , 4 E /.9.m.+Xw.L.[.K.J.[.[.[.w.c.c.g.c.2.5.g.h.c.Y.Y.L.OX+X/.D.oX8.1.E D.D.1.1.R 1.R 1.1.1.J.D.D.U K.xX+XJ , B.B.B.S.B.B - ; > B N > B B N > > ; ; - - > N Z Z Z V > > : 7.v.z.` ..T.^ 7 e c 3.6.j.3.] ~ $.] m.z.Q ] m 7 r u r . @ @ @ & g * t P o.L L L Y o.o.=.Y v I @.@.0.i.E.I.p O.I.Q.{.Q. .0 3 0 0 0 8 * # @ X       < j K T J./.-.",
"U W G..XP.u u F.F.t.t.:.i.y.-.F.>.y.G.>.P.y.G.9.o. . .&.&.w.+.l @.y.I.G.y.i.P.I.i.P.E.Y.q.q.s.s.$.b.z.{ { ' 9 b * * 7 7 0 q x ` X.4.' s m ~ ` v X @ & & 2 & 2 % 4 4 V V V S B > V V , , ; D.OX7.w.+XJ.1.OXD.D.[.[.Y.c.c.5.g.] T 5.c.g.g.c.T OX+X+XOXD.8.u.K.OXoXK.J.1.T 1.1.1.D.w.L.K.U l J.uXP < B B.B.B.S.B.> ; ; > > > N B B > > - ; ; - - > N Z B.Z V B > $ =.v.*.^ / U.! 6 0 x ` 5.a.6.] _ $.] v.z.Q ] | 6 u r r X X & @ & g g k l K L u L =.-.o.L Y I P h M +.i.[.7.r +.t.w.y. .8 * * g 0 8 * @ & % X       < j K T i.y.v ",
"U =.;.-.b = F o.J b Y +.G.>.w.w.=.O.:.-.*.-.| | |  . .@. .@. .X.@.0.-.-.0.t.-.n @.i.y.0. .$.a.s.$.b.z.] { _ 9 n * * * 0 m q s ` ..5.` q 4.4.' n X % & & & & % 2 C V , , V D B > , V > ; , F L.8.=.D.w.w.K.K.E J.L.T Y.5.Q w.P ] w.g._ 5.N.w.OX[.[.OXJ.U L.[.u.L.OXoXY./.D.w.c.Y.J.T l l 1.fXD.2 : V B.B.C.S.B.B ; ; ; N N V V N ; ; ; - - ; ; > N S B.Z Z V > : +.m.j.' #.v.M 6 q x ' m.{ 5.' ~ &.X.m.b.~ ] | 6 r u r   X X @ & 3 0 h h v L J K o.o.r r g h l P v k v J t y J k g k g t = 0 g 0 3 & X X X X   X o < j K L L L r ",
"G G Y Y i t l J v h Y i.I.I.u.7.L o.7.+.+.@.+.+.+.O.7.9.0.w.w.t.7.7.-.+.7.o.y k o.@.o.Y m &.s.6.3.z.s._ 3.` 7 M * # * = n h s c  .&.` s  ._ ' b X @ * & 2 % 2 2 A B > N V D B ; ; , ; ; , F uX8.P T 1.1.G 1.E E 1.D.m.m.c.c.r.5.g.g.g.N.c.I L.L.J.[.8.1./.oXU oXoXw.w.H.u.x.Y.XXw.1.l J.[.[.l % , B C.B.C.S.D > ; ; > > B Z V N - - ; ; ; ; ; > N Z Z Z Z N N - =.T.].` ' U.| 6 h c r.j.] 4._ _ 3.] m.c.Q ] m * r r <     X * & @ * = g k J k J P k 3 = 3 * 2 g u i 5 = 3 g l g g j g j j i 3 2 & X X   o . . % & 3 j l H n k * ",
"F i i F & & = 5 g k I 8.9.=.Y J k P J n P J P T I U 8.+.Y +.Y k v H J J J g J T H k j l g  .r.s.{ z.d.{ { _ q z 8 # * k 0 q m ` X.X.~ q ` '  .b X X $ * 2 2 , A D > N B Z D V > ; : ; ; ; 2 oX8.U 1.R 1.1.1.1.Z.1.w.c.m.j.s.s.c.w.5.N.g.r.m 1.1.H E D.8.U oXT 8.OXD.J.w.i.i.H.+Xw.l w.}.1.2 % % : B D B.B.S.S ; ; ; > > Z S B N ; ; - ; ; - > > N N B Z Z Z V : +.m.m.M ' !.| 6 q ` w.5.r.] ] c 4.{ N.m.Q ] ~ * r r 1     . X   X X X O & 1 1 & & < $ X X X X X O $ % @ X % % O % X X X X   .   o       X o X X % 2 2 & & 2 & @ ",
"5 5 2 O X X % % & & 1 3 & & @ X & * $ X X X X $ X X $ & $ O X @ X X X o X   X X X . o X . b r.3.{ z.z.] 3.` 9 z 7 * * b v m  .M X.X.M s X.@.] b X @ $ & 2 , D B.C , > N S S A > ; ; ; : , % oXOXR D D C V C A V G /.m.s.] 4.] 5.] 2.c.] '.}.W R 1.K.K.1.E K.oXE T D.J.w.8.T F..Xw.J.+X+Xl o % % o , D B.S S.V > - - ; > D B.N > ; ; ; ; ; ; > > N N N N Z V N : +.x.j.^ ^ v.^ 6 q i.r.c. Xm ] m ' { m.c._ ] ` * r r 1                                                         . .   .           o o X X o X O & % < < & & $ $ X ",
"F G F F a j 5 3 5 j j 5 < % & % & % % O % % % X X % X X o   . .   .   . X X o . o     . X v s.r.{ j.z._ { ' 7 v * @ # 0 q  .c v  .X.m q ` ` ` n . O $ < V D R S B > > N D Z Z B , ; ; ; ; , 8.+X1.A S Z V V V R OXfXx.c.c.m 5.w.m w.c.5.x.J.[.D., , A A R Z.L.K.D.D.8.8.w.8.Y 9.J.+XY.g % o % o ; , D B.S C.B , - ; > B V.S N > ; ; ; ; ; - ; - N N > N Z Z B ; +.x...e M U.z = q 4.5.] _ c X._ ] ] c.b.Q ' m 7 u t 1                                   X   X o X   X . X o X . X X X o o X X O X % % 2 & < & < 2 2 2 2 5 5 3 & ",
"U U K G U G G F H G K G G H j u j j j 5 i j j a 5 3 5 5 i 1 & O O % & & 2 2 & % & 2 2 2 & M r.3.{ j.k.{ { ~ 9 v # # # g q M p b ` X.c q  .' ` b @ . % 4 D D S B , > > B D Z V D , ; ; ; % % 4 oXOXA.A S V A K.oXfXD.] w.x.w.N.c.5.w.c.m l l OXuXK.R ; , , B C A D R R D.8.Y Y /.gXQ.J < % o o o : ; V V.B.B.N N ; - > Z V.Z N - ; ; ; ; - - - - ; > > B V Z V ; o.x.x.z ^ x.z * q ` 5.r.X.7.] m $.{ b.z.Q _ c 7 u u 1                           . . o X o X O O X X % % & % % % % % $ $ < O $ 1 2 2 2 3 5 i 3 5 3 3 3 3 5 5 2 2 ",
"U U W U T W U l J U U W T T K H H G P H K E U K H J F K G j 5 5 5 3 a a 3 3 2 2 2 3 j l i ` r.3.{ j.a._ $.c 7 k # + # 0 y b y b ` ..^ z  .c M v . @ O A A V > > ; ; > > D Z C V , ; ; % ; % % U OXuXOXZ.L.oXuX+X1.g T g 4.s.g.g.5.5.l 2 1.a F 1.uXOXK.V., V V B , C a L.T W.fX[.[.v $ 5 % % o ; - : > B.A.B.N - ; N B B.B.N > - > > > ; ; ; ; - ; ; > > V Z B , T x.r.z ^ U.b * g I i.5.] 4.] ` X.$.n.g.Q _ ` * u r 1                           X X % X $ & * < % 2 & & 2 2 1 1 & 2 1 3 5 1 1 5 3 3 3 a 5 r 3 t 3 3 3 5 i 2 = 3 ",
"=.7.u.9.F.9.9.8.7.8.-.9.9.-.;.-.t.u.F.u.t.9.=.;.:.t.o.W W K j F a 5 j 5 3 n K n P I T I Y q.j.6.[ s.a.~ ] c 7 v # @ 8 v 8 z  .z M X.^ q ^ ` ` v . X , C V > ; ; ; ; ; , D V C B V , ; ; ; : , F 1.OXuXOXuX+XD.F 2 C 1.l 7.c.s.s.] l 2 R Z.A , 4 Z.K.VXOXL.oXD Z.1.R L.OX+X+X+XY 3 = F a : ; ; o o : , V V.S N - N V D V.V N > - > ; ; ; - ; - - - - > B V V V > o.x.x.M | U.b 7 z 7.j.5.] 4.] _ ] %.M.b.Q ` ` * u u 1       . .   . X $ X X O * = 2 = 3 3 g u i j j l H l G J H l j k K K H k H K K m l H L J H K Y J K J H K P ",
"8X+X.XQ.[.{.{.{.Q.W..XXX3X<X3X8X8X9XfXeX9X|.U.W.qXeXG.9.9.H a F & 3 g 2 Y W..X{.{.[.}.H.i.U.6.5.] j.z.' ' x 7 v 7 @ t 0 0 M p z ` ..c q O.] ` z . O C C , ; ; ; ; ; > ; V C Z D B , , : ; : : C Z.1.R R R R 2 , , 4 1.D.[.4.s.r.m J.l P Z.A V B , a Z.1.OXVXoXVXuXOXfX[.L.I i & 5 F F 4 O o ; : - : : V B.V - - B S S.B.N - N N > ; ; ; ; - - - - ; > B V V S , +.x.v.^ ` v.x 7 k I 4.4.x.x.] c ] $.M.b.Q _ ` 7 u u r       X $ $ & t y k j t 5 J K n J n n K Y 7.8.7.9.7.9.u.F.G.F.t.P.H.+.-.-.7.9.F.u.t.P.F.u.H.R.G.H.H.u.F.u.",
"gXeX<X|.{.XX<X<X<X X3X<X|.3X8XqX3X8X9X0X9X<X<X<XqX<X:.:.Y i F < X 3 i Y u.(.<XXX).<X).E.Q.!.$.5.[ j.b._ ~ z 6 u # @ 8 0 9 9 y M ^ ..^ 9 ^ ' _ z . , C > - - ; ; ; ; : > N C N D A N - : : : : 4 V.K.D A C , , B , , 1.K.w.w.4.m I L.8.P D.V V B B B , , F R G D.E F T l 2 & 5 j U 5 F O - o : o : o o V B.B , > Z S.C.B N - N N > - - - - - - - - - N N N Z Z , o.x.j.b ^ T.b # z  .O.5.$...' ` ' [ M.b.Q ! ` 7 y u 1 . . . X $ = t h n L K y k Y =.L L L L  .o.o.=.-.9.:.9.P.E.E.E.E.E.P.:.t.:.-.F.I.R.R.G.G.P.I.E.P.E.W.P.:.G.",
"9X9X<X<X|..XXXXX.X|.).).).).).).i.0.-.Y.8XqX9X).(.P.-.:.v + 1 : O 2 i 9.I.{.<XE.R.).).<XXX^.*.3.] a.z./ ~ e 6 u + + $ = r y b ^ ` ..^ e O.5.c h o , , ; - o ; ; ; ; > - > , , B D V > - > - - , V.oXS.D Z V > B B , E 8.w.7.w.P P L.u.8.E V V B B B V B > > > : ; 2 F 3 U 5 T T j 5 5 O O ; - o O ; o V B.B B V V.V.V > > N N N N > - - - - N - - - > N Z Z B.V +.U.^.^ ^ x.b # u M &.j.j.5.X.~ ` { v.z.Q ! ^ # 1 u 1       . $ * t i h J L U L +.-.t.:.-.:.t.:.>.=.9.>.9.:.G.(.P.G.:.y.y.y.t.:.O.G.F.=.+.T o.P.(.E.P.Q.R.P.P.G.",
"3X X<X<XXX{.Q.I.I.E.I.P.E.Q.).:.p L  .G.qXqX.X(.P.:.>.F.J u X . % < H W.Q.<X{.:.R.).<X8XQ.l.5.*.' ~.5X' w s # u + # = # 8 J O.M ~ X.| 9 ~ ` c k X o ; - - - ; > > > - ; - - 4 N B C N - - - : : A K.S.B.Z B , , , , E W J.8.VX+Xn u.9.G V.C B B > B B N N > > B , R G j 8.T 8.P i F : : o o - : o : - C B.Z Z V.V.Z N N N N V V N > - - - - > > - - - - N Z B.V =.x.a.x  .c.b # y @.4.q.j.4X'.~ ` [ z.f.M.%.x + = i 1     . . $ = 0 g v J U Y +.-.7.G.I.G.y.:.t.-.-.:.O.O.-.P.(.P.>.:.:.t.-.:.o.O.F.t.J k v Y I.R.R.G.I.E.P.P.>.",
"x.^.^.I.U.I.r.I.Q.I.P.I.P.P.G.:.:.;.=.t.R.G.t.u.:.i.(.R.0.Y X o 3 j T .XXX<X<X(.<XqX8X-.v ..5.5.[ &X].a.x e 6 q + = = # 7 L v ` ^ ..^ q X.X.c h   - ; - - ; B V D V > ; - - N 4 > 4 , - - : - - A K.K.B.S , , , > , R F E oXGXVXT G T K Z.C B N > > > N > > > > 4 1.G W 8.=.Y P F j O   - O o o o o - B D Z B.V.Z N N N N V S D Z > - - > > > > - - - N N Z S Z W k.q.x ' c.b 7 z  .w.j.j.U...d ` ' z.dX9Xr.M + 8 r 1     . . @ @ @ = 0 y k J n K Y +.7.0.:.:.:.-.:.O.o.O.O.:.y.:.o.O.:.q.@.:.y.G.G.:.H P U Y =.o.-. .+.P.G.&.=.",
"y.).E.r.y.q.P.(.).).(./.(.F.o.t./.R.;.-.=.o.o.=.-.W.{.{.E.Y X & F J 9.XX3X9X<XXXeXtXR.u L >.a.3.$.*.! ` ^ q 7 y + + + # t n q s c ..M 9 ` ` x k .   - - ; ; > B Z D D V N - N N , , , , - o - : C 1.A.B.S B , , , ; G F H wXZXVX9.a U U Z.C N N N > > N B > > > F 1.F.J.T 7.T l F 4 o o o o - o o o : B S B.A.Z V N N - > > B N N - - - > > > > - N V D B.B.B.V T j.r.c ` v.^ 8 z v ..q.j.~ d z ~ ` c.U.! z p + r r 1   X X . . X # * 3 0 y k h k n | O.+.-.t.t.-.:.o.| | O.=.O.o.+.:.y.y.0.0.i.>.t.-.K K L y y u u J -.y.:.|  .",
"w.G.E.i.w.I.Q.).Q.H.F.9.=.o.J =.;.:.:.o.o.o.o.L o.7.H.I.w.n X & F J W.|.Q.XX).E.).).v v o.:.6.*._ %.$.d b 9 # u 6 + + + * # 8 l c ` c 9  . .x h . o o - o - ; N N B C B.D V N N ; ; ; ; ; ; ; : 2 R K.B.S Z B , , , R D.L./.xX+XP a G D.D., > > > N > > > , > , R U P +.T m g 5 i O : o o o o : o o - > S S.S B N N - N ; - - ; - - - - > - > > - N D B.B.B.V : I j.&.x ' v.! 8 z z M *.4...^ x ^ ' k.' O.L # @ r t 1 . X X . @ X # * g y j k k v v J o.| L O.+.o.| | K J J o.o.-.-.:.t.0.-.-.O.o.-.=.K H u H F L Y o.-.-.-.| +.",
"y.i.G.q.y.l.y.:. .o.>.=.k J b J J -.R.=.L L J v L +.e.w.7.m @ % j H /.).q.l.I.I.P.t.L o.-.:.>.$.] #.' x x q # q 6 + + + @ * h c b ` b 0 M ` z u . - o o o ; > - N V V Z Z D S C B > ; , , ; ; ; , R K.B.B.Z V , B , R D.W P J.T 5 < E W 1.4 N > > N > ; > > , V E G I 9.9.K j j 5 o o o o O o o o ; O B A.B.V N N - N V Z V N > > ; - - - - - > N N N Z V N > o I i.r.M / v.M 7 z  .&.&.4.X.^ b m ..a.4.| q 7 + r r 1 . X X @ X $ @ * t k k k v n v n L b p  .o.L L K v J J L  .o.;.:.=.:.t.:.+.L o.=.v y Y -.o.=.=.-.o.o.o. .+.",
"y.t.y.y.i.i.:.-.O.y.W.J u L u H J :.P.o.J o.o.o. .=.W.Q.x.+.@ O 3 J E.{.E.U.Y.I.R.:.o.-.i.>.*.$.] *.#.Q x b 6 6 # @ # @ & * q l b ` b 9 b z y r .   o - o ; ; : N N B V V N N V C B , ; ; ; ; % % a A.V.S S V V B , R G g U w.H F U R W V.V N N > > > > ; ; ; G E U 9.T U P j G : O o o - o - o ; o ; Z S.S N N N N S B.B.A.V.S V N N - - - - > N N N Z V N - o I r.&.x ^ v.x 6 z m @.5.#.6.' x ` ' ` X.x q y + r i 1 X X $ $ X O & = t h k k v J J n J J J o.o.v L Y | L L o.L  .>.:.-.-.-.-.o.L o.o.Y J L Y o.+.+.O.o.o.Y o.+.",
"y.t.y.y.i.@.M :.G.W.(.Y t v p J v o.t.7.7.u.i.9.0.0.Y.XX.X+.@ O 3 J ^.0X<X{.{.{.G.p L G.I.l.3.$.] %.{ ~ x z 7 r # + # @ # * 0 s z ` c 9  .M t t .   o ; o ; - - - - - ; > , , > , > , ; ; ; ; % o 4 V.A.D S S V B , G F D./.F.T U J.D.U Z.> > > > > > > ; ; ; R H T P P l T H g o o O o o o ; : o ; ; D S.B.V V S B.B.D Z S B.A.C.B.D V > > > > N B V Z B ; : O I r.4.m ^ c.z 6 y M ' 6.*.!.j.x c ]  .] s q h * u 5 5 X $ $ $ O & $ & t 0 t k J u v v v L o.| J | L | o.o.o.;.:.9.y.t.:.:.9.O.| o.o. .=.o.Y L Y  .+.+.| Y o.Y L ",
":.t.0.0.0.@.@.i.G.-.-.J u u J Y L +.u.I.t.w.i.w.w.0.i.{.7.i X X 2 k [.8X X X{.E.P.+.-.I.).U.X.{ ] $.] ~ ~ z # = # * * X * * 0 q d  .M 9 m M 9 =         . . X   . - o o o O : : : : ; % % : ; o o < G Z.D A , , , , a g J.J.w.7.F U 8.Y E 4 ; : : : : O o O < U l U l l h l g 3 X X X o X X X X X o o D A.C.C.A.V.S V C > > B V D D D D D C > B , B C C > O o X o.j.4.z ^ c.x # z M ..&.$.].].~ ` 4.5.X.z e h # t i r o O $ $ $ % * * 0 i g k k v v L L Y o.| L | Y K | K | >.9.-.-.:.-.:.:.O.o.Y o.=.+.=.=.I I Y o.+. .o.o.L L ",
"-.0.-.:.-.t.i.t.o.q y q y J  .;.G.F.i.H.9.y.i.i.0.0.E.{.m @ . X < j Y.<XXX`.i.o.o.:.E.(.<X^.&.] ] $.] ` O.e # 8 8 0 @ @ * = 0 q z ` m q O.b r n n Y =.t.u.F.P.l.G.P.I.I.R.U.W.W.W.W.W.Y.(.W./.(./.Q. X+X[./.L.L.H.J.Q.T.}.>X>X|.U.I.U.Y.R.u.F.F.D.y.y.9.8.7.7.w.w.i.5.4.4.4.@.o.+. .T  .Y M L L P J U 1.K.K.K.Z.E E U =.Y K G K R U E E W ;.W U K H H H j k h h w._.r.s M x.b # z ` O.#.5.j.'.3.` 5.c.5.~ q g 7 r u 5 . X $ @ O X $ = r t g j y k u v L J L L L L o.K v K o.;.;.O.| o.-.-.o.=.=.o.=.7.t.t.+.L I  .Y I M L K J L ",
"0.0.7.=.=.F.u.7.=.v v J J L o.>.G.i.e.w.i.i.l.l.y.i.{.`.M 3 X   = j Y.3X{.Q.I.-.y.W..X{.3X~.$.X.{ '.6.] O.8 * t g # X * 0 g 7 q z o.m q ..M  .T.`.'.2XrXdXdXtXzXhXzXdXhXdXhXzXhXdXhXhXzXkXxXxXkXkXzXkXzXhXgXhXhXhXhXhXdXhXhXhXdXdXhX5X5X5X5XrX5X5X4X5X4X2X3X&X&X'.&X'.].&X]._._._.!.!.'.!.m.v.m.c.c.c.c.x.Y.Y.U.U.U.x.U.x.Y.x.x.l.l.P.l.i.r.y.r.y.l.y.k.r.q.5.w.Y.>Xj.e M r.z # q @.^.r.3.$.r.r.' $.s.s.' s M # r i r . X X X X X X $ 1 0 t t u k u v J J L L L L L u u L -.-.o.o.o.o.O.=.o.o.o.+.0.9.7.o.Y L I  . . .L o.Y v | ",
"i.G.u.+.@.y.G.J.t.Y J J Y  .O.0.0.7.e.w.i.i.i.i.y.i.{.U.m t X . = k R.{..XXXR.-.G..X.XQ. X^.*.&.[ &X&Xq.x 9 8 y u # @ @ * 0 g h z ] b q &.q.!.].].,X*X&X&X,X&X,X4X2X2X4X&X&X5X2X'.N.5X5X*X2X2X5X;X2X&X;XiX;X5X;X5X,X*X5X5X*X;X;X4X%X;X*X4X&X2X5X;X*X*X,X&X&X,X2X;X_.*X'.&X&Xm.!.'._.!.m.m.!.!.m.].m.'.x.!.c.`.!.x.c.T.m.T.m.v.v.~.l.j.T.r.T.x.j.z.v.k.j.j.z.j.5.6.z.r.b b r.q #  .}.0...5.#.4.j.' j._.s.2.r.v # r r 1   . X X . X . @ = 1 = = t k F b L J L L K p u j i Y 9.-.o.o.o.o.o.O.o.o.o.=.-.+.L J | L M Y -.-.-.:.o.L o.",
"I.I.y.@.y.H.H.i.-.L v Y Y +.+.w.@.w.w.w.y.G.H.w.w.i.E.F.o.j . X 2 j u.W.{.XXE.0.G.).E.R.Q.T.5.3.] %.4X..b 0.8 u 7 @ + + # 0 y b h  .b q M | O.q...5.4.' { $.&.$.>.#.*.%.[ 5.r.&.5.X.4.3.4.3.3.j.#.5.$.5.5.3.3.{ X.3.5.5.] 6.$.$.%.#.6.} $.3.3.a.%.6.$.5.] $.5.3.5.5.4.X.3.] ' ....X.&.' &...&.&.X.q.X.4. .4.X.m @.^ m 4.4.m ] ` '  .M @.` m ` ....^ c ..X.` ] ` ~ ` z 9 m 4.h = F.b s #.5.] ] j.$.s.5Xg.r.j.q * u t 1     X . . . X $ = 0 t = r i u u J J J p L k u F u K o.o.| O.o.o.o.o.o.=.=.+.+.O. .L J | o.+.:.:.-.-.o.o.o.",
"i.i.7.t.y.7.-.o.+.J L L o.@.7.i.I.G.y.y.t.G.I.l.i.i.P.y. .g . o 5 k 7.i.Y.{.U.i.G.G.G.i.l.I.5.$.$.z.k.x &.n 0 y # @ @ @ # g 9 Y m X.b z M ^ ^ ^ ' ^ ` ' ..' ` ..' ' ' ^ _ ` ' ] ] ' ' _ ~ ` ' ' ' ' ' ] ` ] ' ] _ ' ] ' ' ] $.] / ..] $.#.' ~ ] _ _ ' _ ~ _ _ _ _ ' _ _ ` _ ] ~ ^ ^ ` ^ ` ~ ~ ~ c ` c c x c c x b c x c c c m l z b b z c z x c ! c c ^ ~ c ~ c c c b ^ r.j.k # L b 0.&.4.' ~ { r.s.m.z.3.X.e 8 r r 1 . . X . . $ $ = = t t u k u u p J H L L L u t r r u o.o.o.o.=.o.o.o.O.-.O.O.-.+.O.=.:.y.i.G.y.:.:.o.L o.=.",
"l.H.i.t.t.i.-.@. .n M  .-.@.@.i.I.I.P.i.r.G.G.P.Y.E.Q.I.+.g X % 5 K -.0.Q.).P.t.y.I.E.y.i.I.5.4.#.z.6.&.| p $ 7 # @ @ @ # 8 r M b +.L G.Q.{.Q.^.`.`.|.|.<X X>X>X>X X>X]. X].>X&X2X'.&X>X,X&X&X&X2X,X>X,X,X2X2X>X*X2X&X&X2X,X,X,X,X&X,X,X,X&X'.%X%X&X'._._.'._.N.N.N.N.!.~.!.m.m.v.m.m.m.v.z.v.z.j.x.j.j.c.c.c.x.r.r.r.r.w.4.4.4.4.q.5.6.4.4.4.5.&.&.&.5.4.6.4.6.5.4.4.r.c.c.x 0 O.O.^.].'.4._  .3.3.n.&Xs._ b 6 u r 1 . . @ X X $ & = = 3 0 t u J v p J b L Y Y v u u u K L L L o.o.o.o.-.-.-.O.O.@.+.-.O.t.u.P.F.>.O.-.O.o.o.-.",
"W.Q.I.@.o.0.@. .M o.-.w.0.w.:.y.P.P.P.G.P.P.P.I.<X).).(.-.u X O j U t.R.(.{.I.E.).{.R.y.P.I.4.] $.r.s.4.O.9 # r + # = r r y q | -.p 8 y y y 9 y y y y e p z x p Q b x p x x b ^ x x M ~ ! x ~ ! ^ ^ / ' _ ` ^ ' ^ ~ ` ` ` ' / ' _ ' ` _ ` ' ' _ ' ..' ..` ' ` ` ' ^ ^ ~ ^ ! ^ ~ ^ ^ ` ` ~ M ~ ^ ` c m c M ` ~ m c c x c b z b z x b b b x p p p p e y p p e q e e p p e d h 7 k `  .r.4.r.5._ j.r.3.N.g.6.' s * q 3 1   . X @ $ @ * g g = 0 0 y k n L L J L L Y L K J K o.Y L o. .o.+.+.O.@.:.O.O.+.@.:.y.w.y.i.i.&.O.y.y.o.M o.",
"Q.Y.i.+.+.7.@. .L 7.7.w.y.y.y.i.I.R.P.>.P.I.E.P.).).).).-.k @ O 5 k (.<XR.Q.I.XX8X{.i.i.I.i.&.$.{ j.j.&.b u # 6 + + 8 6 8 p b b :.z r u 6 + @ # # # # * # 8 8 8 9 9 q e e 9 9 9 q 9 q 9 q 9 9 q q q 9 q e e q 9 q q q q 9 e q 9 s s q e q 9 9 9 9 9 9 9 q 7 9 9 9 7 9 9 0 9 9 0 9 9 9 7 9 9 9 7 7 q 7 * 7 7 8 7 8 7 8 7 7 6 7 7 6 6 6 6 6 6 # # # 6 # * + # # # + # # # 0 9 n Y M e.` 4.j.c.5.4.5.j.5Xz._ ~ s * t 8 1 . X @ $ $ @ & 3 0 * t t z v n Y L b J L L L L L K L | L L I o.+.@.@.-.:.=.O.O.@.0.y.0.0.0.@.o.0.q.7. .v +.",
"W.i.0.0.y.y.y.0.w.0.:.G.E.i.w.q.>.E.^.^.).<X<X<X^.).<XR.7.j X O 3 k (.wXQ.0.G.{.XXQ..X<XT.q.$.&...6.j.^ *.r + r @ @ + 6 M &.M ' ^ P.G.o.L 9 y h h z z z 9 z  .0.x ^ M / c x ^ ^ M ^ ^ ^ ^ ` ~ ~ ~ c ~ ~ _ m ~ Q ^ ` c c c Q c c f f _ f c c c c c c x x x x x f d z s d x x z d d z d s s s s s s h h s z s e h h s q h y p p z b z z z z z p v o.q q 9 9 0 9 8 y p z o.v p b ` 4.j.N.m.N.m.'.4.&.4.c.v._ f q # 8 r 1 @ = $ $ # @ % t h 0 g t h L Y L Y L J H K v J L L Y O.o.Y L Y  . .@.i.i.O.L  .L  .O.-.@.&. . .O.-.+.|  . .",
"Y.i.w.w.y.y.:.:.0.q.0.P.E.i.0.r.y.E.<X<X<X<X<X).).>X).I.-.y X $ 5 K (.wXE.w.i.W.Q.Q..XXXU.0.&.X.' $.$.^ p + = 8 @ @ # p @.0.e.4.M z b e ^ b b +.O.&.&...! v.<Xy.! j.T.U.x.k.!.^.$.$.` ' #.{ { { } { ] { { { { 2.} { $.2.{ ] ] ] _ ] ] _ ] ] ] _ _ _ ` _ _ _ _ _ _ _ _ / ^ ~ ~ _ c c c f c c ~ c f f z c f x x f x s s x x b M :.r...$.O.q.&.x M y.b e b y z h z M L @. . . .@. .j.5XkX:X'.m.c._ ] 4.3.c.] ~ q # 1 t r $ = $ $ $ @ @ 0 h h g g h L  .L J J J J p v K L b o.-.| K P Y  .@.0.I.w.M J M  .@.0.q.0. .@.w.i.:.o.O.+.=.",
"l.0.0.q.y.y.P.P.i.i.:.G.H.G.l.Y.I.Q.^.~.>X^.T.).).>X).R.@.r X $ 5 J R.+XE.I.H.E.I.P.Q.I.Y.x.&.X.' ..#.~ q 6 8 = # @ 8 | 0.&...m M ^ 4.s.5.r.` q.U.U.m.j.v.>Xk.k.a.%X~.>X~.~.U.k.z.k.[ 3.n.h.N.h.n.h.h.h.n.h.h.h.h.h.h.h.h.h.g.g.h.h.h.p.p.h.g.g.s.s.p.3.3.p.2.p.p.p.2.3.2.2.3.2.2.{ 2.{ { %.3.{ ] { _ { _ _ ] ' ' _ ~ ` X.x.l.*.&.#.#.q.q.` ` &...| | b  .^ M  . . . .q.x.q.r.] '.lXMXmXiX;Xc.{ ] 5.#.5.' b q # 1 u r @ $ @ X $ X @ * g h h v J J n J L J J v J L b v J o.O.o.o. .Y  .@.@.O.o.w.l.-.7.-.0.0.| I O.i.G.O. .+.=.@.",
"P.y.0.:.0.I.P.P.U.P.P.P.I.I.E.{.>X^.U.I.E.U.U.).E.>X).<.o.u X : r H G..X{.Q.XX8XY.P.Y.r.T.T.4.$.' ] [ w w 0 6 = # + y  .&. .` ` &.T.U.dX~.|.$.&.m.].~.~.,X~.~.%X>X~.~.&X&X~.,Xm.v.6.{ %XlXlXlXsXkXsXsXsXsXjXsXaXlXlXaXaXaXiXaXiXaXaXaXaXiXiXiX:X:X*X*X*X*X%X%X%X%X%X%X#XN.N.N.N.N.n.M.m.n.n.m.b.g.z.g.g.g.d.d.g.g.s.p.r.!.%Xa.z.k.l.$.6.>.a.a.6.#.&.O.| X.O.@.X.6.x.M 5.q.4.m.5.m.kXLXPXvX&Xm.j.&.&.6...` b 0 # 8 r 1 @ 1 X . . X @ * 3 t j v J n v J J J v J J L L K o.o.o.=.=.+.I  .+.@.O.&.i.P.q.0.4.0.O. .@.-.0.t.O.+.o.o.-.",
"l.0.:.:.i.Q.).Q.Q.)..X).Q.P.I.E.E.E.Q.G.@.#.P.).).&XP.P.o.u X $ 5 K (.8XXXXX8XG.l.i.w.i.^.U.5.&.] / ] f b z = # @ # z M ` m  ...!.`.v.rXv.m.$.x.a.v.~.&X;X3X4Xv.~.v.$.%./ #.U.#.$.a.%XlXMXMXMXMXMXMXnXMXMXMXMXMXMXMXMXlXnXvXlXlXlXlXlXnXlXlXlXsXsXaXaXaXpX7X5X7X5X5X5X:X:X=X:X:X:X;X:X;X:X:X:X;X$X*X%X%X*X*X%X%X%X%XN._.m.] [ ..k.&.x / c.v.a.6.#.$.$.6.4.4.X.&.c.}.x.r.5.4.v.c.N.2XvXKXAXzX!.k.$.r.>X%.&.b 0 # 1 r 1 X 1 @ X X X $ # & r h k k n b H v u u J v v K K | K | o.o. . . .O.O.7.0.4.0.y.y.+.O.+.@.w.O.&.@.O.L | o.>.",
"y.y.0.i.Y.Q..X.X.X<X<X).E.P.U.^.Q.Q.R.-.p L P.).).P.P.E.-.u X % i K (.8XXX9X.XG.i.r.0.x.U.l.&.$.] ' / ~ ^ | 6 # + 9 v q z x b X.x.q.v.!.%.5.&.r.q.z.z.v.&X~.~.k.*.6...5.#.$.%.a.c.~.%X:X:XaXaXiX7X:X:X:XiXiX$XaXiX$X:X:X$X$X$XiXiX$XiX$X$X$X:X=X;X#X;X*X#X#X#X%X$X%X#X#XN.#XN.N.N.#XN.M.n.n.n.h.h.n.n.n.n.n.b.n.b.n.M.m.b.6.#.' ' ` ..[ a.$.$.q.j.#.' &.q.r.6.!.m.!.j.5.4.4.c.j.T._.n.N.zXcXT.c.3.j.!.l.j.e 9 # = 1 # @ 3 $ X @ X X X # 0 t v n L L v k J J J J | | o.| | | L L Y  . .@.@.@.@.@.:.r.i.b ^ O.y.@.o.O.o.o. .o.-.t.",
"i.y.:.P.U.G.P.P.P.I.E.P.P.^.|.XXT.^.).F.L -.:.R.}.^.Q.Q.7.t X % i J (.3X{.U.I.i.i.0.t.Q.Q.r.&...[ v.*.p p 6 # 9 9 q b z z M ] 4.$.' q.r.5.5.' ' $.$.5.%.6.[ a.' ..$.6.j.6.6.a.6.6.p.k.z.s.g.g.h.h.d.g.g.b.g.h.h.h.g.g.d.d.g.g.g.d.d.d.d.p.p.p.p.d.d.p.p.p.p.p.2.2.p.2.2.p.2.p.2.2.2.2.2.2.2.2.2.2.2.2.2.3.2.2.2.2.2.} } } #.#.{ ..' ' { #.#.' s.].~ ` $.$.!.2X%Xm.z.5.#.] ' X.4.j.r.c.s._.].!._.c.' ] >.^ c v 7 6 r 1 @ < $ @ X X X & & * = k M L L J H u y J U K K | o.| Y Y Y L o.-.:.0.w.w.y.w.i.i.I  .7.y.@. .@.7.I I 7.7.X.",
"y.:.:.).E.y.y.y.P.P.G.i.P.).qXXXQ.{.wX(.9.9.-.F.Y.}. X^.+.3 . % 5 H E.).U.0.w.r.y.0.P.E.^.P.$.] _ >X!.b 9 6 q v M b z ....X.4.` $.5.6.6.X._ ' $.' ] &.6.6.3.q.' #.$.#.{ #.] $.$.#.%.%.%.4.2.2.2.a.3.p.p.p.p.g.5.p.2.3.2.2.2.2.2.%.p.2.} } } { } } } } } { { { { [ } } { } [ { { ] { { { { 2.{ { { ] _ { [ { { { { _ _ [ _ ' ' ` ~ ~ ~ _ _ ` ' ' ] ~ ' ] ] { $.j.z.j.5.X.` ' X.&.6.j.l.v.s.r.].ZX|.$.&.6.j.r.M # 6 r r + 1 $ @ @ X O & # @ * k L L | J v v y J Y o.| K o.o.| | o.o.o.=.>.y.i.i.i.l.x.x. .+.l.x.@.X.7.4.I c 7.0.@.",
"i.i.i.U.I.i.i.U.P.P.P.P.P.).).I.I.{.+XH.H v o.G.Q.{. XY.o.0 X X 3 J G.P.l.q.y.G.0.t.y.y.P.r.$.' / 3./ p 9 p c ~ ^ ' #.j.j.c.m.4.6.r.z.q.r.!.~.c.j.j.j.b.z.m.m.~.v.m.m.v.m.m.m.m.!.~.M.~.N.N.N.N.M.~.N.!._.N.N.N.N.N.N.N.~.m.M.M.M.m.m.m.m.b.v.m.b.v.z.v.h.z.b.z.g.b.z.g.z.k.d.d.j.j.s.s.p.s.3.6.p.5.6.s.s.s.3.s.s.r.s.j.a.s.5.3.$.&.#.$.$.$.&.5.&.] $.] $.$.{ } z.!.!.4.` ` ` &.`.>Xv.j.5.6.>X4X$.c.'.x.6.O.b @ r r = . O @ @ X O @ O @ @ * t n  .L J b J n L  .o.o.=.o.| o.o.o.-.-.-.9.i.I.i.@.7.@.7.7.w.l.e.7.7.@.@.O.+.7.@.X.",
"i.l.i.i.i.i.P.P.P.:.:.P.E.E.I.).^. X).t.v v =.t.W.^.Q.i.I h % X 5 J F.t.O.-.0.>.q.0.y.P.i.q.$.] ' l.| e p b X.] ] 6.j.z.m.z.r.2.6.6.a.$.s.!.v.#.*.j.a.j.z.b.m.m.b.b.z.g.z.g.h.g.g.g.g.g.g.g.g.g.g.d.g.g.j.s.s.g.g.p.s.g.d.d.p.d.s.s.s.p.p.p.a.3.p.a.3.p.3.a.p.2.2.2.2.} 2.2.2.2.2.2.2.2.2.$.3.3.2.2.2.{ 2.{ { { { { { { { $.$.#.{ ] { ] ] ] [ $.{ $.{ { $.%.5.$.$.s.$.{ 5.] 4.3.j.x.*.$.l.3.6.k.[ ,X,X&.' ^ e @ r r = . X O @ X X O X * = 8 8 g o.-.L L L J Y L o.o.o.o.O.;.-.-.-.:.:.y.I.Y.i.@.7. .+.w.e.w.4.7.0.@.+.@.7.@.7.@.",
"G.y.G.i.P.I.i.i.i.y.y.y.:.i.P.|.3XeXXXF.Y =.F.w.7.7.i.y. .h X X 1 J F.E.P.P.i.P.R.0.i.P.P.y.X.] ' r.^ 9 x &.m.j.z.>XrX&Xm.s.s.&X2Xz.4Xk.!.s.s.d.m.&X&X;X&Xv.M.5X5XiXiXiX5XiXiX5X5XpXiXiXiXiXiXaXiXiXiXiXiXiXiXiXiX5XiX5X:X5X5X1X:X;X;X;X;X;X;X;X%X*X*X*X;X*X%X*X#X;X#X#X#X_.%X_.N.N.N.N.N.N.N.N.N.N.M.N.N.N.N._.N._.N.N.m.N._.N.N.n.m.n.m.b.z.z.j.r.s.j.j.z.v.z.j.a.~.j.dXz.].c.6.5.v.&Xm.j.$.!.>X5XT.$.X.M x 7 1 0 * @ X X @ @ X % X & u u H L Y o.K L L L Y Y =.9.-.=.-.>.-.o.o.o.-.:.G.G.:.@.7. . .7.7.4.X.@.7.7.7.4.O.7.7.X.",
"y.>.:.y.i.i.P.i.i.i.r.w.@.y.G.{.0XfX+XW.=.;.u.8.o. .I.Y.+.g X X < K t.I.(.).Q.{.E.0.:.i.i.r.5.] _ 4.z p M j.'.g.m.kX].3.6.m.dXkXdX&XhXtXxX_.,X4X>X2XzXxX].%Xn.*XcXHXFXFXFXFXFXFXFXFXFXMXMXMXMXMXmXmXvXmXMXvXvXvXmXmXmXvXvXcXvXcXcXcXcXkXkXkXkXkXlXkXkXkXhXkXhXaXhXiXiXiXiX5XiXiX:XiXiXiX5X5X5X:X2X,X*X*X&X&X*X'._.%X'._._._._.'.'.%X_._._.m.z.z.m.v.j.j.q.6.6.q.j.j.m.a.2Xm.!.a.*.b._.>Xm.].X.T.].j.` ` ` f h @ 8 0 = @ $ $ X O X % & * H Y o.o.Y L o.|  . . .o.t.F.9.-.O.;.o.| L J o.:.t.t.0.w.4. .` 7.7.O.+.7.4.7.X.+. . .X.7.",
"l.y.y.G.y.y.i.i.i.y.w.0.w.U.Q.|.XX{.y.8.o.Y =.P L L H.W.8.= . X r G L -.I.Q.^.Y.l.P.P.I.l.0.$.#.` X.b b ..q.6.a.a.&Xm.z._.,XdX5X'.>X>X<X4.4.U.>.$.O.&...^ !.z.[ 3.n.#X#XN.N.#X#XN.N.N.N.N.N.n.h.n.h.b.N.b.h.h.g.g.g.g.g.d.s.p.s.p.3.3.3.p.2.5.2.3.3.3.p.3.3.3.3.2.5.2.{ 2.{ { 2.{ 2.2.{ 2.{ { { { { { { } _ ] ] { { { ] { { 3.3.3.2.{ { { { _ s.hX`.&.| ^ b b b ^ ..a.q.3.a.%.} _ } 3.a.b.q.e X.X.c f c f x v $ = = = @ @ X X O X X $ & u v v J Y Y L Y o.+.+. .;.t.=.o.o.=.o.o.L J J o.o.Y o.0.w.@.+.7.4.7.+.7.w.7.@.+.+.@.O.+.",
"i.P.I.i.i.i.@.i.P.P.I.I.Y.{. X{.{.i.n I J U T P n Y u.G.I =   O 1 i v O.y.E.I.&.U.XXE.P.l.q.6.$.' &.` ..r.j.6.q.6.' &.c.&X4X'.j.z.l.4.@. .^ p x b z p s z .. .p 9 d Q Q Q Q Q _ Q Q Q Q Q Q f Q f Q f Q _ Q Q _ Q Q Q Q Q Q Q Q _ Q _ Q Q f ~ f Q Q Q Q Q Q Q f f f f f f f f f f f f s f f f f d f f f f f f f f f f f d f d d f f f f Q f d ' i.&.p 6 q q q q 6  .|.r.` / ' ^ ! ~ ~ ' ~ d b 0. .M z s z X. .# $ = = @ @ X O . X X * & r 8 6 r H Y o.o.=.=.+. .O.>.o.o.o.o.:.=.o.K p K J v n o.@.@.4.@.7.w.q.q.0.0.q.7.7.7.@.X.",
"i.I.x.y.i.i.I.Y.Y.Y.U.U.U.Y.Y.Y.{.l.w.7.G I Y P =.F.+.-.J $   O < u -.G.l.E.E.).XX.XI.@.I.U.6.5.' c { c.q.q.X.M x z p b ` ' ' &.&.M q e q z w 9 z b z y p q 8 6 q z x b c M ^ ^ ~ ^ ^ ^ ` ~ ^ ! _ m ` ` ` ` ` ` ` ^ ^ ` ^ ` ^ ^ ^ ^ ^ ` | ` ^ ` | ` ^ ` ~ ~ ` ^ m m _ m ! ^ ` ` m _ ! ^ ^ ~ ~ m ^ ^ ^ ~ ` ^ ^ ^ |  .` ^ ^ ^ ^ ` c ~ c ` ^ ^ M x q q 6 r r r q q q o.L 9 9 p e x x x z s d q z z z v L z  .I * @ = & = @ $ $ O X X O & # 2 0 t h n L v k o.+.L o.-.y.@.o.o.+.-.+.o.P I k P U P o.@.&.@.0.:.0.0.q.O.@.@.O.@.0.@.@.",
"w.I.I.H.I.i.P.G.H.I.i.I.i.y.7.w.H.i.J.9.U P P 8.F.G.t.+.v = X X 3 F =.i.E.P.E. XXX{.E.-.I.x.4.5.c q q e q 0 0 8 7 7 0 q 9 0 q q 9 9 6 9 0 7 8 6 8 8 7 7 6 # # # * # 9 7 8 0 9 9 9 y 9 q 9 y q q q e q q 9 q q q q p q q q 9 q q 9 q q q q q 9 y q q q q q 9 9 q q q 0 s 9 r 9 9 q 9 q q q 9 9 9 8 q 8 0 9 0 9 0 7 9 0 7 8 8 7 7 0 7 9 0 9 8 8 6 6 6 6 8 8 6 # = 7 # # 8 8 8 6 9 7 7 7 9 7 7 * * # * * * 8 # @ @ 8 & 8 @ @ $ $ X X & # * = g h k j 0 * 8 n J I o.O.-.O.o.o.o.O.=.o.K I i n n I X.@.@.@.&.:.:.0.O.L  .+.-.w.:.q.w.",
":.i.i.i.x.w.0.0.y.i.i.y.w.7.I o.7.o.8.H H K I Y U O.+.Y H i X % 3 K F.W.Q.I.U.).|. X).&.r.i.5. .9 * * # # # + + * # # # # # # # 8 = = 8 8 7 8 = 8 6 8 r 8 8 = 7 * * 6 8 8 * 0 7 8 0 q 8 0 8 0 8 0 q 0 0 0 r 0 0 r 8 r q r r 0 8 r q r 8 0 r r t r r r r t r 0 r 0 0 0 * r 8 6 r 8 8 8 8 8 8 8 8 0 7 8 8 * 8 8 = = 8 8 * 8 = = 8 = 8 8 * 6 6 8 6 r 8 = 6 = 8 = = = # # # + # # # @ # # # # # @ + @ @ @ @ @ @ @ # 8 = r # * % X X X $ & 2 8 i i y y i 0 0 k I Y L L o.Y Y o.+.t.-.O.+.o.L P P o.7.&.O.:.0.&.0.&.L L H J @.0.@.0.O.",
"L t.G.y.0.L n L o.-.o.O.n v k k l l h g i k k k L T  .v v t X O 5 j -.G.E.^.^.E.).).I. .0.y.@.^ e q q 7 # # + + $ + $ + $ $ $ * + + + & + & + 1 = & $ = = = & & & = = * * * & = = = = * * & * * * * * = 8 8 = 8 8 = r 8 8 8 0 8 0 0 8 r r 8 0 0 8 8 8 8 = = 8 = = 0 * * 1 6 1 6 1 8 & # & * * = * # & & & # = # + # & = & # & # = # * * = = = = + & + + + + + + + # & $ # & + & $ $ @ * + $ @ @ @ $ @ @ @ . @ @ @ 1 t & & & X X X X @ * 3 j 8 t g h t 0 t t 0 0 8 t u p L -.0.9.o.I o.@.e.7.O.O.@.0.0.:.0.0.-.L t t y L O.-.o.n ",
"Y -. .J L n H v U  .Y U j h k k J v k k r i v M L Y L J P 3 X % 1 u Y -.U.).^.T.^.).>.L O.7. .0.X. . .J 8 # & + + = & + # $ + & $ $ + $ $ $ $ $ $ $ $ $ = & * $ & + & + # = $ # & # # = # = & # # & = # & # = 1 & # = & & * = * 1 = = * 8 = = = = = = = * & * & * = 8 = + 1 & = 1 + = # = + = + * & $ & & & @ % $ $ O $ $ $ $ $ $ # $ # $ & $ & + $ $ $ $ + $ $ $ $ $ @ $ $ $ $ * $ O $ & & $ O @ X O . . @ @ @ $ = $ $ * $ X o X X X O * t t i g 3 = 3 * * * = = # 0 k n L =.-.o.n L X.i.w.@. .0.r.:.4.0.:.-.J r i u J Y n h k ",
"L J H y k J L J Y =.-.o.Y L L L L Y U k t v J v v v v J k 2 X & 1 k =.0.P.I.P.E.Q.).:.+.y.i.i.i.y.e.i.L # . . X . . . . . . . .     .                   . .     .   . . . . . . . . .   . @ + @ + @ @ @ + . @ . . . . . . X X X @ @ @ @ @ @ . @ . @ . . X X X . . X . . . + @ @ + @ @ . . + @ + X   . . . X X X                       . . .         . . .   . O X X   . .   .       . .   X                 .     .   @ O @ X   X X X X X X X X * * * * * = g g i t h k k n M L K n L o.0.0.O.@.@.0.0.0.-.O.o.u y k j k k y 0 g ",
"J J T Y Y =.9.;.o.Y =.o.o.+.-.=.Y Y v u k K J v v H n k 3 X X & 5 H Y -.y.t.G.P.G.G.=.o.7.9.H.i.l.G.0.H $ . . . . o   X .   . .                 .                     . .               . X O $ $ @ $ $ $ X . . X   X   . X . . X $ @ % $ $ $ @ $ O $ X X X X X @ O X $ & < $ $ @ $ O @ O $ X $ X X X     X X o .                     o X o     .           O O X X .   .           .   .                                 X     O O % . X X   X & & 3 = = t h g u j l v k j h i 8 8 j n n J M I Y Y -.+.L v j u i j k i k K n J ",
"u F J H K Y U K F u G k k K K J k r 3 t i r 3 r 1 & & X X X X 2 j F l t 1 r u j u k 3 & $ = i g n j 1 # .               .     .                                                             .   X   . X X . . . X       . X .   X O O O O O O . X o X X X X X X X X X O @ X $ X X O @ O X $ O X X X o   X   o   .                     . . . .               . .       .                                                         . X X       . . X O $ $ O % O & $ 1 3 3 * = 1 & & $ 1 t 1 1 = i u i j i 1 & 1 = & * 1 1 r t i k ",
"X . . .     .     . .     X X o . .   o     .   X   X X X O % 2 5 j U H 3 1 & 1 = & X & 2 5 a & $ X . X .                                                                                       .                     .                     .   .       .                       .       o .   . X                                                                                                                                             . o X . o . o % % X X X X X X . X X               .       X     . X   X X         ",
". .   o X   X o X X X o o .   .   . o X X X X O O % & < & 2 3 5 j G G U G j U Y G l H G U T U G H g i 1 $ O X   .     .                                                                                                                                                                                                                                                                                                                     X O X % & % & & & & & 2 2 = 2 & & 3 & o X X X   o X . X                             ",
"% & & & $ < 2 1 2 3 3 < < < < < < 2 & 2 5 j a j j 5 a a 5 j 2 5 F H K G G U W =.7.8.8.9.=.8.=.=.=.=.=.K k t = * $ O @ O .   . . .   . X             .       .                     .                                                                                                                         o o                                                                             .                           .       .     X X X $ $ & * 3 0 i g j u j F l F l j h j i * 5 2 3 5 2 < 2 & & % O X X o X X X X X O % % ",
"5 i 5 5 5 i i i j j j j j k j j j k j j j H G G H H K U H g 2 5 F K K U T +.9.F.J..XXX[.7.I 7.J.R.H.R.G.9.=.o.U J u u u u i t 3 t i = = $ $ * O $ O $ $ & & & & $ $ $ 1 1 = = & & = & * O $ X & * $ X                                         .                                   .                                                         @ & $ < & & $ @ $ O $ $ & * & $ $ $ @ O $ $ $ $ $ $ $ @ X   . . X O $ & = & & 2 & * 2 2 t = t j v H J P U I o.=.=.=.P P =.9.o.Y L j j i j j F j j g j 3 = 3 2 < & @ O O O X & & & 2 ",
"U Y U P U U o.W K T t.T =.o.L Y Y T 7.=.o.-.9.F.t.F.W./.F.K 2 a j F l T 7.7.H.XX|.8XXXi.O. . .0.i.I.{.E.G.w.y.-.O. .K Y K k k J M k g k j t = r t i 3 t i 3 3 3 0 i u k k k u u u j h t & 1 r u i t t & + @ . .   X   X . . . . . . . .   X o . X       X   . o X X .   X o X o o     . X X X o X .   X   . . X         o             X X & j j t i i t u g t 2 = 3 g g y j u t 3 t t 0 1 8 t r r # @ * $ & * & 1 1 i t t 3 3 3 t h k k v J T Y +.+.+.O.7.t.i.t.o.Y =.-.o.K J v J J J Y Y Y Y U P K n H j F j i 3 1 t u g h k l ",
"u.8.=.7.t.u.F.t.-.i.F.t.G.F.F.P.G.E.+XXXW.{.XXXX8XXX+XXXH.k 2 j F j n w.W.XX3X3X X>X`.w.@.m @.+. .i.Y.Y.Y.w.i.t.u.=.Y I J h t n Y Y I  .n v h k u i u u t t 0 3 = 3 g v J J n J k I k 8 # t u u J v J k y u y r = = i u t i t t t g t u = & $ $ O % X $ & & O $ & & 3 & & & & * * * $ $ % & 2 3 2 & & 2 3 t 1 = 1 &           o o X $ & 0 k j y g t y g t 3 * * h k k v v n k y r t t = 0 y j v k t * 0 8 & * = 0 r 0 3 2 * @ * g k n J  .Y o.+.M I @.y.t.i.G.G.y.t.F.-.=.-.7.y.H.H.H.H.H.H.H.i.y.u.7.+.K k j j u H K U k Y T +.",
"9.T -.y.I.W.P.G.i.y.G.i.i.U.Q.Q.P.^.<X`.E. XXX8XXXQ.^.|.0.0 O 3 F H 7.+XwXdXdX3X3X3X|.|.Y.O.O.+.@.P.0.w.Y.@.7.i.G.9.o.L P k t L o.o.=.o.L L J h u H K j k i g * = = v Y Y T L J J I n = * h r 8 J O. .b n L p u y v J L L b n L J M v h y 0 $ $ X @ @ $ & = @ # = t k k r 8 1 8 * & 8 1 2 = = g r * * y h z y j g & .       X X 3 t h l v k k h v k v k g 0 0 0 k J J n J L v h k t 0 * t k J L K h t r t = 0 t t = * = * & # = g l P I o.=.+.o.k z @.i.i.7.y.y.H.i.i.7.-.@.7.i.x.I.H.i.Y.I.Y.y.@.w.+.k r = 1 u J o.U v k +.=.7.",
"Q.I.i.u.I.E.E.P.P.I.).|..XqX8X<X).{.{.Q.{.{.Y.{.T.x.Q.^.+.3 X 2 F Y x.wXXX4XdX}.Y.`. XwX).Y.q.y.l.y.:. .+.M z 7.u.-.=.o. .J v n I M P m n n n h n Y J v J l g t h h K Y o.-.o.Y L k g 8 r r | b O.O.O...| &.O.p ^ O.&.>.r.l.y.y.y.y.0.-.O.o.o. .Y L L L o.o.J L L | O.o.| | |  .|  . . . .M b m v b M L |  .z v g & .       . = k g I o.k k n P Y J v k g = 0 t k k v j v o.n v k g r 0 0 r y h k y i y y 0 l t = r t 0 0 0 & * 0 P Y Y =.o.J p g v +.-.+.z @.w.Y.I.y.-.=.o.-.W.U.7.i.Y.T.Q.E.l.7.7.P j 1 $ 5 G Y -.7.-.=.=.+.G.",
".X(.R.G.G.E.Q.G.E. X<X0XtX0XXX X XXX|.)..X{.U.I.I.x.T.T.7.a X 2 F H F.0X<X4X3Xx.T.Y.XXXXI.H.i.P.E.G.i.@.O.@. .0.H.y.7.7.I T P n Y L M M P Y I J I K n J J Y J j J o.T =.;.-.=.Y K u r r 8 L #.b b ) ! ! ! | ) b ) #.*.<.<.<.<.<.<.<.>.:.#.#.#.*.*.O.O.#.O.#.#.#.@.#.O.#.| | ) | | | | / ! b b ! b ! ! b ! b b p r : . . .   o u J n =.+.k n P P Y J k k y t h k v k h h n +.P J k h t t h k y i y h k v u k Y y 0 k k h u u 1 u t J Y +.-.+.u r u L o.o.M h -.i.l.y.7.@.+.o.7.Y.r. .y.[.`.{.}.I.t.I P j = 1 k o.9.t.F.W.H.o.L -.",
"(.G.0.9.:.E.(.I.P.E.).{.Q.I.0.U.<X{.P.y.:.i.Y.Y.Q.`.Q.Y.7.l X 2 j P Y.XX|.`.T.R.i.Q.3X{.i.i.P.).Q.:.y.>.@.w.0.i.(.H.w.+.P I Y m L  .M P M M Y P T Y =.+.H Y o.Y T +.-.-.=.+.L v J v v J L @.p p ) p ! ! ! ) ) ( ) #.*.#.) ) *.>.>.*.#.) #.#.#.| | ) | / ! b | | / | ! / / ! / / | ! ! ! ! ! ! ! ! b p p ! x / p r r $     . X H T P P J h g h n l n J n v j k k n n h k P 7.+.I n g h h y h h y t t r v v Y =.j t t t t i y J L J J v J Y L z J L L Y L n v =.i.7.M M n n I 7.7.o.L t.i.H.I.i.t.9.I Y J J Y =.G.W.I.t.t.-.J y Y ",
"Q.t.O. .=.I.XXXXQ.U.I.i.i.0. .E.eXXXY.0.b @.H.I.`.Q.Q.{.i.l   2 j U H.Y.x.U.r.@.7. XXX^.Q.i.E.Q.E.P.:.-.w.i.I.E.Q.Y.i.+.m I +.I L  . .o.P Y I +.=.=.7.=.T Y Y 9.=.+.=.L J K K L K v K Y | | w #.E.) ! ( ( ) <.<.<.<.<.( #.#.*.#.*.#.#.#.#.O.#.| ) | ! | / b | ! ! / ^ / | ! / / ! ! ^ ^ b ! b b ! p ! >.:.p | p p u $   . X $ K 7.I n g = 0 h l k v L o.L J J k n l k n Y 7.+.+.J h k b k h h v k y r k J Y -.u t r r y y J L K J J v u u b L +.o.o.L J h k @.w.M x n M m 7.7.m n n L  .@.w.-. .P J +.=.9.F.W.[..XE.P.-.n z r M ",
"7.+.o.t.:.@.P.{.<X).^.Y.P.r.r.Q.|.Y.i.i.w.i.i.P.T.i.W.}.w.l X % a P W.Q.Q.Q.P.I.XX}.|. X Xi.Y.Q.^.I.O.:.i.I.Q.Q.Y.Y.H.w.7.7.7.+. . .i.0.+.o.o.7.F.-.=.9.t.o.U =.Y Y n k L J Y L L v v K | :.) ! p p ! <.<.<.<.k.<.<.<.<.*.*.#.#.*.>.>.#.#.#.#.) ) | ! / | / ! / ^ ^ / ^ ! / / b / ^ / ! | ) / ! ! ! p ! p w p q p K &     X & P 7.+.P k k k k h k k L =.Y L J v n n Y 7.+.7.=.7.+.M P P J v k Y I v k k v o.;.p h h h k k v J p u p J u b H u v | K J z n  .w.y.o.P +.I +.@.I m J y v L Y O.+.-.+.I Y =.=.t.y.y.-.q.:.+.J H T L ",
"y.+.+.y.-.| I Y.8XXXqX.XY.I.I.I.I.I.P.P.I.I.G.I.i.Y.|..XH.l . O 1 K I.(.E.Y.Y.eX9X`.dX3XE.y.I.Q.E.y.q.Y.Q.{..XY.W.Y.w.w.w.w.w.w.o.@.I.y.0.w.@.Y t.F.7.F.9.+.Y =.=.L J L L L Y n K u Y | | <.<.#.! ! <.<.<.f.<.<.f.f.<.<.*.*.*.*.#.>.#.#.#.#.O.| | ) ! | ) ! b | | ! ! / | | / / / / / / / / ) ! ! ! ! ! w x | p P m & o   X % U 7.Y v k n n v F J K L o.K Y u u K I -.y.7.+.+.+.o.I Y I Y n J +.o.P J n J o.;.J k k v v K L v u u u b v J u u M o. .L J O.i.G.i.7. .+.+.0.7.+.+.v = J +.O.L | =.8.o.Y +.-.+. .L J  .=.o.v U +.n ",
"0.O.0.i.i. .z I.E.I.XX<X`.T.I.U.Q.I.P.y.i.P.U.I.l.Y..XXXI.k . O < k J.W.I.G.U.XXXX3XfX|.P.Y.^.{.I.&.T.9X<XQ.Q.R.H.w.9.7.w.H.9.w.:.w.l.y.e.w.o.I =.t.+.8.=.=.o.+.L L o.Y o.o.Y n L Y o.o.| P.k.f.<.<.<.<.f.<.k.f.<.<.<.<.>.>.>.#.*.O.#.O.#.) #.#.#.| | / | ! ! b ! / | / ) / | ) / / / / ! ! ! ) ) ! ! ! ! ) | p m l @     X & T @.I n v L J J J P L Y L L L L Y +.7.t.y.+.o. .I Y o.o.Y o.Y o.-.7.7.@.Y u L L J n n p J | J u u J J L u u p L Y o.o.L O.-.@.7.7.@.@.+.O.@.+.+.n u v +.-.+.J L J n n  .=.=.+.-.O.:.:.-.o.+.+.-.| ",
"i.I.Y.0.0. .n 7.y.P.Q.<X8XQ.i.T.U.P.i.i.P.I.i.I.x.I.E.Q.w.l . O $ k G.y.0.r.x.E.3X8X8XE.i.i.Q.x.r.'.4XgX9X{.I.u.7.7.+.w.H.i.t.w.y.0.O.-.i.w.I  .L I L +.T T o.K H o.+.=.+.+.o.o.t.t.o.Y O.E.f.k.<.f.f.<.<.f.<.<.<.<.<.<.>.#.*.#.O.*.#.#.#.| #.| ) | / ! ! | ! ! ! | | ) | #.) ) / [ ) / / / / _ ! ! ) / ) #.) p P P *     o & I +.Y L I Y L L L Y Y J n J J +.P.R.H.w.-.+. . .I o.+.+.o.+.@.o.O.7.-.w. .J p J J Y o.J J v K v u K o.o.L p H Y L  .Y :.F.O.o. . .+.O. .I M I I = u K +.-. .L u u k b L Y o.+.t.y.w.0.-.O.G.t.-.+.",
"G.Y.l.@.y.w.-.@.y.P.I.(..XY.l.U.P.l.P.P.P.i.I.I.E.E.E.E.w.l X X < J G.-.-.w.I.Q.XX{.{.i.&.i.I.x.`.4X>X<X{.I.i.i.i.w.w.w.i.i.H.i.i.&. .y.Y.y.7.@.Y Y Y -.-.=.o.Y Y :.+.L L =.o.+.t.y.;.O.) P.f.<.f.<.f.<.f.f.<.<.<.<.*.*.#.>.#.#.#.#.#.#.#.#.#.#.#.) | | / / | | / | #.| ) ) | #.[ [ #.[ / / / ! ) ! ) | | ) &.p n T g     o * T +.L Y Y L  .o.L L Y L b O.t.G.P.i.i.0.+.+.o.+. .o.+.7.+.@.7.@.M O.0.t.7.o.L L Y o.-.Y L L L Y v v L o.L J | o.| L | O.o.=.O.O.=.o.M b I Y Y k # u L o.L J u u J J n L L b L -.y.y.0.7.O.:.O.=.-.",
"w. .@.G.i.0.-.|  .y.i.x.G.I.I.P.P.P.G.P.i.i.P.E.{.E.E.Q.i.h X X 1 J F.>.7.0.i.I.).Q.I.y.-.i.`.zXtX!.l.U.P.G.y.I.i.i.I.I.P.I.H.I.).y.y L P.w.0.7.I  .Y Y ;.=.+.=.-.:.Y K L =.-.-.=.+.=.o.| <.<.<.<.<.,.<.<.<.<.<.<.<.*.*.#.#.*.#.#.#.#.| #.#.O.#.| ) | | ) | | ) ) | #.| #.#.) ) #.) #.) ) ) / ) / ) ) / ) / | p n T h .   X & I O.O.o.o.o.o.o.-.o.L L I I.Q.i.i.y.@.@.+.7. .@.9.@.+.@.+.O.i.F.p n t.y.:.-. . .U Y +. .L L o.-.Y p v o.-.o.o.o.o.o.L J J o.o.+.+.m y v Y L p 5 $ t k b H y r y L u b v r L o.:.F.t.-.7. .L :.y.0.",
"-.:.r.i.i.w.7.O.@.i.I.T.I.i.I.l.i.i.I.G.i.i.i.l.P.r.I.Y.-.0 X X 1 H G.@.4.@.i.I.i.y.i.:.@.{.tXgX|.x.P.i.y.I.W.l.w.Y.I.Y.i.I.i.q.Q.y.p M 0.0.i.i.+.+.o.K -.=.o.+.;.-.o.o.J +.O.+. .o.O.o.L ) *.<.<.<.<.<.<.<.<.f.<.*.<.*.*.#.#.#.O.#.#.O.) #.#.#.#.) ) | ) | | #.#.#.#.#.#.#.#.#.#.} } #.#.) ) ! ! / ) ) ! ) / p Y =.g X   % 2 T =.o.Y o.-.-.F.:. .L +.u.W.y.0.y.-.@.O.@.7.+.t.u.y.-.@.7.-.-.@.v z O.+.-.F.o.O.L L Y Y Y o.o.| L v J Y :.O.L | o.Y | o.| +.O.Y L P J L o.Y u $ = y u b J F u J Y Y K o.L L L L L  .L Y -.@.q.t.y.",
":.w.y.y.y.i.t.0.i.x.i.r.r.i.I.y.q.i.i.i.y.y.y.y.:.:.l.P. .= X X = n -.M Y +.u.i.w.i.0.` Q.dXtX|.U.P.i.y.t.P.P.i.x.Q.XX).I.P.i.0.G.y.t.-.i.0.P.Y.w.7.+.L ;.-.=.U =.o.L L o.+.=.=.Y o.+.+.| | ) ,.<.,.<.,.<.<.<.<.<.<.>.#.*.#.#.#.#.#.O.#.O.#.#.#.O.#.| ) | | ) | #...#.#.#.#.#.#.( #.#.( ) ) ) ! ! ) ) ) ) / b 9 J Y t     X = T o.v o.-.F.F.>.:.v L H..Xi.+.y.y.O.0.+.O.@.i.W.Q.I.0.7.w.0.=.o.O. . .-.G.P.0.t.o. .o. .Y o.o.L L v J | O.O.|  .o.| | o.o.o.L p p L H v K p $ . t J k J J J p F p u L o.o.L u p t t u J O.=.O.-.-.",
"-.o.o.@.0.-.O.y.i.i.i.y.i.I.i.w.0.:.:.>.i.i.t.&.O.:.P.P.o.=   X 2 l P v o.O.y.w.-.w.0.0.(.^.i.0.y.G.P.P.P.O.:.I.Q.Q.XX{.E.P.P.y.:.:.:.:.y.0.P.i.0.@.O.F.-.-.o.T O.o.=.=.o.o.O.7.o.o.-.+.| <.*.,.<.<.,.,.<.<.<.f.<.>.>.*.*.*.O.#.#.*.*.*.#.#.#.:.#.#.#.| ) #.#.#.#.#.#.#.#.( #.,.#.) #.#.#.) ) ! ! ) ! ! ) x ! r J Y i     X 2 P o.=.:.t.:.-.;.-.| 0.l.x.7.O.w.i.w.i.7. .@.0.i.H.H.7.7.-.-.=.o.o.o.+.:.P.i.y.:.o.I n P o.=.+.o.J L L p L +.o.| o.O.o.K L L L J J J y J k 1 # u v J y J u u u 8 v L o.o.o.L v u u u J K L  .o.=.+.",
"o.L  .t.y.O. .i.i.i.l.Q.{.l.i.i.y.&.| O.y.i.0.&.@.0.i.P.I & . X < k 7.H.(.i.u.9.-.y.G.E.(.y.:.0.:.y.P.0.P.y.:.i.E.E.^.)..X).P.i.O.@.@.:.i.i.w.0.7.7.w.H.=.7.o.-.t.9.-.+. .v L @.o.-.-.=.| P.<.,.,.*.,.,.<.,.<.<.<.*.*.*.:.-.#.#.*.O.*.*.#.#.#.*.O.#.) ) #.O.#.#.#.#.&.#.#.) ) #.} ) #.) #.( ) ) ) ! ! ! ! x b 9 U I 3     . 2 Y G.G.F.9.-.=.-.7.u.G.O.o.O. .-.i.@.4.7.m 7.7.0.t.i.w.t.9.7.o.J L O.-.t.0.@.7.y.y.+.M Y 7.9.t.7.7.+.b 0 e  . .o.o.o.o.| | K v L L p K v = r J J J u u J k u 8 b +.-.:.-.o.Y L o.H v J L K L +.+.o.",
"L o.+.-.7.7.@.y.y.q.P.I.E.P.y.i.P.0.O.o.O.:.:.@.:.q.y.y.m & . X & j t.}.(.t.7.@.t.t.t.G.P.0.>.y.i.P.G.y.E.G.E.E.P.Q.)..X).).P.P.-.w.:.O.y.i.P.Y.i.q.i.W.@.=.-.7.:.G.t.+.M h O.@.O.-.:.@.#.<.*.<.@X*.( ,.<.<.,.<.<.<.*.#.#.*.*.*.*.#.#.*.:.#.#.#.#.#.| #.) #.#.#.#.#.#.#.#.#.) ) #.) ) ) ( #.) ( ) ! w <.P.! | p n l * X   X 2 7.G.R.F.:.:.7.=.O.t.t.o.@.X.-.i.i.w.I.y.o.7.4.4.e.H.l.i.y.@. .+.-.@.-.0.:.y.i.H.x.7.Y I +.9.w.y.7.+.M h n -.+. .O.-.O.o.K L v v L J v r r v K u t u u v y 8 u U | | o.=.:.o.L L J u u K p L +.o. .",
";.y.:.o.v O.G.X.M q.Y.I.x.I.I.P.G.0.0.O.b O.t.:.0.y.G.i. .2   o & j t.W.w.b I G.H.+.O.y.0.:.t.i.G.G.P.P.E.I.^.).U.I.E.P.P.P.P.I.G.-.@.+.0.y.Q.[.Y.H.l.(.o. .t.y.t.:.@.o.L n 7.i.y.:.-.@.| >.*.#.) p ( <.,.,.<.<.<.*.*.>.>.*.*.#.O.#.#.O.#.#.#.&.#.#.) #.#.#.#.#.#.#.#.#.*.#.) ) ) #.#.) ) ) ) ! ! ! d #.| p | u J n & X . X 3 9.R.G. . .t.-.n L @.@.@.@.7.y.i.0.t.G.y.e.7.0.0.0.w.w.i.i.7.@.-.@.-.-.y.G.Q.W.i.0.7.o.n I +.7.7.` +.M b +.t.X. .o.L b v J v J J K r = u o.| L u r r k r * k o.-.+.| L | o.-.Y J v J J L o.o.O.p u ",
"=.:.+.J L 9.y. .L i.P.x.I.I.I.E.E.y.@.-.| @.-.O.0.i.P.x.Y #   o & l t.l.O.m y.I.t.o.0.y.y.i.i.i.y.P.y.t.y.y.P.(.).P.G.>.P.P.G.R.y. .M o.7.+.I.I.q.4.7.7.Y o.t.i.:.@.o.| M M  .P.P.:.=.o.O.*.) ) p ! ,.,.f.<.<.<.<.>.<.>.>.>.>.O.*.#.#.#.*.O.*.#.#.*.O.O.#.#.#.#.O.#.#.*.*.*.) ! ) ( ( #.#.! ! ) ! ! p w w w ^ y J l * o   X 0 9.I.-.O.u.i.=.M P 7.7.@.0.-.7.y.w.t.-.@.u.w.e.0.0.7.i.i.0.7.+.o.L o.O.O.r.Q.i.4.O. .Y M o.w.4.+.+.o.m m m 7.7. .Y L v v u v v K J = u L -.=.L u r k n t r Y =.9.=.O.o.| =.+.L v n H k H o.o.F r L ",
"o.K L =.-.t.-.t.P.y.y.E..X).).E.I.i.4.0.@.-.v v O.y.I.y.m &   X & H w.0.0.I.Y.i.0.G.G.y.y.G.G.O.| F.y.@.J | L 0.G.l.G.i.I.I.t.t.Y b M 7.H.Y.Q.i.:.>.7.i.y.0.0.@.w.l.j.w.X.I o.4.y.w.4.@.o.b ^ *.<.<.<.<.<.P.<.<.<.>.<.y.<.y.>.>.>.:.*.*.>.-.>.>.-.>.:.:.&.:.:.*.@.>.@.#.#.| ! ^ #.b ! | | ^ ! ^ p p p p p p v r K v $ .   O t =.i.7.j.Q.Y.7.I +.@.0.w.0.Y m w.i.O.n L L o.y.w.w.y.t.0.:.0.P n I O.t.E.E.E.e.7.@.@.7.7. .o.w.u.w.-.+.m  . . .7.@. .n r * i v u 8 y Y +.y.0.l 0 t j 9.-.L L b J Y L L  .o.U y # 8 8 j J v 0 y Y +.",
"o.H L =.o.| | :.G.i.>.)..X).XX).Y.y.0.7.y.-.L o.0.q.l.w.M &   X 2 j u.E.Q.W.^.Q.G.W.I.G.G.G.t.z @.I.R.:.| o.-.y.i.i.i.I.I.i.y.0. .7.4.y.E.^.P.i.P.I.I.i.r.w.-.O.0.H.Y.i.O.I O.O.y.i.i.@.L p b z p p u K b u b v u u u u u u u u y u r u u r u u r u u r u u y r u r r 6 6 8 8 0 8 6 6 8 r 6 8 7 6 6 6 6 # = + 6 Y u $ o   X 3 +.H.Y.Q.Y.w.o.+.7.7.@.0.-.x o.l.H.:.o. .+.-.:.w.i.y.y.-.0.0.@.o.o.:.P.E.I.i.w.i.0.w.y.7.+.o.w.u.7.7.O.L  .@.O.0.w.+.n y 8 v v 0 8 Y +.o.7.7.v b t n u.o.v L L L L Y  .Y o.J 7 t h n J L h v J L L ",
"o.;.o.L K O.9.i.G.E.E.Q.I.P.E.U.U.i.x.H.u.7.7.=.-.y.l.i.T = . X 2 n J.{.{.w.i.7.7.i.t.y.>.t.O.-.F.G.G.:.-.=.y.i.i.w.0.y.t.-.7.t.G.E.Q.I.E.P.G.I.Q.E.y.O.7.@.@.-.@.@.4.+.o.I I O.y.G.w.@.@.X.0. .b K K | Y o.o.Y u r : u u r r u k G k u u r = + r r r r = 1 t t + 6 1 & r r j l v K L J L o.U J K v J u 8 r v Y -.K + X   O i w..X}.T.Y.X. .@.7.7.O.O.o.w.H.x.l.y.+.+.-.7.7.7.@.7.t.-.:.0.H.t.t.H.G.t.y.l.y.w.7.o.+.O.` +.@.@.+.L M M P +.I @.@.O.+.n z Y  .L M +.-.7.w.7.O.m t J 7.L v +.-.o. .=.:.o.Y J J L Y  .L v v J n n L ",
"o.o.o.o.-.:.:.:.:.P.E.E.x.I.P.I.Q.Y.H.F.=.+.o.+.7.i.i.t.n &   o 2 U R.{.E.y.w.+.=.+.t.y.t.o.-.R.P.y.y.o. .7.0.w.i.0.:.w.-.+.t.G.W.R.R.P.I.0.y.i.R.i.@.@.&.-.@.X. . .+.+.T ` `  .@.w.w.7.@.0.Y.E.G.9.>.y.P.H.I.G.G.o.u =.F.o.=.9.9.t.=.=.9.;.Y K K L K o.T T Y Y Y Y L J Y J +.u.t.F.D.>.F.F.u.t.G.=.K K n J +.7.=.v + o . % g H.XXT.T.Y.7.I  . .-.-.o.O.i.i.u.i.-. .-.t.7.i.w.7.@.-.@.-.i.i.t.l.H.y.:.0.q.w.7.o.I @.+.+.@.+.o. .I Y b v M I w.+.O.o.z n  .+.L Y @.+.7.7.w.l.+.g L 9. .L 7.-.=.-.-.-.O. .J I n v Y Y L L M L o.-.",
"=.=.o.o.F.9.>.-.@.i.i.U.R.I.i.U.Y.Y.Y.7.0 r L w.w.0.t.7.k *   X 3 P H.}.i.i.i.^.i.Y +.t.+. .+.P.P.G.t.=.:.-.+.:.w.w.7.7.n I u.H.G.w.y.t.w.:.:.&.@.@.@.@.&.@.@.@.@.@.7. .m M I I  .4.9.7.7.w.i.H.y.>.:.>.:.t.w.r.).-.u 9.R.R.i.G.e.@.I +.G.G.9.o.o.v -.F.F.t.9.7.=.;.-.-.+. .7.w.P.P.G.P.H.G.i.I.P.i + u Y o.t.7.+.g & X o & g Y.|.x.Y.Y.x.7.M I +.+.+.o.i.I.r.i.0.t.O.+.+.y.7.@.@. . .w.y.w.w.i.i.w.7.4.@.O.4.m I +.I 4.O. .I I o.L b z v  .0. .+.+. . .o.+.M M I M  .m +.Q.7.8 L F.-.@.7.O. .O.+.@.-.o.o.J r L o.o.+.o. .J O.-.",
":.=.o.o.:.9.9.-.0.H.x.^.E.U.Y.Y.Q.}.W.7.0 n -.y.y.y.H.9.k &   X & l H.Q.0.7.i.(.G.I +.o.-.-.O.P.F.>.t.t.y.o.M @.7.w.w.+.b 9.u.t.7.i.G.w.:.@.:.0.O.O.@.:.0.-.0.0.@.o.+.X. .Y  .o.O.7.w.w.u.w.w.w.t.F.G.t.t.G.7.I..X>.L -.R.R.P.u.@. . .@.H.W.H.7.v K ;.J.R.F.t.=.o.-.F.;.O.7.4.i.R.).E.P.W.E.R.J.F.r r Y +.t.u.0.7.g & X % 2 l J.{.x.i.j.Y.7.M  .o.o.+.@.E.Q.y.i.i.t.=.| -.w.7.0.@.M &.0.0.w.w.e.y.4.4.7.@.7.7.I X.X.+.+. . .I  . . .n b b L +. . . .+.o. .+.L Y P I L x @.Y.7.g I u.y.0.0.+.I  .+.t.y.-.-.v n  .Y o.+.=. .Y -.-.",
"=.=.o.=.| o.o.O.q.E.Q.Q.T.E.E.E.(.i.7.7.m 7.y.=.-.-.J g t 2   X 2 H J.Q.i.l.I.^.u. . . .:.t.i.E.>.t.t.t.-.7.w.9.0.x.Y.H.(.(.t.7.y.i.u.0. . .O.O.O.@.0.w.0.-.0.7.o. .+.9.y.w.+.7.w.0.w.l.w.w.7.7.;.G.R.:.t.y.t.R./.F.-.t.=.-.P.P.y.e.0.9.I.i.t.7.o.O.o.>.G.7.=.O.=.+.O.| I @.G.E.E.E.Q.).{.I.w.u.-.u u Y Y 7.=.L 0 * 2 X % 3 j i.}.E.x.Y.^.H.o.I I @.7.t.I.i.4.i.y.:.@.&.@.O.y.R.Y.W.W.-.I +.w.u.t.+.I +.o.o.o.I 7.7. .+. .m m O.7.-. .O.o. .O. . . .+.+.L M  .=. .P M n 7.y.7.@.@.Y L t.7.O.4.7.:.G.0.7.-.L o.Y L =.-.o.M L L L ",
"o.o.:.o.o.o.| -.w.l.Y.I.I.P.I.Y.H.w.u.7.n =.9.t.7.+.n t J j   O 2 l H.{.Y.(.{.XXW.@. .+.t.i.y.w.-.:.F.y.y.@.w.y.W..X.X(.}.i.7.0.0.0.w.O.I o.-.@.O.O.O.&.w.&.-.&.O.+.w.w.e.w.7. .7.7.w.H.x.w.7.7.>.G.E.t.t.-.0.I.P.P.G.G.L -.t.G.i.i.e.i.W.y.t.y.:.-.:.y.G.y.o.o.o.o. . .+.@.y.I.E.).XX).Y.H.w.9.=.u J =.=.9.+.k 8 g g X % 5 G w.Q.^.Q.}.XX^.@.o.@.7.w.t.7.7.7.i.y.t.0.0.0.w.R.{.E.I.:.+.o.I 7.7.o.P I o.I  . . .T I +.O.O. .I +.t.0.:.@.o. .L  . . .O. .L I +.+. .M Y +.+.7.t.7.+.h M 9.0.=.7.0.t.G.0.t.7.=.o.J o.-.+.L | L n M ",
"+.y.I.+.+.y.i.i.0.i.E.U.I.l.i.i.w.y.t.7.I 7.t.t.7.7.Y +.9.G   X 2 l H.}.H.7.E.{.Y.7.@.@.0.7.+. .o.0.i.G.I.G.i.W..X.X(.l.0.7.O.@.@. .O.M  .=.+.o.O.o.O.0.0.0.0.&.w.0.@.7.7.O.-.@.7.X.w.w.w.9.y.t.t.:.-.0.i.i.F.E.(.E.I.F.t.t.-.0. .@.w.r.i.w.4.w.0.0.&. .>.@.0.F.-. .:.y.y.0.0.Y.{.XX{.l.t.7.9.t.;.J Y W T -.=.I T 7.g X X 5 l i.{.Y.0.U.{.i.+.@.+.7.9.@.@.+.7.i.i.P.i.e.i.i.Y..XY.7.o.o.I I m m b m o. .Y +.o.o.4.X.+.4.+.7. . . .+. .o. .v M o. .L O.@.+.+. .Y  .P +.w.9.e.i.t.u.t.7.+.+.n L 7.7.w.@.=.O.+.o.J J L  .O.y.+.n Y ",
":.J.I.:.u.y.i.x.l.l.Q.^.E.i.0.7.w.i.i.t.+.9.9.w.y.7.+.u.9.g   % 2 k u.{.I.X.H.{.H.i.e.0.7.@. .+.Y y.G.q.Y.T.I.Q.|.Q.{.l.@.O. .X.o.M b L  .O.L J o.+.0.0.0.0.w.0.y.-. .+.7.w.w.w.7.7.w.t.e.w.u.u.-.o.O.F.P.E.E.E.R.I.G.i.t.-.-.y.7.0.i.i.i.y.i.i.q.0. .o.0.:.I.E.y.y.P.G.y.P.I.(.^.T.7.Y o.n +.u.t.-.+.=.Y =.+.I 8.7.3 . % j H J.XXW.@.i.Q.i.y.0.7.4.@.+.@.@.e.i.i.l.i.i.y.I.R.{.x.+.I  .I I k m n Y o.I L +.o.+.T 7.7.@.+.I I I I +. . .M b M O.L | @.@.-.O. . .+.+.t.l.i.e.7.w.w.i.9.+.+.M I +.-.O. .+.O.o. .v M o. .7.i.7. .+.",
"t.G.0.w.u.i.i.i.Q.Q.E.P.4.7. .w.W.G.I.t.7.9.u.i.+.Y +.o.l & . % 5 H i.{.I.X.i.T.i.l.i.w.7. .@.o.@.I.G.P.Y.q.@.q.w.r.i.4.@.@.+.@.o.n v J o.Y  .-. . .y.y.0.0.0.@.=.M h b t.i.t.+.7.w.w.i.y.u.u.t.-.+.@.>.y.i.I.G.P.i.F.I.I.}.(.H.i.l.i.G.I.i.i.i.0.I.0.r.w.@.0.i.0.0.i.y.y.E.Q.U.l.@.Y L P 9.H.u.-.-.o.F.t.T P P I l 2 X < j l i.XXY. .0.I.I.H.i.i.w.@.4.@.@.i.y.P.I.y.-.4.0.-.i.i.O. . . .P k h k m M  .O.J h O.7.7.+. .o.n M l  .+.+.7. .o.-.O.M | 0.w.i.-.o. .@.O.7.y.w.7.7.7.9.l.u.y.y.y.w.0.w.I.i.0.-.=.=.L o.o.o.7.-. .@.@.",
"-.:.7.0.i.H.i.I.Y.Q.I.@.o.Y m y.R.w.9.+.7.+.(.W. .O.+.@.P 3 X & j P u.Q.H.M 7.I.l.Q.W.i.7.7.@.Y w.Y.T.{.E.@.@.@.7.7.@.+.+.+.-.+.J u u k J +.t.-.v J w.e.@.@.O.@.| y b Y -.w.e.@.w.i.w.7.w.i.i.u.:.| L -.u.I.I.H.i.r.y.I.E.Q.[.Q.W.E.Q.Q.E.I.T.Q.Q.l.i.l.w.:.:.t.0.y.i.i.i.l.P.i.:. .Y u Y Y.W.7.J W =.F.F.J I T T P = X % a l J.{.l.M -.I.H.Y.i.I.i.e.q. .+.i.I.E.I.-.O.@.O. .@.+.I  .o.I k g l k v Y y.-.y t o.7.+. .I Y n x M Y  .+.O. . .0.7.^ L I.E.Y.i.M y I @.e.i.7.X. .+.t.y.i.P.i.i.Y.I.I.Q.P.q.-.y.y.O.O.7.+.+.+.+.7.@.",
"-.t.0.:.t.-.O.O.O.:.i.u.+.+.i.H.G.+.n n Y I +.@.w.o.v P g & X & a Y u.U.E.l.Y.).Y.y.7.Y Y i.t.7.y.I.U.I.q.@.&.>.>.@.O.o.Y O.o.h i r y k +.u.t.=.z v  .@.-.@.@.@.M J +.0.i.H.q.-.+.7.X.w.Y.E.E.i.y.o.L o.G.t.>.:.y.y.y.i.G.i.Q.E.Y.{.XX{.}.(.`.|.U.i.i.Y.E.I.F.P.u.-.O. .o.O.+.-.-.=. .-.J.R.G.Y r T =.Y +.I 7.g k g @ X 2 j P u.I.H.x.I.i.y.@.o. . .0.G.0.@.l.E.y.@.O.@. .O.@.X. .O.o. .h 8 h v v I 7.q.+.y r L +.+. . . .I I L  .o.=.@. .` 7.7.7.i.T.I.0.0.o. .P @.7.7.+.7.+.7.w.0.0.G.y.q.y.I.I.i.y.i.I.l.y.-.0.y.@.:.-.=.O.o.",
":.:.-.t.-.O. .n z L 0.7.+.J.[.H.t.=.k L +.Y k L t.9.k h g = X & a Y H.R.E.{.{.{.Y. .L L O./.(.Q.Q.W.U.l.&.O.@.@.@.=.O.O.+.L y i r y J +.F.u.9.-.n n  .0.:.O.&.@.@.O.O.0.y.G.w.@.@.+.7.H.E.{.{.G.G.t.:.O.O.=.-.t.w.0.7.w.O.G.i.i.i.}.Q.E.^.^.E.Q.I.r.i.I.i.+.-.-.9.7.-.I J n Y -.9.o.-./.F.F.u.L k T Y y k +.7.l 0 3 & X 3 F U F.I.i.Q.Q.i.>. .n J  .y.P.l.i.x.W.i.O.@. .O.o.O.O.O.@.b y 0 t g k +.7.7.7.o.j y Y =.+.o.+.@.@.@.@. . .-.O.O. .I  .i.{.Q.i.0.-.0.-.I I m I +.4.7.4.y.w.0.r.w.0.4.i.l.l.w.w.P.i.t.:.:.-.O.@.@.-.-.o.",
"@.-.O.9.o.Y n J L Y I J n +.-.+.o.Y y J k 9 n 7.u.t.g * = = X < j Y H.P.I.Q.Q..XH.J J y J y.i.y.:.q.r.i.>.O.:.O.-.-.@.O.J J O.o.i k =.t.-.-.y.u.J M O.y.0.-.@.@.:.:.O.y.I.W.i.:.@.o.@.e.i.Q.(.i.y.y.:.Y L :.t.t.y.t.7.@.7.H.Q.W.E.Q.E.`.u.7.y.y.y.w.-.L Y L o.=.7.=.Y v h j v J K J L +.+.=.+.j j v y k 8.8.7.P * 2 @ X 3 G H u.G.x.c.U.I.y.L z 9 u O.t.0.i.w.i.w.X. .0.-.@.@.-.O.M n o.=.y g n +.I I 7.=.u y o.O.O.O.@. .o.@.-.w.-.I.e.O.@.O.O.w.P.I.y.t.i.0.L n z b o.7.0.4.7.i.w.0.@.+.O.q.I.x.@. .@.w.@. . .M +.0.=.o.=.o.K ",
"0.F.-. .n v k n Y 1 * r i g y j L n j v y j =.G.H.H.h # 0 2 X 2 H W t.0.I.{.).XXW.+.Y = # Y :.0.@.-.q.0.o.:.P.&.-. .L L o.G./.-.u Y o.Y J Y F.-.z o.-.0.0.>.O.| t.P.i.I.E.{.U.:.X.O.o. .@.H.I.P.P.:.o.Y L t.F.t.y.t.@.@.7.i.Y.Y.E.Y.E.Q.Y o.F.G.:.L v v 9.7.=.7.=.P v h j v 1 # = = t r k n v h k k j =.F.w.8.l @ * % % 3 G n T @.i.x.T.T.Y.o.n t & J  .@.0.@.0.O. . .i.@.O.@. .o.@.i.W.H.y h P m h k t.-.y n =.@.=.o.+.L  .:.i.i.i.}.l.` +. .o.-.:.0.7.y.I.u.Y n y  .7.y.e.X.7.y.O.+.v o.w.i.F.u.v v :.-. .v v p +.i.t.+.L v h "
};
